release/datafiles/colormanagement/luts/AgX_Base_sRGB.cube
TITLE "AgX_Formation sRGB"
# AgX Base sRGB Formation LUT
# This LUT expects input to be E Gamut Log2 encoding from -10 stops to +15 stops
# But the end image formation will be from -10 to 6.5 encoded in power 2.4
#  rotate = [3.0, -1, -2.0], inset = [0.4, 0.22, 0.13], outset = [0.4, 0.22, 0.04]
# The image formed has 40% per-channel shifts
DOMAIN_MIN 0 0 0
DOMAIN_MAX 1 1 1
LUT_3D_SIZE 57
0.0000002 0 0.0000018
0.0051861 0 0.0010161
0.0108648 0 0.0020943
0.0171163 0 0.0032351
0.0240228 0 0.0044287
0.0316802 0 0.0056583
0.0402023 0 0.0069008
0.0497246 0 0.008127
0.060375 0 0.0091608
0.072331 0 0.0093619
0.0860453 0 0.0093553
0.1017597 0 0.0090916
0.1197717 0 0.0084958
0.1404467 0 0.0074498
0.1642297 0 0.0057117
0.191658 0 0.0017688
0.2233523 0.0047898 0
0.260101 0.0049923 0
0.3027448 0 0.0037164
0.3521525 0 0.0087832
0.409205 0 0.0115786
0.4745251 0 0.0086211
0.5478776 0.0210939 0
0.6272007 0.0423275 0
0.7066255 0.0714923 0
0.7838584 0.1070323 0
0.858866 0.1483569 0
0.9160044 0.2375198 0.1641001
0.9575965 0.3330197 0.2682656
0.9900466 0.4206547 0.3628668
1 0.5005236 0.4504039
1 0.5714285 0.5277739
1 0.6341039 0.5960216
1 0.6893466 0.6561046
1 0.7379526 0.7089099
1 0.7806954 0.7552836
1 0.8183014 0.7960203
1 0.8514336 0.8318471
1 0.8806834 0.8634151
1 0.9065702 0.8912974
1 0.929545 0.9159923
1 0.9499967 0.9379297
1 0.9682588 0.9574783
1 0.9846171 0.9749539
1 0.9993161 0.9906259
1 1 1
1 1 1
1 1 1
1 1 1
1 1 1
1 1 1
1 1 1
1 1 1
1 1 1
1 1 1
1 1 1
1 1 1
0 0.0047529 0.002571
0.0052698 0.0049818 0
0.0111703 0.0062982 0
0.0174924 0.0072876 0
0.0244393 0.0080079 0
0.0321278 0.0084881 0
0.0406755 0.0087447 0
0.0502168 0.0087931 0
0.0608567 0.008945 0
0.0727931 0.009795 0
0.0864467 0.0106806 0
0.1020816 0.0116186 0
0.1200093 0.0126138 0
0.1406043 0.0136508 0
0.1643186 0.0146874 0
0.1916953 0.0156458 0
0.2233796 0.0164037 0
0.2601227 0.0167839 0
0.3027699 0.0165621 0
0.3522152 0.0155756 0
0.4092946 0.0143851 0
0.4745657 0.0164538 0
0.5478824 0.0262991 0
0.6272002 0.0446351 0
0.7066189 0.0726506 0
0.7838465 0.107697 0
0.8588496 0.1487748 0
0.9159908 0.237716 0.1640928
0.9575843 0.3331264 0.2682672
0.9900367 0.420717 0.3628708
1 0.5005611 0.4504074
1 0.5714516 0.5277765
1 0.6341183 0.5960234
1 0.6893556 0.6561058
1 0.7379584 0.7089106
1 0.780699 0.7552841
1 0.8183037 0.7960206
1 0.8514351 0.8318473
1 0.8806844 0.8634152
1 0.9065709 0.8912974
1 0.9295454 0.9159923
1 0.9499969 0.9379297
1 0.968259 0.9574784
1 0.9846172 0.9749539
1 0.9993162 0.9906259
1 1 1
1 1 1
1 1 1
1 1 1
1 1 1
1 1 1
1 1 1
1 1 1
1 1 1
1 1 1
1 1 1
1 1 1
0 0.0099853 0.0053936
0.0050962 0.0099921 0
0.0109388 0.0103592 0
0.0174836 0.0117204 0
0.0245124 0.0128644 0
0.0322305 0.0138157 0
0.0407834 0.0145972 0
0.0503179 0.0152322 0
0.0609538 0.0159662 0
0.0729295 0.0169219 0
0.0865835 0.0178507 0
0.1022015 0.0187721 0
0.1201071 0.0196987 0
0.1406811 0.0206322 0
0.164378 0.0215573 0
0.1917413 0.0224337 0
0.2234157 0.0231872 0
0.2601518 0.0237069 0
0.3027936 0.0238615 0
0.3522348 0.0235928 0
0.4093102 0.0232766 0
0.4745771 0.0247049 0
0.5478889 0.0316547 0
0.6271996 0.0475343 0
0.7066099 0.0741888 0
0.7838302 0.1085936 0
0.8588272 0.1493417 0
0.9159722 0.2379829 0.1640829
0.9575677 0.3332718 0.2682694
0.9900232 0.420802 0.3628763
1 0.5006122 0.4504121
1 0.5714831 0.5277799
1 0.6341379 0.5960258
1 0.689368 0.6561074
1 0.7379662 0.7089117
1 0.780704 0.7552848
1 0.8183069 0.7960211
1 0.8514371 0.8318476
1 0.8806857 0.8634154
1 0.9065717 0.8912976
1 0.929546 0.9159924
1 0.9499973 0.9379298
1 0.9682592 0.9574784
1 0.9846174 0.9749539
1 0.9993163 0.9906259
1 1 1
1 1 1
1 1 1
1 1 1
1 1 1
1 1 1
1 1 1
1 1 1
1 1 1
1 1 1
1 1 1
1 1 1
0 0.0157648 0.0085009
0 0.0156296 0.0037201
0.0109753 0.0158347 0
0.0170972 0.0162144 0
0.0243572 0.01757 0
0.0321916 0.0187545 0
0.0408059 0.0197844 0
0.0503704 0.0206801 0
0.0610529 0.0217079 0
0.0730782 0.0227824 0
0.0867399 0.0238082 0
0.1023436 0.0248048 0
0.1202265 0.0257846 0
0.140777 0.0267525 0
0.1644535 0.0277021 0
0.1918006 0.028609 0
0.2234629 0.0294243 0
0.26019 0.0300712 0
0.3028252 0.0304601 0
0.3522609 0.0305594 0
0.4093312 0.0306404 0
0.4745926 0.0319194 0
0.5478976 0.0373716 0
0.6271987 0.051127 0
0.7065975 0.076216 0
0.7838081 0.1097991 0
0.8587968 0.1501094 0
0.9159469 0.238346 0.1640694
0.9575451 0.3334697 0.2682724
0.9900048 0.4209177 0.3628838
1 0.5006819 0.4504184
1 0.5715259 0.5277845
1 0.6341646 0.596029
1 0.6893848 0.6561096
1 0.7379768 0.7089132
1 0.7807108 0.7552858
1 0.8183112 0.7960217
1 0.8514399 0.831848
1 0.8806875 0.8634157
1 0.9065729 0.8912977
1 0.9295468 0.9159925
1 0.9499978 0.9379298
1 0.9682595 0.9574784
1 0.9846176 0.9749539
1 0.9993164 0.9906259
1 1 1
1 1 1
1 1 1
1 1 1
1 1 1
1 1 1
1 1 1
1 1 1
1 1 1
1 1 1
1 1 1
1 1 1
0 0.0221576 0.0119229
0 0.0220295 0.0089768
0.0093342 0.0220098 0
0.0170639 0.0222379 0
0.0238337 0.0226292 0
0.0319098 0.0239637 0
0.0406665 0.0251532 0
0.050318 0.026213 0
0.0611291 0.0274665 0
0.0732209 0.0286282 0
0.0869042 0.0297331 0
0.1025018 0.0308025 0
0.1203652 0.0318484 0
0.1408923 0.0328762 0
0.1645467 0.0338829 0
0.1918755 0.0348527 0
0.2235236 0.0357512 0
0.2602399 0.0365232 0
0.3028668 0.0371034 0
0.3522956 0.0374722 0
0.4093592 0.037835 0
0.4746132 0.0390905 0
0.5479093 0.0436058 0
0.6271973 0.0555189 0
0.7065807 0.0788631 0
0.7837778 0.1114128 0
0.8587554 0.1511467 0
0.9159124 0.2388396 0.164051
0.9575143 0.333739 0.2682765
0.9899798 0.4210752 0.3628941
1 0.5007768 0.4504271
1 0.5715843 0.5277909
1 0.634201 0.5960334
1 0.6894077 0.6561126
1 0.7379913 0.7089152
1 0.78072 0.7552871
1 0.8183172 0.7960225
1 0.8514437 0.8318485
1 0.88069 0.863416
1 0.9065745 0.891298
1 0.9295478 0.9159927
1 0.9499985 0.9379299
1 0.96826 0.9574785
1 0.9846179 0.974954
1 0.9993166 0.990626
1 1 1
1 1 1
1 1 1
1 1 1
1 1 1
1 1 1
1 1 1
1 1 1
1 1 1
1 1 1
1 1 1
1 1 1
0 0.0292409 0.0156937
0 0.0291196 0.0133703
0 0.0289284 0.0053692
0.0157868 0.0290765 0
0.0236532 0.0292955 0
0.0312458 0.0296947 0
0.0402615 0.0310012 0
0.050178 0.0323277 0
0.0611386 0.0336495 0
0.0733234 0.0348701 0
0.087052 0.0360315 0
0.102661 0.0371585 0
0.1205151 0.0382647 0
0.1410235 0.0393555 0
0.1646571 0.0404295 0
0.191967 0.0414754 0
0.2235996 0.042468 0
0.2603038 0.0433663 0
0.302921 0.0441212 0
0.3523412 0.0447191 0
0.4093964 0.0453192 0
0.4746408 0.0466114 0
0.5479248 0.0504962 0
0.6271952 0.0608203 0
0.7065576 0.0822828 0
0.7837366 0.1135606 0
0.8586988 0.1525442 0
0.9158654 0.2395097 0.164026
0.9574724 0.3341055 0.2682821
0.9899456 0.4212896 0.362908
1 0.5009061 0.450439
1 0.5716638 0.5277996
1 0.6342506 0.5960394
1 0.6894389 0.6561166
1 0.7380111 0.7089179
1 0.7807326 0.7552889
1 0.8183252 0.7960237
1 0.8514489 0.8318493
1 0.8806933 0.8634165
1 0.9065767 0.8912983
1 0.9295492 0.9159929
1 0.9499994 0.9379301
1 0.9682606 0.9574786
1 0.9846183 0.974954
1 0.9993169 0.990626
1 1 1
1 1 1
1 1 1
1 1 1
1 1 1
1 1 1
1 1 1
1 1 1
1 1 1
1 1 1
1 1 1
1 1 1
0 0.037107 0.019854
0 0.0369935 0.0179035
0 0.0368189 0.0136344
0.0115402 0.0367277 0
0.0223592 0.0368983 0
0.0308731 0.0371116 0
0.0395621 0.0376316 0
0.0498623 0.0391465 0
0.0610112 0.0405038 0
0.0733294 0.0417593 0
0.0871408 0.0429562 0
0.102791 0.0441233 0
0.120657 0.0452773 0
0.1411596 0.0464253 0
0.1647795 0.0475668 0
0.1920737 0.0486935 0
0.2236918 0.0497861 0
0.2603836 0.0508129 0
0.3029902 0.0517359 0
0.3524005 0.0525446 0
0.4094452 0.053363 0
0.4746771 0.0547305 0
0.5479452 0.0581806 0
0.6271919 0.0671472 0
0.706526 0.0866467 0
0.7836803 0.1163995 0
0.8586218 0.1544203 0
0.9158014 0.2404187 0.1639918
0.9574152 0.3346038 0.2682898
0.9898991 0.4215815 0.362927
1 0.501082 0.4504551
1 0.5717722 0.5278114
1 0.6343181 0.5960477
1 0.6894813 0.6561222
1 0.738038 0.7089216
1 0.7807497 0.7552913
1 0.8183362 0.7960253
1 0.851456 0.8318503
1 0.8806979 0.8634172
1 0.9065796 0.8912987
1 0.9295512 0.9159932
1 0.9500007 0.9379303
1 0.9682614 0.9574787
1 0.9846189 0.9749541
1 0.9993173 0.9906261
1 1 1
1 1 1
1 1 1
1 1 1
1 1 1
1 1 1
1 1 1
1 1 1
1 1 1
1 1 1
1 1 1
1 1 1
0 0.0458663 0.0244528
0 0.0457622 0.022773
0 0.0456077 0.0196676
0 0.0454029 0.011826
0.0188153 0.0454577 0
0.0296786 0.0457855 0
0.0393017 0.0462126 0
0.049225 0.0468697 0
0.0606388 0.0482309 0
0.0731531 0.0494999 0
0.0871029 0.0507146 0
0.1028411 0.0519056 0
0.120755 0.0530931 0
0.1412775 0.0542877 0
0.1649001 0.0554914 0
0.1921884 0.056698 0
0.2237974 0.0578924 0
0.2604794 0.0590493 0
0.3030762 0.0601383 0
0.352476 0.0611496 0
0.4095083 0.0621792 0
0.4747245 0.0636511 0
0.5479718 0.0668042 0
0.6271865 0.0746244 0
0.7064824 0.0921426 0
0.7836034 0.1201195 0
0.8585169 0.1569263 0
0.9157141 0.2416493 0.1639454
0.9573373 0.3352807 0.2683003
0.9898357 0.4219786 0.362953
1 0.5013216 0.4504771
1 0.5719197 0.5278275
1 0.6344101 0.5960588
1 0.6895392 0.6561297
1 0.7380746 0.7089266
1 0.7807731 0.7552946
1 0.8183511 0.7960275
1 0.8514656 0.8318517
1 0.8807041 0.8634181
1 0.9065836 0.8912993
1 0.9295538 0.9159936
1 0.9500024 0.9379305
1 0.9682625 0.9574789
1 0.9846196 0.9749542
1 0.9993177 0.9906261
1 1 1
1 1 1
1 1 1
1 1 1
1 1 1
1 1 1
1 1 1
1 1 1
1 1 1
1 1 1
1 1 1
1 1 1
0 0.0557476 0.0295267
0 0.0556868 0.0280238
0 0.055598 0.0254795
0 0.0554811 0.0205202
0.0089198 0.0553948 0
0.0267275 0.0556455 0
0.0379811 0.0559716 0
0.0486487 0.0563925 0
0.0598538 0.0570243 0
0.0726672 0.0582853 0
0.086837 0.0595027 0
0.1027318 0.0607042 0
0.1207498 0.0619124 0
0.1413352 0.063142 0
0.1649914 0.064399 0
0.1922946 0.0656805 0
0.2239077 0.066975 0
0.2605878 0.068262 0
0.3031788 0.0695159 0
0.3525694 0.0707266 0
0.4095882 0.0719661 0
0.4747852 0.0735666 0
0.5480055 0.076526 0
0.6271778 0.0833902 0
0.7064223 0.0989699 0
0.7834982 0.1249447 0
0.8583738 0.1602534 0
0.915595 0.2433119 0.1638821
0.9572313 0.3361994 0.2683148
0.9897494 0.4225184 0.3629884
1 0.5016475 0.4505071
1 0.5721205 0.5278494
1 0.6345354 0.5960741
1 0.6896181 0.6561401
1 0.7381246 0.7089334
1 0.7808049 0.7552991
1 0.8183715 0.7960304
1 0.8514787 0.8318537
1 0.8807125 0.8634194
1 0.9065891 0.8913002
1 0.9295574 0.9159941
1 0.9500047 0.9379309
1 0.9682641 0.9574791
1 0.9846206 0.9749544
1 0.9993184 0.9906262
1 1 1
1 1 1
1 1 1
1 1 1
1 1 1
1 1 1
1 1 1
1 1 1
1 1 1
1 1 1
1 1 1
1 1 1
0 0.0670247 0.0350986
0 0.0669678 0.0337413
0 0.06689 0.0315958
0 0.0667896 0.0279169
0 0.0666774 0.0201987
0.0193754 0.0667111 0
0.0347168 0.0669608 0
0.0469389 0.0672846 0
0.0589365 0.0677006 0
0.071679 0.0683162 0
0.086195 0.0695218 0
0.1023459 0.0707231 0
0.1205495 0.0719421 0
0.1412636 0.0731967 0
0.1650042 0.0744975 0
0.1923596 0.0758465 0
0.2240027 0.0772365 0
0.2606979 0.0786512 0
0.3032935 0.0800686 0
0.35268 0.0814771 0
0.4096862 0.0829277 0
0.4748608 0.0846773 0
0.548047 0.0875234 0
0.6271632 0.0936008 0
0.7063389 0.1073375 0
0.7833544 0.1311302 0
0.8581787 0.1646368 0
0.9154327 0.2455516 0.1637959
0.9570868 0.3374444 0.2683347
0.9896319 0.4232517 0.3630367
1 0.5020908 0.4505481
1 0.5723937 0.5278793
1 0.634706 0.5960949
1 0.6897254 0.6561541
1 0.7381926 0.7089428
1 0.7808482 0.7553053
1 0.8183992 0.7960344
1 0.8514965 0.8318563
1 0.8807241 0.8634211
1 0.9065966 0.8913013
1 0.9295622 0.9159948
1 0.9500079 0.9379313
1 0.9682662 0.9574794
1 0.984622 0.9749546
1 0.9993193 0.9906264
1 1 1
1 1 1
1 1 1
1 1 1
1 1 1
1 1 1
1 1 1
1 1 1
1 1 1
1 1 1
1 1 1
1 1 1
0 0.0796394 0.0413535
0 0.0795919 0.0401549
0 0.0795287 0.0383436
0 0.079448 0.035463
0 0.0793534 0.0304113
0 0.0792678 0.0185669
0.0274768 0.0793881 0
0.0431946 0.0796384 0
0.0567797 0.0799629 0
0.0703929 0.0803787 0
0.0849561 0.0809898 0
0.1015124 0.0821816 0
0.1200191 0.0834046 0
0.1409575 0.0846773 0
0.1648594 0.0860145 0
0.1923268 0.0874235 0
0.2240443 0.0889027 0
0.2607861 0.0904406 0
0.3034072 0.0920185 0
0.352802 0.0936228 0
0.4098006 0.0952862 0
0.4749514 0.0972015 0
0.5480956 0.099998 0
0.6271386 0.105436 0
0.7062228 0.1174634 0
0.7831573 0.138958 0
0.8579128 0.1703583 0
0.9152113 0.2485569 0.1636787
0.9568902 0.3391284 0.2683623
0.989472 0.4242466 0.3631028
1 0.5026931 0.4506039
1 0.5727654 0.5279201
1 0.6349381 0.5961232
1 0.6898716 0.6561732
1 0.7382852 0.7089555
1 0.7809072 0.7553136
1 0.818437 0.7960399
1 0.8515208 0.8318599
1 0.8807398 0.8634234
1 0.9066068 0.8913028
1 0.9295689 0.9159958
1 0.9500123 0.937932
1 0.968269 0.9574799
1 0.9846239 0.9749549
1 0.9993206 0.9906265
1 1 1
1 1 1
1 1 1
1 1 1
1 1 1
1 1 1
1 1 1
1 1 1
1 1 1
1 1 1
1 1 1
1 1 1
0 0.0938513 0.0484354
0 0.0938149 0.0473927
0 0.0937672 0.045864
0 0.0937065 0.0435465
0 0.0936339 0.0398289
0 0.0935598 0.0331415
0 0.0935203 0.0144943
0.0354546 0.0936959 0
0.0524263 0.0939507 0
0.067731 0.0942808 0
0.0832704 0.0947035 0
0.0999783 0.0953245 0
0.1189622 0.0965462 0
0.1402616 0.0978335 0
0.1644359 0.099203 0
0.1921047 0.1006669 0
0.2239669 0.1022294 0
0.2608082 0.1038849 0
0.3034922 0.1056186 0
0.3529195 0.1074153 0
0.4099232 0.1092913 0
0.4750529 0.1113848 0
0.5481476 0.1141809 0
0.6270962 0.1191045 0
0.7060599 0.129578 0
0.7828867 0.1487302 0
0.8575501 0.1777454 0
0.9149094 0.2525698 0.1635192
0.9566226 0.3414002 0.2684008
0.9892544 0.4255947 0.3631931
1 0.503511 0.45068
1 0.5732707 0.5279757
1 0.6352539 0.5961618
1 0.6900705 0.6561993
1 0.7384113 0.7089728
1 0.7809876 0.755325
1 0.8184885 0.7960473
1 0.851554 0.8318647
1 0.8807612 0.8634266
1 0.9066207 0.8913048
1 0.929578 0.9159972
1 0.9500182 0.9379329
1 0.9682729 0.9574804
1 0.9846265 0.9749552
1 0.9993223 0.9906268
1 1 1
1 1 1
1 1 1
1 1 1
1 1 1
1 1 1
1 1 1
1 1 1
1 1 1
1 1 1
1 1 1
1 1 1
0 0.1099641 0.056505
0 0.1099387 0.0556075
0 0.1099056 0.0543188
0 0.1098636 0.0524262
0 0.1098132 0.049546
0 0.1097594 0.0448845
0 0.10972 0.0362885
0.0091607 0.109749 0
0.0438378 0.1099516 0
0.0626472 0.1102163 0
0.0800415 0.1105592 0
0.0978588 0.1109986 0
0.1170883 0.1116468 0
0.1389507 0.1129469 0
0.1635559 0.1143482 0
0.1915547 0.1158654 0
0.2236655 0.1175081 0
0.260688 0.1192765 0
0.3034965 0.1211604 0
0.3529992 0.123144 0
0.4100342 0.1252297 0
0.4751529 0.127508 0
0.5481936 0.1303399 0
0.6270228 0.1348509 0
0.7058297 0.1439308 0
0.7825145 0.1607642 0
0.8570555 0.1871655 0
0.9144973 0.2578939 0.1633027
0.9562585 0.3444546 0.2684547
0.9889585 0.4274174 0.3633167
1 0.50462 0.450784
1 0.5739569 0.5280515
1 0.6356832 0.5962144
1 0.6903411 0.6562349
1 0.7385829 0.7089964
1 0.781097 0.7553406
1 0.8185586 0.7960575
1 0.8515991 0.8318713
1 0.8807904 0.8634309
1 0.9066397 0.8913077
1 0.9295903 0.915999
1 0.9500263 0.9379341
1 0.9682782 0.9574812
1 0.98463 0.9749558
1 0.9993246 0.9906271
1 1 1
1 1 1
1 1 1
1 1 1
1 1 1
1 1 1
1 1 1
1 1 1
1 1 1
1 1 1
1 1 1
1 1 1
0 0.1283359 0.0657503
0 0.1283202 0.0649837
0 0.1283 0.0638988
0 0.1282746 0.0623396
0 0.1282444 0.0600454
0 0.1282127 0.0565413
0 0.1281892 0.0508252
0 0.1282005 0.0400469
0.0205626 0.1283143 0
0.0529289 0.1285298 0
0.0741017 0.1288115 0
0.0939953 0.1291769 0
0.1144974 0.1296454 0
0.1366908 0.1303422 0
0.1619604 0.1317762 0
0.1904725 0.1333488 0
0.2229803 0.1350723 0
0.2603042 0.1369516 0
0.3033317 0.1389809 0
0.35298 0.1411447 0
0.4100928 0.1434335 0
0.4752247 0.1458965 0
0.5482131 0.1487867 0
0.6268955 0.1529621 0
0.7055012 0.1607982 0
0.782001 0.1753903 0
0.8563809 0.1990169 0
0.9139348 0.264902 0.163009
0.9557635 0.3485426 0.2685308
0.9885565 0.4298752 0.3634862
1 0.506121 0.450926
1 0.5748878 0.528155
1 0.6362663 0.5962862
1 0.6907091 0.6562833
1 0.7388164 0.7090286
1 0.7812459 0.7553617
1 0.818654 0.7960714
1 0.8516605 0.8318804
1 0.8808301 0.8634368
1 0.9066655 0.8913115
1 0.9296071 0.9160015
1 0.9500373 0.9379357
1 0.9682855 0.9574823
1 0.9846347 0.9749565
1 0.9993278 0.9906276
1 1 1
1 1 1
1 1 1
1 1 1
1 1 1
1 1 1
1 1 1
1 1 1
1 1 1
1 1 1
1 1 1
1 1 1
0 0.1493901 0.0763926
0 0.1493826 0.0757413
0 0.1493732 0.0748293
0 0.1493618 0.073538
0 0.1493493 0.0716802
0 0.1493382 0.0689421
0 0.1493348 0.0647467
0 0.149355 0.0578586
0 0.1494358 0.0446268
0.0286718 0.1496393 0
0.0629812 0.1498747 0
0.0870622 0.1501828 0
0.1099237 0.1505825 0
0.1335869 0.1510956 0
0.1592644 0.1518667 0
0.1885597 0.1534976 0
0.221676 0.1553054 0
0.2594723 0.1572972 0
0.3028568 0.1594697 0
0.3527578 0.1618071 0
0.4100252 0.1642892 0
0.4752162 0.1669292 0
0.5481667 0.169885 0
0.6266748 0.1737751 0
0.705028 0.1804935 0
0.7812903 0.1929536 0
0.8554605 0.2137188 0
0.9131667 0.2740373 0.1626121
0.9550912 0.3539818 0.2686398
0.9880108 0.4331775 0.3637192
1 0.5081479 0.4511201
1 0.5761485 0.5282963
1 0.6370576 0.5963842
1 0.691209 0.6563494
1 0.7391339 0.7090725
1 0.7814486 0.7553906
1 0.818784 0.7960902
1 0.8517442 0.8318927
1 0.8808842 0.8634448
1 0.9067006 0.8913167
1 0.92963 0.9160049
1 0.9500523 0.9379379
1 0.9682953 0.9574837
1 0.9846412 0.9749574
1 0.9993321 0.9906282
1 1 1
1 1 1
1 1 1
1 1 1
1 1 1
1 1 1
1 1 1
1 1 1
1 1 1
1 1 1
1 1 1
1 1 1
0 0.1736256 0.088692
0 0.1736248 0.088141
0 0.1736242 0.0873751
0 0.1736244 0.0863021
0 0.1736266 0.084782
0 0.1736333 0.0825931
0 0.1736496 0.0793623
0 0.1736865 0.0743994
0 0.1737669 0.0662096
0 0.173941 0.0502501
0.036364 0.1742478 0
0.0742511 0.1745116 0
0.1018433 0.174857 0
0.1282169 0.1753055 0
0.1555996 0.1758816 0
0.1853718 0.1767569 0
0.2194085 0.1786524 0
0.2579204 0.1807603 0
0.3018574 0.1830763 0
0.3521672 0.1855817 0
0.4097072 0.1882452 0
0.4750354 0.1910465 0
0.5479835 0.1940593 0
0.6262946 0.197684 0
0.7043391 0.2033761 0
0.7803032 0.2138199 0
0.8542053 0.2317012 0
0.9121173 0.2858084 0.1620784
0.9541791 0.3611646 0.2687978
0.9872712 0.4375932 0.3640402
1 0.5108764 0.4513858
1 0.5778522 0.5284892
1 0.6381296 0.5965178
1 0.6918874 0.6564396
1 0.7395653 0.7091324
1 0.7817241 0.75543
1 0.8189607 0.796116
1 0.8518581 0.8319094
1 0.8809579 0.8634557
1 0.9067485 0.8913238
1 0.9296612 0.9160095
1 0.9500727 0.9379409
1 0.9683088 0.9574857
1 0.9846501 0.9749587
1 0.9993379 0.9906291
