release/datafiles/colormanagement/luts/AgX_Base_Rec2020.cube
TITLE "AgX_Formation Rec.2020"
# AgX Base Rec.2020 Formation LUT
# This LUT expects input to be E Gamut Log2 encoding from -10 stops to +15 stops
# But the end image formation will be from -10 to 6.5 encoded in power 2.4
#  rotate = [3.0, -1, -2.0], inset = [0.4, 0.22, 0.13], outset = [0.4, 0.22, 0.04]
# The image formed has 40% per-channel shifts
DOMAIN_MIN 0 0 0
DOMAIN_MAX 1 1 1
LUT_3D_SIZE 5
0.0000004 0 0.0000018
0.1408595 0.0334446 0
0.8030959 0.4252373 0.3078104
1 0.9790279 0.9612475
1 1 1
0.0437537 0.1434357 0
0.1519121 0.1492651 0
0.8031944 0.4386992 0.3100269
1 0.9790596 0.9612552
1 1 1
0.4363224 0.8137885 0.2706112
0.4500292 0.8133767 0.2731181
0.8090824 0.8016104 0.4516941
1 0.9814134 0.9618384
1 1 1
0.9778265 1 0.9520573
0.9778614 1 0.9520679
0.9804481 1 0.952873
1 1 0.9908974
1 1 1
1 1 1
1 1 1
1 1 1
1 1 1
1 1 1
0.0185 0.0324141 0.1198212
0.1347092 0.0423044 0.1416678
0.8039398 0.4123476 0.3075815
1 0.9790008 0.9612451
1 1 1
0 0.1410875 0.1472209
0.1395987 0.139598 0.1396082
0.8039658 0.4267472 0.3096674
1 0.9790326 0.9612528
1 1 1
0.420523 0.8136591 0.2669572
0.4354133 0.8132205 0.269427
0.8082564 0.8007713 0.4498212
1 0.9813878 0.9618357
1 1 1
0.9777884 1 0.952043
0.9778233 1 0.9520537
0.9804123 1 0.9528589
1 1 0.990893
1 1 1
1 1 1
1 1 1
1 1 1
1 1 1
1 1 1
0.2660751 0.3164577 0.7725395
0.2875723 0.3218428 0.7745331
0.7784563 0.5019266 0.8004013
1 0.9768825 0.9610858
1 1 1
0.2495565 0.3184245 0.7783766
0.2730961 0.3236466 0.7801629
0.7789167 0.5027364 0.8008427
1 0.9769159 0.9610932
1 1 1
0.3985463 0.7990054 0.8198357
0.3973682 0.798407 0.819254
0.7853079 0.7853067 0.7853252
1 0.9793898 0.9616531
1 1 1
0.9747761 1 0.9509416
0.9748136 1 0.9509525
0.9775856 1 0.9517749
1 1 0.9905543
1 1 1
1 1 1
1 1 1
1 1 1
1 1 1
1 1 1
0.9223793 0.9360853 1
0.9225119 0.9361505 1
0.9318542 0.9407945 1
1 0.9975415 1
1 1 1
0.9222933 0.9360636 1
0.9224261 0.9361289 1
0.9317843 0.9407785 1
1 0.9975437 1
1 1 1
0.914943 0.9340932 1
0.9150975 0.9341664 1
0.9258713 0.9393318 1
1 0.9977071 1
1 1 1
0.977141 1 1
0.9771377 1 1
0.9768854 1 1
1 1 1
1 1 1
1 1 1
1 1 1
1 1 1
1 1 1
1 1 1
1 1 1
1 1 1
1 1 1
1 1 1
1 1 1
1 1 1
1 1 1
1 1 1
1 1 1
1 1 1
1 1 1
1 1 1
1 1 1
1 1 1
1 1 1
1 1 1
1 1 1
1 1 1
1 1 1
1 1 1
1 1 1
1 1 1
1 1 1
1 1 1
1 1 1
