release/datafiles/colormanagement/luts/AgX_Base_sRGB.cube
TITLE "AgX_Formation sRGB"
# AgX Base sRGB Formation LUT
# This LUT expects input to be E Gamut Log2 encoding from -10 stops to +15 stops
# But the end image formation will be from -10 to 6.5 encoded in power 2.4
#  rotate = [3.0, -1, -2.0], inset = [0.4, 0.22, 0.13], outset = [0.4, 0.22, 0.04]
# The image formed has 40% per-channel shifts
DOMAIN_MIN 0 0 0
DOMAIN_MAX 1 1 1
LUT_3D_SIZE 9
0.0000002 0 0.0000018
0.0497246 0 0.008127
0.1642297 0 0.0057117
0.4745251 0 0.0086211
0.9575965 0.3330197 0.2682656
1 0.7806954 0.7552836
1 0.9682588 0.9574783
1 1 1
1 1 1
0 0.0458663 0.0244528
0.049225 0.0468697 0
0.1649001 0.0554914 0
0.4747245 0.0636511 0
0.9573373 0.3352807 0.2683003
1 0.7807731 0.7552946
1 0.9682625 0.9574789
1 1 1
1 1 1
0 0.1493901 0.0763926
0 0.149355 0.0578586
0.1592644 0.1518667 0
0.4752162 0.1669292 0
0.9550912 0.3539818 0.2686398
1 0.7814486 0.7553906
1 0.9682953 0.9574837
1 1 1
1 1 1
0 0.4218697 0.2154901
0 0.4221879 0.211156
0 0.4254781 0.1565765
0.4540086 0.4331312 0
0.9366976 0.4702448 0.274227
1 0.787178 0.7562323
1 0.9685806 0.957526
1 1 1
1 1 1
0 0.8265685 0.372613
0 0.8267179 0.3707837
0 0.8280377 0.3539923
0.1732304 0.8381772 0
0.8315024 0.802757 0.3766713
1 0.8278745 0.7636554
1 0.9710068 0.9578965
1 1 1
1 1 1
0.666072 1 0.710357
0.6662307 1 0.7103826
0.6676088 1 0.7106057
0.679188 1 0.7125422
0.7566808 1 0.7285119
0.9923219 0.9774017 0.8127048
1 0.98861 0.9611434
1 1 1
1 1 1
0.9234754 1 0.9392048
0.923482 1 0.9392061
0.9235396 1 0.9392167
0.9240401 1 0.9393091
0.9282839 1 0.9401117
0.9584058 1 0.9467361
1 1 0.9823584
1 1 1
1 1 1
1 1 1
1 1 1
1 1 1
1 1 1
1 1 1
1 1 1
1 1 1
1 1 1
1 1 1
1 1 1
1 1 1
1 1 1
1 1 1
1 1 1
1 1 1
1 1 1
1 1 1
1 1 1
0 0.0143089 0.0398871
0.0477379 0 0.0438831
0.1610562 0 0.0536386
0.4718891 0 0.0635961
0.9579416 0.3309409 0.2684557
1 0.7806282 0.755284
1 0.9682555 0.9574783
1 1 1
1 1 1
0 0.0467369 0.0470081
0.0428233 0.0428231 0.0428278
0.1692845 0.0051927 0
0.4759123 0 0.0084069
0.9576809 0.3332282 0.2684878
1 0.7807059 0.755295
1 0.9682593 0.9574789
1 1 1
1 1 1
0 0.1479538 0.0874609
0 0.1473072 0.0752085
0.1548871 0.147693 0
0.4758396 0.1603432 0
0.9554216 0.3521321 0.2688053
1 0.7813818 0.7553909
1 0.9682921 0.9574837
1 1 1
1 1 1
0 0.4207806 0.2192222
0 0.4210833 0.2150912
0 0.4242298 0.1639947
0.4527032 0.4318817 0
0.9369312 0.4692584 0.2742331
1 0.7871149 0.7562317
1 0.9685774 0.957526
1 1 1
1 1 1
0 0.8263528 0.3744214
0 0.826502 0.3726084
0 0.8278193 0.3559745
0.1669875 0.8381679 0
0.8314211 0.8026712 0.376424
1 0.8278321 0.7636499
1 0.9710037 0.9578965
1 1 1
1 1 1
0.665903 1 0.7103228
0.6660619 1 0.7103484
0.6674414 1 0.7105716
0.6790328 1 0.7125086
0.7565893 1 0.7284829
0.9923179 0.9773973 0.8126951
1 0.9886079 0.9611431
1 1 1
1 1 1
0.9234684 1 0.9392032
0.923475 1 0.9392044
0.9235325 1 0.939215
0.9240331 1 0.9393075
0.9282773 1 0.9401101
0.9584015 1 0.9467347
1 1 0.9823579
1 1 1
1 1 1
1 1 1
1 1 1
1 1 1
1 1 1
1 1 1
1 1 1
1 1 1
1 1 1
1 1 1
1 1 1
1 1 1
1 1 1
1 1 1
1 1 1
1 1 1
1 1 1
1 1 1
1 1 1
0 0.0445299 0.1163941
0.0337879 0.0282167 0.1313184
0.1580869 0 0.1448597
0.4620364 0 0.160359
0.9610669 0.3115752 0.2702925
1 0.7800395 0.7552886
1 0.9682272 0.9574783
1 1 1
1 1 1
0 0.0644685 0.1265333
0 0.0525066 0.1367208
0.1602824 0 0.1468725
0.4637673 0 0.1544915
0.9607922 0.3141251 0.2703014
1 0.7801177 0.7552995
1 0.968231 0.9574789
1 1 1
1 1 1
0 0.151747 0.1522155
0 0.1489705 0.1494312
0.1395984 0.1395978 0.1396094
0.4908481 0.0180972 0
0.9584127 0.3350398 0.2704191
1 0.7807976 0.7553945
1 0.9682638 0.9574837
1 1 1
1 1 1
0 0.4150928 0.2483786
0 0.4147529 0.2451759
0 0.4160594 0.212288
0.4410555 0.4207357 0
0.9390402 0.4603848 0.2743953
1 0.7865626 0.7562277
1 0.9685493 0.957526
1 1 1
1 1 1
0 0.824478 0.3896263
0 0.8246246 0.3879442
0 0.82592 0.3725677
0.0818892 0.8381006 0
0.8307088 0.8019193 0.3742528
1 0.8274611 0.7636027
1 0.970977 0.9578961
1 1 1
1 1 1
0.6644198 1 0.7100241
0.6645802 1 0.7100498
0.665973 1 0.7102734
0.6776715 1 0.7122147
0.755788 1 0.7282297
0.9922834 0.9773592 0.8126102
1 0.9885892 0.9611407
1 1 1
1 1 1
0.9234069 1 0.9391891
0.9234135 1 0.9391903
0.9234711 1 0.9392009
0.9239721 1 0.9392934
0.9282199 1 0.9400962
0.9583641 1 0.9467227
1 1 0.9823537
1 1 1
1 1 1
1 1 1
1 1 1
1 1 1
1 1 1
1 1 1
1 1 1
1 1 1
1 1 1
1 1 1
1 1 1
1 1 1
1 1 1
1 1 1
1 1 1
1 1 1
1 1 1
1 1 1
1 1 1
0 0.1298189 0.3366764
0 0.1257143 0.3429456
0.1266869 0.1049843 0.3757627
0.4567108 0 0.4183319
0.9641784 0.2688724 0.4164166
1 0.7747314 0.7554006
1 0.9679797 0.9574788
1 1 1
1 1 1
0 0.1361838 0.3379143
0 0.132549 0.3437677
0.1190825 0.1069263 0.3799343
0.4574082 0 0.4189685
0.9644068 0.2688464 0.4148925
1 0.7748138 0.7554104
1 0.9679834 0.9574794
1 1 1
1 1 1
0 0.1905046 0.3634881
0 0.1877062 0.3656234
0 0.154053 0.3995434
0.4634355 0 0.4244696
0.9664245 0.2685828 0.4008111
1 0.7755301 0.7554967
1 0.9680164 0.9574842
1 1 1
1 1 1
0 0.4261597 0.4273449
0 0.4253257 0.4265109
0 0.4179465 0.4191321
0.4022355 0.402234 0.4022657
0.9530824 0.3962351 0.3501706
1 0.7815934 0.7562579
1 0.9683033 0.957526
1 1 1
1 1 1
0 0.8154185 0.4921737
0 0.8153348 0.4911083
0 0.8155763 0.4821531
0 0.8247216 0.3734901
0.824206 0.7950656 0.3541991
1 0.8241556 0.7632214
1 0.9707433 0.957893
1 1 1
1 1 1
0.650776 1 0.7073847
0.6509511 1 0.7074108
0.652471 1 0.7076385
0.6651949 1 0.7096166
0.7485623 1 0.7259888
0.9919806 0.9770249 0.8118659
1 0.9884259 0.9611197
1 1 1
1 1 1
0.9228682 1 0.9390656
0.9228749 1 0.9390669
0.9229329 1 0.9390775
0.9234377 1 0.9391702
0.9277164 1 0.9399747
0.958037 1 0.9466177
1 1 0.9823169
1 1 1
1 1 1
1 1 1
1 1 1
1 1 1
1 1 1
1 1 1
1 1 1
1 1 1
1 1 1
1 1 1
1 1 1
1 1 1
1 1 1
1 1 1
1 1 1
1 1 1
1 1 1
1 1 1
1 1 1
0 0.3221464 0.7942699
0 0.3211225 0.7964047
0.1125074 0.3176669 0.8073871
0.3930716 0.3368637 0.8179284
0.8896307 0.4452861 0.8229484
1 0.7716649 0.8099654
1 0.9657533 0.9575132
1 1 1
1 1 1
0 0.3237087 0.7932364
0 0.3227067 0.795352
0.1022219 0.3180194 0.8079946
0.3919297 0.3373843 0.8183642
0.8896712 0.4453841 0.8229923
1 0.7716667 0.8099036
1 0.9657572 0.9575137
1 1 1
1 1 1
0 0.3366101 0.7845865
0 0.3357766 0.7865408
0 0.3275163 0.8045695
0.3813914 0.3419759 0.8221934
0.8900233 0.4462371 0.8233749
1 0.7716817 0.8093611
1 0.9657918 0.9575181
1 1 1
1 1 1
0 0.4515272 0.779474
0 0.4507012 0.77979
0 0.4432775 0.782745
0.137601 0.3726421 0.8601017
0.8930198 0.453522 0.8266376
1 0.7718054 0.8043767
1 0.9660927 0.9575563
1 1 1
1 1 1
0 0.8183739 0.8149517
0 0.81831 0.8148887
0 0.8177515 0.8143379
0 0.8127389 0.8093947
0.7853074 0.7853064 0.7853274
1 0.8066143 0.7875403
1 0.9686465 0.9578932
1 1 1
1 1 1
0.5673919 1 0.7452492
0.5673718 1 0.7451208
0.5671969 1 0.7439932
0.583841 1 0.7420904
0.6986792 1 0.7411696
0.9892237 0.9739811 0.8050728
1 0.986974 0.9609497
1 1 1
1 1 1
0.9179656 1 0.937975
0.9179727 1 0.9379762
0.9180349 1 0.9379871
0.9185752 1 0.9380814
0.9231451 1 0.938901
0.9551006 1 0.9456889
1 1 0.9819949
1 1 1
1 1 1
1 1 1
1 1 1
1 1 1
1 1 1
1 1 1
1 1 1
1 1 1
1 1 1
1 1 1
1 1 1
1 1 1
1 1 1
1 1 1
1 1 1
1 1 1
1 1 1
1 1 1
1 1 1
0.6240349 0.7104474 1
0.6244566 0.7105594 1
0.6280952 0.7115297 1
0.6570744 0.7195439 1
0.7846118 0.7496938 1
1 0.8295437 0.9901624
1 0.9646954 0.9808991
1 1 1
1 1 1
0.6237247 0.7104237 1
0.6241473 0.7105358 1
0.6277932 0.7115069 1
0.6568266 0.7195278 1
0.7845584 0.7497287 1
1 0.8295484 0.9901645
1 0.9646955 0.980896
1 1 1
1 1 1
0.620982 0.7102115 1
0.6214122 0.7103245 1
0.6251236 0.7113033 1
0.6546395 0.7193833 1
0.7840895 0.750034 1
1 0.8295887 0.9901824
1 0.9646962 0.9808692
1 1 1
1 1 1
0.5938905 0.7079216 1
0.5944019 0.7080437 1
0.5988059 0.7091019 1
0.6333585 0.7177854 1
0.7797915 0.7527257 1
1 0.8299397 0.9903382
1 0.9647028 0.9806337
1 1 1
1 1 1
0.5178031 0.7693221 1
0.5178395 0.769261 1
0.5181603 0.7687259 1
0.5212053 0.7639388 1
0.6891213 0.7620338 1
1 0.8329359 0.9916699
1 0.964757 0.9784747
1 1 1
1 1 1
0.6441755 0.9969129 0.9934783
0.6441638 0.9969102 0.9934756
0.6440611 0.9968873 0.9934522
0.6431623 0.9966864 0.9932472
0.6350457 0.9948825 0.9914065
0.9697018 0.9697013 0.9697106
1 0.9795047 0.9712532
1 1 1
1 1 1
0.890572 1 0.9533847
0.8905713 1 0.9533787
0.8905648 1 0.9533257
0.8905081 1 0.9528607
0.895827 1 0.9521174
0.9358661 1 0.9518284
1 1 0.9790635
1 1 1
1 1 1
1 1 1
1 1 1
1 1 1
1 1 1
1 1 1
1 1 1
1 1 1
1 1 1
1 1 1
1 1 1
1 1 1
1 1 1
1 1 1
1 1 1
1 1 1
1 1 1
1 1 1
1 1 1
0.9024716 0.9366004 1
0.9024909 0.9366063 1
0.9026593 0.9366581 1
0.9041141 0.9371067 1
0.9158253 0.940782 1
0.9694783 0.9543035 1
1 0.9896582 1
1 1 1
1 1 1
0.9024576 0.9365989 1
0.9024769 0.9366048 1
0.9026453 0.9366566 1
0.9041004 0.9371052 1
0.9158139 0.940781 1
0.9694757 0.9543052 1
1 0.9896584 1
1 1 1
1 1 1
0.9023352 0.9365859 1
0.9023546 0.9365919 1
0.9025233 0.9366437 1
0.903981 0.9370928 1
0.9157139 0.9407722 1
0.9694528 0.9543202 1
1 0.9896604 1
1 1 1
1 1 1
0.9012552 0.9364702 1
0.9012749 0.9364762 1
0.9014463 0.9365286 1
0.9029268 0.936982 1
0.9148319 0.9406939 1
0.9692522 0.954451 1
1 0.9896782 1
1 1 1
1 1 1
0.8907261 0.9352257 1
0.890749 0.9352323 1
0.890948 0.93529 1
0.8926648 0.9357889 1
0.906332 0.9398378 1
0.9674162 0.9556057 1
1 0.9898331 1
1 1 1
1 1 1
0.8662699 0.9610021 1
0.866271 0.9609991 1
0.8662801 0.9609725 1
0.8663605 0.9607399 1
0.8671449 0.9586654 1
0.9294993 0.9593327 1
1 0.9911569 1
1 1 1
1 1 1
0.9165141 1 1
0.9165136 1 1
0.9165094 1 1
0.9164728 1 1
0.9161526 1 1
0.9132751 1 1
1 1 1
1 1 1
1 1 1
1 1 1
1 1 1
1 1 1
1 1 1
1 1 1
1 1 1
1 1 1
1 1 1
1 1 1
1 1 1
1 1 1
1 1 1
1 1 1
1 1 1
1 1 1
1 1 1
1 1 1
1 1 1
1 1 1
1 1 1
1 1 1
1 1 1
1 1 1
1 1 1
1 1 1
1 1 1
1 1 1
1 1 1
1 1 1
1 1 1
1 1 1
1 1 1
1 1 1
1 1 1
1 1 1
1 1 1
1 1 1
1 1 1
1 1 1
1 1 1
1 1 1
1 1 1
1 1 1
1 1 1
1 1 1
1 1 1
1 1 1
1 1 1
1 1 1
1 1 1
1 1 1
1 1 1
1 1 1
1 1 1
1 1 1
1 1 1
1 1 1
1 1 1
1 1 1
1 1 1
1 1 1
1 1 1
1 1 1
1 1 1
1 1 1
1 1 1
1 1 1
1 1 1
1 1 1
1 1 1
1 1 1
1 1 1
1 1 1
1 1 1
1 1 1
1 1 1
1 1 1
1 1 1
1 1 1
1 1 1
1 1 1
1 1 1
1 1 1
1 1 1
1 1 1
1 1 1
1 1 1
1 1 1
1 1 1
1 1 1
1 1 1
1 1 1
1 1 1
1 1 1
1 1 1
1 1 1
1 1 1
1 1 1
1 1 1
1 1 1
1 1 1
1 1 1
1 1 1
1 1 1
1 1 1
1 1 1
1 1 1
1 1 1
1 1 1
1 1 1
1 1 1
1 1 1
1 1 1
1 1 1
1 1 1
1 1 1
1 1 1
1 1 1
1 1 1
1 1 1
1 1 1
1 1 1
1 1 1
1 1 1
1 1 1
1 1 1
1 1 1
1 1 1
1 1 1
1 1 1
1 1 1
1 1 1
1 1 1
1 1 1
1 1 1
1 1 1
1 1 1
1 1 1
1 1 1
1 1 1
1 1 1
1 1 1
1 1 1
1 1 1
1 1 1
1 1 1
1 1 1
1 1 1
1 1 1
1 1 1
1 1 1
1 1 1
1 1 1
1 1 1
1 1 1
1 1 1
1 1 1
1 1 1
1 1 1
1 1 1
1 1 1
1 1 1
1 1 1
1 1 1
1 1 1
1 1 1
1 1 1
1 1 1
1 1 1
1 1 1
1 1 1
1 1 1
1 1 1
1 1 1
1 1 1
1 1 1
1 1 1
1 1 1
1 1 1
1 1 1
