release/datafiles/colormanagement/luts/AgX_Base_sRGB.cube
TITLE "AgX_Formation sRGB"
# AgX Base sRGB Formation LUT
# This LUT expects input to be E Gamut Log2 encoding from -10 stops to +15 stops
# But the end image formation will be from -10 to 6.5 encoded in power 2.4
#  rotate = [3.0, -1, -2.0], inset = [0.4, 0.22, 0.13], outset = [0.4, 0.22, 0.04]
# The image formed has 40% per-channel shifts
DOMAIN_MIN 0 0 0
DOMAIN_MAX 1 1 1
LUT_3D_SIZE 5
0.0000002 0 0.0000018
0.1642297 0 0.0057117
0.9575965 0.3330197 0.2682656
1 0.9682588 0.9574783
1 1 1
0 0.1493901 0.0763926
0.1592644 0.1518667 0
0.9550912 0.3539818 0.2686398
1 0.9682953 0.9574837
1 1 1
0 0.8265685 0.372613
0 0.8280377 0.3539923
0.8315024 0.802757 0.3766713
1 0.9710068 0.9578965
1 1 1
0.9234754 1 0.9392048
0.9235396 1 0.9392167
0.9282839 1 0.9401117
1 1 0.9823584
1 1 1
1 1 1
1 1 1
1 1 1
1 1 1
1 1 1
0 0.0445299 0.1163941
0.1580869 0 0.1448597
0.9610669 0.3115752 0.2702925
1 0.9682272 0.9574783
1 1 1
0 0.151747 0.1522155
0.1395984 0.1395978 0.1396094
0.9584127 0.3350398 0.2704191
1 0.9682638 0.9574837
1 1 1
0 0.824478 0.3896263
0 0.82592 0.3725677
0.8307088 0.8019193 0.3742528
1 0.970977 0.9578961
1 1 1
0.9234069 1 0.9391891
0.9234711 1 0.9392009
0.9282199 1 0.9400962
1 1 0.9823537
1 1 1
1 1 1
1 1 1
1 1 1
1 1 1
1 1 1
0 0.3221464 0.7942699
0.1125074 0.3176669 0.8073871
0.8896307 0.4452861 0.8229484
1 0.9657533 0.9575132
1 1 1
0 0.3366101 0.7845865
0 0.3275163 0.8045695
0.8900233 0.4462371 0.8233749
1 0.9657918 0.9575181
1 1 1
0 0.8183739 0.8149517
0 0.8177515 0.8143379
0.7853074 0.7853064 0.7853274
1 0.9686465 0.9578932
1 1 1
0.9179656 1 0.937975
0.9180349 1 0.9379871
0.9231451 1 0.938901
1 1 0.9819949
1 1 1
1 1 1
1 1 1
1 1 1
1 1 1
1 1 1
0.9024716 0.9366004 1
0.9026593 0.9366581 1
0.9158253 0.940782 1
1 0.9896582 1
1 1 1
0.9023352 0.9365859 1
0.9025233 0.9366437 1
0.9157139 0.9407722 1
1 0.9896604 1
1 1 1
0.8907261 0.9352257 1
0.890948 0.93529 1
0.906332 0.9398378 1
1 0.9898331 1
1 1 1
0.9165141 1 1
0.9165094 1 1
0.9161526 1 1
1 1 1
1 1 1
1 1 1
1 1 1
1 1 1
1 1 1
1 1 1
1 1 1
1 1 1
1 1 1
1 1 1
1 1 1
1 1 1
1 1 1
1 1 1
1 1 1
1 1 1
1 1 1
1 1 1
1 1 1
1 1 1
1 1 1
1 1 1
1 1 1
1 1 1
1 1 1
1 1 1
1 1 1
1 1 1
1 1 1
1 1 1
1 1 1
