release/datafiles/colormanagement/luts/AgX_Base_Rec2020.cube
TITLE "AgX_Formation Rec.2020"
# AgX Base Rec.2020 Formation LUT
# This LUT expects input to be E Gamut Log2 encoding from -10 stops to +15 stops
# But the end image formation will be from -10 to 6.5 encoded in power 2.4
#  rotate = [3.0, -1, -2.0], inset = [0.4, 0.22, 0.13], outset = [0.4, 0.22, 0.04]
# The image formed has 40% per-channel shifts
DOMAIN_MIN 0 0 0
DOMAIN_MAX 1 1 1
LUT_3D_SIZE 9
0.0000004 0 0.0000018
0.0440376 0 0
0.1408595 0.0334446 0
0.4049521 0.1186391 0
0.8030959 0.4252373 0.3078104
0.981453 0.8061681 0.7644673
1 0.9790279 0.9612475
1 1 1
1 1 1
0 0.0430714 0
0.0460309 0.0450727 0
0.1424891 0.0610789 0
0.4055923 0.1285855 0
0.8031064 0.426662 0.3080384
0.9814516 0.8062336 0.7644832
1 0.9790311 0.9612483
1 1 1
1 1 1
0.0437537 0.1434357 0
0.0672652 0.1440369 0
0.1519121 0.1492651 0
0.4105183 0.1909404 0
0.8031944 0.4386992 0.3100269
0.9814391 0.8068029 0.7646225
1 0.9790596 0.9612552
1 1 1
1 1 1
0.1423149 0.4141278 0
0.1508031 0.4143174 0
0.2074942 0.415949 0
0.4369253 0.4296154 0
0.8038074 0.5218373 0.3273355
0.9813348 0.8116369 0.7658295
1 0.9793071 0.9613155
1 1 1
1 1 1
0.4363224 0.8137885 0.2706112
0.4377748 0.8137454 0.2708668
0.4500292 0.8133767 0.2731181
0.5339949 0.8106606 0.2939213
0.8090824 0.8016104 0.4516941
0.9806658 0.8462408 0.7757642
1 0.9814134 0.9618384
1 1 1
1 1 1
0.8039696 0.9879303 0.7430802
0.8040415 0.987925 0.7431023
0.804666 0.9878795 0.7432948
0.8099601 0.9874942 0.7449654
0.8474641 0.9848198 0.75876
0.9805453 0.976788 0.8323916
1 0.9967361 0.9661435
1 1 1
1 1 1
0.9778265 1 0.9520573
0.9778301 1 0.9520584
0.9778614 1 0.9520679
0.9781337 1 0.9521511
0.9804481 1 0.952873
0.9971386 1 0.9588262
1 1 0.9908974
1 1 1
1 1 1
1 1 1
1 1 1
1 1 1
1 1 1
1 1 1
1 1 1
1 1 1
1 1 1
1 1 1
1 1 1
1 1 1
1 1 1
1 1 1
1 1 1
1 1 1
1 1 1
1 1 1
1 1 1
0 0.0054068 0.0418328
0.0415207 0 0.0441594
0.1419868 0 0
0.4055633 0.1076921 0
0.803176 0.4239585 0.3077753
0.9814587 0.8061122 0.7644623
1 0.9790251 0.9612473
1 1 1
1 1 1
0 0.0420771 0.0442661
0.0428235 0.0428232 0.0428273
0.1435322 0.0424783 0
0.4061359 0.1190164 0
0.8031858 0.4253931 0.3080019
0.9814572 0.8061777 0.7644783
1 0.9790283 0.9612481
1 1 1
1 1 1
0 0.1412121 0
0.048228 0.1414701 0
0.1476949 0.1451178 0
0.4105826 0.1859624 0
0.8032675 0.4375108 0.3099791
0.9814447 0.8067473 0.7646175
1 0.9790568 0.961255
1 1 1
1 1 1
0.1327046 0.4131505 0
0.1420256 0.4133353 0
0.2021682 0.4149265 0
0.4356559 0.4283637 0
0.803836 0.5210903 0.3272125
0.9813399 0.8115842 0.765824
1 0.9793043 0.9613153
1 1 1
1 1 1
0.4347643 0.8137737 0.2702344
0.4362291 0.8137303 0.2704896
0.4485842 0.8133591 0.2727378
0.5331007 0.8106253 0.2935332
0.8089978 0.8015245 0.4515023
0.9806681 0.8462047 0.7757558
1 0.9814107 0.9618381
1 1 1
1 1 1
0.8038915 0.9879329 0.7430505
0.8039634 0.9879276 0.7430726
0.8045884 0.987882 0.7432651
0.8098869 0.9874964 0.7449362
0.8474161 0.9848198 0.7587346
0.980541 0.9767836 0.8323827
1 0.9967342 0.9661431
1 1 1
1 1 1
0.9778225 1 0.9520558
0.9778261 1 0.9520569
0.9778575 1 0.9520665
0.9781298 1 0.9521497
0.9804444 1 0.9528715
0.9971361 1 0.9588249
1 1 0.990897
1 1 1
1 1 1
1 1 1
1 1 1
1 1 1
1 1 1
1 1 1
1 1 1
1 1 1
1 1 1
1 1 1
1 1 1
1 1 1
1 1 1
1 1 1
1 1 1
1 1 1
1 1 1
1 1 1
1 1 1
0.0185 0.0324141 0.1198212
0.0447898 0.0332347 0.1255854
0.1347092 0.0423044 0.1416678
0.4073367 0 0.0940061
0.8039398 0.4123476 0.3075815
0.9815084 0.8056224 0.7644201
1 0.9790008 0.9612451
1 1 1
1 1 1
0 0.0506042 0.1329254
0.0260161 0.040233 0.1400056
0.1365619 0.0431284 0.143611
0.4092562 0 0.0748952
0.8039427 0.4138746 0.3077958
0.9815069 0.8056883 0.764436
1 0.9790041 0.9612459
1 1 1
1 1 1
0 0.1410875 0.1472209
0 0.1384406 0.1444661
0.1395987 0.139598 0.1396082
0.413477 0.1395412 0
0.8039658 0.4267472 0.3096674
0.9814939 0.806261 0.7645746
1 0.9790326 0.9612528
1 1 1
1 1 1
0 0.4075142 0.0270572
0 0.4072376 0
0.1531291 0.4078954 0
0.4243331 0.4172014 0
0.8041226 0.5144096 0.3261979
0.9813853 0.8111234 0.7657766
1 0.9792803 0.9613131
1 1 1
1 1 1
0.420523 0.8136591 0.2669572
0.4221047 0.8136132 0.2672088
0.4354133 0.8132205 0.269427
0.5250637 0.8103265 0.2901344
0.8082564 0.8007713 0.4498212
0.9806886 0.8458894 0.7756829
1 0.9813878 0.9618357
1 1 1
1 1 1
0.8032065 0.9879558 0.7427905
0.803279 0.9879505 0.7428126
0.8039087 0.9879045 0.7430055
0.8092459 0.9875157 0.7446802
0.8469963 0.98482 0.7585129
0.9805036 0.9767453 0.8323042
1 0.996718 0.9661395
1 1 1
1 1 1
0.9777884 1 0.952043
0.977792 1 0.9520441
0.9778233 1 0.9520537
0.9780959 1 0.9521369
0.9804123 1 0.9528589
0.9971144 1 0.958814
1 1 0.990893
1 1 1
1 1 1
1 1 1
1 1 1
1 1 1
1 1 1
1 1 1
1 1 1
1 1 1
1 1 1
1 1 1
1 1 1
1 1 1
1 1 1
1 1 1
1 1 1
1 1 1
1 1 1
1 1 1
1 1 1
0.0847903 0.1112104 0.3405122
0.092424 0.1114316 0.3428856
0.1468629 0.1159927 0.359775
0.3882762 0.1389511 0.4077063
0.8050033 0.3894299 0.4248595
0.9819758 0.801214 0.7641042
1 0.9787886 0.9612264
1 1 1
1 1 1
0.0781847 0.1134858 0.3454253
0.0867136 0.1136403 0.3476876
0.1441945 0.1172345 0.3637488
0.3888676 0.1391824 0.4083246
0.8051597 0.3894529 0.4235436
0.9819738 0.8012832 0.7641195
1 0.9787919 0.9612272
1 1 1
1 1 1
0.0554638 0.16076 0.3823422
0.0558917 0.1573998 0.3845016
0.1018639 0.1328054 0.4041668
0.3939769 0.1411905 0.4136658
0.8065363 0.3896349 0.4114326
0.9819566 0.801885 0.7642528
1 0.9788205 0.9612341
1 1 1
1 1 1
0.0586823 0.4074214 0.424572
0.0584965 0.4065975 0.4237175
0.0568851 0.3993126 0.4161593
0.4022364 0.4022345 0.4022624
0.8072994 0.468628 0.3771872
0.9818124 0.8069845 0.7654109
1 0.9790695 0.9612941
1 1 1
1 1 1
0.3227719 0.8125125 0.345222
0.3225632 0.8124727 0.3428619
0.3353355 0.8119086 0.3355463
0.4600421 0.8080884 0.3275005
0.8014974 0.793907 0.434494
0.9808851 0.8430843 0.7750696
1 0.9811873 0.9618148
1 1 1
1 1 1
0.7969771 0.9881765 0.7404938
0.7970546 0.9881708 0.7405163
0.7977289 0.9881212 0.7407127
0.8034304 0.9877027 0.7424187
0.8432305 0.9848306 0.7565517
0.9801761 0.9764097 0.8316164
1 0.9965766 0.9661078
1 1 1
1 1 1
0.9774893 1 0.951931
0.9774929 1 0.9519321
0.9775245 1 0.9519417
0.977799 1 0.9520251
0.980131 1 0.9527487
0.9969242 1 0.9587186
1 1 0.9908583
1 1 1
1 1 1
1 1 1
1 1 1
1 1 1
1 1 1
1 1 1
1 1 1
1 1 1
1 1 1
1 1 1
1 1 1
1 1 1
1 1 1
1 1 1
1 1 1
1 1 1
1 1 1
1 1 1
1 1 1
0.2660751 0.3164577 0.7725395
0.2683534 0.3170012 0.7727538
0.2875723 0.3218428 0.7745331
0.4099479 0.3525092 0.7860045
0.7784563 0.5019266 0.8004013
0.9819807 0.7989815 0.8122004
1 0.9768825 0.9610858
1 1 1
1 1 1
0.2645058 0.3166642 0.7731357
0.2668051 0.317206 0.7733478
0.286188 0.3220334 0.775108
0.4094534 0.3528831 0.7864241
0.7785038 0.50201 0.8004468
0.9819889 0.7989838 0.8121457
1 0.9768859 0.9610866
1 1 1
1 1 1
0.2495565 0.3184245 0.7783766
0.2520685 0.3189499 0.7785692
0.2730961 0.3236466 0.7801629
0.4049186 0.3561784 0.7901107
0.7789167 0.5027364 0.8008427
0.9820606 0.7990034 0.8116659
1 0.9769159 0.9610932
1 1 1
1 1 1
0.2233165 0.4139841 0.8099763
0.2233749 0.4131418 0.8101935
0.2239692 0.4056016 0.8121988
0.3229142 0.3742577 0.8260509
0.7824422 0.5089524 0.804222
0.9826926 0.799167 0.8072585
1 0.9771765 0.961151
1 1 1
1 1 1
0.3985463 0.7990054 0.8198357
0.3984253 0.7989441 0.8197761
0.3973682 0.798407 0.819254
0.3879728 0.7935772 0.8145542
0.7853079 0.7853067 0.7853252
0.9823419 0.8284622 0.7950306
1 0.9793898 0.9616531
1 1 1
1 1 1
0.7630131 0.9886776 0.7719705
0.7629998 0.9886769 0.771861
0.7628844 0.988671 0.7708991
0.7692219 0.9880604 0.7693056
0.8187336 0.9843336 0.7688889
0.977194 0.9733542 0.8253426
1 0.9953198 0.9658408
1 1 1
1 1 1
0.9747761 1 0.9509416
0.97478 1 0.9509428
0.9748136 1 0.9509525
0.9751061 1 0.9510374
0.9775856 1 0.9517749
0.9952216 1 0.9578749
1 1 0.9905543
1 1 1
1 1 1
1 1 1
1 1 1
1 1 1
1 1 1
1 1 1
1 1 1
1 1 1
1 1 1
1 1 1
1 1 1
1 1 1
1 1 1
1 1 1
1 1 1
1 1 1
1 1 1
1 1 1
1 1 1
0.6768082 0.7094731 0.9855044
0.6770818 0.7096001 0.9854892
0.6794471 0.7107004 0.9853578
0.6985783 0.7197626 0.9842964
0.7848868 0.7557531 0.9818966
0.9670961 0.8474238 0.9781267
1 0.9761131 0.9818512
1 1 1
1 1 1
0.6766303 0.7094344 0.9855508
0.6769043 0.7095615 0.9855356
0.6792734 0.7106629 0.9854037
0.6984337 0.7197336 0.984339
0.7848654 0.7557814 0.9819181
0.9670984 0.8474281 0.9781289
1 0.9761132 0.9818485
1 1 1
1 1 1
0.6750585 0.7090899 0.9859577
0.6753365 0.7092182 0.985942
0.6777396 0.7103295 0.9858064
0.6971576 0.719476 0.9847118
0.7846774 0.756028 0.9821056
0.9671192 0.8474655 0.9781483
1 0.9761142 0.9818247
1 1 1
1 1 1
0.6596772 0.7055463 0.9896612
0.6599961 0.7056864 0.9896413
0.6627491 0.7068987 0.9894699
0.6847944 0.7168154 0.9880888
0.7829276 0.7581945 0.9837592
0.9672997 0.8477916 0.9783169
1 0.9761228 0.981616
1 1 1
1 1 1
0.6464652 0.7592998 1
0.6464578 0.7592444 1
0.6463945 0.7587591 1
0.6459269 0.7544284 1
0.7329627 0.7611115 1
0.9688416 0.850576 0.9797574
1 0.976195 0.9797014
1 1 1
1 1 1
0.8014161 0.9779851 0.9893825
0.8014093 0.9779822 0.9893797
0.8013502 0.9779563 0.9893557
0.8008334 0.9777296 0.9891451
0.7961877 0.9756942 0.9872542
0.969702 0.9697015 0.9697097
1 0.9889578 0.9744201
1 1 1
1 1 1
0.9604564 1 0.9642686
0.9604557 1 0.9642633
0.96045 1 0.9642166
0.9604002 1 0.9638064
0.9631275 1 0.9631632
0.9844767 1 0.9630609
1 1 0.9877876
1 1 1
1 1 1
1 1 1
1 1 1
1 1 1
1 1 1
1 1 1
1 1 1
1 1 1
1 1 1
1 1 1
1 1 1
1 1 1
1 1 1
1 1 1
1 1 1
1 1 1
1 1 1
1 1 1
1 1 1
0.9223793 0.9360853 1
0.922393 0.9360921 1
0.9225119 0.9361505 1
0.9235398 0.9366567 1
0.9318542 0.9407945 1
0.9693557 0.9568259 1
1 0.9975415 1
1 1 1
1 1 1
0.9223705 0.9360831 1
0.9223841 0.9360898 1
0.9225031 0.9361483 1
0.9235312 0.9366545 1
0.931847 0.9407928 1
0.9693546 0.9568273 1
1 0.9975417 1
1 1 1
1 1 1
0.9222933 0.9360636 1
0.922307 0.9360703 1
0.9224261 0.9361289 1
0.9234559 0.9366357 1
0.9317843 0.9407785 1
0.9693456 0.9568395 1
1 0.9975437 1
1 1 1
1 1 1
0.9216118 0.9358899 1
0.9216257 0.9358967 1
0.9217465 0.9359559 1
0.922791 0.9364681 1
0.9312308 0.9406511 1
0.9692667 0.9569466 1
1 0.9975605 1
1 1 1
1 1 1
0.914943 0.9340932 1
0.9149589 0.9341007 1
0.9150975 0.9341664 1
0.916294 0.9347342 1
0.9258713 0.9393318 1
0.9685303 0.9578869 1
1 0.9977071 1
1 1 1
1 1 1
0.9096436 0.9564447 1
0.9096432 0.9564419 1
0.9096397 0.956418 1
0.9096091 0.9562088 1
0.9093779 0.9543472 1
0.9468743 0.958881 1
1 0.9989595 1
1 1 1
1 1 1
0.977141 1 1
0.9771407 1 1
0.9771377 1 1
0.9771118 1 1
0.9768854 1 1
0.9748523 1 1
1 1 1
1 1 1
1 1 1
1 1 1
1 1 1
1 1 1
1 1 1
1 1 1
1 1 1
1 1 1
1 1 1
1 1 1
1 1 1
1 1 1
1 1 1
1 1 1
1 1 1
1 1 1
1 1 1
1 1 1
1 1 1
1 1 1
1 1 1
1 1 1
1 1 1
1 1 1
1 1 1
1 1 1
1 1 1
1 1 1
1 1 1
1 1 1
1 1 1
1 1 1
1 1 1
1 1 1
1 1 1
1 1 1
1 1 1
1 1 1
1 1 1
1 1 1
1 1 1
1 1 1
1 1 1
1 1 1
1 1 1
1 1 1
1 1 1
1 1 1
1 1 1
1 1 1
1 1 1
1 1 1
1 1 1
1 1 1
1 1 1
1 1 1
1 1 1
1 1 1
1 1 1
1 1 1
1 1 1
1 1 1
1 1 1
1 1 1
1 1 1
1 1 1
1 1 1
1 1 1
1 1 1
1 1 1
1 1 1
1 1 1
1 1 1
1 1 1
1 1 1
1 1 1
1 1 1
1 1 1
1 1 1
1 1 1
1 1 1
1 1 1
1 1 1
1 1 1
1 1 1
1 1 1
1 1 1
1 1 1
1 1 1
1 1 1
1 1 1
1 1 1
1 1 1
1 1 1
1 1 1
1 1 1
1 1 1
1 1 1
1 1 1
1 1 1
1 1 1
1 1 1
1 1 1
1 1 1
1 1 1
1 1 1
1 1 1
1 1 1
1 1 1
1 1 1
1 1 1
1 1 1
1 1 1
1 1 1
1 1 1
1 1 1
1 1 1
1 1 1
1 1 1
1 1 1
1 1 1
1 1 1
1 1 1
1 1 1
1 1 1
1 1 1
1 1 1
1 1 1
1 1 1
1 1 1
1 1 1
1 1 1
1 1 1
1 1 1
1 1 1
1 1 1
1 1 1
1 1 1
1 1 1
1 1 1
1 1 1
1 1 1
1 1 1
1 1 1
1 1 1
1 1 1
1 1 1
1 1 1
1 1 1
1 1 1
1 1 1
1 1 1
1 1 1
1 1 1
1 1 1
1 1 1
1 1 1
1 1 1
1 1 1
1 1 1
1 1 1
1 1 1
1 1 1
1 1 1
1 1 1
1 1 1
1 1 1
1 1 1
1 1 1
1 1 1
1 1 1
1 1 1
1 1 1
1 1 1
1 1 1
1 1 1
1 1 1
1 1 1
1 1 1
1 1 1
1 1 1
