release/datafiles/colormanagement/luts/AgX_Rec2100-HLG_p3_lim.cube
TITLE "AgX_Formation Rec.2100 HLG P3 limited"
# AgX Rec.2100 HLG 1000 nits Formation P3 Limited LUT
# This LUT expects input to be E Gamut Log2 encoding from -10 stops to +15 stops
# But the end image formation will be from -10 to 6.5 encoded in Rec.2100-HLG
# Inset matrix can be generated in Rec.2020 with rotation [2.13976149, -1.22827335, -3.05174246],
# Inset: [0.32965205, 0.28051336, 0.12475368], outset = [0.32317438, 0.28325605, 0.0374326].
# HDR purity set to 0.5, HDR extra shoulder power multiplier is 2.0
# calculated from power(1000 / 100, log10(2.0))
# The image formed has 40% per-channel shifts
# HDR max nits is 1000, Reference White nits is 100
LUT_3D_SIZE 57
0.0004711 0.0004327 0.0007854
0.0052417 0.0013589 0
0.0087518 0.002235 0
0.0124939 0.0031864 0
0.0165916 0.0042522 0
0.0211272 0.0054621 0
0.02618 0.0068458 0
0.0318375 0.0084349 0
0.0381767 0.0102912 0
0.0452877 0.0125491 0
0.0534618 0.0151001 0
0.0628504 0.0179892 0
0.073641 0.0212702 0
0.0860639 0.0250075 0
0.100399 0.0292788 0
0.1169832 0.0341777 0
0.1362171 0.0398163 0
0.1585666 0.0463277 0
0.184556 0.0538676 0
0.2147398 0.0626126 0
0.2496362 0.0727537 0
0.2895895 0.0844794 0
0.3345027 0.0979423 0
0.3837577 0.1133104 0
0.4433776 0.1323545 0
0.5181148 0.1566885 0
0.5957267 0.1878438 0
0.6701023 0.2281982 0.0031761
0.7365055 0.2926797 0.1098318
0.7965019 0.3759126 0.1981168
0.848663 0.4778234 0.3005842
0.892313 0.582936 0.4195703
0.9276738 0.6676662 0.5478951
0.9556111 0.7370592 0.6483227
0.9772992 0.7942719 0.7256734
0.9939534 0.8414955 0.7874974
1 0.8804499 0.8377235
1 0.9128694 0.8790977
1 0.9356839 0.9095315
1 0.9537042 0.9336692
1 0.968681 0.9534328
1 0.9810289 0.9695042
1 0.9911558 0.982519
1 0.9969727 0.9936299
1 1 1
1 1 1
1 1 1
1 1 1
1 1 1
1 1 1
1 1 1
1 1 1
1 1 1
1 1 1
1 1 1
1 1 1
1 1 1
0.0023552 0.0050616 0.001907
0.0052994 0.0051748 0.000662
0.0088233 0.0056863 0.0006382
0.012565 0.0063627 0.000585
0.0166547 0.007161 0.0004677
0.0211797 0.0081021 0.0001429
0.0262217 0.0092183 0
0.0318694 0.0105465 0
0.0381975 0.0121727 0
0.0453311 0.0141964 0
0.0535076 0.0165308 0
0.0628903 0.0192242 0
0.073673 0.0223314 0
0.0860884 0.0259165 0
0.1004174 0.0300557 0
0.1169973 0.0348409 0
0.1362281 0.040382 0
0.1585755 0.0468102 0
0.1845634 0.0542792 0
0.2147461 0.0629638 0
0.2496413 0.0730533 0
0.289593 0.0847348 0
0.3345043 0.0981595 0
0.3837578 0.1134946 0
0.4433782 0.1325124 0
0.5181155 0.1568255 0
0.595727 0.1879635 0
0.6701021 0.2283024 0.0033177
0.7365053 0.2927637 0.1098397
0.7965015 0.3759794 0.1981229
0.8486625 0.4778754 0.3005892
0.8923124 0.5829656 0.4195745
0.9276733 0.6676828 0.5478979
0.9556107 0.7370688 0.6483243
0.9772989 0.7942775 0.7256743
0.9939531 0.8414988 0.787498
1 0.8804519 0.8377238
1 0.9128706 0.8790979
1 0.9356846 0.9095316
1 0.9537046 0.9336693
1 0.9686812 0.9534328
1 0.981029 0.9695043
1 0.9911558 0.9825191
1 0.9969727 0.9936299
1 1 1
1 1 1
1 1 1
1 1 1
1 1 1
1 1 1
1 1 1
1 1 1
1 1 1
1 1 1
1 1 1
1 1 1
1 1 1
0.0039455 0.0084761 0.0032322
0.0058116 0.0085412 0.0011457
0.0089377 0.008732 0.0011172
0.0126422 0.009338 0.0011124
0.0167151 0.010046 0.0010817
0.0212293 0.0108617 0.0010117
0.0262623 0.0118179 0.0008821
0.0319016 0.0129575 0.0006418
0.0382291 0.0144022 0
0.0453861 0.0162048 0
0.0535651 0.0183175 0
0.062941 0.0207973 0
0.073714 0.0237049 0
0.0861201 0.0271078 0
0.1004416 0.0310838 0
0.1170159 0.035725 0
0.1362427 0.0411404 0
0.1585874 0.0474598 0
0.1845734 0.0548351 0
0.2147545 0.0634392 0
0.249648 0.0734597 0
0.2895979 0.0850816 0
0.3345065 0.0984547 0
0.383758 0.1137451 0
0.443379 0.1327273 0
0.5181165 0.1570119 0
0.5957275 0.1881266 0
0.6701018 0.2284443 0.0035015
0.736505 0.2928781 0.1098503
0.796501 0.3760705 0.1981313
0.8486617 0.4779464 0.3005961
0.8923116 0.583006 0.4195802
0.9276725 0.6677053 0.5479018
0.9556101 0.7370818 0.6483265
0.9772984 0.7942851 0.7256756
0.9939528 0.8415033 0.7874988
1 0.8804545 0.8377243
1 0.9128721 0.8790982
1 0.9356854 0.9095318
1 0.9537051 0.9336694
1 0.9686815 0.9534329
1 0.9810291 0.9695043
1 0.9911559 0.9825191
1 0.9969727 0.9936299
1 1 1
1 1 1
1 1 1
1 1 1
1 1 1
1 1 1
1 1 1
1 1 1
1 1 1
1 1 1
1 1 1
1 1 1
1 1 1
0.0056434 0.0121229 0.0046358
0.006598 0.012139 0.0016492
0.0095171 0.0122738 0.0016287
0.0127789 0.0124931 0.0015986
0.0168004 0.0131528 0.0015974
0.0212874 0.0138936 0.0015696
0.0263049 0.0147398 0.0015059
0.0319339 0.0157338 0.0013935
0.0382768 0.0170379 0.0012368
0.0454551 0.018633 0.0009789
0.0536362 0.0205241 0.0003684
0.0630042 0.0227777 0
0.0737658 0.0254629 0
0.0861608 0.028654 0
0.100473 0.0324335 0
0.1170403 0.0368961 0
0.1362621 0.0421521 0
0.1586034 0.048331 0
0.1845869 0.0555837 0
0.2147658 0.0640815 0
0.2496572 0.0740098 0
0.2896044 0.0855519 0
0.3345095 0.0988555 0
0.3837582 0.1140857 0
0.44338 0.1330197 0
0.5181178 0.1572655 0
0.5957281 0.1883485 0
0.6701014 0.2286376 0.0037374
0.7365046 0.2930339 0.1098649
0.7965002 0.3761945 0.1981428
0.8486608 0.478043 0.3006054
0.8923106 0.583061 0.4195879
0.9276715 0.6677361 0.5479071
0.9556092 0.7370996 0.6483294
0.9772977 0.7942955 0.7256774
0.9939523 0.8415094 0.7874999
1 0.8804581 0.837725
1 0.9128742 0.8790986
1 0.9356866 0.9095321
1 0.9537057 0.9336696
1 0.9686819 0.953433
1 0.9810293 0.9695044
1 0.991156 0.9825191
1 0.9969727 0.99363
1 1 1
1 1 1
1 1 1
1 1 1
1 1 1
1 1 1
1 1 1
1 1 1
1 1 1
1 1 1
1 1 1
1 1 1
1 1 1
0.0075057 0.0161237 0.0061602
0.0075677 0.0160941 0.0021987
0.010307 0.0162009 0.0021829
0.0133995 0.0163411 0.0021563
0.0169537 0.0165851 0.0021225
0.0213802 0.0172813 0.0021186
0.0263627 0.0180529 0.0020866
0.0319716 0.0189356 0.0020187
0.0383505 0.0201417 0.0019336
0.0455421 0.0215447 0.0017865
0.0537224 0.0232193 0.0015437
0.0630813 0.0252407 0.0011123
0.0738301 0.0276864 0
0.0862121 0.0306389 0
0.1005132 0.0341884 0
0.1170719 0.0384351 0
0.1362875 0.0434931 0
0.1586245 0.0494937 0
0.1846048 0.056588 0
0.214781 0.0649465 0
0.2496695 0.0747531 0
0.2896131 0.0861888 0
0.3345134 0.0993991 0
0.3837584 0.1145481 0
0.4433815 0.133417 0
0.5181196 0.1576105 0
0.5957289 0.1886504 0
0.6701009 0.2289007 0.0040368
0.736504 0.293246 0.1098847
0.7964992 0.3763634 0.1981584
0.8486594 0.4781747 0.3006182
0.8923091 0.5831359 0.4195985
0.9276702 0.667778 0.5479142
0.9556081 0.7371237 0.6483334
0.9772969 0.7943096 0.7256798
0.9939517 0.8415177 0.7875014
1 0.880463 0.8377259
1 0.9128771 0.8790992
1 0.9356882 0.9095324
1 0.9537067 0.9336698
1 0.9686824 0.9534331
1 0.9810296 0.9695045
1 0.9911562 0.9825192
1 0.9969727 0.99363
1 1 1
1 1 1
1 1 1
1 1 1
1 1 1
1 1 1
1 1 1
1 1 1
1 1 1
1 1 1
1 1 1
1 1 1
1 1 1
0.0095685 0.0205571 0.0078293
0.0094613 0.0205201 0.0048618
0.0112746 0.0205705 0.0027937
0.0142147 0.0206779 0.0027717
0.0176042 0.0208258 0.0027388
0.0215489 0.021092 0.0026995
0.0264628 0.021817 0.0026893
0.0320921 0.0227083 0.0026613
0.0384666 0.0237779 0.0026063
0.0456552 0.0250077 0.0025042
0.0538277 0.0264771 0.0023394
0.063174 0.0282674 0.0020801
0.0739078 0.0304636 0.0016521
0.0862753 0.0331568 0.0007307
0.1005636 0.0364458 0
0.1171122 0.0404389 0
0.1363205 0.0452569 0
0.1586521 0.0510357 0
0.1846285 0.0579287 0
0.2148013 0.0661072 0
0.249686 0.0757542 0
0.2896248 0.0870492 0
0.3345187 0.1001352 0
0.3837587 0.1151753 0
0.4433834 0.1339565 0
0.518122 0.1580794 0
0.59573 0.189061 0
0.6701002 0.2292587 0.0044122
0.7365032 0.2935348 0.1099117
0.7964979 0.3765934 0.1981796
0.8486576 0.478354 0.3006356
0.8923071 0.5832379 0.4196129
0.9276683 0.6678352 0.547924
0.9556065 0.7371567 0.6483389
0.9772957 0.7943289 0.725683
0.9939508 0.841529 0.7875034
1 0.8804696 0.8377272
1 0.912881 0.8791
1 0.9356904 0.9095328
1 0.9537079 0.9336701
1 0.9686831 0.9534333
1 0.98103 0.9695046
1 0.9911564 0.9825192
1 0.9969728 0.9936301
1 1 1
1 1 1
1 1 1
1 1 1
1 1 1
1 1 1
1 1 1
1 1 1
1 1 1
1 1 1
1 1 1
1 1 1
1 1 1
0.0118664 0.0254976 0.0096636
0.0117752 0.025463 0.0073685
0.0124436 0.0254575 0.0034734
0.0152089 0.0255394 0.0034543
0.018451 0.0256499 0.0034262
0.022225 0.025807 0.0033865
0.0267165 0.0261647 0.0033491
0.0323303 0.0270625 0.0033493
0.038651 0.0280155 0.0033143
0.0458085 0.029094 0.0032394
0.053959 0.0303757 0.0031155
0.0632858 0.0319441 0.002925
0.074001 0.0338897 0.0026347
0.0863514 0.0363108 0.0021729
0.1006254 0.039315 0.0013013
0.1171626 0.0430199 0
0.1363624 0.0475554 0
0.1586879 0.053065 0
0.1846595 0.0597075 0
0.214828 0.0676571 0
0.2497079 0.0770978 0
0.2896405 0.0882082 0
0.3345257 0.1011297 0
0.3837589 0.1160245 0
0.443386 0.1346882 0
0.5181253 0.1587161 0
0.5957316 0.1896191 0
0.6700993 0.2297455 0.0048777
0.7365022 0.2939278 0.1099485
0.796496 0.3769066 0.1982086
0.8486551 0.4785982 0.3006593
0.8923044 0.5833768 0.4196325
0.9276658 0.6679129 0.5479373
0.9556044 0.7372016 0.6483463
0.977294 0.7943551 0.7256875
0.9939496 0.8415445 0.7875061
1 0.8804787 0.8377289
1 0.9128863 0.8791011
1 0.9356934 0.9095334
1 0.9537096 0.9336704
1 0.9686841 0.9534336
1 0.9810306 0.9695047
1 0.9911567 0.9825193
1 0.9969728 0.9936302
1 1 1
1 1 1
1 1 1
1 1 1
1 1 1
1 1 1
1 1 1
1 1 1
1 1 1
1 1 1
1 1 1
1 1 1
1 1 1
0.0144369 0.0310268 0.0116854
0.0143581 0.0309951 0.0097964
0.0142371 0.0309571 0.0055699
0.0164208 0.0310052 0.0042171
0.0195059 0.0311026 0.0041944
0.0232455 0.0313197 0.0041726
0.0276133 0.0316192 0.0041422
0.0327328 0.0320778 0.0041065
0.0389409 0.0329307 0.0040862
0.0460265 0.0338809 0.0040311
0.05413 0.0349974 0.0039344
0.0634234 0.0363616 0.0037847
0.0741129 0.0380654 0.003562
0.0864424 0.0402121 0.00323
0.1006996 0.0429163 0.0027131
0.1172242 0.0463054 0.0017875
0.1364148 0.0505193 0
0.1587334 0.0557114 0
0.1846996 0.0620496 0
0.214863 0.069714 0
0.2497369 0.0788921 0
0.2896612 0.0897639 0
0.3345348 0.1024694 0
0.3837591 0.1171719 0
0.4433893 0.1356791 0
0.5181297 0.1595797 0
0.5957336 0.1903769 0
0.670098 0.230407 0.0054485
0.7365008 0.2944624 0.1099986
0.7964935 0.3773329 0.198248
0.8486517 0.4789306 0.3006915
0.8923007 0.5835659 0.4196592
0.9276624 0.6680188 0.5479555
0.9556016 0.7372627 0.6483565
0.9772918 0.7943909 0.7256936
0.993948 0.8415655 0.7875099
1 0.8804911 0.8377313
1 0.9128935 0.8791025
1 0.9356975 0.9095343
1 0.9537119 0.933671
1 0.9686854 0.9534339
1 0.9810313 0.9695049
1 0.9911572 0.9825195
1 0.9969729 0.9936303
1 1 1
1 1 1
1 1 1
1 1 1
1 1 1
1 1 1
1 1 1
1 1 1
1 1 1
1 1 1
1 1 1
1 1 1
1 1 1
0.0173501 0.0373019 0.0138704
0.0172906 0.0372961 0.0122174
0.0172014 0.0372924 0.0091195
0.0181434 0.0373354 0.005095
0.0210683 0.0374558 0.0050808
0.0245742 0.0376188 0.0050602
0.0287329 0.0378417 0.0050314
0.0336246 0.0381484 0.0049917
0.0393851 0.0386123 0.0049434
0.0463469 0.0394545 0.0049038
0.0543656 0.0404312 0.0048281
0.0636014 0.0416156 0.0047074
0.0742508 0.0430965 0.0045281
0.0865517 0.0449781 0.0042671
0.1007882 0.0473794 0.0038834
0.117298 0.0504354 0.0032939
0.1364785 0.0542962 0.0022659
0.1587902 0.0591267 0
0.1847507 0.0651057 0
0.2149082 0.0724233 0
0.2497746 0.0812741 0
0.2896883 0.0918417 0
0.3345466 0.1042676 0
0.383759 0.1187177 0
0.4433937 0.1370177 0
0.5181356 0.1607489 0
0.5957364 0.1914046 0
0.6700962 0.2313052 0.0061418
0.7364988 0.2951891 0.1100669
0.79649 0.3779129 0.1983018
0.848647 0.4793832 0.3007355
0.8922957 0.5838231 0.4196956
0.9276577 0.668163 0.5479802
0.9555976 0.7373459 0.6483703
0.9772888 0.7944396 0.7257018
0.9939458 0.8415941 0.787515
1 0.8805079 0.8377345
1 0.9129034 0.8791045
1 0.935703 0.9095354
1 0.9537151 0.9336717
1 0.9686872 0.9534343
1 0.9810324 0.9695052
1 0.9911577 0.9825196
1 0.996973 0.9936304
1 1 1
1 1 1
1 1 1
1 1 1
1 1 1
1 1 1
1 1 1
1 1 1
1 1 1
1 1 1
1 1 1
1 1 1
1 1 1
0.020692 0.0445159 0.0161783
0.0206393 0.0445102 0.0147091
0.0205634 0.0445065 0.0122247
0.0204537 0.0445135 0.0069316
0.0229045 0.0445996 0.0060738
0.0261603 0.0447226 0.0060547
0.0300828 0.0448901 0.006028
0.0347601 0.04512 0.0059911
0.0402894 0.045437 0.005941
0.0468222 0.0459152 0.0058786
0.0547062 0.0467765 0.0058202
0.0638465 0.0478096 0.0057229
0.0744305 0.0490949 0.0055758
0.0866874 0.0507324 0.0053628
0.1008951 0.0528416 0.0050571
0.1173862 0.0555613 0.0046116
0.1365549 0.0590497 0.0039323
0.1588592 0.0634829 0.0027653
0.1848145 0.0690522 0
0.2149657 0.0759602 0
0.2498232 0.0844124 0
0.2897234 0.0946003 0
0.3345614 0.1066694 0
0.3837583 0.1207923 0
0.4433994 0.1388213 0
0.5181435 0.1623285 0
0.5957401 0.1927958 0
0.6700938 0.232523 0.0069771
0.7364962 0.2961761 0.1101599
0.7964853 0.3787014 0.1983749
0.8486407 0.479999 0.3007954
0.8922889 0.5841729 0.4197451
0.9276514 0.6683592 0.5480139
0.9555923 0.7374593 0.6483892
0.9772846 0.7945059 0.7257131
0.9939428 0.8416331 0.7875219
1 0.8805308 0.8377388
1 0.9129168 0.8791072
1 0.9357105 0.9095369
1 0.9537194 0.9336727
1 0.9686896 0.953435
1 0.9810337 0.9695056
1 0.9911585 0.9825199
1 0.9969731 0.9936307
1 1 1
1 1 1
1 1 1
1 1 1
1 1 1
1 1 1
1 1 1
1 1 1
1 1 1
1 1 1
1 1 1
1 1 1
1 1 1
0.0244556 0.0526373 0.018806
0.0244103 0.0526338 0.0175205
0.0243467 0.0526324 0.0154853
0.0242568 0.0526383 0.0118857
0.0250817 0.0526786 0.0071939
0.0280747 0.0527722 0.0071764
0.0317367 0.0528993 0.007152
0.0361659 0.0530734 0.0071184
0.0414678 0.0533133 0.0070726
0.0477582 0.0536458 0.0070107
0.0552097 0.0541488 0.0069329
0.0642035 0.0550594 0.0068558
0.0746823 0.0561817 0.0067356
0.0868679 0.0576063 0.0065597
0.1010297 0.0594475 0.0063086
0.1174932 0.0618436 0.0059511
0.1366463 0.0649565 0.0054328
0.158942 0.0689707 0.0046462
0.1848917 0.0740898 0.0033075
0.2150373 0.0805302 0
0.2498844 0.0885109 0
0.2897678 0.0982356 0
0.3345796 0.1098583 0
0.3837563 0.1235636 0
0.4434064 0.141242 0
0.5181538 0.1644565 0
0.595745 0.194675 0
0.6700905 0.2341712 0.0079767
0.7364926 0.2975149 0.1102865
0.7964789 0.3797727 0.1984745
0.8486321 0.4808364 0.300877
0.8922796 0.5846483 0.4198127
0.9276427 0.6686262 0.5480599
0.9555851 0.7376135 0.6484149
0.977279 0.7945963 0.7257284
0.9939386 0.8416863 0.7875314
1 0.8805621 0.8377448
1 0.9129351 0.8791109
1 0.9357208 0.909539
1 0.9537253 0.933674
1 0.968693 0.9534358
1 0.9810356 0.9695061
1 0.9911596 0.9825202
1 0.9969733 0.993631
1 1 1
1 1 1
1 1 1
1 1 1
1 1 1
1 1 1
1 1 1
1 1 1
1 1 1
1 1 1
1 1 1
1 1 1
1 1 1
0.0287218 0.0618403 0.0218206
0.0286839 0.0618398 0.0207077
0.0286312 0.0618414 0.0190219
0.0285579 0.0618489 0.0163013
0.028455 0.0618705 0.0111847
0.0303979 0.0619349 0.008449
0.0337797 0.0620326 0.0084271
0.0379299 0.0621661 0.008397
0.0429646 0.0623498 0.0083559
0.0490089 0.0626044 0.0083001
0.0562001 0.0629592 0.008225
0.064738 0.0634999 0.0081303
0.075057 0.0644928 0.0080342
0.0871279 0.0657422 0.0078899
0.1012134 0.0673515 0.0076822
0.1176304 0.0694523 0.0073882
0.1367581 0.0722048 0.0069711
0.1590414 0.075797 0.0063679
0.1849845 0.0804412 0.0054558
0.2151236 0.0863669 0.003918
0.2499602 0.0938084 0
0.2898229 0.102984 0
0.3346007 0.1140608 0
0.3837519 0.127243 0
0.4434147 0.1444755 0
0.5181671 0.1673124 0
0.5957515 0.197206 0
0.6700861 0.236397 0.0091666
0.7364877 0.2993284 0.1104588
0.7964701 0.3812266 0.1986101
0.8486204 0.4819744 0.3009882
0.892267 0.5852936 0.4199047
0.9276309 0.668989 0.5481224
0.9555752 0.7378234 0.6484499
0.9772714 0.7947192 0.7257494
0.9939331 0.8417586 0.7875443
1 0.8806046 0.8377529
1 0.9129601 0.879116
1 0.9357348 0.9095419
1 0.9537333 0.9336758
1 0.9686975 0.953437
1 0.9810382 0.9695069
1 0.991161 0.9825207
1 0.9969735 0.9936314
1 1 1
1 1 1
1 1 1
1 1 1
1 1 1
1 1 1
1 1 1
1 1 1
1 1 1
1 1 1
1 1 1
1 1 1
1 1 1
0.033586 0.0723301 0.0252974
0.0335548 0.0723324 0.0243414
0.0335117 0.0723372 0.0229365
0.0334522 0.0723472 0.0207893
0.0333695 0.0723678 0.0172519
0.0332542 0.0724108 0.0100434
0.0363081 0.0724871 0.0098811
0.0401537 0.0725913 0.0098545
0.044884 0.0727344 0.0098182
0.0506359 0.0729322 0.0097687
0.0575574 0.0732076 0.0097018
0.0658108 0.0735935 0.009612
0.0756303 0.0741874 0.0094988
0.0875261 0.0753007 0.0093834
0.1014869 0.0767216 0.0092135
0.117823 0.078569 0.0089708
0.1369039 0.0809944 0.0086281
0.1591637 0.0841825 0.0081427
0.1850958 0.0883484 0.0074419
0.2152269 0.0937307 0.006387
0.2500504 0.1005773 0.0046334
0.289889 0.1091229 0
0.3346235 0.11955 0
0.3837429 0.1320919 0
0.4434242 0.1487688 0
0.5181842 0.1711266 0
0.5957599 0.2006015 0
0.67008 0.2393932 0.0105775
0.736481 0.3017795 0.1106932
0.7964582 0.3831971 0.1987947
0.8486045 0.4835193 0.3011396
0.8922498 0.5861683 0.4200301
0.9276149 0.6694818 0.5482077
0.9555617 0.7381087 0.6484977
0.9772609 0.7948865 0.7257779
0.9939255 0.8418571 0.7875619
1 0.8806626 0.8377639
1 0.912994 0.8791228
1 0.9357539 0.9095458
1 0.9537442 0.9336783
1 0.9687037 0.9534385
1 0.9810417 0.9695078
1 0.9911629 0.9825213
1 0.9969739 0.9936319
1 1 1
1 1 1
1 1 1
1 1 1
1 1 1
1 1 1
1 1 1
1 1 1
1 1 1
1 1 1
1 1 1
1 1 1
1 1 1
0.0391612 0.0843498 0.0293254
0.0391358 0.0843546 0.0285088
0.039101 0.0843622 0.0273339
0.0390531 0.0843748 0.0256
0.0389869 0.0843964 0.0229279
0.0388953 0.0844346 0.0184364
0.0394291 0.084501 0.0115473
0.0429521 0.0845841 0.0115241
0.0473468 0.0846978 0.0114924
0.0527626 0.0848545 0.0114491
0.0593607 0.0850721 0.0113904
0.0673159 0.0853762 0.0113112
0.0768203 0.0858043 0.0112051
0.088151 0.0864704 0.0110715
0.1019189 0.0877484 0.0109365
0.1181189 0.0893928 0.0107391
0.1371135 0.0915396 0.0104576
0.159325 0.0943623 0.0100599
0.1852331 0.0980705 0.0094963
0.2153501 0.1029046 0.0086847
0.2501566 0.1091209 0.007474
0.2899642 0.1169683 0.0055123
0.334645 0.1266462 0
0.383726 0.1384252 0
0.4434337 0.1544265 0
0.5182055 0.1761896 0
0.5957708 0.2051342 0
0.6700716 0.2434104 0.012246
0.7364719 0.3050834 0.111012
0.7964421 0.3858626 0.1990456
0.8485828 0.485614 0.3013457
0.8922264 0.587352 0.4202009
0.9275931 0.6701503 0.5483238
0.9555435 0.7384963 0.6485627
0.9772467 0.7951139 0.7258167
0.9939151 0.841991 0.7875859
1 0.8807414 0.8377789
1 0.9130403 0.8791322
1 0.9357799 0.909551
1 0.9537591 0.9336817
1 0.9687122 0.9534407
1 0.9810464 0.9695092
1 0.9911656 0.9825221
1 0.9969743 0.9936327
1 1 1
1 1 1
1 1 1
1 1 1
1 1 1
1 1 1
1 1 1
1 1 1
1 1 1
1 1 1
1 1 1
1 1 1
1 1 1
0.0455819 0.0981887 0.0340099
0.0455615 0.0981954 0.0333152
0.0455336 0.0982054 0.0323306
0.0454954 0.0982204 0.0309113
0.0454428 0.0982435 0.028809
0.0453703 0.0982804 0.0255459
0.0452701 0.0983415 0.0199618
0.0464531 0.0984286 0.0134455
0.0504895 0.0985212 0.0134182
0.0555319 0.0986483 0.0133808
0.0617558 0.0988239 0.01333
0.0693508 0.0990683 0.0132611
0.0785234 0.0994109 0.0131683
0.0895008 0.0998948 0.0130439
0.1026132 0.100656 0.0128878
0.1185989 0.1021497 0.0127326
0.1374433 0.1040761 0.0125054
0.1595605 0.1065891 0.0121803
0.1854152 0.1098837 0.0117197
0.2155016 0.1141917 0.0110671
0.250281 0.1197692 0.0101328
0.290048 0.1268721 0.0087639
0.3346585 0.1357133 0.0066491
0.3836957 0.1466117 0.0023986
0.4434415 0.1618159 0
0.5182315 0.1828594 0
0.5957845 0.2111468 0
0.6700604 0.2487682 0.0142166
0.7364595 0.3095204 0.1114453
0.7964202 0.389459 0.1993866
0.8485535 0.488449 0.3016263
0.8921946 0.5889498 0.4204336
0.9275635 0.6710559 0.5484819
0.9555186 0.7390224 0.6486513
0.9772275 0.795423 0.7258697
0.993901 0.8421732 0.7876187
1 0.8808487 0.8377994
1 0.9131032 0.8791449
1 0.9358152 0.9095583
1 0.9537793 0.9336864
1 0.9687237 0.9534436
1 0.9810529 0.969511
1 0.9911692 0.9825233
1 0.996975 0.9936337
1 1 1
1 1 1
1 1 1
1 1 1
1 1 1
1 1 1
1 1 1
1 1 1
1 1 1
1 1 1
1 1 1
1 1 1
1 1 1
0.0530075 0.1141898 0.0394752
0.0529913 0.114198 0.0388858
0.0529692 0.1142097 0.0380596
0.0529389 0.1142265 0.0368875
0.0528974 0.1142512 0.0351951
0.0528404 0.114288 0.032681
0.0527619 0.1143448 0.0287568
0.0526533 0.1144351 0.0219418
0.0544643 0.114543 0.0156429
0.0591056 0.1146485 0.015611
0.0649111 0.1147936 0.0155675
0.0720866 0.1149944 0.0155083
0.0808556 0.1152742 0.0154281
0.0914618 0.115667 0.01532
0.1041739 0.1162228 0.0151751
0.1193856 0.1171055 0.0149939
0.1379889 0.1188711 0.0148175
0.1599368 0.1211406 0.0145571
0.1856831 0.1240847 0.014182
0.2157023 0.1279148 0.0136489
0.2504317 0.1328745 0.0128955
0.2901397 0.1392156 0.0118312
0.3346576 0.1471553 0.0103251
0.3836431 0.15707 0.008191
0.4434439 0.1713657 0.0045083
0.5182622 0.1915658 0
0.5958018 0.2190599 0
0.6700454 0.255866 0.016544
0.7364427 0.3154516 0.1120336
0.7963905 0.3942955 0.1998496
0.8485137 0.4922769 0.3020081
0.8921516 0.5910993 0.4207506
0.9275234 0.6722797 0.5486973
0.9554849 0.7397354 0.6487721
0.9772013 0.7958425 0.7259419
0.9938819 0.8424208 0.7876632
1 0.8809947 0.8378273
1 0.9131889 0.8791623
1 0.9358634 0.9095681
1 0.9538069 0.9336927
1 0.9687393 0.9534476
1 0.9810618 0.9695135
1 0.9911742 0.9825248
1 0.9969758 0.9936352
1 1 1
