release/datafiles/colormanagement/luts/AgX_Base_P3.cube
TITLE "AgX_Formation P3"
# AgX Base P3 Formation LUT
# This LUT expects input to be E Gamut Log2 encoding from -10 stops to +15 stops
# But the end image formation will be from -10 to 6.5 encoded in power 2.4
#  rotate = [3.0, -1, -2.0], inset = [0.4, 0.22, 0.13], outset = [0.4, 0.22, 0.04]
# The image formed has 40% per-channel shifts
LUT_3D_SIZE 37
0.0000005 0.0000000 0.0000018
0.0076450 0.0017645 0.0000000
0.0165083 0.0040979 0.0000000
0.0268705 0.0071278 0.0000000
0.0390811 0.0109822 0.0000000
0.0535976 0.0157820 0.0000000
0.0708829 0.0207540 0.0000000
0.0923438 0.0268227 0.0000000
0.1189616 0.0342556 0.0000000
0.1520669 0.0433849 0.0000000
0.1934591 0.0546699 0.0000000
0.2454934 0.0687376 0.0000000
0.3110636 0.0864302 0.0000000
0.3932334 0.1088436 0.0000000
0.4939100 0.1373129 0.0000000
0.6091125 0.1732448 0.0000000
0.7242350 0.2180421 0.0000000
0.8175451 0.3001444 0.1712954
0.8858976 0.4070253 0.3041866
0.9366713 0.5144105 0.4357794
0.9741500 0.6117231 0.5522838
1.0023930 0.6952861 0.6494637
1.0242817 0.7654494 0.7295598
1.0417970 0.8237709 0.7952625
1.0555697 0.8739469 0.8513690
1.0619481 0.9289426 0.9133502
1.0695182 0.9690098 0.9576998
1.0774234 0.9995276 0.9910297
1.0852053 1.0235474 1.0169854
1.0926299 1.0429393 1.0377585
1.0995899 1.0589162 1.0547491
1.1060484 1.0722999 1.0688946
1.1120070 1.0836673 1.0808460
1.1174874 1.0934358 1.0910699
1.1225212 1.1019144 1.0999093
1.1271437 1.1093376 1.1076219
1.1313905 1.1158861 1.1144056
0.0000000 0.0072502 0.0025553
0.0081621 0.0078460 0.0000000
0.0170884 0.0113496 0.0000000
0.0274276 0.0145413 0.0000000
0.0395718 0.0179289 0.0000000
0.0539856 0.0218437 0.0000000
0.0712780 0.0259878 0.0000000
0.0926539 0.0312125 0.0000000
0.1191798 0.0378528 0.0000000
0.1522154 0.0462869 0.0000000
0.1935615 0.0569881 0.0000000
0.2455668 0.0705785 0.0000000
0.3111182 0.0878862 0.0000000
0.3932740 0.1099891 0.0000000
0.4939369 0.1382042 0.0000000
0.6091214 0.1739196 0.0000000
0.7242248 0.2185277 0.0000000
0.8175309 0.3004223 0.1713039
0.8858852 0.4071686 0.3041998
0.9366627 0.5144804 0.4357899
0.9741448 0.6117571 0.5522897
1.0023899 0.6953028 0.6494669
1.0242800 0.7654577 0.7295614
1.0417961 0.8237750 0.7952633
1.0555692 0.8739491 0.8513696
1.0619478 0.9289435 0.9133504
1.0695181 0.9690102 0.9576999
1.0774234 0.9995278 0.9910298
1.0852053 1.0235475 1.0169855
1.0926299 1.0429393 1.0377585
1.0995899 1.0589162 1.0547491
1.1060484 1.0722999 1.0688946
1.1120070 1.0836673 1.0808460
1.1174874 1.0934358 1.0910699
1.1225212 1.1019144 1.0999093
1.1271437 1.1093376 1.1076219
1.1313905 1.1158861 1.1144056
0.0000000 0.0157372 0.0052877
0.0110066 0.0159853 0.0000000
0.0174096 0.0167496 0.0000000
0.0277984 0.0206290 0.0000000
0.0399784 0.0243581 0.0000000
0.0544186 0.0281787 0.0000000
0.0717835 0.0321147 0.0000000
0.0930856 0.0368274 0.0000000
0.1195018 0.0427877 0.0000000
0.1524428 0.0504837 0.0000000
0.1937219 0.0604699 0.0000000
0.2456833 0.0734166 0.0000000
0.3112056 0.0901704 0.0000000
0.3933391 0.1118068 0.0000000
0.4939802 0.1396290 0.0000000
0.6091358 0.1750036 0.0000000
0.7242082 0.2193100 0.0000000
0.8175077 0.3008712 0.1713177
0.8858650 0.4074004 0.3042212
0.9366488 0.5145934 0.4358070
0.9741362 0.6118122 0.5522993
1.0023849 0.6953299 0.6494720
1.0242772 0.7654710 0.7295641
1.0417946 0.8237817 0.7952647
1.0555683 0.8739526 0.8513704
1.0619474 0.9289450 0.9133508
1.0695179 0.9690109 0.9577001
1.0774233 0.9995282 0.9910299
1.0852053 1.0235477 1.0169855
1.0926299 1.0429394 1.0377585
1.0995899 1.0589162 1.0547491
1.1060484 1.0722999 1.0688946
1.1120070 1.0836674 1.0808460
1.1174874 1.0934358 1.0910699
1.1225212 1.1019144 1.0999093
1.1271437 1.1093376 1.1076219
1.1313905 1.1158861 1.1144056
0.0000000 0.0257006 0.0081109
0.0129334 0.0258094 0.0000000
0.0205594 0.0261501 0.0000000
0.0280696 0.0270212 0.0000000
0.0402926 0.0312178 0.0000000
0.0549338 0.0353297 0.0000000
0.0723943 0.0393778 0.0000000
0.0936519 0.0438695 0.0000000
0.1199558 0.0493367 0.0000000
0.1527806 0.0563472 0.0000000
0.1939683 0.0655476 0.0000000
0.2458662 0.0776947 0.0000000
0.3113445 0.0936971 0.0000000
0.3934432 0.1146604 0.0000000
0.4940498 0.1418908 0.0000000
0.6091587 0.1767369 0.0000000
0.7241814 0.2205669 0.0000000
0.8174703 0.3015952 0.1713402
0.8858325 0.4077748 0.3042558
0.9366264 0.5147762 0.4358346
0.9741224 0.6119012 0.5523149
1.0023769 0.6953736 0.6494803
1.0242727 0.7654927 0.7295684
1.0417921 0.8237926 0.7952669
1.0555670 0.8739583 0.8513719
1.0619468 0.9289475 0.9133514
1.0695176 0.9690120 0.9577004
1.0774232 0.9995287 0.9910300
1.0852052 1.0235479 1.0169856
1.0926299 1.0429395 1.0377586
1.0995899 1.0589163 1.0547492
1.1060484 1.0722999 1.0688946
1.1120070 1.0836674 1.0808460
1.1174874 1.0934358 1.0910699
1.1225212 1.1019144 1.0999093
1.1271437 1.1093376 1.1076219
1.1313905 1.1158861 1.1144056
0.0000000 0.0374533 0.0108970
0.0140364 0.0374868 0.0000000
0.0232088 0.0376795 0.0000000
0.0313989 0.0380521 0.0000000
0.0407769 0.0392652 0.0000000
0.0555641 0.0437999 0.0000000
0.0730943 0.0480920 0.0000000
0.0943443 0.0525893 0.0000000
0.1205586 0.0577868 0.0000000
0.1532611 0.0642608 0.0000000
0.1943364 0.0727063 0.0000000
0.2461480 0.0839611 0.0000000
0.3115625 0.0990236 0.0000000
0.3936086 0.1190702 0.0000000
0.4941610 0.1454432 0.0000000
0.6091954 0.1794896 0.0000000
0.7241381 0.2225779 0.0000000
0.8174098 0.3027606 0.1713767
0.8857799 0.4083789 0.3043120
0.9365902 0.5150714 0.4358793
0.9741000 0.6120452 0.5523401
1.0023639 0.6954443 0.6494937
1.0242655 0.7655278 0.7295753
1.0417882 0.8238101 0.7952704
1.0555647 0.8739674 0.8513742
1.0619458 0.9289514 0.9133524
1.0695171 0.9690138 0.9577008
1.0774230 0.9995295 0.9910302
1.0852051 1.0235483 1.0169857
1.0926298 1.0429397 1.0377586
1.0995899 1.0589164 1.0547492
1.1060484 1.0723000 1.0688946
1.1120069 1.0836674 1.0808460
1.1174874 1.0934358 1.0910699
1.1225212 1.1019145 1.0999093
1.1271437 1.1093377 1.1076219
1.1313905 1.1158861 1.1144056
0.0000000 0.0514385 0.0135613
0.0142062 0.0515144 0.0000000
0.0250905 0.0517334 0.0000000
0.0344596 0.0521304 0.0000000
0.0444245 0.0528153 0.0000000
0.0563015 0.0542099 0.0000000
0.0738514 0.0586989 0.0000000
0.0951249 0.0633270 0.0000000
0.1212995 0.0684643 0.0000000
0.1539043 0.0746164 0.0000000
0.1948635 0.0824533 0.0000000
0.2465706 0.0928392 0.0000000
0.3118991 0.1068451 0.0000000
0.3938683 0.1257385 0.0000000
0.4943373 0.1509370 0.0000000
0.6092534 0.1838159 0.0000000
0.7240680 0.2257739 0.0000000
0.8173119 0.3046307 0.1714365
0.8856950 0.4093523 0.3044030
0.9365317 0.5155482 0.4359516
0.9740639 0.6122779 0.5523809
1.0023429 0.6955587 0.6495154
1.0242538 0.7655844 0.7295866
1.0417818 0.8238384 0.7952762
1.0555610 0.8739822 0.8513779
1.0619441 0.9289578 0.9133541
1.0695164 0.9690167 0.9577016
1.0774226 0.9995309 0.9910305
1.0852049 1.0235490 1.0169858
1.0926298 1.0429401 1.0377587
1.0995899 1.0589166 1.0547492
1.1060484 1.0723001 1.0688946
1.1120069 1.0836674 1.0808460
1.1174874 1.0934358 1.0910699
1.1225212 1.1019145 1.0999093
1.1271437 1.1093377 1.1076219
1.1313905 1.1158862 1.1144056
0.0000000 0.0687869 0.0184460
0.0094945 0.0688339 0.0000000
0.0252321 0.0689619 0.0000000
0.0362610 0.0691976 0.0000000
0.0473614 0.0696188 0.0000000
0.0597206 0.0703420 0.0000000
0.0745900 0.0718129 0.0000000
0.0959205 0.0765676 0.0000000
0.1221257 0.0817870 0.0000000
0.1546983 0.0878434 0.0000000
0.1955743 0.0953072 0.0000000
0.2471789 0.1049872 0.0000000
0.3124049 0.1179575 0.0000000
0.3942688 0.1355451 0.0000000
0.4946131 0.1592524 0.0000000
0.6093438 0.1905123 0.0000000
0.7239549 0.2308023 0.0000000
0.8171537 0.3076166 0.1715346
0.8855579 0.4109163 0.3045509
0.9364371 0.5163168 0.4360687
0.9740054 0.6126537 0.5524469
1.0023090 0.6957436 0.6495505
1.0242348 0.7656761 0.7296048
1.0417714 0.8238843 0.7952856
1.0555551 0.8740061 0.8513840
1.0619415 0.9289682 0.9133567
1.0695151 0.9690214 0.9577028
1.0774220 0.9995331 0.9910311
1.0852046 1.0235501 1.0169861
1.0926296 1.0429406 1.0377588
1.0995898 1.0589168 1.0547493
1.1060483 1.0723002 1.0688947
1.1120069 1.0836675 1.0808461
1.1174874 1.0934359 1.0910699
1.1225212 1.1019145 1.0999093
1.1271437 1.1093377 1.1076219
1.1313905 1.1158862 1.1144056
0.0000000 0.0896058 0.0244473
0.0000000 0.0896570 0.0151223
0.0224599 0.0897424 0.0000000
0.0362767 0.0898806 0.0000000
0.0489884 0.0901347 0.0000000
0.0625401 0.0905904 0.0000000
0.0779620 0.0913784 0.0000000
0.0966040 0.0929990 0.0000000
0.1229330 0.0983349 0.0000000
0.1555785 0.1044716 0.0000000
0.1964566 0.1118289 0.0000000
0.2480042 0.1210813 0.0000000
0.3131347 0.1332078 0.0000000
0.3948698 0.1495019 0.0000000
0.4950363 0.1714946 0.0000000
0.6094814 0.2006585 0.0000000
0.7237721 0.2385962 0.0000000
0.8168981 0.3123466 0.1716975
0.8853372 0.4134183 0.3047914
0.9362846 0.5175531 0.4362583
0.9739110 0.6132598 0.5525537
1.0022541 0.6960422 0.6496074
1.0242041 0.7658243 0.7296343
1.0417547 0.8239585 0.7953007
1.0555456 0.8740449 0.8513938
1.0619372 0.9289850 0.9133609
1.0695132 0.9690291 0.9577047
1.0774211 0.9995367 0.9910320
1.0852042 1.0235518 1.0169866
1.0926294 1.0429415 1.0377591
1.0995897 1.0589173 1.0547494
1.1060483 1.0723004 1.0688947
1.1120069 1.0836676 1.0808461
1.1174874 1.0934359 1.0910700
1.1225212 1.1019145 1.0999093
1.1271437 1.1093377 1.1076219
1.1313905 1.1158862 1.1144056
0.0000000 0.1149697 0.0319180
0.0000000 0.1150274 0.0259187
0.0090454 0.1151373 0.0000000
0.0332880 0.1152195 0.0000000
0.0486833 0.1153726 0.0000000
0.0640081 0.1156556 0.0000000
0.0807956 0.1161674 0.0000000
0.1001222 0.1170614 0.0000000
0.1235503 0.1189287 0.0000000
0.1564137 0.1252205 0.0000000
0.1974350 0.1326969 0.0000000
0.2490348 0.1418489 0.0000000
0.3141272 0.1534684 0.0000000
0.3957345 0.1686887 0.0000000
0.4956655 0.1889367 0.0000000
0.6096824 0.2156109 0.0000000
0.7234773 0.2504243 0.0000000
0.8164858 0.3197511 0.1719711
0.8849826 0.4173940 0.3051839
0.9360392 0.5195346 0.4365655
0.9737589 0.6142355 0.5527266
1.0021656 0.6965239 0.6496994
1.0241545 0.7660637 0.7296820
1.0417276 0.8240784 0.7953252
1.0555301 0.8741075 0.8514097
1.0619302 0.9290122 0.9133678
1.0695100 0.9690414 0.9577078
1.0774196 0.9995425 0.9910335
1.0852035 1.0235546 1.0169873
1.0926291 1.0429428 1.0377594
1.0995895 1.0589180 1.0547496
1.1060482 1.0723008 1.0688948
1.1120069 1.0836678 1.0808461
1.1174873 1.0934360 1.0910700
1.1225212 1.1019146 1.0999093
1.1271437 1.1093377 1.1076220
1.1313905 1.1158862 1.1144056
0.0000000 0.1462827 0.0413174
0.0000000 0.1463440 0.0371003
0.0000000 0.1464538 0.0281187
0.0222940 0.1466000 0.0000000
0.0449479 0.1466950 0.0000000
0.0632815 0.1468724 0.0000000
0.0821685 0.1472023 0.0000000
0.1031498 0.1478030 0.0000000
0.1274611 0.1488614 0.0000000
0.1569913 0.1511050 0.0000000
0.1983511 0.1588200 0.0000000
0.2501821 0.1681604 0.0000000
0.3153687 0.1796746 0.0000000
0.3969037 0.1942168 0.0000000
0.4965564 0.2129329 0.0000000
0.6099554 0.2369248 0.0000000
0.7230021 0.2678798 0.0000000
0.8158222 0.3311407 0.1724399
0.8844155 0.4236450 0.3058275
0.9356455 0.5226922 0.4370634
0.9735141 0.6158008 0.5530063
1.0020228 0.6972997 0.6498482
1.0240745 0.7664499 0.7297592
1.0416838 0.8242721 0.7953648
1.0555051 0.8742087 0.8514354
1.0619189 0.9290562 0.9133789
1.0695048 0.9690614 0.9577129
1.0774172 0.9995519 0.9910359
1.0852023 1.0235591 1.0169884
1.0926285 1.0429451 1.0377600
1.0995892 1.0589191 1.0547499
1.1060481 1.0723014 1.0688950
1.1120068 1.0836681 1.0808462
1.1174873 1.0934362 1.0910700
1.1225212 1.1019147 1.0999093
1.1271437 1.1093378 1.1076220
1.1313905 1.1158862 1.1144056
0.0000000 0.1853793 0.0532353
0.0000000 0.1854415 0.0501713
0.0000000 0.1855469 0.0444965
0.0000000 0.1857301 0.0318690
0.0323967 0.1859199 0.0000000
0.0584374 0.1860355 0.0000000
0.0809607 0.1862513 0.0000000
0.1045415 0.1866530 0.0000000
0.1309301 0.1873870 0.0000000
0.1616183 0.1886875 0.0000000
0.1989490 0.1914741 0.0000000
0.2512560 0.2011675 0.0000000
0.3167492 0.2129316 0.0000000
0.3983487 0.2272639 0.0000000
0.4977261 0.2448579 0.0000000
0.6102771 0.2662259 0.0000000
0.7222361 0.2927704 0.0000000
0.8147576 0.3482323 0.1732642
0.8835150 0.4333181 0.3068896
0.9350173 0.5276788 0.4378710
0.9731217 0.6182994 0.5534591
1.0017932 0.6985451 0.6500889
1.0239456 0.7670721 0.7298841
1.0416132 0.8245848 0.7954289
1.0554647 0.8743723 0.8514769
1.0619007 0.9291272 0.9133968
1.0694964 0.9690938 0.9577210
1.0774133 0.9995671 0.9910397
1.0852005 1.0235665 1.0169903
1.0926276 1.0429487 1.0377609
1.0995888 1.0589209 1.0547503
1.1060479 1.0723023 1.0688952
1.1120067 1.0836686 1.0808463
1.1174873 1.0934364 1.0910701
1.1225212 1.1019148 1.0999094
1.1271437 1.1093378 1.1076220
1.1313905 1.1158862 1.1144056
0.0000000 0.2346048 0.0683905
0.0000000 0.2346655 0.0661214
0.0000000 0.2347660 0.0621683
0.0000000 0.2349343 0.0547972
0.0000000 0.2352219 0.0379875
0.0429296 0.2354788 0.0000000
0.0746780 0.2356243 0.0000000
0.1028221 0.2358949 0.0000000
0.1325044 0.2363976 0.0000000
0.1658426 0.2373167 0.0000000
0.2046823 0.2389497 0.0000000
0.2519484 0.2424694 0.0000000
0.3180317 0.2546739 0.0000000
0.3999143 0.2691866 0.0000000
0.4990898 0.2861217 0.0000000
0.6105410 0.3050903 0.0000000
0.7209996 0.3269170 0.0000000
0.8130605 0.3730470 0.1747614
0.8821001 0.4479416 0.3086577
0.9340226 0.5354462 0.4391819
0.9724961 0.6222556 0.5541916
1.0014251 0.7005353 0.6504782
1.0237381 0.7680714 0.7300861
1.0414993 0.8250884 0.7955326
1.0553995 0.8746363 0.8515441
1.0618712 0.9292420 0.9134258
1.0694828 0.9691460 0.9577342
1.0774069 0.9995917 0.9910459
1.0851975 1.0235784 1.0169933
1.0926262 1.0429546 1.0377624
1.0995881 1.0589239 1.0547511
1.1060475 1.0723038 1.0688956
1.1120065 1.0836694 1.0808465
1.1174872 1.0934368 1.0910702
1.1225211 1.1019150 1.0999094
1.1271437 1.1093379 1.1076220
1.1313905 1.1158863 1.1144056
0.0000000 0.2967618 0.0875444
0.0000000 0.2968194 0.0858375
0.0000000 0.2969135 0.0829554
0.0000000 0.2970685 0.0779268
0.0000000 0.2973262 0.0685203
0.0000000 0.2977619 0.0468260
0.0551897 0.2981194 0.0000000
0.0948099 0.2983005 0.0000000
0.1302650 0.2986368 0.0000000
0.1677770 0.2992617 0.0000000
0.2099709 0.3004058 0.0000000
0.2591301 0.3024441 0.0000000
0.3188349 0.3068424 0.0000000
0.4012790 0.3216755 0.0000000
0.5003842 0.3382499 0.0000000
0.6104711 0.3549798 0.0000000
0.7189991 0.3719178 0.0000000
0.8103884 0.4076002 0.1775806
0.8799114 0.4693461 0.3116300
0.9324668 0.5473001 0.4413105
0.9715072 0.6284427 0.5553763
1.0008387 0.7036916 0.6511074
1.0234057 0.7696694 0.7304127
1.0413162 0.8258977 0.7957003
1.0552945 0.8750615 0.8516527
1.0618236 0.9294273 0.9134728
1.0694609 0.9692305 0.9577556
1.0773967 0.9996315 0.9910560
1.0851926 1.0235976 1.0169982
1.0926238 1.0429641 1.0377648
1.0995870 1.0589286 1.0547523
1.1060469 1.0723062 1.0688962
1.1120062 1.0836706 1.0808469
1.1174870 1.0934375 1.0910704
1.1225210 1.1019153 1.0999095
1.1271436 1.1093381 1.1076221
1.1313905 1.1158864 1.1144056
0.0000000 0.3746378 0.1111664
0.0000000 0.3746908 0.1098599
0.0000000 0.3747771 0.1076913
0.0000000 0.3749179 0.1040264
0.0000000 0.3751490 0.0976215
0.0000000 0.3755315 0.0855985
0.0000000 0.3761729 0.0575090
0.0710043 0.3766487 0.0000000
0.1203976 0.3768530 0.0000000
0.1650043 0.3772374 0.0000000
0.2123106 0.3779604 0.0000000
0.2655217 0.3792982 0.0000000
0.3273699 0.3817026 0.0000000
0.4019408 0.3868747 0.0000000
0.5011106 0.4029509 0.0000000
0.6095196 0.4171847 0.0000000
0.7157694 0.4289009 0.0000000
0.8063187 0.4531253 0.1831463
0.8765978 0.4993992 0.3166641
0.9300753 0.5648740 0.4447634
0.9699639 0.6379407 0.5572894
0.9999125 0.7086402 0.6521232
1.0228763 0.7722067 0.7309401
1.0410227 0.8271925 0.7959713
1.0551255 0.8757448 0.8518282
1.0617469 0.9297260 0.9135486
1.0694256 0.9693668 0.9577901
1.0773801 0.9996958 0.9910723
1.0851847 1.0236287 1.0170061
1.0926200 1.0429794 1.0377688
1.0995851 1.0589364 1.0547543
1.1060460 1.0723102 1.0688973
1.1120058 1.0836727 1.0808474
1.1174868 1.0934385 1.0910706
1.1225209 1.1019159 1.0999097
1.1271436 1.1093384 1.1076221
1.1313904 1.1158866 1.1144057
0.0000000 0.4694147 0.1384410
0.0000000 0.4694617 0.1374164
0.0000000 0.4695381 0.1357318
0.0000000 0.4696623 0.1329319
0.0000000 0.4698648 0.1281899
0.0000000 0.4701962 0.1198677
0.0000000 0.4707430 0.1040916
0.0000000 0.4716554 0.0656274
0.0939095 0.4721642 0.0000000
0.1536580 0.4723234 0.0000000
0.2088912 0.4726487 0.0000000
0.2677546 0.4733025 0.0000000
0.3338831 0.4745742 0.0000000
0.4102282 0.4769385 0.0000000
0.5005241 0.4819589 0.0000000
0.6068256 0.4925197 0.0000000
0.7107413 0.4977958 0.0000000
0.8003905 0.5097436 0.1941164
0.8717154 0.5395909 0.3251868
0.9264854 0.5899448 0.4503369
0.9675998 0.6521392 0.5603680
0.9984690 0.7162663 0.6537591
1.0220404 0.7761918 0.7317907
1.0405554 0.8292501 0.7964088
1.0548549 0.8768380 0.8521113
1.0616237 0.9302060 0.9136712
1.0693686 0.9695865 0.9578460
1.0773534 0.9997996 0.9910987
1.0851720 1.0236789 1.0170189
1.0926139 1.0430043 1.0377751
1.0995821 1.0589488 1.0547575
1.1060445 1.0723165 1.0688989
1.1120050 1.0836760 1.0808483
1.1174864 1.0934403 1.0910711
1.1225207 1.1019168 1.0999099
1.1271435 1.1093389 1.1076223
1.1313904 1.1158868 1.1144057
0.0000000 0.5749747 0.1635483
0.0000000 0.5750132 0.1627033
0.0000000 0.5750755 0.1613207
0.0000000 0.5751767 0.1590424
0.0000000 0.5753412 0.1552411
0.0000000 0.5756091 0.1487575
0.0000000 0.5760473 0.1372153
0.0000000 0.5767691 0.1145326
0.0000000 0.5779711 0.0433382
0.1310330 0.5779857 0.0000000
0.1978725 0.5778277 0.0000000
0.2631313 0.5776589 0.0000000
0.3335310 0.5775512 0.0000000
0.4123511 0.5776607 0.0000000
0.5016851 0.5782854 0.0000000
0.6015713 0.5798527 0.0000000
0.7032891 0.5771919 0.0000000
0.7920408 0.5771672 0.2142124
0.8647389 0.5906828 0.3393869
0.9212562 0.6240742 0.4592212
0.9640683 0.6726171 0.5652840
0.9962618 0.7277294 0.6563818
1.0207385 0.7823494 0.7331587
1.0398177 0.8324860 0.7971141
1.0544242 0.8785754 0.8525672
1.0614263 0.9309745 0.9138690
1.0692771 0.9699399 0.9579362
1.0773104 0.9999669 0.9911413
1.0851515 1.0237600 1.0170396
1.0926040 1.0430444 1.0377854
1.0995772 1.0589690 1.0547627
1.1060421 1.0723268 1.0689016
1.1120038 1.0836813 1.0808497
1.1174858 1.0934431 1.0910718
1.1225204 1.1019183 1.0999103
1.1271433 1.1093397 1.1076225
1.1313903 1.1158872 1.1144059
0.0000000 0.6739650 0.1703926
0.0000000 0.6739955 0.1696031
0.0000000 0.6740449 0.1683131
0.0000000 0.6741250 0.1661926
0.0000000 0.6742549 0.1626696
0.0000000 0.6744661 0.1567066
0.0000000 0.6748100 0.1462500
0.0000000 0.6753727 0.1264398
0.0000000 0.6762993 0.0777639
0.1163917 0.6764949 0.0000000
0.1887226 0.6760210 0.0000000
0.2558608 0.6753175 0.0000000
0.3269527 0.6743168 0.0000000
0.4053331 0.6729792 0.0000000
0.4919083 0.6714156 0.0000000
0.5869437 0.6699010 0.0000000
0.6912830 0.6671807 0.1181816
0.7806400 0.6548710 0.2474874
0.8550903 0.6526242 0.3621744
0.9139003 0.6682065 0.4730371
0.9589587 0.7008638 0.5730162
0.9929741 0.7443873 0.6605484
1.0187499 0.7916419 0.7353472
1.0386691 0.8374962 0.7982474
1.0537449 0.8813077 0.8532992
1.0611121 0.9321969 0.9141877
1.0691304 0.9705057 0.9580818
1.0772411 1.0002359 0.9912102
1.0851184 1.0238908 1.0170731
1.0925879 1.0431092 1.0378020
1.0995694 1.0590016 1.0547711
1.1060382 1.0723435 1.0689059
1.1120019 1.0836899 1.0808519
1.1174848 1.0934476 1.0910730
1.1225199 1.1019207 1.0999109
1.1271430 1.1093410 1.1076228
1.1313902 1.1158879 1.1144060
0.0000000 0.7617324 0.1357081
0.0000000 0.7617571 0.1346773
0.0000000 0.7617971 0.1329844
0.0000000 0.7618618 0.1301762
0.0000000 0.7619668 0.1254356
0.0000000 0.7621370 0.1171612
0.0000000 0.7624135 0.1016293
0.0000000 0.7628638 0.0646115
0.0897132 0.7629369 0.0000000
0.1480632 0.7625768 0.0000000
0.2021121 0.7620135 0.0000000
0.2597476 0.7611495 0.0000000
0.3238460 0.7598671 0.0000000
0.3972140 0.7577951 0.0707142
0.4784289 0.7549742 0.1154224
0.5674281 0.7514666 0.1646986
0.6642590 0.7474753 0.2237146
0.7657178 0.7417443 0.2971813
0.8422808 0.7245023 0.3962467
0.9039509 0.7224146 0.4936709
0.9518377 0.7379100 0.5848621
0.9882368 0.7675849 0.6670599
1.0157927 0.8052199 0.7388145
1.0369156 0.8450797 0.8000584
1.0526891 0.8855378 0.8544686
1.0606167 0.9341225 0.9146995
1.0688970 0.9714065 0.9583163
1.0771303 1.0006669 0.9913213
1.0850652 1.0241011 1.0171271
1.0925621 1.0432136 1.0378289
1.0995567 1.0590543 1.0547847
1.1060319 1.0723704 1.0689129
1.1119987 1.0837038 1.0808555
1.1174832 1.0934549 1.0910749
1.1225191 1.1019245 1.0999119
1.1271426 1.1093430 1.1076234
1.1313900 1.1158890 1.1144063
0.2541250 0.8317202 0.2321815
0.2544827 0.8317129 0.2322064
0.2550598 0.8317011 0.2322467
0.2559892 0.8316820 0.2323120
0.2574814 0.8316512 0.2324178
0.2598664 0.8316015 0.2325893
0.2636506 0.8315213 0.2328677
0.2695890 0.8313923 0.2333205
0.2787566 0.8311859 0.2340586
0.2925853 0.8308572 0.2352668
0.3128103 0.8303390 0.2372546
0.3412763 0.8295342 0.2405447
0.3796191 0.8283111 0.2460162
0.4289305 0.8265086 0.2551070
0.4895691 0.8239574 0.2700111
0.5612159 0.8205214 0.2936740
0.6430249 0.8161660 0.3293085
0.7333325 0.8111133 0.3790816
0.8263661 0.8041087 0.4421570
0.8911304 0.7857529 0.5227863
0.9423307 0.7840125 0.6022932
0.9816742 0.7983431 0.6769626
1.0115420 0.8242647 0.7442143
1.0343101 0.8562074 0.8029230
1.0510816 0.8919386 0.8563213
1.0598470 0.9371109 0.9155174
1.0685292 0.9728268 0.9586930
1.0769539 1.0013533 0.9915004
1.0849800 1.0244382 1.0172144
1.0925206 1.0433816 1.0378723
1.0995363 1.0591392 1.0548067
1.1060218 1.0724139 1.0689242
1.1119936 1.0837264 1.0808614
1.1174806 1.0934667 1.0910780
1.1225178 1.1019308 1.0999136
1.1271419 1.1093464 1.1076243
1.1313896 1.1158908 1.1144068
0.4068420 0.8853740 0.3772679
0.4069685 0.8853690 0.3772855
0.4071731 0.8853610 0.3773139
0.4075036 0.8853480 0.3773599
0.4080373 0.8853271 0.3774343
0.4088978 0.8852932 0.3775548
0.4102819 0.8852384 0.3777499
0.4125003 0.8851502 0.3780659
0.4160356 0.8850085 0.3785778
0.4216197 0.8847815 0.3794078
0.4303206 0.8844204 0.3807542
0.4436087 0.8838516 0.3829397
0.4633339 0.8829688 0.3864838
0.4915325 0.8816285 0.3922074
0.5300291 0.8796552 0.4013625
0.5799545 0.8768657 0.4157114
0.6414129 0.8731217 0.4373968
0.7133776 0.8684239 0.4684028
0.7935541 0.8630821 0.5096258
0.8757552 0.8559177 0.5610718
0.9302981 0.8384021 0.6265714
0.9729882 0.8370430 0.6914266
1.0056755 0.8497337 0.7523951
1.0305700 0.8719034 0.8073761
1.0487038 0.9013235 0.8592176
1.0586759 0.9416494 0.9168144
1.0679577 0.9750348 0.9592953
1.0766759 1.0024366 0.9917880
1.0848445 1.0249752 1.0173549
1.0924542 1.0436509 1.0379423
1.0995035 1.0592759 1.0548422
1.1060054 1.0724840 1.0689424
1.1119854 1.0837628 1.0808709
1.1174764 1.0934857 1.0910830
1.1225156 1.1019409 1.0999162
1.1271408 1.1093517 1.1076257
1.1313890 1.1158937 1.1144076
0.5296296 0.9275358 0.5058051
0.5296846 0.9275327 0.5058148
0.5297737 0.9275277 0.5058303
0.5299179 0.9275197 0.5058555
0.5301508 0.9275068 0.5058963
0.5305272 0.9274858 0.5059623
0.5311345 0.9274519 0.5060691
0.5321131 0.9273972 0.5062419
0.5336856 0.9273091 0.5065215
0.5362015 0.9271675 0.5069738
0.5402003 0.9269408 0.5077054
0.5464896 0.9265804 0.5088878
0.5562267 0.9260132 0.5107969
0.5709568 0.9251340 0.5138707
0.5925337 0.9238016 0.5187921
0.6228451 0.9218446 0.5265827
0.6633518 0.9190878 0.5386562
0.7146052 0.9154074 0.5567107
0.7759106 0.9108282 0.5823076
0.8450931 0.9056843 0.6161397
0.9162061 0.8989374 0.6581711
0.9621285 0.8831326 0.7114381
0.9979548 0.8820744 0.7642990
1.0254197 0.8930393 0.8141097
1.0453163 0.9145356 0.8636517
1.0569451 0.9483392 0.9188446
1.0670885 0.9783966 0.9602506
1.0762441 1.0041227 0.9922478
1.0846309 1.0258233 1.0175807
1.0923485 1.0440801 1.0380552
1.0994509 1.0594949 1.0548995
1.1059791 1.0725969 1.0689719
1.1119721 1.0838214 1.0808863
1.1174697 1.0935165 1.0910911
1.1225122 1.1019572 1.0999206
1.1271390 1.1093604 1.1076280
1.1313881 1.1158984 1.1144088
0.6306040 0.9610887 0.6120631
0.6306297 0.9610869 0.6120681
0.6306712 0.9610840 0.6120762
0.6307383 0.9610793 0.6120894
0.6308468 0.9610718 0.6121108
0.6310223 0.9610596 0.6121453
0.6313059 0.9610399 0.6122011
0.6317637 0.9610081 0.6122915
0.6325018 0.9609568 0.6124376
0.6336893 0.9608740 0.6126741
0.6355924 0.9607411 0.6130564
