release/datafiles/colormanagement/luts/AgX_Rec2100-HLG_p3_lim.cube
TITLE "AgX_Formation Rec.2100 HLG P3 limited"
# AgX Rec.2100 HLG 1000 nits Formation P3 Limited LUT
# This LUT expects input to be E Gamut Log2 encoding from -10 stops to +15 stops
# But the end image formation will be from -10 to 6.5 encoded in Rec.2100-HLG
# Inset matrix can be generated in Rec.2020 with rotation [2.13976149, -1.22827335, -3.05174246],
# Inset: [0.32965205, 0.28051336, 0.12475368], outset = [0.32317438, 0.28325605, 0.0374326].
# HDR purity set to 0.5, HDR extra shoulder power multiplier is 2.0
# calculated from power(1000 / 100, log10(2.0))
# The image formed has 40% per-channel shifts
# HDR max nits is 1000, Reference White nits is 100
LUT_3D_SIZE 5
0.0004711 0.0004327 0.0007854
0.100399 0.0292788 0
0.7365055 0.2926797 0.1098318
1 0.9911558 0.982519
1 1 1
0.0455819 0.0981887 0.0340099
0.1026132 0.100656 0.0128878
0.7364595 0.3095204 0.1114453
1 0.9911692 0.9825233
1 1 1
0.3812441 0.7183134 0.2596828
0.3813932 0.719128 0.2391711
0.7405734 0.7341199 0.2061312
1 0.9921209 0.9828539
1 1 1
0.988194 1 0.9749118
0.9882103 1 0.9749194
0.9889648 1 0.9755726
1 1 1
1 1 1
1 1 1
1 1 1
1 1 1
1 1 1
1 1 1
0.0225987 0.0273349 0.0879921
0.0967786 0.0259116 0.1027456
0.738195 0.2762788 0.1103241
1 0.9911452 0.9825185
1 1 1
0.050046 0.098279 0.1020688
0.0929214 0.0929208 0.0929289
0.73801 0.2944271 0.1117999
1 0.9911586 0.9825227
1 1 1
0.3801617 0.7165256 0.277699
0.3803029 0.7173217 0.2591482
0.7391673 0.7326978 0.2039808
1 0.9921181 0.9828514
1 1 1
0.9881758 1 0.9749016
0.988192 1 0.9749091
0.9889571 1 0.9755608
1 1 1
1 1 1
1 1 1
1 1 1
1 1 1
1 1 1
1 1 1
0.188848 0.2330119 0.6688766
0.1910102 0.2256322 0.6811871
0.7126478 0.3439996 0.7320396
1 0.9903055 0.982498
1 1 1
0.192714 0.246784 0.6696182
0.1946455 0.240394 0.6811249
0.7135405 0.3451123 0.7329064
1 0.99032 0.9825018
1 1 1
0.4159294 0.7155634 0.7291128
0.4148805 0.7145509 0.7281158
0.70175 0.7017484 0.7017735
1 0.9913749 0.9827991
1 1 1
0.9867119 1 0.9741097
0.9867299 1 0.9741174
0.988042 1 0.9747023
1 1 1
1 1 1
1 1 1
1 1 1
1 1 1
1 1 1
1 1 1
0.9514405 0.9621145 1
0.9515414 0.9621577 1
0.9585367 0.9652447 1
1 1 1
1 1 1
0.9513767 0.9621026 1
0.9514778 0.9621459 1
0.9584866 0.9652361 1
1 1 1
1 1 1
0.94585 0.9610031 1
0.94597 0.9610508 1
0.9541959 0.9644344 1
1 1 1
1 1 1
0.9910239 1 1
0.9910218 1 1
0.9908596 1 1
1 1 1
1 1 1
1 1 1
1 1 1
1 1 1
1 1 1
1 1 1
1 1 1
1 1 1
1 1 1
1 1 1
1 1 1
1 1 1
1 1 1
1 1 1
1 1 1
1 1 1
1 1 1
1 1 1
1 1 1
1 1 1
1 1 1
1 1 1
1 1 1
1 1 1
1 1 1
1 1 1
1 1 1
1 1 1
1 1 1
1 1 1
1 1 1
