release/datafiles/colormanagement/luts/AgX_Base_Rec2020.cube
TITLE "AgX_Formation Rec.2020"
# AgX Base Rec.2020 Formation LUT
# This LUT expects input to be E Gamut Log2 encoding from -10 stops to +15 stops
# But the end image formation will be from -10 to 6.5 encoded in power 2.4
#  rotate = [3.0, -1, -2.0], inset = [0.4, 0.22, 0.13], outset = [0.4, 0.22, 0.04]
# The image formed has 40% per-channel shifts
DOMAIN_MIN 0 0 0
DOMAIN_MAX 1 1 1
LUT_3D_SIZE 57
0.0000004 0 0.0000018
0.0045459 0 0
0.0095585 0 0
0.0150945 0 0
0.0212217 0 0
0.0280207 0 0
0.0355877 0 0
0.0440376 0 0
0.0534331 0 0
0.0636549 0 0
0.0752591 0 0
0.0884735 0 0
0.1035757 0.0165266 0
0.120902 0.0251015 0
0.1408595 0.0334446 0
0.1639365 0.042192 0
0.1907124 0.0516335 0
0.2218602 0.0619904 0
0.2581327 0.0734947 0
0.3003165 0.0864433 0
0.349121 0.1012674 0
0.4049521 0.1186391 0
0.4674704 0.1396351 0
0.534358 0.166093 0
0.5992511 0.2009069 0
0.6591319 0.2449351 0
0.7131386 0.2978034 0.1375403
0.761067 0.3585881 0.2246762
0.8030959 0.4252373 0.3078104
0.8397143 0.4934162 0.39197
0.8715857 0.559289 0.4729151
0.8994426 0.619913 0.5459148
0.9238831 0.6747324 0.6110085
0.9454208 0.723801 0.668692
0.9644899 0.7674561 0.7196104
0.981453 0.8061681 0.7644673
0.9966112 0.8404529 0.803965
1 0.870821 0.8387677
1 0.8977507 0.8694808
1 0.9216753 0.8966436
1 0.9429793 0.9207285
1 0.9619993 0.9421455
1 0.9790279 0.9612475
1 0.9943176 0.9783376
1 1 0.9936753
1 1 1
1 1 1
1 1 1
1 1 1
1 1 1
1 1 1
1 1 1
1 1 1
1 1 1
1 1 1
1 1 1
1 1 1
0 0.0043677 0
0.0048511 0.0047189 0
0.009823 0.0058515 0
0.0153064 0.0064675 0
0.0213882 0.0064909 0
0.0281503 0.0056148 0
0.0356881 0.0008955 0
0.0441152 0 0
0.0534707 0 0
0.0637397 0 0
0.0753623 0.0048208 0
0.0885799 0.0137547 0
0.1036773 0.0207174 0
0.1209955 0.0278218 0
0.1409436 0.0354277 0
0.1640112 0.0437202 0
0.1907781 0.0528517 0
0.2219176 0.0629844 0
0.2581826 0.0743193 0
0.3003595 0.0871352 0
0.3491576 0.101851 0
0.4049826 0.1191305 0
0.4674948 0.1400441 0
0.5343757 0.1664244 0
0.5992623 0.2011624 0
0.6591384 0.2451246 0
0.7131421 0.2979407 0.1375577
0.7610685 0.358686 0.2246891
0.8030964 0.4253044 0.3078211
0.8397143 0.4934603 0.3919787
0.8715856 0.5593174 0.4729212
0.8994425 0.6199311 0.5459189
0.9238829 0.674744 0.6110112
0.9454206 0.7238085 0.6686937
0.9644898 0.7674609 0.7196115
0.9814529 0.8061712 0.764468
0.9966112 0.8404549 0.8039655
1 0.8708223 0.838768
1 0.8977516 0.869481
1 0.9216759 0.8966437
1 0.9429796 0.9207286
1 0.9619995 0.9421456
1 0.979028 0.9612476
1 0.9943177 0.9783376
1 1 0.9936753
1 1 1
1 1 1
1 1 1
1 1 1
1 1 1
1 1 1
1 1 1
1 1 1
1 1 1
1 1 1
1 1 1
1 1 1
0 0.0092248 0
0.0060792 0.0095058 0
0.0101023 0.0098418 0
0.0155516 0.0110499 0
0.0215893 0.0119233 0
0.0283112 0.0124249 0
0.0358153 0.0124905 0
0.0442151 0.0120016 0
0.05354 0.0116465 0
0.063858 0.0130848 0
0.0755009 0.0158951 0
0.0887217 0.0199472 0
0.1038132 0.0250336 0
0.1211209 0.0310332 0
0.1410568 0.0379113 0
0.1641119 0.0456943 0
0.190867 0.0544539 0
0.2219955 0.0643062 0
0.2582504 0.0754239 0
0.300418 0.0880665 0
0.3492074 0.1026394 0
0.4050241 0.119796 0
0.467528 0.1405989 0
0.5343997 0.1668746 0
0.5992775 0.20151 0
0.6591473 0.2453825 0
0.7131468 0.2981277 0.1375815
0.7610706 0.3588193 0.2247067
0.8030971 0.4253958 0.3078357
0.8397144 0.4935203 0.3919906
0.8715854 0.559356 0.4729295
0.8994422 0.6199559 0.5459245
0.9238827 0.6747599 0.6110149
0.9454205 0.7238186 0.6686962
0.9644897 0.7674674 0.7196131
0.9814528 0.8061754 0.764469
0.9966111 0.8404576 0.8039662
1 0.8708241 0.8387684
1 0.8977527 0.8694813
1 0.9216766 0.8966439
1 0.9429801 0.9207288
1 0.9619999 0.9421456
1 0.9790282 0.9612476
1 0.9943178 0.9783377
1 1 0.9936753
1 1 1
1 1 1
1 1 1
1 1 1
1 1 1
1 1 1
1 1 1
1 1 1
1 1 1
1 1 1
1 1 1
1 1 1
0 0.0146219 0
0.0070908 0.0148503 0
0.011355 0.0150945 0
0.0158282 0.0154387 0
0.0218285 0.0166531 0
0.0285087 0.0175999 0
0.0359748 0.0182487 0
0.0443426 0.0185627 0
0.0536597 0.0191682 0
0.0640233 0.0204698 0
0.0756862 0.0225392 0
0.0889099 0.0255756 0
0.1039937 0.0296601 0
0.1212882 0.0347992 0
0.1412084 0.0409814 0
0.1642474 0.0482144 0
0.190987 0.0565414 0
0.2221009 0.0660517 0
0.2583423 0.0768957 0
0.3004974 0.0893151 0
0.3492751 0.103701 0
0.4050805 0.1206951 0
0.4675732 0.1413504 0
0.5344323 0.1674855 0
0.5992982 0.2019823 0
0.6591595 0.2457333 0
0.7131532 0.2983823 0.1376138
0.7610735 0.3590008 0.2247306
0.803098 0.4255203 0.3078556
0.8397144 0.4936021 0.3920068
0.8715851 0.5594087 0.4729408
0.8994419 0.6199897 0.545932
0.9238824 0.6747815 0.6110199
0.9454202 0.7238325 0.6686994
0.9644895 0.7674763 0.7196153
0.9814527 0.8061811 0.7644704
0.996611 0.8404613 0.8039671
1 0.8708264 0.838769
1 0.8977543 0.8694817
1 0.9216776 0.8966441
1 0.9429808 0.9207289
1 0.9620003 0.9421458
1 0.9790285 0.9612477
1 0.994318 0.9783377
1 1 0.9936754
1 1 1
1 1 1
1 1 1
1 1 1
1 1 1
1 1 1
1 1 1
1 1 1
1 1 1
1 1 1
1 1 1
1 1 1
0 0.0206214 0
0.0078759 0.0208014 0
0.0125247 0.021007 0
0.0170708 0.0212334 0
0.0221102 0.0215876 0
0.0287492 0.0227885 0
0.0361737 0.0237573 0
0.0445044 0.0244693 0
0.0538555 0.0255686 0
0.064254 0.0269101 0
0.0759334 0.0287417 0
0.089158 0.0312917 0
0.104232 0.0347372 0
0.1215101 0.0391939 0
0.1414106 0.0447295 0
0.164429 0.0513909 0
0.1911483 0.0592319 0
0.222243 0.0683366 0
0.2584666 0.0788435 0
0.300605 0.0909805 0
0.3493669 0.1051251 0
0.4051571 0.1219063 0
0.4676346 0.1423661 0
0.5344767 0.1683134 0
0.5993263 0.2026237 0
0.659176 0.2462103 0
0.713162 0.2987286 0.1376579
0.7610774 0.3592479 0.2247632
0.8030992 0.4256899 0.3078827
0.8397145 0.4937135 0.3920288
0.8715847 0.5594804 0.4729562
0.8994414 0.6200356 0.5459424
0.923882 0.6748109 0.6110267
0.9454199 0.7238513 0.6687039
0.9644893 0.7674884 0.7196182
0.9814526 0.8061889 0.7644723
0.9966109 0.8404663 0.8039683
1 0.8708297 0.8387698
1 0.8977564 0.8694822
1 0.921679 0.8966445
1 0.9429817 0.9207291
1 0.9620009 0.9421459
1 0.9790289 0.9612478
1 0.9943183 0.9783378
1 1 0.9936754
1 1 1
1 1 1
1 1 1
1 1 1
1 1 1
1 1 1
1 1 1
1 1 1
1 1 1
1 1 1
1 1 1
1 1 1
0 0.0272988 0
0.0084635 0.0274386 0
0.0135404 0.0276045 0
0.018296 0.0277969 0
0.0233372 0.0280147 0
0.0290408 0.0283774 0
0.0364205 0.0295572 0
0.0447961 0.0307293 0
0.0541611 0.0320072 0
0.0645748 0.0334049 0
0.0762617 0.0351293 0
0.0894832 0.0373924 0
0.1045442 0.0403943 0
0.1218021 0.0443044 0
0.1416784 0.0492541 0
0.1646709 0.0553431 0
0.1913644 0.0626582 0
0.2224342 0.0712975 0
0.2586343 0.0814003 0
0.3007505 0.0931876 0
0.3494913 0.107026 0
0.405261 0.1235319 0
0.4677181 0.143735 0
0.5345371 0.1694329 0
0.5993646 0.2034933 0
0.6591985 0.2468584 0
0.7131739 0.2991998 0.1377179
0.7610827 0.3595842 0.2248076
0.8031009 0.4259207 0.3079196
0.8397145 0.4938652 0.3920589
0.8715842 0.5595781 0.4729771
0.8994408 0.6200982 0.5459565
0.9238814 0.674851 0.6110361
0.9454195 0.723877 0.66871
0.9644889 0.7675049 0.7196222
0.9814523 0.8061995 0.7644749
0.9966107 0.8404731 0.80397
1 0.8708341 0.8387709
1 0.8977592 0.8694829
1 0.9216809 0.8966449
1 0.9429829 0.9207294
1 0.9620017 0.9421461
1 0.9790294 0.9612479
1 0.9943186 0.9783378
1 1 0.9936755
1 1 1
1 1 1
1 1 1
1 1 1
1 1 1
1 1 1
1 1 1
1 1 1
1 1 1
1 1 1
1 1 1
1 1 1
0 0.0347454 0
0.0088856 0.0348529 0
0.0144214 0.0349841 0
0.0194069 0.0351414 0
0.0245879 0.0353267 0
0.0302529 0.0355412 0
0.0368476 0.0360356 0
0.0452863 0.0375107 0
0.0546182 0.0389002 0
0.0650181 0.0403448 0
0.0766967 0.0420114 0
0.0899068 0.0440863 0
0.1049499 0.0467642 0
0.1221833 0.0502334 0
0.1420305 0.0546634 0
0.1649912 0.0601989 0
0.1916522 0.0669663 0
0.2226903 0.0750905 0
0.2588598 0.0847241 0
0.3009469 0.0960897 0
0.3496596 0.1095475 0
0.4054019 0.1257032 0
0.4678313 0.1455735 0
0.5346191 0.170943 0
0.5994166 0.2046704 0
0.659229 0.2477378 0
0.7131901 0.2998401 0.1377996
0.7610899 0.3600417 0.2248681
0.8031032 0.4262348 0.3079699
0.8397147 0.4940717 0.3920998
0.8715836 0.5597112 0.4730057
0.89944 0.6201835 0.5459757
0.9238807 0.6749056 0.6110488
0.9454189 0.723912 0.6687184
0.9644885 0.7675273 0.7196276
0.981452 0.8062139 0.7644784
0.9966105 0.8404824 0.8039723
1 0.8708401 0.8387724
1 0.8977631 0.8694838
1 0.9216834 0.8966456
1 0.9429846 0.9207298
1 0.9620028 0.9421464
1 0.9790301 0.9612481
1 0.9943191 0.978338
1 1 0.9936755
1 1 1
1 1 1
1 1 1
1 1 1
1 1 1
1 1 1
1 1 1
1 1 1
1 1 1
1 1 1
1 1 1
1 1 1
0 0.0430714 0
0.0091932 0.0431536 0
0.0151989 0.043256 0
0.0204206 0.043382 0
0.0257917 0.0435579 0
0.0317903 0.0439084 0
0.0384432 0.0443656 0
0.0460309 0.0450727 0
0.0552775 0.0465159 0
0.0656255 0.0479871 0
0.0772713 0.0496151 0
0.090456 0.0515568 0
0.1054732 0.0539899 0
0.1226766 0.0571019 0
0.1424891 0.0610789 0
0.1654119 0.0660959 0
0.1920332 0.0723141 0
0.2230314 0.0798898 0
0.2591618 0.0889974 0
0.3012109 0.0998696 0
0.3498867 0.1128666 0
0.4055923 0.1285855 0
0.4679846 0.1480311 0
0.5347302 0.1729732 0
0.5994872 0.2062603 0
0.6592705 0.2489294 0
0.7132121 0.3007097 0.1379107
0.7610997 0.3606637 0.2249505
0.8031064 0.426662 0.3080384
0.8397148 0.4943528 0.3921555
0.8715826 0.5598923 0.4730447
0.8994388 0.6202997 0.5460019
0.9238796 0.67498 0.6110661
0.945418 0.7239597 0.6687297
0.9644879 0.7675579 0.719635
0.9814516 0.8062336 0.7644832
0.9966102 0.8404951 0.8039754
1 0.8708483 0.8387744
1 0.8977685 0.8694852
1 0.9216869 0.8966464
1 0.9429868 0.9207304
1 0.9620043 0.9421467
1 0.9790311 0.9612483
1 0.9943197 0.9783381
1 1 0.9936756
1 1 1
1 1 1
1 1 1
1 1 1
1 1 1
1 1 1
1 1 1
1 1 1
1 1 1
1 1 1
1 1 1
1 1 1
0 0.052512 0
0.0102902 0.0526114 0
0.0165753 0.0527415 0
0.0220599 0.0529115 0
0.0276349 0.0531335 0
0.0336311 0.0534243 0
0.0402586 0.0538071 0
0.0476931 0.0543141 0
0.0561996 0.0550828 0
0.0664494 0.0565534 0
0.0780286 0.0581458 0
0.0911659 0.0599864 0
0.1061441 0.0622297 0
0.1233095 0.0650516 0
0.1430811 0.0686399 0
0.1659593 0.0731844 0
0.1925332 0.0788714 0
0.2234826 0.0858854 0
0.259564 0.0944254 0
0.3015644 0.1047402 0
0.3501919 0.1171953 0
0.4058492 0.1323832 0
0.4681919 0.1512969 0
0.5348807 0.1756905 0
0.5995829 0.2084012 0
0.6593267 0.2505412 0
0.713242 0.301889 0.138062
0.7611131 0.3615087 0.2250627
0.8031106 0.4272428 0.3081318
0.839715 0.4947352 0.3922315
0.8715814 0.5601389 0.4730978
0.8994373 0.6204578 0.5460375
0.9238782 0.6750813 0.6110897
0.9454169 0.7240246 0.6687452
0.964487 0.7675996 0.7196451
0.981451 0.8062604 0.7644898
0.9966098 0.8405124 0.8039796
1 0.8708595 0.8387771
1 0.8977757 0.8694869
1 0.9216916 0.8966476
1 0.9429899 0.9207312
1 0.9620063 0.9421472
1 0.9790325 0.9612486
1 0.9943206 0.9783383
1 1 0.9936758
1 1 1
1 1 1
1 1 1
1 1 1
1 1 1
1 1 1
1 1 1
1 1 1
1 1 1
1 1 1
1 1 1
1 1 1
0.0055284 0.0633649 0
0.0136787 0.0634425 0
0.019168 0.0635457 0
0.0243932 0.0636824 0
0.0298336 0.0638635 0
0.0357368 0.0641035 0
0.0422859 0.064422 0
0.0496456 0.0648464 0
0.0579807 0.0654141 0
0.0675552 0.0662625 0
0.0790243 0.0678121 0
0.0920825 0.0695688 0
0.107001 0.0716616 0
0.1241157 0.074248 0
0.1438381 0.0775073 0
0.1666647 0.0816321 0
0.1931835 0.0868221 0
0.2240747 0.0932823 0
0.2600959 0.1012335 0
0.3020351 0.110942 0
0.3506004 0.1227814 0
0.4061944 0.1373418 0
0.4684713 0.1556052 0
0.5350839 0.1793073 0
0.5997123 0.2112728 0
0.6594029 0.2527154 0
0.7132825 0.3034859 0.1382677
0.7611311 0.3626554 0.2252155
0.8031164 0.4280317 0.3082591
0.8397153 0.495255 0.392335
0.8715797 0.5604743 0.4731701
0.8994351 0.6206731 0.5460861
0.9238763 0.6752193 0.6111218
0.9454154 0.724113 0.6687662
0.9644859 0.7676563 0.7196588
0.9814502 0.8062969 0.7644987
0.9966092 0.840536 0.8039854
1 0.8708748 0.8387809
1 0.8977856 0.8694894
1 0.9216981 0.8966492
1 0.9429941 0.9207322
1 0.9620091 0.9421479
1 0.9790343 0.9612491
1 0.9943218 0.9783386
1 1 0.993676
1 1 1
1 1 1
1 1 1
1 1 1
1 1 1
1 1 1
1 1 1
1 1 1
1 1 1
1 1 1
1 1 1
1 1 1
0.0135682 0.0755524 0
0.0182122 0.0756139 0
0.0227344 0.0756965 0
0.0274656 0.0758072 0
0.0325989 0.0759552 0
0.0382872 0.0761531 0
0.0446727 0.0764178 0
0.0518995 0.0767724 0
0.0601209 0.0772487 0
0.0695059 0.0778902 0
0.0803301 0.0788386 0
0.0932663 0.0805183 0
0.1080941 0.0824881 0
0.1251379 0.0848836 0
0.1447986 0.0878686 0
0.1675649 0.0916294 0
0.1940206 0.0963687 0
0.2248442 0.1023024 0
0.2607936 0.1096662 0
0.3026574 0.1187404 0
0.3511442 0.1299058 0
0.4066563 0.143749 0
0.4688467 0.1612387 0
0.5353574 0.1840881 0
0.5998869 0.2151053 0
0.6595058 0.2556387 0
0.7133372 0.3056435 0.1385472
0.7611555 0.3642091 0.2254235
0.8031243 0.429102 0.3084325
0.8397157 0.4959612 0.392476
0.8715774 0.5609304 0.4732686
0.8994323 0.6209659 0.5461523
0.9238737 0.675407 0.6111656
0.9454133 0.7242334 0.6687949
0.9644844 0.7677336 0.7196775
0.9814491 0.8063466 0.7645108
0.9966085 0.840568 0.8039933
1 0.8708955 0.838786
1 0.8977991 0.8694927
1 0.9217068 0.8966513
1 0.9429999 0.9207336
1 0.9620128 0.9421488
1 0.9790368 0.9612497
1 0.9943235 0.978339
1 1 0.9936762
1 1 1
1 1 1
1 1 1
1 1 1
1 1 1
1 1 1
1 1 1
1 1 1
1 1 1
1 1 1
1 1 1
1 1 1
0.0204238 0.0893248 0
0.0236696 0.0893744 0
0.0273155 0.0894414 0
0.0314389 0.0895318 0
0.036126 0.0896536 0
0.041474 0.0898175 0
0.0475922 0.090038 0
0.0546042 0.0903347 0
0.06265 0.0907348 0
0.071889 0.0912749 0
0.0825047 0.0920055 0
0.0947971 0.0930781 0
0.1094907 0.0949428 0
0.1264323 0.0971829 0
0.146011 0.0999428 0
0.1687042 0.1033956 0
0.1950874 0.1077383 0
0.225834 0.1131883 0
0.2616999 0.119988 0
0.3034733 0.1284245 0
0.3518628 0.1388799 0
0.4072706 0.1519322 0
0.4693484 0.1685302 0
0.5357242 0.1903543 0
0.6001216 0.2201878 0
0.6596444 0.2595519 0
0.713411 0.30855 0.1389266
0.7611884 0.36631 0.2257065
0.8031349 0.4305517 0.3086688
0.8397162 0.4969193 0.3926681
0.8715742 0.5615499 0.4734027
0.8994283 0.6213641 0.5462424
0.9238702 0.6756625 0.6112252
0.9454105 0.7243973 0.668834
0.9644823 0.7678389 0.719703
0.9814476 0.8064144 0.7645274
0.9966075 0.8406117 0.804004
1 0.8709238 0.838793
1 0.8978175 0.8694972
1 0.9217188 0.8966543
1 0.9430077 0.9207355
1 0.962018 0.9421501
1 0.9790401 0.9612505
1 0.9943257 0.9783396
1 1 0.9936766
1 1 1
1 1 1
1 1 1
1 1 1
1 1 1
1 1 1
1 1 1
1 1 1
1 1 1
1 1 1
1 1 1
1 1 1
0.0275536 0.1049804 0
0.0299751 0.105021 0
0.0329053 0.1050761 0
0.0364141 0.1051508 0
0.0405784 0.1052519 0
0.045485 0.1053885 0
0.0512329 0.1055731 0
0.0579359 0.1058225 0
0.065725 0.1061598 0
0.0747521 0.1066161 0
0.0851939 0.1072342 0
0.0972574 0.1080724 0
0.11128 0.1092979 0
0.1280742 0.1114099 0
0.1475386 0.1139875 0
0.1701379 0.1171862 0
0.196435 0.1211902 0
0.2270942 0.1262109 0
0.2628649 0.1324881 0
0.3045324 0.1403072 0
0.3528043 0.150043 0
0.4080818 0.1622551 0
0.470015 0.1778594 0
0.5362134 0.198486 0
0.6004356 0.2268755 0
0.6598304 0.2647609 0
0.7135102 0.3124505 0.139441
0.7612327 0.3691436 0.2260914
0.8031493 0.4325113 0.3089907
0.8397169 0.4982175 0.3929297
0.8715699 0.5623908 0.4735854
0.899423 0.6219051 0.5463652
0.9238654 0.6760098 0.6113065
0.9454067 0.7246202 0.6688873
0.9644795 0.7679821 0.7197377
0.9814456 0.8065066 0.7645499
0.9966061 0.8406713 0.8040186
1 0.8709624 0.8388024
1 0.8978425 0.8695034
1 0.9217351 0.8966583
1 0.9430184 0.9207381
1 0.962025 0.9421518
1 0.9790447 0.9612516
1 0.9943287 0.9783403
1 1 0.9936771
1 1 1
1 1 1
1 1 1
1 1 1
1 1 1
1 1 1
1 1 1
1 1 1
1 1 1
1 1 1
1 1 1
1 1 1
0.0352685 0.1228753 0
0.0371429 0.1229091 0
0.0395095 0.1229551 0
0.0424584 0.1230175 0
0.0460852 0.1231021 0
0.0504915 0.123217 0
0.0557863 0.1233727 0
0.0620887 0.1235836 0
0.0695313 0.1238695 0
0.0782647 0.1242569 0
0.0884625 0.1247824 0
0.1003272 0.1254956 0
0.1140985 0.1264637 0
0.1301649 0.1278766 0
0.1494672 0.1303073 0
0.1719384 0.1333012 0
0.1981273 0.1370254 0
0.228684 0.1416776 0
0.2643466 0.1474877 0
0.3058928 0.1547304 0
0.3540254 0.1637634 0
0.4091434 0.1751145 0
0.4708939 0.1896494 0
0.5368611 0.20892 0
0.6008534 0.2355935 0
0.6600785 0.2716462 0
0.7136427 0.3176589 0.1401373
0.7612919 0.3729515 0.2266147
0.8031686 0.4351525 0.3094293
0.8397178 0.4999729 0.393286
0.8715642 0.5635302 0.4738341
0.8994158 0.6226394 0.5465323
0.9238589 0.6764817 0.6114171
0.9454015 0.7249234 0.6689599
0.9644756 0.768177 0.719785
0.9814428 0.8066321 0.7645806
0.9966042 0.8407523 0.8040385
1 0.8710148 0.8388154
1 0.8978766 0.8695118
1 0.9217573 0.8966637
1 0.9430329 0.9207417
1 0.9620345 0.9421541
1 0.979051 0.9612532
1 0.9943329 0.9783413
1 1 0.9936777
1 1 1
1 1 1
1 1 1
1 1 1
1 1 1
1 1 1
1 1 1
1 1 1
1 1 1
1 1 1
1 1 1
1 1 1
0.0437537 0.1434357 0
0.0452412 0.1434642 0
0.047168 0.143503 0
0.0496352 0.1435558 0
0.0527541 0.1436275 0
0.0566454 0.1437249 0
0.0614371 0.1438572 0
0.0672652 0.1440369 0
0.0742751 0.1442807 0
0.082626 0.1446116 0
0.0924957 0.1450608 0
0.1040872 0.1456707 0
0.1176374 0.1464992 0
0.1334272 0.1476241 0
0.1519121 0.1492651 0
0.1742036 0.1520967 0
0.2002474 0.1555966 0
0.2306769 0.1599436 0
0.2662136 0.1653506 0
0.307621 0.1720732 0
0.3555919 0.1804422 0
0.4105183 0.1909404 0
0.4720417 0.2043617 0
0.5377114 0.2221439 0
0.6014046 0.2468349 0
0.6604073 0.2806691 0
0.7138188 0.3245697 0.1410781
0.7613707 0.3780451 0.2273256
0.8031944 0.4386992 0.3100269
0.839719 0.5023398 0.393771
0.8715564 0.5650712 0.4741725
0.8994061 0.6236346 0.5467598
0.92385 0.6771224 0.6115678
0.9453945 0.7253353 0.6690587
0.9644704 0.768442 0.7198494
0.9814391 0.8068029 0.7646225
0.9966016 0.8408626 0.8040657
1 0.8710863 0.838833
1 0.897923 0.8695232
1 0.9217876 0.8966712
1 0.9430527 0.9207465
1 0.9620475 0.9421573
1 0.9790596 0.9612552
1 0.9943385 0.9783427
1 1 0.9936786
1 1 1
1 1 1
1 1 1
1 1 1
1 1 1
1 1 1
1 1 1
1 1 1
1 1 1
1 1 1
1 1 1
1 1 1
0.0531754 0.1671697 0
0.0543778 0.167194 0
0.0559608 0.1672271 0
0.0580256 0.1672721 0
0.0606898 0.1673334 0
0.0640862 0.1674167 0
0.0683604 0.16753 0
0.0736683 0.167684 0
0.080176 0.1678933 0
0.08806 0.1681776 0
0.0975113 0.1685637 0
0.1087415 0.1690882 0
0.121991 0.1698006 0
0.1375395 0.1707682 0
0.1557182 0.1720813 0
0.1770662 0.1739978 0
0.2029077 0.1773216 0
0.2331686 0.1814239 0
0.2685502 0.1864944 0
0.3097954 0.1927624 0
0.3575789 0.2005223 0
0.4122787 0.2101993 0
0.4735243 0.2224942 0
0.5388156 0.2386887 0
0.6021249 0.261154 0
0.6608389 0.2923717 0
0.7140508 0.333666 0.1423463
0.7614746 0.3848163 0.2282907
0.8032289 0.4434378 0.3108412
0.8397207 0.5055199 0.3944311
0.8715459 0.56715 0.4746329
0.8993929 0.6249809 0.5470694
0.9238381 0.6779907 0.6117729
0.9453849 0.7258945 0.6691932
0.9644633 0.7688022 0.7199371
0.981434 0.8070351 0.7646794
0.996598 0.8410127 0.8041027
1 0.8711835 0.838857
1 0.8979862 0.8695388
1 0.9218288 0.8966813
1 0.9430796 0.9207532
1 0.9620652 0.9421616
1 0.9790712 0.9612581
1 0.9943462 0.9783445
1 1 0.9936799
