release/datafiles/colormanagement/luts/AgX_Rec2100-HLG_p3_lim.cube
TITLE "AgX_Formation Rec.2100 HLG P3 limited"
# AgX Rec.2100 HLG 1000 nits Formation P3 Limited LUT
# This LUT expects input to be E Gamut Log2 encoding from -10 stops to +15 stops
# But the end image formation will be from -10 to 6.5 encoded in Rec.2100-HLG
# Inset matrix can be generated in Rec.2020 with rotation [2.13976149, -1.22827335, -3.05174246],
# Inset: [0.32965205, 0.28051336, 0.12475368], outset = [0.32317438, 0.28325605, 0.0374326].
# HDR purity set to 0.5, HDR extra shoulder power multiplier is 2.0
# calculated from power(1000 / 100, log10(2.0))
# The image formed has 40% per-channel shifts
# HDR max nits is 1000, Reference White nits is 100
LUT_3D_SIZE 9
0.0004711 0.0004327 0.0007854
0.0318375 0.0084349 0
0.100399 0.0292788 0
0.2895895 0.0844794 0
0.7365055 0.2926797 0.1098318
0.9939534 0.8414955 0.7874974
1 0.9911558 0.982519
1 1 1
1 1 1
0.0144369 0.0310268 0.0116854
0.0327328 0.0320778 0.0041065
0.1006996 0.0429163 0.0027131
0.2896612 0.0897639 0
0.7365008 0.2944624 0.1099986
0.993948 0.8415655 0.7875099
1 0.9911572 0.9825195
1 1 1
1 1 1
0.0455819 0.0981887 0.0340099
0.0464531 0.0984286 0.0134455
0.1026132 0.100656 0.0128878
0.290048 0.1268721 0.0087639
0.7364595 0.3095204 0.1114453
0.993901 0.8421732 0.7876187
1 0.9911692 0.9825233
1 1 1
1 1 1
0.1303723 0.2808439 0.0971802
0.1302994 0.2810392 0.0923251
0.1363804 0.2827298 0.0385928
0.293364 0.2878781 0.0368618
0.7361431 0.4155338 0.123491
0.9935038 0.8472833 0.7885716
1 0.9912741 0.9825563
1 1 1
1 1 1
0.3812441 0.7183134 0.2596828
0.3812594 0.7183963 0.2576807
0.3813932 0.719128 0.2391711
0.4260293 0.7229604 0.1134128
0.7405734 0.7341199 0.2061312
0.990763 0.8813785 0.7969648
1 0.9921209 0.9828539
1 1 1
1 1 1
0.8339324 0.9880668 0.7556604
0.8340089 0.9880631 0.7556818
0.8346734 0.9880307 0.7558681
0.8402554 0.9877563 0.7574945
0.877313 0.9858354 0.771396
0.9837504 0.9811965 0.8528867
1 0.9944346 0.9861998
1 1 1
1 1 1
0.988194 1 0.9749118
0.9881957 1 0.9749126
0.9882103 1 0.9749194
0.988337 1 0.9749786
0.9889648 1 0.9755726
0.9923091 1 0.9804904
1 1 1
1 1 1
1 1 1
1 1 1
1 1 1
1 1 1
1 1 1
1 1 1
1 1 1
1 1 1
1 1 1
1 1 1
1 1 1
1 1 1
1 1 1
1 1 1
1 1 1
1 1 1
1 1 1
1 1 1
1 1 1
0.0080105 0.0092316 0.0318222
0.0304173 0.0081478 0.0323918
0.0998927 0.0247659 0.0280865
0.2904888 0.0790476 0
0.7366671 0.2910632 0.1098693
0.9939629 0.8414375 0.7875006
1 0.9911547 0.982519
1 1 1
1 1 1
0.0158752 0.0311578 0.0324546
0.0296534 0.0296532 0.0296565
0.1035373 0.0303151 0
0.2904957 0.0847469 0
0.7366609 0.2928595 0.1100347
0.9939575 0.8415075 0.787513
1 0.9911561 0.9825194
1 1 1
1 1 1
0.0454915 0.0969691 0.045502
0.044925 0.0967823 0.0334044
0.0997892 0.0978861 0.0125331
0.2904232 0.1237487 0.0078174
0.7366076 0.3080261 0.1114697
0.9939104 0.8421158 0.7876216
1 0.9911681 0.9825232
1 1 1
1 1 1
0.1301904 0.2801069 0.1015234
0.1301156 0.2802907 0.0969919
0.1331342 0.2820778 0.0385323
0.2925107 0.2870385 0.0367542
0.7362079 0.4145675 0.1234377
0.9935125 0.8472298 0.7885734
1 0.9912731 0.9825563
1 1 1
1 1 1
0.3811321 0.718129 0.2616096
0.3811474 0.7182117 0.2596279
0.3812805 0.7189417 0.2413212
0.4249267 0.7228412 0.1133891
0.7404294 0.7339744 0.2059103
0.9907677 0.8813459 0.7969597
1 0.9921206 0.9828536
1 1 1
1 1 1
0.8338482 0.9880678 0.7556282
0.8339248 0.988064 0.7556496
0.83459 0.9880316 0.755836
0.8401779 0.9877569 0.7574626
0.8772671 0.9858345 0.7713669
0.9837464 0.9811923 0.8528748
1 0.9944343 0.9861995
1 1 1
1 1 1
0.9881921 1 0.9749108
0.9881938 1 0.9749116
0.9882084 1 0.9749183
0.9883351 1 0.9749775
0.988964 1 0.9755713
0.9923085 1 0.9804894
1 1 1
1 1 1
1 1 1
1 1 1
1 1 1
1 1 1
1 1 1
1 1 1
1 1 1
1 1 1
1 1 1
1 1 1
1 1 1
1 1 1
1 1 1
1 1 1
1 1 1
1 1 1
1 1 1
1 1 1
1 1 1
0.0225987 0.0273349 0.0879921
0.0293091 0.0208254 0.0993187
0.0967786 0.0259116 0.1027456
0.2872457 0.0712777 0.08622
0.738195 0.2762788 0.1103241
0.9940462 0.8409292 0.7875292
1 0.9911452 0.9825185
1 1 1
1 1 1
0.0273306 0.0402069 0.0944302
0.0268547 0.0325677 0.1044421
0.0983537 0.0263333 0.1044188
0.2884884 0.0715235 0.0811161
0.7381756 0.2782079 0.1104763
0.9940407 0.8409997 0.7875415
1 0.9911465 0.9825189
1 1 1
1 1 1
0.050046 0.098279 0.1020688
0.049113 0.0964466 0.1001663
0.0929214 0.0929208 0.0929289
0.2996354 0.0877104 0
0.73801 0.2944271 0.1117999
0.993993 0.8416123 0.7876489
1 0.9911586 0.9825227
1 1 1
1 1 1
0.1296798 0.2761362 0.1324977
0.1294397 0.275912 0.1294699
0.1284038 0.2766219 0.095466
0.2848955 0.2795476 0.0357946
0.7368396 0.4059507 0.1230386
0.9935893 0.8467612 0.7885904
1 0.9912636 0.9825557
1 1 1
1 1 1
0.3801617 0.7165256 0.277699
0.3801762 0.7166066 0.2758773
0.3803029 0.7173217 0.2591482
0.4151098 0.7218043 0.1131843
0.7391673 0.7326978 0.2039808
0.9908082 0.881061 0.7969156
1 0.9921181 0.9828514
1 1 1
1 1 1
0.8331093 0.9880761 0.7553473
0.8331866 0.9880723 0.7553687
0.8338583 0.9880397 0.7555553
0.8394982 0.9877628 0.7571836
0.8768648 0.9858267 0.771112
0.9837114 0.9811564 0.8527715
1 0.9944322 0.9861967
1 1 1
1 1 1
0.9881758 1 0.9749016
0.9881774 1 0.9749023
0.988192 1 0.9749091
0.9883189 1 0.9749683
0.9889571 1 0.9755608
0.9923037 1 0.9804809
1 1 1
1 1 1
1 1 1
1 1 1
1 1 1
1 1 1
1 1 1
1 1 1
1 1 1
1 1 1
1 1 1
1 1 1
1 1 1
1 1 1
1 1 1
1 1 1
1 1 1
1 1 1
1 1 1
1 1 1
1 1 1
0.0650953 0.0791081 0.2529301
0.0654393 0.0766306 0.2583215
0.0951623 0.07179 0.2784738
0.2777358 0.0810021 0.2945003
0.7419755 0.2240047 0.2771906
0.9948183 0.8363158 0.7878763
1 0.9910617 0.9825143
1 1 1
1 1 1
0.0662955 0.0831803 0.2537464
0.0666029 0.0809375 0.2587918
0.0931117 0.0727182 0.2822068
0.2782361 0.0811631 0.2950281
0.7422433 0.2240036 0.275282
0.994812 0.836391 0.7878872
1 0.9910631 0.9825147
1 1 1
1 1 1
0.0795825 0.1189797 0.2711858
0.0793333 0.1171149 0.2733101
0.0783801 0.0952439 0.3045611
0.2825505 0.0825602 0.2995788
0.7445963 0.2239687 0.2574276
0.9947579 0.837044 0.7879829
1 0.9910753 0.9825185
1 1 1
1 1 1
0.142463 0.2797849 0.2904651
0.1421739 0.2792167 0.2898775
0.1396162 0.2741902 0.284678
0.2669168 0.2669153 0.2669375
0.7441417 0.3377006 0.2006659
0.9943008 0.8425205 0.7888269
1 0.991181 0.9825513
1 1 1
1 1 1
0.3763729 0.7075138 0.387246
0.3762311 0.7074191 0.3860235
0.3756001 0.7072468 0.3757057
0.3753385 0.7120247 0.2567729
0.7276523 0.7210525 0.1869892
0.9911844 0.8785177 0.7965752
1 0.9920682 0.9828384
1 1 1
1 1 1
0.8263229 0.9881624 0.7528782
0.8264073 0.9881584 0.7528998
0.8271401 0.9881233 0.7530876
0.8332759 0.9878264 0.754729
0.8732383 0.9857654 0.7688635
0.9834045 0.9808408 0.8518648
1 0.9944134 0.9861725
1 1 1
1 1 1
0.9880321 1 0.974821
0.9880338 1 0.9748218
0.9880485 1 0.9748286
0.9881767 1 0.9748879
0.9888971 1 0.9754683
0.9922617 1 0.9804064
1 1 1
1 1 1
1 1 1
1 1 1
1 1 1
1 1 1
1 1 1
1 1 1
1 1 1
1 1 1
1 1 1
1 1 1
1 1 1
1 1 1
1 1 1
1 1 1
1 1 1
1 1 1
1 1 1
1 1 1
1 1 1
0.188848 0.2330119 0.6688766
0.1890609 0.2323279 0.670126
0.1910102 0.2256322 0.6811871
0.3079045 0.245734 0.6986625
0.7126478 0.3439996 0.7320396
0.9956735 0.8276429 0.8442731
1 0.9903055 0.982498
1 1 1
1 1 1
0.1892373 0.2344491 0.6689283
0.1894487 0.2337759 0.6701686
0.1912957 0.2271254 0.6812047
0.3075098 0.2462046 0.6993266
0.7127398 0.3441141 0.732129
0.9956822 0.8276515 0.8442116
1 0.990307 0.9824984
1 1 1
1 1 1
0.192714 0.246784 0.6696182
0.1929125 0.2461946 0.6707805
0.1946455 0.240394 0.6811249
0.3037837 0.2503897 0.7051593
0.7135405 0.3451123 0.7329064
0.9957587 0.8277258 0.8436717
1 0.99032 0.9825018
1 1 1
1 1 1
0.2355096 0.3611041 0.6987379
0.2354381 0.3605206 0.699132
0.2348688 0.3553266 0.7027829
0.2368479 0.2947335 0.7581039
0.7203573 0.3537892 0.7395251
0.9964319 0.82837 0.8386434
1 0.9904325 0.9825322
1 1 1
1 1 1
0.4159294 0.7155634 0.7291128
0.4158217 0.7154596 0.7290106
0.4148805 0.7145509 0.7281158
0.4065468 0.7063916 0.7200822
0.70175 0.7017484 0.7017735
0.9940067 0.8623289 0.8214834
1 0.9913749 0.9827991
1 1 1
1 1 1
0.779003 0.988352 0.790957
0.7789877 0.9883509 0.7908156
0.7788543 0.9883411 0.7895711
0.7855707 0.9879511 0.7856831
0.8450716 0.9850721 0.7829234
0.9805746 0.9779322 0.843513
1 0.9942495 0.9859669
1 1 1
1 1 1
0.9867119 1 0.9741097
0.9867138 1 0.9741105
0.9867299 1 0.9741174
0.98687 1 0.9741777
0.988042 1 0.9747023
0.991885 1 0.9797453
1 1 1
1 1 1
1 1 1
1 1 1
1 1 1
1 1 1
1 1 1
1 1 1
1 1 1
1 1 1
1 1 1
1 1 1
1 1 1
1 1 1
1 1 1
1 1 1
1 1 1
1 1 1
1 1 1
1 1 1
1 1 1
0.704833 0.7471102 0.9960079
0.7051103 0.7471958 0.9960013
0.7075057 0.7479377 0.9959444
0.7267738 0.7541072 0.995473
0.8196238 0.7835122 0.9947139
0.9803071 0.8723522 0.9881414
1 0.9916645 0.9942477
1 1 1
1 1 1
0.7046856 0.7471398 0.9960545
0.7049633 0.7472253 0.9960479
0.7073625 0.7479675 0.9959906
0.7266588 0.7541391 0.9955163
0.8196087 0.7835593 0.9947382
0.9803097 0.8723585 0.9881437
1 0.9916647 0.9942466
1 1 1
1 1 1
0.70338 0.7473942 0.9964622
0.7036616 0.7474801 0.9964552
0.7060947 0.7482248 0.9963948
0.7256411 0.754414 0.995895
0.8194754 0.78397 0.9949496
0.9803323 0.8724132 0.9881645
1 0.9916658 0.9942371
1 1 1
1 1 1
0.6903049 0.7493415 1
0.6906283 0.7494307 1
0.6934174 0.7502037 1
0.7155665 0.7565978 0.9992691
0.8181763 0.7875608 0.9967997
0.9805286 0.8728884 0.9883451
1 0.9916759 0.9941537
1 1 1
1 1 1
0.6822106 0.819821 1
0.6822223 0.819776 1
0.6823263 0.819383 1
0.6833861 0.8158663 1
0.7766595 0.8107568 1
0.9821867 0.8769106 0.989869
1 0.9917628 0.9933702
1 1 1
1 1 1
0.8216403 0.9827465 0.9902977
0.8216315 0.9827435 0.9902949
0.8215544 0.9827178 0.9902709
0.8208792 0.9824923 0.9900603
0.8147781 0.9804477 0.9881484
0.972768 0.9727677 0.9727735
1 0.9955888 0.9906755
1 1 1
1 1 1
0.9803184 1 0.982461
0.980318 1 0.982458
0.9803142 1 0.982432
0.9802817 1 0.9822026
0.9820312 1 0.9820512
0.991691 1 0.9821094
1 1 1
1 1 1
1 1 1
1 1 1
1 1 1
1 1 1
1 1 1
1 1 1
1 1 1
1 1 1
1 1 1
1 1 1
1 1 1
1 1 1
1 1 1
1 1 1
1 1 1
1 1 1
1 1 1
1 1 1
1 1 1
0.9514405 0.9621145 1
0.9514509 0.962119 1
0.9515414 0.9621577 1
0.9523223 0.9624932 1
0.9585367 0.9652447 1
0.9832458 0.9757502 1
1 1 1
1 1 1
1 1 1
0.951434 0.9621133 1
0.9514444 0.9621177 1
0.9515349 0.9621565 1
0.952316 0.962492 1
0.9585315 0.9652438 1
0.9832453 0.9757512 1
1 1 1
1 1 1
1 1 1
0.9513767 0.9621026 1
0.9513871 0.9621071 1
0.9514778 0.9621459 1
0.9522603 0.9624818 1
0.9584866 0.9652361 1
0.9832416 0.9757602 1
1 1 1
1 1 1
1 1 1
0.9508699 0.9620075 1
0.9508805 0.962012 1
0.9509727 0.9620512 1
0.9517679 0.9623901 1
0.9580891 0.9651671 1
0.9832089 0.9758383 1
1 1 1
1 1 1
1 1 1
0.94585 0.9610031 1
0.9458624 0.961008 1
0.94597 0.9610508 1
0.9468975 0.9614214 1
0.9541959 0.9644344 1
0.982896 0.9765223 1
1 1 1
1 1 1
1 1 1
0.9415939 0.9746717 1
0.9415938 0.9746703 1
0.9415922 0.9746581 1
0.9415793 0.9745511 1
0.9415012 0.9735955 1
0.9697319 0.977551 1
1 1 1
1 1 1
1 1 1
0.9910239 1 1
0.9910237 1 1
0.9910218 1 1
0.9910052 1 1
0.9908596 1 1
0.9895427 1 1
1 1 1
1 1 1
1 1 1
1 1 1
1 1 1
1 1 1
1 1 1
1 1 1
1 1 1
1 1 1
1 1 1
1 1 1
1 1 1
1 1 1
1 1 1
1 1 1
1 1 1
1 1 1
1 1 1
1 1 1
1 1 1
1 1 1
1 1 1
1 1 1
1 1 1
1 1 1
1 1 1
1 1 1
1 1 1
1 1 1
1 1 1
1 1 1
1 1 1
1 1 1
1 1 1
1 1 1
1 1 1
1 1 1
1 1 1
1 1 1
1 1 1
1 1 1
1 1 1
1 1 1
1 1 1
1 1 1
1 1 1
1 1 1
1 1 1
1 1 1
1 1 1
1 1 1
1 1 1
1 1 1
1 1 1
1 1 1
1 1 1
1 1 1
1 1 1
1 1 1
1 1 1
1 1 1
1 1 1
1 1 1
1 1 1
1 1 1
1 1 1
1 1 1
1 1 1
1 1 1
1 1 1
1 1 1
1 1 1
1 1 1
1 1 1
1 1 1
1 1 1
1 1 1
1 1 1
1 1 1
1 1 1
1 1 1
1 1 1
1 1 1
1 1 1
1 1 1
1 1 1
1 1 1
1 1 1
1 1 1
1 1 1
1 1 1
1 1 1
1 1 1
1 1 1
1 1 1
1 1 1
1 1 1
1 1 1
1 1 1
1 1 1
1 1 1
1 1 1
1 1 1
1 1 1
1 1 1
1 1 1
1 1 1
1 1 1
1 1 1
1 1 1
1 1 1
1 1 1
1 1 1
1 1 1
1 1 1
1 1 1
1 1 1
1 1 1
1 1 1
1 1 1
1 1 1
1 1 1
1 1 1
1 1 1
1 1 1
1 1 1
1 1 1
1 1 1
1 1 1
1 1 1
1 1 1
1 1 1
1 1 1
1 1 1
1 1 1
1 1 1
1 1 1
1 1 1
1 1 1
1 1 1
1 1 1
1 1 1
1 1 1
1 1 1
1 1 1
1 1 1
1 1 1
1 1 1
1 1 1
1 1 1
1 1 1
1 1 1
1 1 1
1 1 1
1 1 1
1 1 1
1 1 1
1 1 1
1 1 1
1 1 1
1 1 1
1 1 1
1 1 1
1 1 1
1 1 1
1 1 1
1 1 1
1 1 1
1 1 1
1 1 1
1 1 1
1 1 1
1 1 1
1 1 1
1 1 1
1 1 1
1 1 1
1 1 1
1 1 1
1 1 1
1 1 1
1 1 1
