release/datafiles/colormanagement/luts/AgX_Base_P3.cube
TITLE "AgX_Formation P3"
# AgX Base P3 Formation LUT
# This LUT expects input to be E Gamut Log2 encoding from -10 stops to +15 stops
# But the end image formation will be from -10 to 6.5 encoded in power 2.4
#  rotate = [3.0, -1, -2.0], inset = [0.4, 0.22, 0.13], outset = [0.4, 0.22, 0.04]
# The image formed has 40% per-channel shifts
LUT_3D_SIZE 5
0.0000005 0.0000000 0.0000018
0.1520669 0.0433849 0.0000000
0.8858976 0.4070253 0.3041866
1.0774234 0.9995276 0.9910297
1.1313905 1.1158861 1.1144056
0.0000000 0.1462827 0.0413174
0.1569913 0.1511050 0.0000000
0.8844155 0.4236450 0.3058275
1.0774172 0.9995519 0.9910359
1.1313905 1.1158862 1.1144056
0.2541250 0.8317202 0.2321815
0.2925853 0.8308572 0.2352668
0.8263661 0.8041087 0.4421570
1.0769539 1.0013533 0.9915004
1.1313896 1.1158908 1.1144068
0.9868726 1.0654834 0.9841566
0.9869054 1.0654799 0.9841646
0.9893311 1.0652228 0.9847670
1.0633388 1.0594384 1.0143068
1.1313217 1.1162347 1.1145002
1.1135744 1.1290547 1.1132712
1.1135744 1.1290547 1.1132712
1.1135805 1.1290542 1.1132726
1.1140280 1.1290148 1.1133822
1.1295068 1.1286654 1.1192560
0.0000000 0.0465480 0.1143803
0.1485411 0.0000000 0.1421032
0.8883815 0.3902012 0.3046413
1.0774312 0.9995084 0.9910291
1.1313906 1.1158861 1.1144056
0.0000000 0.1480549 0.1490033
0.1395983 0.1395978 0.1396083
0.8867386 0.4085841 0.3060696
1.0774249 0.9995327 0.9910352
1.1313905 1.1158862 1.1144056
0.1994632 0.8320824 0.2277724
0.2524163 0.8311540 0.2307458
0.8255644 0.8032748 0.4402267
1.0769611 1.0013351 0.9914994
1.1313896 1.1158908 1.1144068
0.9868361 1.0654855 0.9841448
0.9868689 1.0654821 0.9841528
0.9892968 1.0652247 0.9847554
1.0633365 1.0594359 1.0143023
1.1313217 1.1162347 1.1145002
1.1135743 1.1290547 1.1132711
1.1135744 1.1290547 1.1132712
1.1135804 1.1290542 1.1132726
1.1140279 1.1290148 1.1133822
1.1295068 1.1286654 1.1192560
0.0628467 0.3299408 0.7765940
0.1637172 0.3282345 0.7787871
0.8351694 0.4701325 0.8046103
1.0780500 0.9980060 0.9910082
1.1313922 1.1158826 1.1144055
0.0000000 0.3484824 0.7711597
0.0893433 0.3371831 0.7842350
0.8355895 0.4710175 0.8050491
1.0780432 0.9980315 0.9910140
1.1313922 1.1158827 1.1144055
0.0000000 0.8144910 0.8161885
0.0000000 0.8138690 0.8155678
0.7853072 0.7853064 0.7853255
1.0775377 0.9999156 0.9914511
1.1313913 1.1158873 1.1144068
0.9839430 1.0656649 0.9832380
0.9839783 1.0656611 0.9832461
0.9865851 1.0653810 0.9838610
1.0631626 1.0592489 1.0139580
1.1313233 1.1162314 1.1145001
1.1135675 1.1290547 1.1132689
1.1135675 1.1290547 1.1132689
1.1135736 1.1290542 1.1132704
1.1140214 1.1290148 1.1133800
1.1295059 1.1286646 1.1192549
0.9424122 0.9625715 1.0597103
0.9425385 0.9626201 1.0597013
0.9514211 0.9660954 1.0590874
1.0640650 1.0125473 1.0583808
1.1315286 1.1156142 1.1144090
0.9423428 0.9625719 1.0597332
0.9424693 0.9626204 1.0597242
0.9513655 0.9660985 1.0591081
1.0640660 1.0125496 1.0583820
1.1315286 1.1156142 1.1144090
0.9363914 0.9624222 1.0615656
0.9365365 0.9624747 1.0615539
0.9466453 0.9662027 1.0607538
1.0641481 1.0127246 1.0584741
1.1315276 1.1156190 1.1144101
0.9830597 1.0615061 1.0618956
0.9830556 1.0615046 1.0618941
0.9827442 1.0613870 1.0617774
1.0552172 1.0552171 1.0552199
1.1314494 1.1159752 1.1144977
1.1130297 1.1290571 1.1130960
1.1130297 1.1290571 1.1130960
1.1130362 1.1290565 1.1130974
1.1135126 1.1290129 1.1132089
1.1294412 1.1285982 1.1191704
1.1053956 1.1084747 1.1253968
1.1053958 1.1084748 1.1253968
1.1054153 1.1084833 1.1253966
1.1068019 1.1090904 1.1253891
1.1287362 1.1183398 1.1275748
1.1053955 1.1084747 1.1253969
1.1053957 1.1084749 1.1253969
1.1054152 1.1084833 1.1253967
1.1068018 1.1090904 1.1253892
1.1287363 1.1183398 1.1275748
1.1053861 1.1084758 1.1254034
1.1053864 1.1084759 1.1254034
1.1054059 1.1084844 1.1254031
1.1067943 1.1090919 1.1253952
1.1287367 1.1183404 1.1275753
1.1045735 1.1085299 1.1259146
1.1045738 1.1085300 1.1259146
1.1045959 1.1085391 1.1259138
1.1061539 1.1091868 1.1258664
1.1287696 1.1183836 1.1276093
1.1129690 1.1284458 1.1285424
1.1129690 1.1284458 1.1285423
1.1129681 1.1284452 1.1285418
1.1129027 1.1284006 1.1284972
1.1271540 1.1271540 1.1271546
