release/datafiles/colormanagement/luts/AgX_Base_P3.cube
TITLE "AgX_Formation P3"
# AgX Base P3 Formation LUT
# This LUT expects input to be E Gamut Log2 encoding from -10 stops to +15 stops
# But the end image formation will be from -10 to 6.5 encoded in power 2.4
#  rotate = [3.0, -1, -2.0], inset = [0.4, 0.22, 0.13], outset = [0.4, 0.22, 0.04]
# The image formed has 40% per-channel shifts
LUT_3D_SIZE 7
0.0000005 0.0000000 0.0000018
0.0708829 0.0207540 0.0000000
0.3110636 0.0864302 0.0000000
0.8858976 0.4070253 0.3041866
1.0555697 0.8739469 0.8513690
1.0995899 1.0589162 1.0547491
1.1313905 1.1158861 1.1144056
0.0000000 0.0687869 0.0184460
0.0745900 0.0718129 0.0000000
0.3124049 0.1179575 0.0000000
0.8855579 0.4109163 0.3045509
1.0555551 0.8740061 0.8513840
1.0995898 1.0589168 1.0547493
1.1313905 1.1158862 1.1144056
0.0000000 0.2967618 0.0875444
0.0551897 0.2981194 0.0000000
0.3188349 0.3068424 0.0000000
0.8799114 0.4693461 0.3116300
1.0552945 0.8750615 0.8516527
1.0995870 1.0589286 1.0547523
1.1313905 1.1158864 1.1144056
0.2541250 0.8317202 0.2321815
0.2636506 0.8315213 0.2328677
0.3796191 0.8283111 0.2460162
0.8263661 0.8041087 0.4421570
1.0510816 0.8919386 0.8563213
1.0995363 1.0591392 1.0548067
1.1313896 1.1158908 1.1144068
0.8417265 1.0287484 0.8334165
0.8418087 1.0287404 0.8334363
0.8432746 1.0285971 0.8337918
0.8665331 1.0263084 0.8400099
1.0200731 1.0115851 0.9083747
1.0987202 1.0625774 1.0557535
1.1313739 1.1159698 1.1144280
1.0525583 1.0933522 1.0514099
1.0525591 1.0933521 1.0514101
1.0525748 1.0933505 1.0514139
1.0528548 1.0933218 1.0514821
1.0574027 1.0928717 1.0526780
1.0930918 1.0909775 1.0669705
1.1311221 1.1172693 1.1147970
1.1135744 1.1290547 1.1132712
1.1135744 1.1290547 1.1132712
1.1135747 1.1290547 1.1132713
1.1135805 1.1290542 1.1132726
1.1136834 1.1290450 1.1132975
1.1153677 1.1289039 1.1137346
1.1295068 1.1286654 1.1192560
0.0000000 0.0228985 0.0557536
0.0692500 0.0000000 0.0662085
0.3120965 0.0000000 0.0450375
0.8864360 0.4033982 0.3042591
1.0555853 0.8738995 0.8513674
1.0995902 1.0589157 1.0547491
1.1313905 1.1158861 1.1144056
0.0000000 0.0704884 0.0709081
0.0660524 0.0660522 0.0660578
0.3152960 0.0875702 0.0000000
0.8860883 0.4073782 0.3046128
1.0555707 0.8739587 0.8513824
1.0995900 1.0589163 1.0547493
1.1313905 1.1158861 1.1144056
0.0000000 0.2927890 0.1222120
0.0000000 0.2941063 0.0867341
0.3143717 0.3025460 0.0000000
0.8803184 0.4669092 0.3115337
1.0553098 0.8750147 0.8516509
1.0995872 1.0589281 1.0547523
1.1313905 1.1158864 1.1144056
0.2435382 0.8317949 0.2311775
0.2537407 0.8315927 0.2318581
0.3747836 0.8283336 0.2449556
0.8261858 0.8039211 0.4417229
1.0510936 0.8919011 0.8563168
1.0995365 1.0591387 1.0548067
1.1313896 1.1158908 1.1144068
0.8416350 1.0287549 0.8333870
0.8417173 1.0287468 0.8334069
0.8431847 1.0286034 0.8337625
0.8664638 1.0263127 0.8399825
1.0200700 1.0115815 0.9083649
1.0987204 1.0625769 1.0557535
1.1313739 1.1159698 1.1144280
1.0525573 1.0933522 1.0514096
1.0525582 1.0933521 1.0514098
1.0525738 1.0933505 1.0514136
1.0528538 1.0933219 1.0514817
1.0574019 1.0928717 1.0526777
1.0930917 1.0909774 1.0669704
1.1311221 1.1172693 1.1147970
1.1135743 1.1290547 1.1132712
1.1135744 1.1290547 1.1132712
1.1135747 1.1290547 1.1132712
1.1135804 1.1290542 1.1132726
1.1136833 1.1290450 1.1132975
1.1153677 1.1289039 1.1137346
1.1295068 1.1286654 1.1192560
0.0000000 0.0935729 0.2324763
0.0430441 0.0717632 0.2483701
0.3023879 0.0370566 0.2894839
0.8986388 0.3148833 0.3089828
1.0558679 0.8730414 0.8513428
1.0995942 1.0589065 1.0547489
1.1313906 1.1158859 1.1144056
0.0000000 0.1205154 0.2420971
0.0000000 0.1021272 0.2540575
0.3045281 0.0374024 0.2915337
0.8981064 0.3217443 0.3090869
1.0558530 0.8731013 0.8513575
1.0995941 1.0589071 1.0547490
1.1313906 1.1158860 1.1144056
0.0000000 0.2983851 0.3003873
0.0000000 0.2955828 0.2975669
0.2838592 0.2838583 0.2838794
0.8894339 0.4136215 0.3121634
1.0555880 0.8741695 0.8516226
1.0995912 1.0589189 1.0547521
1.1313906 1.1158862 1.1144056
0.0000000 0.8262934 0.3115565
0.0000000 0.8267953 0.3041640
0.2466886 0.8292694 0.2259697
0.8228758 0.8004801 0.4337536
1.0513117 0.8912245 0.8562381
1.0995405 1.0591297 1.0548064
1.1313897 1.1158906 1.1144068
0.8399745 1.0288726 0.8328572
0.8400583 1.0288644 0.8328771
0.8415528 1.0287184 0.8332346
0.8652088 1.0263907 0.8394891
1.0200127 1.0115159 0.9081888
1.0987234 1.0625694 1.0557526
1.1313740 1.1159696 1.1144280
1.0525397 1.0933529 1.0514039
1.0525406 1.0933528 1.0514041
1.0525563 1.0933512 1.0514079
1.0528365 1.0933225 1.0514761
1.0573879 1.0928719 1.0526723
1.0930902 1.0909758 1.0669680
1.1311222 1.1172692 1.1147970
1.1135740 1.1290547 1.1132710
1.1135740 1.1290547 1.1132711
1.1135743 1.1290547 1.1132711
1.1135801 1.1290542 1.1132725
1.1136830 1.1290450 1.1132973
1.1153674 1.1289039 1.1137345
1.1295067 1.1286654 1.1192559
0.0628467 0.3299408 0.7765940
0.0992465 0.3295049 0.7771079
0.2973171 0.3276530 0.7845586
0.8351694 0.4701325 0.8046103
1.0619853 0.8553468 0.8524076
1.0996679 1.0587408 1.0547451
1.1313922 1.1158826 1.1144055
0.0000000 0.3331055 0.7766404
0.0699612 0.3315944 0.7783655
0.2924891 0.3289498 0.7856752
0.8352644 0.4703327 0.8047095
1.0619647 0.8554241 0.8524169
1.0996678 1.0587414 1.0547453
1.1313922 1.1158826 1.1144055
0.0000000 0.4079109 0.7632860
0.0000000 0.4053477 0.7639953
0.1423057 0.3595956 0.8060806
0.8369523 0.4738921 0.8064733
1.0615978 0.8567990 0.8525857
1.0996649 1.0587534 1.0547483
1.1313922 1.1158829 1.1144056
0.0000000 0.8144910 0.8161885
0.0000000 0.8143509 0.8160487
0.0000000 0.8117993 0.8135027
0.7853072 0.7853064 0.7853255
1.0558990 0.8778584 0.8558232
1.0996129 1.0589660 1.0548019
1.1313913 1.1158873 1.1144068
0.8027077 1.0316793 0.8228474
0.8028343 1.0316673 0.8228687
0.8050803 1.0314533 0.8232508
0.8385443 1.0282026 0.8300830
1.0189638 1.0103141 0.9049422
1.0987778 1.0624327 1.0557377
1.1313756 1.1159663 1.1144280
1.0522214 1.0933654 1.0513013
1.0522223 1.0933653 1.0513015
1.0522383 1.0933637 1.0513053
1.0525227 1.0933344 1.0513737
1.0571346 1.0928753 1.0525756
1.0930629 1.0909473 1.0669246
1.1311234 1.1172664 1.1147967
1.1135675 1.1290547 1.1132689
1.1135675 1.1290547 1.1132689
1.1135678 1.1290547 1.1132690
1.1135736 1.1290542 1.1132704
1.1136765 1.1290450 1.1132952
1.1153621 1.1289037 1.1137324
1.1295059 1.1286646 1.1192549
0.7559188 0.8077809 1.0218028
0.7562051 0.8078695 1.0217862
0.7612426 0.8094389 1.0214941
0.8252160 0.8299733 1.0181687
1.0260839 0.9057578 1.0133242
1.1013477 1.0554155 1.0549865
1.1314216 1.1158229 1.1144052
0.7557180 0.8077632 1.0218436
0.7560049 0.8078519 1.0218270
0.7610519 0.8094229 1.0215339
0.8251599 0.8300066 1.0181905
1.0260852 0.9057629 1.0133259
1.1013474 1.0554163 1.0549866
1.1314216 1.1158229 1.1144052
0.7520156 0.8074282 1.0225846
0.7523129 0.8075185 1.0225670
0.7575394 0.8091177 1.0222571
0.8241358 0.8306054 1.0185847
1.0261087 0.9058534 1.0133560
1.1013428 1.0554309 1.0549885
1.1314216 1.1158231 1.1144053
0.6836600 0.8107375 1.0346692
0.6836726 0.8106658 1.0346858
0.6839098 0.8093665 1.0349887
0.7815995 0.8290372 1.0290207
1.0265266 0.9074583 1.0138908
1.1012610 1.0556917 1.0550231
1.1314207 1.1158276 1.1144064
0.8301665 1.0191152 1.0199049
0.8301562 1.0191131 1.0199029
0.8299698 1.0190760 1.0198663
0.8265576 1.0184006 1.0192003
1.0050967 1.0050965 1.0051028
1.0999961 1.0597942 1.0556800
1.1314045 1.1159072 1.1144274
1.0453687 1.0937461 1.0493796
1.0453700 1.0937460 1.0493799
1.0453922 1.0937435 1.0493839
1.0457885 1.0936988 1.0494563
1.0519114 1.0930297 1.0507513
1.0925640 1.0904248 1.0661287
1.1311445 1.1172159 1.1147917
1.1134492 1.1290548 1.1132301
1.1134492 1.1290548 1.1132301
1.1134496 1.1290548 1.1132302
1.1134554 1.1290542 1.1132316
1.1135598 1.1290449 1.1132565
1.1152661 1.1289005 1.1136955
1.1294914 1.1286496 1.1192359
1.0307775 1.0400216 1.0877321
1.0307806 1.0400229 1.0877319
1.0308363 1.0400456 1.0877289
1.0318189 1.0404473 1.0876768
1.0447646 1.0457460 1.0872713
1.0925547 1.0655555 1.0895452
1.1321122 1.1146464 1.1145263
1.0307758 1.0400216 1.0877329
1.0307789 1.0400229 1.0877327
1.0308346 1.0400456 1.0877297
1.0318174 1.0404473 1.0876775
1.0447643 1.0457466 1.0872718
1.0925548 1.0655555 1.0895452
1.1321122 1.1146465 1.1145263
1.0307460 1.0400223 1.0877464
1.0307491 1.0400235 1.0877462
1.0308049 1.0400462 1.0877432
1.0317891 1.0404483 1.0876908
1.0447592 1.0457579 1.0872798
1.0925555 1.0655568 1.0895460
1.1321121 1.1146467 1.1145263
1.0301960 1.0400293 1.0879921
1.0301992 1.0400306 1.0879919
1.0302566 1.0400536 1.0879886
1.0312682 1.0404619 1.0879309
1.0446634 1.0459610 1.0874244
1.0925691 1.0655790 1.0895606
1.1321105 1.1146521 1.1145271
1.0208310 1.0419479 1.0921224
1.0208312 1.0419473 1.0921227
1.0208360 1.0419362 1.0921281
1.0209241 1.0417355 1.0922266
1.0385218 1.0469854 1.0909368
1.0928101 1.0659742 1.0898187
1.1320816 1.1147471 1.1145403
1.0507787 1.0914388 1.0916625
1.0507786 1.0914387 1.0916624
1.0507766 1.0914377 1.0916614
1.0507402 1.0914190 1.0916427
1.0500772 1.0910786 1.0913041
1.0880983 1.0880982 1.0880998
1.1316367 1.1162582 1.1147905
1.1109412 1.1291119 1.1125085
1.1109413 1.1291119 1.1125085
1.1109417 1.1291119 1.1125086
1.1109497 1.1291110 1.1125101
1.1110916 1.1290962 1.1125362
1.1133101 1.1288760 1.1130047
1.1292249 1.1283765 1.1188880
1.1053956 1.1084747 1.1253968
1.1053956 1.1084748 1.1253968
1.1053967 1.1084752 1.1253968
1.1054153 1.1084833 1.1253966
1.1057446 1.1086261 1.1253935
1.1101884 1.1105515 1.1254856
1.1287362 1.1183398 1.1275748
1.1053956 1.1084747 1.1253968
1.1053956 1.1084748 1.1253968
1.1053967 1.1084752 1.1253968
1.1054153 1.1084833 1.1253966
1.1057445 1.1086261 1.1253935
1.1101884 1.1105515 1.1254856
1.1287362 1.1183398 1.1275748
1.1053951 1.1084748 1.1253972
1.1053951 1.1084748 1.1253972
1.1053962 1.1084753 1.1253971
1.1054148 1.1084833 1.1253969
1.1057441 1.1086262 1.1253938
1.1101883 1.1105518 1.1254858
1.1287363 1.1183398 1.1275748
1.1053861 1.1084758 1.1254034
1.1053862 1.1084759 1.1254034
1.1053872 1.1084763 1.1254033
1.1054059 1.1084844 1.1254031
1.1057356 1.1086273 1.1253999
1.1101873 1.1105564 1.1254899
1.1287367 1.1183404 1.1275753
1.1052203 1.1084931 1.1255156
1.1052203 1.1084931 1.1255156
1.1052214 1.1084936 1.1255156
1.1052406 1.1085017 1.1255153
1.1055788 1.1086467 1.1255101
1.1101681 1.1106387 1.1255631
1.1287441 1.1183502 1.1275830
1.1024085 1.1094145 1.1274474
1.1024085 1.1094145 1.1274474
1.1024086 1.1094143 1.1274476
1.1024104 1.1094109 1.1274501
1.1024450 1.1093484 1.1274962
1.1083266 1.1112289 1.1272226
1.1288766 1.1185240 1.1277201
1.1129690 1.1284458 1.1285424
1.1129690 1.1284458 1.1285423
1.1129689 1.1284458 1.1285423
1.1129681 1.1284452 1.1285418
1.1129534 1.1284352 1.1285317
1.1126855 1.1282522 1.1283493
1.1271540 1.1271540 1.1271546
