release/datafiles/colormanagement/luts/colorworks_filmlg_to_p3.3dl
# Autodesk 3D Export from Truelight v3.0
0 128 256 384 512 640 768 896 1023
    0    0    0
    0    0    0
    0    0  100
    0    0  608
    0    0 1010
    0    0 1349
    0    0 1638
    0   65 1989
    0  722 2132
    0    0    0
    0    0    0
    0   15  337
    0  110  709
    0   54 1141
    0    0 1500
    0  200 1797
    0  658 2106
    0  922 2238
    0  209    0
    0  277  194
    0  314  420
    0  396  822
    0  458 1290
    0  493 1691
    0  631 1965
    0  974 2234
    0 1120 2349
    0  541    0
    0  599  297
    0  657  537
    0  741  972
    0  827 1487
    0  913 1916
    0 1029 2178
    0 1271 2382
    0 1370 2465
    0  934    0
    0  985  400
    0 1064  643
    0 1200 1141
    0 1334 1721
    0 1437 2154
    0 1504 2395
    0 1631 2527
    0 1698 2592
    0 1309  125
    0 1357  457
    0 1443  720
    0 1593 1264
    0 1760 1877
    0 1850 2318
    0 1903 2558
    0 1960 2668
    0 1987 2714
    0 1496  237
    0 1558  553
    0 1657  898
    0 1804 1426
    0 1949 2011
    0 2035 2428
    0 2087 2636
    0 2138 2744
    0 2159 2788
    0 1653  352
    0 1740  711
    0 1851 1140
    0 1991 1667
    0 2111 2199
    0 2180 2560
    0 2234 2743
    0 2278 2819
    0 2300 2864
    0 1720  400
    0 1816  778
    0 1932 1234
    0 2071 1771
    0 2184 2287
    0 2244 2623
    0 2296 2788
    0 2341 2865
    0 2359 2896
    0    0    0
    0    0    0
    0    0  289
    0    0  649
    0    0 1052
    0    0 1396
    0    0 1703
    0  113 2074
    0  781 2223
    0    0    0
    0   12    0
    0   81  369
    0  131  711
    0   77 1174
    0    0 1545
    0    0 1870
    0  263 2196
    0  964 2333
  152  295    0
    0  297  200
    0  345  440
    0  417  843
    0  486 1341
    0  524 1740
    0  661 2038
    0 1027 2324
    0 1183 2444
  228  627    0
    0  625  305
    0  680  546
    0  775  999
    0  886 1540
    0  968 1976
    0 1087 2258
    0 1355 2475
    0 1464 2562
  233 1034    0
    0 1064  393
    0 1149  664
    0 1277 1170
    0 1419 1766
    0 1513 2207
    0 1599 2485
    0 1748 2636
    0 1823 2702
    0 1435   29
    0 1459  447
    0 1554  757
    0 1703 1301
    0 1844 1904
    0 1952 2381
    0 2017 2646
    0 2100 2769
    0 2136 2820
    0 1668  191
    0 1733  545
    0 1828  917
    0 1970 1473
    0 2112 2072
    0 2205 2512
    0 2260 2754
    0 2312 2858
    0 2332 2901
    0 1842  321
    0 1924  716
    0 2039 1176
    0 2173 1733
    0 2295 2267
    0 2377 2658
    0 2427 2857
    0 2468 2937
    0 2488 2980
  494 1914  371
    0 2004  787
    0 2128 1283
    0 2258 1845
    0 2374 2355
    0 2449 2723
    0 2495 2900
    0 2536 2980
    0 2554 3013
  134    0    0
  281    0    0
  173    0  304
    0    0  685
    0    0 1113
    0    0 1476
    0    0 1802
    0  182 2203
    0  865 2361
  374  119    0
  381  135    0
  351  179  401
  136  207  771
    0  169 1255
    0    0 1646
    0    0 1979
    0  344 2327
    0 1060 2472
  452  363    0
  452  384  223
  402  423  474
    0  486  907
    0  546 1430
    0  577 1849
    0  730 2159
    0 1136 2457
    0 1303 2583
  596  712    0
  553  726  320
  471  792  586
    0  894 1074
    0  999 1650
    0 1080 2100
    0 1207 2390
    0 1514 2620
    0 1633 2713
  696 1205    0
  633 1242  394
  416 1332  701
    0 1467 1253
    0 1612 1877
    0 1704 2348
    0 1791 2630
    0 1956 2786
    0 2035 2855
  796 1672    0
  690 1695  430
    0 1791  787
    0 1938 1384
    0 2101 2049
    0 2184 2519
    0 2248 2796
    0 2341 2920
    0 2380 2972
  931 1907    0
  769 1969  533
    0 2071  951
    0 2221 1561
    0 2363 2188
    0 2453 2647
    0 2510 2895
    0 2559 3001
    0 2583 3044
 1092 2080    0
  922 2165  724
   69 2287 1227
    0 2426 1823
    0 2551 2392
    0 2628 2787
    0 2673 2992
    0 2708 3068
    0 2731 3111
 1156 2156  260
 1009 2250  800
  379 2379 1340
    0 2515 1936
    0 2634 2482
    0 2706 2853
    0 2746 3035
    0 2781 3111
    0 2797 3143
  710    0    0
  726    0    0
  710    0  334
  700    0  732
  661    0 1200
  657    0 1588
  720    0 1945
  869  255 2374
  869  963 2545
  832  270    0
  793  302  142
  793  316  429
  792  324  835
  790  265 1355
  782    0 1778
  809    0 2135
  914  449 2508
  904 1196 2665
  941  487    0
  923  501  232
  919  533  502
  916  589  979
  889  638 1542
  854  663 1993
  843  833 2331
  914 1288 2649
  498 1476 2781
 1127  866    0
 1117  895  318
 1116  962  615
 1088 1064 1154
 1020 1163 1775
  928 1243 2262
  463 1379 2583
  504 1721 2820
  508 1857 2915
 1371 1460    0
 1356 1500  360
 1323 1601  721
 1243 1740 1336
 1097 1880 2013
  522 1971 2528
  459 2058 2832
  496 2238 2995
  500 2323 3066
 1574 1997    0
 1534 2017  346
 1483 2126  796
 1354 2283 1466
 1128 2448 2173
  493 2538 2708
  423 2594 2996
  473 2679 3123
  478 2718 3175
 1719 2238    0
 1668 2312  444
 1586 2424  962
 1443 2587 1643
  774 2731 2324
  597 2817 2825
  509 2865 3088
  572 2905 3195
  579 2923 3239
 1848 2398    0
 1801 2499  691
 1710 2626 1259
 1567 2768 1908
  923 2891 2526
  815 2966 2956
  781 3006 3170
  808 3027 3251
  815 3045 3294
 1907 2468    0
 1864 2579  784
 1771 2715 1383
 1639 2850 2023
 1467 2966 2618
 1153 3034 3019
  810 3068 3206
  837 3090 3287
  840 3101 3319
 1320    0    0
 1309   20    0
 1334    0  356
 1377    0  785
 1421    0 1296
 1463    0 1720
 1588    0 2098
 1879  331 2560
 1983 1065 2746
 1487  332    0
 1451  315  150
 1491  330  443
 1537  331  889
 1584  244 1450
 1620    0 1907
 1715    0 2298
 1946  544 2695
 2043 1322 2861
 1690  581    0
 1665  592  226
 1711  628  517
 1753  680 1041
 1791  718 1644
 1821  738 2144
 1880  919 2511
 2058 1427 2843
 2131 1641 2981
 1968 1039    0
 1948 1062  289
 2000 1130  623
 2039 1230 1215
 2058 1332 1886
 2064 1403 2426
 2080 1541 2775
 2208 1915 3022
 2254 2065 3119
 2328 1739    0
 2296 1765  236
 2340 1872  710
 2365 2020 1400
 2363 2157 2138
 2327 2237 2708
 2308 2321 3040
 2370 2507 3210
 2397 2598 3280
 2588 2341    0
 2545 2357    0
 2591 2491  762
 2587 2655 1531
 2547 2805 2291
 2487 2895 2883
 2452 2940 3204
 2480 3018 3347
 2490 3053 3401
 2707 2603    0
 2696 2692    0
 2703 2815  932
 2689 2981 1707
 2634 3114 2451
 2571 3196 3001
 2529 3236 3290
 2542 3266 3411
 2544 3273 3458
 2799 2750    0
 2798 2860   94
 2783 2990 1267
 2756 3136 1988
 2698 3253 2653
 2649 3326 3125
 2610 3357 3366
 2611 3371 3446
 2613 3378 3492
 2844 2815    0
 2839 2928  740
 2820 3064 1413
 2783 3198 2108
 2729 3308 2745
 2683 3377 3181
 2650 3404 3395
 2651 3418 3475
 2652 3424 3508
 1900    0    0
 1883    0    0
 1924    0  371
 1979    0  808
 2023    0 1344
 2076    0 1797
 2212    0 2193
 2528  347 2658
 2656 1091 2848
 2082  239    0
 2060  233  179
 2109  236  466
 2162  165  920
 2205    0 1497
 2242    0 1976
 2371    0 2390
 2633  575 2794
 2747 1368 2968
 2306  602    0
 2290  618  232
 2347  653  540
 2408  697 1068
 2455  732 1693
 2491  743 2216
 2570  930 2605
 2776 1475 2945
 2864 1710 3090
 2628 1117    0
 2612 1143  267
 2678 1215  630
 2734 1307 1234
 2769 1401 1935
 2785 1467 2500
 2823 1609 2874
 2960 1999 3126
 3015 2158 3228
 3026 1871    0
 3003 1899    0
 3069 2007  698
 3117 2143 1418
 3127 2272 2181
 3114 2353 2784
 3112 2438 3138
 3162 2630 3319
 3191 2729 3399
 3354 2548    0
 3316 2558    0
 3374 2691  733
 3394 2846 1542
 3375 2981 2336
 3352 3080 2973
 3331 3125 3317
 3338 3196 3463
 3342 3231 3524
 3465 2830    0
 3465 2913    0
 3493 3036  901
 3504 3193 1724
 3476 3320 2507
 3438 3403 3092
 3410 3443 3403
 3405 3468 3530
 3402 3478 3582
 3527 2973    0
 3536 3076   54
 3545 3209 1260
 3538 3350 2021
 3506 3461 2719
 3470 3529 3221
 3444 3559 3473
 3428 3566 3556
 3424 3576 3608
 3555 3033    0
 3565 3145  686
 3568 3281 1418
 3552 3415 2151
 3520 3522 2819
 3483 3582 3281
 3459 3607 3502
 3442 3615 3586
 3436 3618 3620
 2221    0    0
 2218    0   96
 2254    0  411
 2302    0  837
 2343    0 1368
 2390    0 1826
 2540    0 2241
 2849  380 2707
 2976 1123 2897
 2403   36    0
 2425    0  199
 2470    0  475
 2524    0  943
 2568    0 1534
 2606    0 2028
 2738    0 2444
 2989  619 2846
 3097 1411 3020
 2629  628    0
 2656  616  236
 2708  658  549
 2761  698 1089
 2804  735 1725
 2839  751 2257
 2932  936 2655
 3134 1503 2993
 3221 1753 3138
 2944 1175    0
 2976 1189  253
 3035 1262  634
 3091 1350 1251
 3125 1444 1964
 3144 1508 2536
 3197 1648 2922
 3325 2046 3175
 3378 2209 3278
 3350 1938    0
 3375 1965    0
 3434 2071  695
 3479 2205 1430
 3491 2332 2206
 3488 2412 2816
 3497 2491 3182
 3540 2687 3367
 3564 2790 3447
 3673 2615    0
 3688 2645    0
 3736 2768  715
 3762 2920 1552
 3750 3049 2363
 3730 3138 2998
 3720 3184 3361
 3719 3260 3510
 3720 3297 3571
 3798 2912    0
 3849 3019    0
 3880 3138  870
 3892 3289 1735
 3869 3414 2534
 3839 3492 3128
 3828 3536 3457
 3805 3550 3581
 3795 3556 3632
 3859 3064    0
 3898 3178   42
 3913 3310 1254
 3906 3444 2038
 3881 3550 2734
 3856 3618 3253
 3842 3649 3521
 3825 3656 3609
 3815 3662 3660
 3885 3129    0
 3919 3245  665
 3927 3382 1429
 3912 3509 2171
 3884 3607 2832
 3862 3670 3310
 3848 3697 3548
 3831 3704 3636
 3823 3706 3672
 2402    0    0
 2405    0  129
 2438    0  433
 2487    0  869
 2523    0 1414
 2563    0 1867
 2713    0 2288
 3027  470 2766
 3153 1214 2956
 2582    0    0
 2596    0  233
 2639    0  512
 2691    0  988
 2733    0 1583
 2768    0 2079
 2897    0 2494
 3163  721 2897
 3272 1515 3071
 2800  670    0
 2823  691  272
 2870  732  591
 2924  779 1132
 2967  816 1773
 3002  847 2309
 3095 1046 2702
 3309 1607 3040
 3396 1856 3185
 3118 1252    0
 3148 1293  281
 3202 1362  668
 3256 1455 1296
 3292 1551 2012
 3312 1621 2587
 3364 1769 2963
 3500 2142 3221
 3553 2305 3324
 3521 2033    0
 3542 2066    0
 3593 2166  724
 3637 2309 1470
 3652 2433 2256
 3651 2512 2857
 3661 2590 3213
 3708 2766 3401
 3732 2868 3480
 3824 2683    0
 3839 2725    0
 3885 2844  745
 3910 2995 1582
 3901 3117 2399
 3888 3210 3031
 3877 3255 3384
 3885 3315 3536
 3886 3351 3598
 3947 2964    0
 3983 3060    0
 4012 3181  924
 4025 3326 1766
 4010 3455 2562
 3988 3533 3151
 3974 3567 3466
 3969 3592 3603
 3959 3598 3654
 4008 3107    0
 4047 3228   77
 4062 3356 1287
 4059 3487 2068
 4041 3592 2772
 4018 3656 3280
 4007 3686 3541
 3999 3693 3631
 3989 3699 3682
 4034 3172    0
 4068 3295  700
 4076 3428 1461
 4064 3552 2201
 4044 3649 2870
 4024 3708 3337
 4013 3734 3568
 4005 3741 3658
 3998 3744 3693
 2479    0    0
 2485    0  144
 2518    0  440
 2566    0  881
 2602    0 1432
 2639    0 1887
 2787    0 2308
 3101  470 2786
 3229 1253 2982
 2661    0    0
 2672    0  249
 2712    0  533
 2764    0 1007
 2805    0 1600
 2839    0 2098
 2965    0 2515
 3232  721 2918
 3347 1559 3094
 2873  685    0
 2895  725  288
 2939  765  614
 2994  816 1151
 3036  855 1791
 3071  892 2330
 3163 1097 2722
 3377 1658 3060
 3471 1900 3205
 3193 1285    0
 3221 1338  293
 3273 1407  686
 3327 1501 1315
 3362 1598 2028
 3383 1670 2606
 3435 1820 2980
 3572 2194 3238
 3628 2347 3343
 3595 2070    0
 3613 2111    0
 3658 2207  744
 3702 2352 1487
 3717 2472 2267
 3718 2552 2870
 3729 2632 3224
 3776 2808 3412
 3805 2906 3496
 3891 2716    0
 3903 2759    0
 3947 2876  765
 3972 3026 1596
 3964 3148 2410
 3954 3240 3043
 3943 3285 3393
 3951 3345 3545
 3957 3376 3609
 4011 2986    0
 4040 3077    0
 4068 3199  958
 4081 3341 1779
 4068 3469 2569
 4050 3548 3158
 4036 3581 3469
 4031 3605 3606
 4029 3615 3664
 4072 3130    0
 4095 3245   77
 4095 3374 1321
 4095 3501 2082
 4095 3606 2780
 4080 3671 3287
 4069 3700 3545
 4061 3707 3634
 4060 3717 3691
 4095 3191    0
 4095 3316  714
 4095 3448 1475
 4095 3570 2214
 4095 3667 2884
 4093 3725 3350
 4083 3750 3577
 4076 3757 3666
 4072 3760 3703
