release/datafiles/colormanagement/luts/colorworks_filmlg_to_p3.3dl
# Autodesk 3D Export from Truelight v3.0
    0   64  128  192  256  320  384  448  512  576  640  704  768  832  896  960 1023
    0    0    0
    0    0    0
    0    0    0
    0    0    0
    0    0  100
    0    0  274
    0    0  608
    0    0  785
    0    0 1010
    0    0 1183
    0    0 1349
    0    0 1471
    0    0 1638
    0    0 1854
    0   65 1989
    0  451 2073
    0  722 2132
    0    0    0
    0    0    0
    0    0    0
    0    0    0
    0    0  303
    0    0  419
    0    0  656
    0    0  846
    0    0 1071
    0    0 1250
    0    0 1419
    0    0 1549
    0    0 1714
    0    0 1920
    0  146 2048
    0  543 2129
    0  820 2186
    0    0    0
    0    0    0
    0    0    0
    0    0  187
    0   15  337
    0   64  462
    0  110  709
    0  137  910
    0   54 1141
    0  140 1323
    0    0 1500
    0   21 1637
    0  200 1797
    0  470 1986
    0  658 2106
    0  813 2183
    0  922 2238
    0   13    0
    0   82    0
    0  134    0
    0  132  235
    0  199  382
    0  224  503
    0  275  764
    0  306  981
    0  304 1215
    0  336 1407
    0  293 1596
    0  297 1733
    0  478 1887
    0  698 2060
    0  847 2172
    0  953 2246
    0 1026 2297
    0  209    0
    0  250    0
    0  277  194
    0  283  274
    0  314  420
    0  353  552
    0  396  822
    0  438 1050
    0  458 1290
    0  491 1488
    0  493 1691
    0  519 1824
    0  631 1965
    0  837 2125
    0  974 2234
    0 1060 2301
    0 1120 2349
    0  283    0
    0  349  133
    0  381  230
    0  374  307
    0  423  467
    0  444  600
    0  513  884
    0  560 1135
    0  597 1382
    0  635 1589
    0  663 1806
    0  695 1940
    0  794 2067
    0  985 2214
    0 1105 2307
    0 1180 2364
    0 1232 2405
    0  541    0
    0  567  211
    0  599  297
    0  612  366
    0  657  537
    0  692  692
    0  741  972
    0  789 1230
    0  827 1487
    0  871 1702
    0  913 1916
    0  946 2055
    0 1029 2178
    0 1178 2303
    0 1271 2382
    0 1329 2431
    0 1370 2465
    0  688    0
    0  718  268
    0  746  339
    0  764  408
    0  816  589
    0  865  753
    0  935 1052
    0  995 1324
    0 1046 1595
    0 1094 1814
    0 1142 2037
    0 1172 2173
    0 1238 2283
    0 1354 2387
    0 1434 2455
    0 1484 2497
    0 1519 2527
    0  934    0
    0  955  310
    0  985  400
    0 1018  469
    0 1064  643
    0 1117  831
    0 1200 1141
    0 1267 1425
    0 1334 1721
    0 1379 1936
    0 1437 2154
    0 1454 2293
    0 1504 2395
    0 1577 2473
    0 1631 2527
    0 1670 2565
    0 1698 2592
    0 1117    0
    0 1142  341
    0 1173  435
    0 1210  510
    0 1256  689
    0 1311  885
    0 1393 1206
    0 1470 1498
    0 1545 1799
    0 1594 2023
    0 1649 2233
    0 1673 2377
    0 1710 2480
    0 1767 2556
    0 1803 2603
    0 1825 2632
    0 1845 2654
    0 1309  125
    0 1326  356
    0 1357  457
    0 1397  541
    0 1443  720
    0 1503  922
    0 1593 1264
    0 1677 1570
    0 1760 1877
    0 1804 2104
    0 1850 2318
    0 1875 2459
    0 1903 2558
    0 1938 2626
    0 1960 2668
    0 1973 2694
    0 1987 2714
    0 1399  171
    0 1421  375
    0 1450  478
    0 1487  570
    0 1540  771
    0 1603  976
    0 1692 1312
    0 1776 1619
    0 1849 1918
    0 1897 2144
    0 1943 2359
    0 1969 2493
    0 1995 2592
    0 2027 2659
    0 2048 2701
    0 2061 2728
    0 2071 2746
    0 1496  237
    0 1525  435
    0 1558  553
    0 1595  666
    0 1657  898
    0 1715 1099
    0 1804 1426
    0 1882 1722
    0 1949 2011
    0 1993 2226
    0 2035 2428
    0 2062 2551
    0 2087 2636
    0 2118 2701
    0 2138 2744
    0 2151 2770
    0 2159 2788
    0 1593  308
    0 1628  505
    0 1670  650
    0 1711  789
    0 1778 1055
    0 1835 1260
    0 1918 1572
    0 1989 1851
    0 2049 2127
    0 2090 2329
    0 2124 2509
    0 2152 2617
    0 2177 2702
    0 2205 2749
    0 2224 2790
    0 2237 2816
    0 2246 2835
    0 1653  352
    0 1693  549
    0 1740  711
    0 1784  866
    0 1851 1140
    0 1912 1367
    0 1991 1667
    0 2058 1939
    0 2111 2199
    0 2150 2394
    0 2180 2560
    0 2208 2664
    0 2234 2743
    0 2261 2790
    0 2278 2819
    0 2291 2846
    0 2300 2864
    0 1692  380
    0 1734  577
    0 1784  750
    0 1831  915
    0 1898 1195
    0 1961 1435
    0 2038 1727
    0 2102 1996
    0 2153 2249
    0 2189 2435
    0 2216 2594
    0 2244 2697
    0 2270 2769
    0 2297 2816
    0 2315 2846
    0 2325 2864
    0 2334 2883
    0 1720  400
    0 1763  597
    0 1816  778
    0 1864  950
    0 1932 1234
    0 1996 1484
    0 2071 1771
    0 2134 2037
    0 2184 2287
    0 2217 2468
    0 2244 2623
    0 2269 2720
    0 2296 2788
    0 2323 2835
    0 2341 2865
    0 2351 2883
    0 2359 2896
    0    0    0
    0    0    0
    0    0    0
    0    0    0
    0    0  262
    0    0  380
    0    0  627
    0    0  807
    0    0 1028
    0    0 1205
    0    0 1371
    0    0 1498
    0    0 1670
    0    0 1892
    0   83 2030
    0  473 2117
    0  745 2176
    0    0    0
    0    0    0
    0    0    0
    0    0  144
    0    0  330
    0    0  455
    0    0  665
    0    0  864
    0    0 1085
    0    0 1272
    0    0 1439
    0    0 1577
    0    0 1748
    0    0 1956
    0  158 2086
    0  557 2170
    0  835 2227
    0    0    0
    0    0    0
    0    0    0
    0   11  223
    0   68  364
    0  110  499
    0  130  711
    0  145  928
    0  104 1155
    0   93 1348
    0    0 1520
    0    0 1665
    0   23 1832
    0  296 2025
    0  530 2147
    0  789 2226
    0  933 2281
    0  101    0
    0  130    0
    0  155  118
    0  180  265
    0  223  405
    0  251  546
    0  288  771
    0  313 1004
    0  328 1235
    0  337 1436
    0  334 1617
    0  343 1760
    0  484 1920
    0  709 2098
    0  861 2213
    0  968 2288
    0 1042 2341
    0  265    0
    0  285    0
    0  296  205
    0  318  305
    0  342  442
    0  382  596
    0  415  833
    0  454 1074
    0  478 1312
    0  502 1522
    0  514 1712
    0  538 1854
    0  647 2000
    0  854 2164
    0  995 2275
    0 1083 2344
    0 1144 2392
    0  368    0
    0  406  134
    0  431  255
    0  441  343
    0  479  493
    0  507  645
    0  561  901
    0  602 1159
    0  638 1406
    0  671 1627
    0  701 1827
    0  732 1970
    0  832 2104
    0 1022 2256
    0 1140 2350
    0 1214 2409
    0 1266 2450
    0  584    0
    0  598  210
    0  613  305
    0  636  394
    0  670  548
    0  710  722
    0  759  985
    0  811 1253
    0  857 1511
    0  900 1744
    0  940 1941
    0  971 2087
    0 1055 2215
    0 1210 2344
    0 1307 2425
    0 1368 2475
    0 1409 2510
    0  737    0
    0  763  266
    0  790  354
    0  812  441
    0  861  609
    0  910  787
    0  979 1069
    0 1041 1351
    0 1095 1621
    0 1142 1854
    0 1185 2061
    0 1218 2207
    0 1288 2322
    0 1407 2430
    0 1489 2501
    0 1539 2545
    0 1575 2576
    0  982    0
    0  997  304
    0 1021  399
    0 1054  493
    0 1102  660
    0 1158  861
    0 1233 1154
    0 1302 1446
    0 1366 1736
    0 1416 1969
    0 1467 2173
    0 1491 2324
    0 1546 2435
    0 1627 2521
    0 1684 2578
    0 1725 2616
    0 1754 2643
    0 1177    0
    0 1199  333
    0 1227  430
    0 1262  530
    0 1311  705
    0 1369  916
    0 1447 1220
    0 1527 1525
    0 1597 1817
    0 1654 2063
    0 1700 2262
    0 1729 2416
    0 1770 2526
    0 1827 2605
    0 1864 2654
    0 1886 2684
    0 1907 2707
    0 1367  109
    0 1378  347
    0 1402  454
    0 1442  560
    0 1493  744
    0 1556  962
    0 1640 1279
    0 1722 1592
    0 1796 1889
    0 1846 2133
    0 1888 2341
    0 1917 2490
    0 1951 2596
    0 1995 2669
    0 2022 2715
    0 2039 2743
    0 2054 2764
    0 1475  156
    0 1495  364
    0 1521  474
    0 1557  590
    0 1613  790
    0 1679 1013
    0 1760 1332
    0 1841 1648
    0 1911 1940
    0 1968 2183
    0 2009 2391
    0 2038 2539
    0 2066 2642
    0 2097 2709
    0 2119 2752
    0 2136 2780
    0 2147 2799
    0 1581  222
    0 1609  424
    0 1641  549
    0 1679  688
    0 1740  910
    0 1802 1138
    0 1883 1447
    0 1957 1753
    0 2024 2039
    0 2078 2270
    0 2117 2466
    0 2144 2600
    0 2171 2693
    0 2202 2758
    0 2221 2799
    0 2234 2825
    0 2242 2843
    0 1683  292
    0 1715  495
    0 1753  648
    0 1798  810
    0 1865 1066
    0 1925 1298
    0 2001 1598
    0 2067 1883
    0 2129 2157
    0 2179 2373
    0 2214 2551
    0 2240 2665
    0 2267 2757
    0 2294 2806
    0 2313 2847
    0 2326 2873
    0 2334 2891
    0 1746  336
    0 1781  539
    0 1824  710
    0 1873  887
    0 1941 1156
    0 2004 1400
    0 2076 1696
    0 2139 1972
    0 2195 2231
    0 2242 2438
    0 2275 2604
    0 2301 2713
    0 2327 2798
    0 2354 2846
    0 2371 2877
    0 2383 2902
    0 2392 2921
    0 1787  364
    0 1823  567
    0 1869  750
    0 1921  936
    0 1991 1213
    0 2054 1465
    0 2125 1759
    0 2185 2030
    0 2238 2282
    0 2282 2480
    0 2315 2640
    0 2340 2747
    0 2366 2823
    0 2393 2872
    0 2409 2902
    0 2420 2921
    0 2428 2940
    0 1815  384
    0 1853  587
    0 1901  778
    0 1955  972
    0 2025 1253
    0 2089 1513
    0 2159 1803
    0 2218 2072
    0 2270 2320
    0 2311 2513
    0 2343 2669
    0 2367 2771
    0 2392 2842
    0 2419 2891
    0 2436 2921
    0 2447 2940
    0 2454 2953
    0    0    0
    0    0    0
    0    0    0
    0    0    0
    0    0  289
    0    0  409
    0    0  649
    0    0  830
    0    0 1052
    0    0 1228
    0    0 1396
    0    0 1525
    0    0 1703
    0    0 1932
    0  113 2074
    0  506 2162
    0  781 2223
    0    0    0
    0    0    0
    0    0    0
    0    0  201
    0    0  344
    0    0  476
    0    0  679
    0    0  885
    0    0 1108
    0    0 1298
    0    0 1466
    0    0 1609
    0    0 1786
    0    0 2002
    0  184 2135
    0  587 2219
    0  868 2278
    0    0    0
    0    0    0
    0   12    0
    0   60  242
    0   81  369
    0  131  525
    0  131  711
    0  137  949
    0   77 1174
    0    0 1374
    0    0 1545
    0    0 1696
    0    0 1870
    0    0 2071
    0  263 2196
    0  676 2276
    0  964 2333
    0  163    0
    0  170    0
    0  170   75
    0  210  281
    0  235  410
    0  265  577
    0  296  776
    0  313 1030
    0  338 1259
    0  334 1466
    0  345 1644
    0  365 1791
    0  489 1959
    0  728 2144
    0  887 2261
    0  997 2338
    0 1075 2392
  152  295    0
    0  309    0
    0  297  200
    0  334  320
    0  345  440
    0  400  631
    0  417  843
    0  462 1100
    0  486 1341
    0  506 1557
    0  524 1740
    0  551 1887
    0  661 2038
    0  880 2210
    0 1027 2324
    0 1119 2394
    0 1183 2444
  194  400    0
  132  437  142
    0  469  260
    0  479  360
    0  514  502
    0  548  676
    0  597  920
    0  636 1187
    0  671 1436
    0  706 1668
    0  732 1858
    0  764 2005
    0  869 2146
    0 1067 2303
    0 1188 2400
    0 1263 2461
    0 1315 2503
  228  627    0
  144  633  212
    0  625  305
    0  658  411
    0  680  546
    0  730  749
    0  775  999
    0  837 1278
    0  886 1540
    0  930 1787
    0  968 1976
    0  999 2123
    0 1087 2258
    0 1253 2392
    0 1355 2475
    0 1419 2526
    0 1464 2562
  274  784    0
  150  810  265
    0  838  355
    0  861  461
    0  909  622
    0  958  816
    0 1025 1087
    0 1091 1383
    0 1145 1654
    0 1193 1898
    0 1232 2095
    0 1266 2250
    0 1342 2371
    0 1469 2482
    0 1553 2556
    0 1606 2601
    0 1642 2634
  233 1034    0
    0 1047  301
    0 1064  393
    0 1102  508
    0 1149  664
    0 1208  888
    0 1277 1170
    0 1346 1472
    0 1419 1766
    0 1465 2009
    0 1513 2207
    0 1540 2362
    0 1599 2485
    0 1687 2577
    0 1748 2636
    0 1792 2675
    0 1823 2702
    0 1236    5
    0 1258  326
    0 1282  421
    0 1320  544
    0 1368  716
    0 1433  946
    0 1507 1236
    0 1590 1558
    0 1657 1844
    0 1718 2106
    0 1757 2301
    0 1789 2459
    0 1835 2577
    0 1900 2659
    0 1939 2709
    0 1963 2741
    0 1987 2765
    0 1435   29
    0 1445  340
    0 1459  447
    0 1507  572
    0 1554  757
    0 1622  995
    0 1703 1301
    0 1781 1620
    0 1844 1904
    0 1896 2161
    0 1952 2381
    0 1978 2533
    0 2017 2646
    0 2068 2722
    0 2100 2769
    0 2120 2799
    0 2136 2820
    0 1554  116
    0 1576  352
    0 1599  467
    0 1638  602
    0 1689  801
    0 1759 1046
    0 1834 1354
    0 1922 1681
    0 1984 1970
    0 2043 2226
    0 2081 2432
    0 2114 2591
    0 2143 2698
    0 2176 2763
    0 2200 2805
    0 2220 2835
    0 2233 2856
    0 1668  191
    0 1699  415
    0 1733  545
    0 1773  707
    0 1828  917
    0 1893 1175
    0 1970 1473
    0 2046 1787
    0 2112 2072
    0 2168 2315
    0 2205 2512
    0 2233 2653
    0 2260 2754
    0 2293 2817
    0 2312 2858
    0 2324 2883
    0 2332 2901
    0 1776  275
    0 1810  489
    0 1851  651
    0 1899  834
    0 1959 1078
    0 2021 1340
    0 2095 1630
    0 2163 1916
    0 2226 2192
    0 2276 2416
    0 2312 2602
    0 2337 2717
    0 2364 2818
    0 2389 2867
    0 2408 2906
    0 2420 2932
    0 2428 2949
    0 1842  321
    0 1878  535
    0 1924  716
    0 1977  911
    0 2039 1176
    0 2102 1440
    0 2173 1733
    0 2238 2008
    0 2295 2267
    0 2342 2479
    0 2377 2658
    0 2401 2766
    0 2427 2857
    0 2451 2906
    0 2468 2937
    0 2479 2962
    0 2488 2980
  258 1884  350
    0 1921  564
    0 1971  757
    0 2026  961
    0 2091 1238
    0 2153 1505
    0 2222 1798
    0 2286 2069
    0 2341 2318
    0 2384 2520
    0 2419 2694
    0 2442 2802
    0 2467 2882
    0 2491 2931
    0 2507 2962
    0 2518 2981
    0 2526 2999
  494 1914  371
    0 1952  585
    0 2004  787
    0 2062  996
    0 2128 1283
    0 2190 1551
    0 2258 1845
    0 2321 2112
    0 2374 2355
    0 2416 2554
    0 2449 2723
    0 2472 2827
    0 2495 2900
    0 2520 2949
    0 2536 2980
    0 2546 2999
    0 2554 3013
    0    0    0
    0    0    0
    0    0    0
    0    0    0
    0    0  277
    0    0  392
    0    0  662
    0    0  851
    0    0 1078
    0    0 1257
    0    0 1428
    0    0 1560
    0    0 1742
    0    0 1978
    0  138 2124
    0  536 2214
    0  814 2278
    0    0    0
    0    0    0
   25    0    0
    0    0  208
    0    0  360
    0    0  483
    0    0  702
    0    0  914
    0    0 1141
    0    0 1334
    0    0 1505
    0    0 1650
    0    0 1831
    0    0 2054
    0  213 2191
    0  620 2279
