release/datafiles/colormanagement/luts/colorworks_filmlg_to_p3.3dl
# Autodesk 3D Export from Truelight v3.0
0 256 512 768 1023
    0    0    0
    0    0  100
    0    0 1010
    0    0 1638
    0  722 2132
    0  209    0
    0  314  420
    0  458 1290
    0  631 1965
    0 1120 2349
    0  934    0
    0 1064  643
    0 1334 1721
    0 1504 2395
    0 1698 2592
    0 1496  237
    0 1657  898
    0 1949 2011
    0 2087 2636
    0 2159 2788
    0 1720  400
    0 1932 1234
    0 2184 2287
    0 2296 2788
    0 2359 2896
  134    0    0
  173    0  304
    0    0 1113
    0    0 1802
    0  865 2361
  452  363    0
  402  423  474
    0  546 1430
    0  730 2159
    0 1303 2583
  696 1205    0
  416 1332  701
    0 1612 1877
    0 1791 2630
    0 2035 2855
  931 1907    0
    0 2071  951
    0 2363 2188
    0 2510 2895
    0 2583 3044
 1156 2156  260
  379 2379 1340
    0 2634 2482
    0 2746 3035
    0 2797 3143
 1320    0    0
 1334    0  356
 1421    0 1296
 1588    0 2098
 1983 1065 2746
 1690  581    0
 1711  628  517
 1791  718 1644
 1880  919 2511
 2131 1641 2981
 2328 1739    0
 2340 1872  710
 2363 2157 2138
 2308 2321 3040
 2397 2598 3280
 2707 2603    0
 2703 2815  932
 2634 3114 2451
 2529 3236 3290
 2544 3273 3458
 2844 2815    0
 2820 3064 1413
 2729 3308 2745
 2650 3404 3395
 2652 3424 3508
 2221    0    0
 2254    0  411
 2343    0 1368
 2540    0 2241
 2976 1123 2897
 2629  628    0
 2708  658  549
 2804  735 1725
 2932  936 2655
 3221 1753 3138
 3350 1938    0
 3434 2071  695
 3491 2332 2206
 3497 2491 3182
 3564 2790 3447
 3798 2912    0
 3880 3138  870
 3869 3414 2534
 3828 3536 3457
 3795 3556 3632
 3885 3129    0
 3927 3382 1429
 3884 3607 2832
 3848 3697 3548
 3823 3706 3672
 2479    0    0
 2518    0  440
 2602    0 1432
 2787    0 2308
 3229 1253 2982
 2873  685    0
 2939  765  614
 3036  855 1791
 3163 1097 2722
 3471 1900 3205
 3595 2070    0
 3658 2207  744
 3717 2472 2267
 3729 2632 3224
 3805 2906 3496
 4011 2986    0
 4068 3199  958
 4068 3469 2569
 4036 3581 3469
 4029 3615 3664
 4095 3191    0
 4095 3448 1475
 4095 3667 2884
 4083 3750 3577
 4072 3760 3703
