release/datafiles/colormanagement/luts/dci_xyz.spi1d
Version 1
From 0.0 1.0910416666666667
Length 65536
Components 1
{
    0.000000
    0.013916
    0.018311
    0.021240
    0.023926
    0.025879
    0.027832
    0.029541
    0.031006
    0.032471
    0.033936
    0.035156
    0.036377
    0.037598
    0.038574
    0.039551
    0.040771
    0.041748
    0.042480
    0.043457
    0.044434
    0.045166
    0.045898
    0.046875
    0.047607
    0.048340
    0.049072
    0.049805
    0.050537
    0.051270
    0.051758
    0.052490
    0.053223
    0.053711
    0.054443
    0.054932
    0.055664
    0.056152
    0.056885
    0.057373
    0.057861
    0.058350
    0.059082
    0.059570
    0.060059
    0.060547
    0.061035
    0.061523
    0.062012
    0.062500
    0.062988
    0.063477
    0.063965
    0.064453
    0.064941
    0.065430
    0.065918
    0.066406
    0.066895
    0.067139
    0.067627
    0.068115
    0.068604
    0.069092
    0.069336
    0.069824
    0.070312
    0.070557
    0.071045
    0.071533
    0.071777
    0.072266
    0.072510
    0.072998
    0.073486
    0.073730
    0.074219
    0.074463
    0.074951
    0.075195
    0.075684
    0.075928
    0.076416
    0.076660
    0.077148
    0.077393
    0.077881
    0.078125
    0.078369
    0.078857
    0.079102
    0.079590
    0.079834
    0.080078
    0.080566
    0.080811
    0.081055
    0.081543
    0.081787
    0.082031
    0.082520
    0.082764
    0.083008
    0.083252
    0.083740
    0.083984
    0.084229
    0.084473
    0.084961
    0.085205
    0.085449
    0.085693
    0.086182
    0.086426
    0.086670
    0.086914
    0.087158
    0.087646
    0.087891
    0.088135
    0.088379
    0.088623
    0.088867
    0.089355
    0.089600
    0.089844
    0.090088
    0.090332
    0.090576
    0.090820
    0.091064
    0.091553
    0.091797
    0.092041
    0.092285
    0.092529
    0.092773
    0.093018
    0.093262
    0.093506
    0.093750
    0.093994
    0.094238
    0.094482
    0.094727
    0.094971
    0.095459
    0.095703
    0.095947
    0.096191
    0.096436
    0.096680
    0.096924
    0.097168
    0.097412
    0.097656
    0.097900
    0.098145
    0.098389
    0.098633
    0.098877
    0.099121
    0.099121
    0.099365
    0.099609
    0.099854
    0.100098
    0.100342
    0.100586
    0.100830
    0.101074
    0.101318
    0.101562
    0.101807
    0.102051
    0.102295
    0.102539
    0.102783
    0.102783
    0.103027
    0.103271
    0.103516
    0.103760
    0.104004
    0.104248
    0.104492
    0.104736
    0.104980
    0.104980
    0.105225
    0.105469
    0.105713
    0.105957
    0.106201
    0.106445
    0.106689
    0.106689
    0.106934
    0.107178
    0.107422
    0.107666
    0.107910
    0.108154
    0.108154
    0.108398
    0.108643
    0.108887
    0.109131
    0.109375
    0.109375
    0.109619
    0.109863
    0.110107
    0.110352
    0.110352
    0.110596
    0.110840
    0.111084
    0.111328
    0.111572
    0.111572
    0.111816
    0.112061
    0.112305
    0.112549
    0.112549
    0.112793
    0.113037
    0.113281
    0.113281
    0.113525
    0.113770
    0.114014
    0.114258
    0.114258
    0.114502
    0.114746
    0.114990
    0.114990
    0.115234
    0.115479
    0.115723
    0.115723
    0.115967
    0.116211
    0.116455
    0.116455
    0.116699
    0.116943
    0.117188
    0.117188
    0.117432
    0.117676
    0.117920
    0.117920
    0.118164
    0.118408
    0.118652
    0.118652
    0.118896
    0.119141
    0.119141
    0.119385
    0.119629
    0.119873
    0.119873
    0.120117
    0.120361
    0.120361
    0.120605
    0.120850
    0.121094
    0.121094
    0.121338
    0.121582
    0.121582
    0.121826
    0.122070
    0.122070
    0.122314
    0.122559
    0.122803
    0.122803
    0.123047
    0.123291
    0.123291
    0.123535
    0.123779
    0.123779
    0.124023
    0.124268
    0.124268
    0.124512
    0.124756
    0.124756
    0.125000
    0.125244
    0.125244
    0.125488
    0.125732
    0.125732
    0.125977
    0.126221
    0.126221
    0.126465
    0.126709
    0.126709
    0.126953
    0.127197
    0.127197
    0.127441
    0.127686
    0.127686
    0.127930
    0.127930
    0.128174
    0.128418
    0.128418
    0.128662
    0.128906
    0.128906
    0.129150
    0.129395
    0.129395
    0.129639
    0.129639
    0.129883
    0.130127
    0.130127
    0.130371
    0.130615
    0.130615
    0.130859
    0.130859
    0.131104
    0.131348
    0.131348
    0.131592
    0.131836
    0.131836
    0.132080
    0.132080
    0.132324
    0.132568
    0.132568
    0.132812
    0.132812
    0.133057
    0.133301
    0.133301
    0.133545
    0.133545
    0.133789
    0.134033
    0.134033
    0.134277
    0.134277
    0.134521
    0.134766
    0.134766
    0.135010
    0.135010
    0.135254
    0.135498
    0.135498
    0.135742
    0.135742
    0.135986
    0.135986
    0.136230
    0.136475
    0.136475
    0.136719
    0.136719
    0.136963
    0.137207
    0.137207
    0.137451
    0.137451
    0.137695
    0.137695
    0.137939
    0.138184
    0.138184
    0.138428
    0.138428
    0.138672
    0.138672
    0.138916
    0.139160
    0.139160
    0.139404
    0.139404
    0.139648
    0.139648
    0.139893
    0.139893
    0.140137
    0.140381
    0.140381
    0.140625
    0.140625
    0.140869
    0.140869
    0.141113
    0.141113
    0.141357
    0.141602
    0.141602
    0.141846
    0.141846
    0.142090
    0.142090
    0.142334
    0.142334
    0.142578
    0.142578
    0.142822
    0.143066
    0.143066
    0.143311
    0.143311
    0.143555
    0.143555
    0.143799
    0.143799
    0.144043
    0.144043
    0.144287
    0.144287
    0.144531
    0.144531
    0.144775
    0.145020
    0.145020
    0.145264
    0.145264
    0.145508
    0.145508
    0.145752
    0.145752
    0.145996
    0.145996
    0.146240
    0.146240
    0.146484
    0.146484
    0.146729
    0.146729
    0.146973
    0.146973
    0.147217
    0.147217
    0.147461
    0.147461
    0.147705
    0.147705
    0.147949
    0.147949
    0.148193
    0.148193
    0.148438
    0.148682
    0.148682
    0.148926
    0.148926
    0.149170
    0.149170
    0.149414
    0.149414
    0.149658
    0.149658
    0.149902
    0.149902
    0.150146
    0.150146
    0.150391
    0.150391
    0.150635
    0.150635
    0.150879
    0.150879
    0.151123
    0.151123
    0.151367
    0.151367
    0.151367
    0.151611
    0.151611
    0.151855
    0.151855
    0.152100
    0.152100
    0.152344
    0.152344
    0.152588
    0.152588
    0.152832
    0.152832
    0.153076
    0.153076
    0.153320
    0.153320
    0.153564
    0.153564
    0.153809
    0.153809
    0.154053
    0.154053
    0.154297
    0.154297
    0.154541
    0.154541
    0.154785
    0.154785
    0.154785
    0.155029
    0.155029
    0.155273
    0.155273
    0.155518
    0.155518
    0.155762
    0.155762
    0.156006
    0.156006
    0.156250
    0.156250
    0.156494
    0.156494
    0.156738
    0.156738
    0.156738
    0.156982
    0.156982
    0.157227
    0.157227
    0.157471
    0.157471
    0.157715
    0.157715
    0.157959
    0.157959
    0.158203
    0.158203
    0.158203
    0.158447
    0.158447
    0.158691
    0.158691
    0.158936
    0.158936
    0.159180
    0.159180
    0.159424
    0.159424
    0.159424
    0.159668
    0.159668
    0.159912
    0.159912
    0.160156
    0.160156
    0.160400
    0.160400
    0.160645
    0.160645
    0.160645
    0.160889
    0.160889
    0.161133
    0.161133
    0.161377
    0.161377
    0.161621
    0.161621
    0.161621
    0.161865
    0.161865
    0.162109
    0.162109
    0.162354
    0.162354
    0.162598
    0.162598
    0.162598
    0.162842
    0.162842
    0.163086
    0.163086
    0.163330
    0.163330
    0.163330
    0.163574
    0.163574
    0.163818
    0.163818
    0.164062
    0.164062
    0.164062
    0.164307
    0.164307
    0.164551
    0.164551
    0.164795
    0.164795
    0.164795
    0.165039
    0.165039
    0.165283
    0.165283
    0.165527
    0.165527
    0.165527
    0.165771
    0.165771
    0.166016
    0.166016
    0.166260
    0.166260
    0.166260
    0.166504
    0.166504
    0.166748
    0.166748
    0.166992
    0.166992
    0.166992
    0.167236
    0.167236
    0.167480
    0.167480
    0.167725
    0.167725
    0.167725
    0.167969
    0.167969
    0.168213
    0.168213
    0.168213
    0.168457
    0.168457
    0.168701
    0.168701
    0.168701
    0.168945
    0.168945
    0.169189
    0.169189
    0.169434
    0.169434
    0.169434
    0.169678
    0.169678
    0.169922
    0.169922
    0.169922
    0.170166
    0.170166
    0.170410
    0.170410
    0.170410
    0.170654
    0.170654
    0.170898
    0.170898
    0.170898
    0.171143
    0.171143
    0.171387
    0.171387
    0.171631
    0.171631
    0.171631
    0.171875
    0.171875
    0.172119
    0.172119
    0.172119
    0.172363
    0.172363
    0.172607
    0.172607
    0.172607
    0.172852
    0.172852
    0.173096
    0.173096
    0.173096
    0.173340
    0.173340
    0.173584
    0.173584
    0.173584
    0.173828
    0.173828
    0.173828
    0.174072
    0.174072
    0.174316
    0.174316
    0.174316
    0.174561
    0.174561
    0.174805
    0.174805
    0.174805
    0.175049
    0.175049
    0.175293
    0.175293
    0.175293
    0.175537
    0.175537
    0.175781
    0.175781
    0.175781
    0.176025
    0.176025
    0.176025
    0.176270
    0.176270
    0.176514
    0.176514
    0.176514
    0.176758
    0.176758
    0.177002
    0.177002
    0.177002
    0.177246
    0.177246
    0.177246
    0.177490
    0.177490
    0.177734
    0.177734
    0.177734
    0.177979
    0.177979
    0.177979
    0.178223
    0.178223
    0.178467
    0.178467
    0.178467
    0.178711
    0.178711
    0.178955
    0.178955
    0.178955
    0.179199
    0.179199
    0.179199
    0.179443
    0.179443
    0.179688
    0.179688
    0.179688
    0.179932
    0.179932
    0.179932
    0.180176
    0.180176
    0.180420
    0.180420
    0.180420
    0.180664
    0.180664
    0.180664
    0.180908
    0.180908
    0.180908
    0.181152
    0.181152
    0.181396
    0.181396
    0.181396
    0.181641
    0.181641
    0.181641
    0.181885
    0.181885
    0.182129
    0.182129
    0.182129
    0.182373
    0.182373
    0.182373
    0.182617
    0.182617
    0.182617
    0.182861
    0.182861
    0.183105
    0.183105
    0.183105
    0.183350
    0.183350
    0.183350
    0.183594
    0.183594
    0.183594
    0.183838
    0.183838
    0.184082
    0.184082
    0.184082
    0.184326
    0.184326
    0.184326
    0.184570
    0.184570
    0.184570
    0.184814
    0.184814
    0.184814
    0.185059
    0.185059
    0.185303
    0.185303
    0.185303
    0.185547
    0.185547
    0.185547
    0.185791
    0.185791
    0.185791
    0.186035
    0.186035
    0.186035
    0.186279
    0.186279
    0.186279
    0.186523
    0.186523
    0.186768
    0.186768
    0.186768
    0.187012
    0.187012
    0.187012
    0.187256
    0.187256
    0.187256
    0.187500
    0.187500
    0.187500
    0.187744
    0.187744
    0.187744
    0.187988
    0.187988
    0.187988
    0.188232
    0.188232
    0.188477
    0.188477
    0.188477
    0.188721
    0.188721
    0.188721
    0.188965
    0.188965
    0.188965
    0.189209
    0.189209
    0.189209
    0.189453
    0.189453
    0.189453
    0.189697
    0.189697
    0.189697
    0.189941
    0.189941
    0.189941
    0.190186
    0.190186
    0.190186
    0.190430
    0.190430
    0.190430
    0.190674
    0.190674
    0.190674
    0.190918
    0.190918
    0.191162
    0.191162
    0.191162
    0.191406
    0.191406
    0.191406
    0.191650
    0.191650
    0.191650
    0.191895
    0.191895
    0.191895
    0.192139
    0.192139
    0.192139
    0.192383
    0.192383
    0.192383
    0.192627
    0.192627
    0.192627
    0.192871
    0.192871
    0.192871
    0.193115
    0.193115
    0.193115
    0.193359
    0.193359
    0.193359
    0.193604
    0.193604
    0.193604
    0.193848
    0.193848
    0.193848
    0.194092
    0.194092
    0.194092
    0.194336
    0.194336
    0.194336
    0.194580
    0.194580
    0.194580
    0.194824
    0.194824
    0.194824
    0.195068
    0.195068
    0.195068
    0.195312
    0.195312
    0.195312
    0.195312
    0.195557
    0.195557
    0.195557
    0.195801
    0.195801
    0.195801
    0.196045
    0.196045
    0.196045
    0.196289
    0.196289
    0.196289
    0.196533
    0.196533
    0.196533
    0.196777
    0.196777
    0.196777
    0.197021
    0.197021
    0.197021
    0.197266
    0.197266
    0.197266
    0.197510
    0.197510
    0.197510
    0.197754
    0.197754
    0.197754
    0.197998
    0.197998
    0.197998
    0.197998
    0.198242
    0.198242
    0.198242
    0.198486
    0.198486
    0.198486
    0.198730
    0.198730
    0.198730
    0.198975
    0.198975
    0.198975
    0.199219
    0.199219
    0.199219
    0.199463
    0.199463
    0.199463
    0.199707
    0.199707
    0.199707
    0.199707
    0.199951
    0.199951
    0.199951
    0.200195
    0.200195
    0.200195
    0.200439
    0.200439
    0.200439
    0.200684
    0.200684
    0.200684
    0.200928
    0.200928
    0.200928
    0.201172
    0.201172
    0.201172
    0.201172
    0.201416
    0.201416
    0.201416
    0.201660
    0.201660
    0.201660
    0.201904
    0.201904
    0.201904
    0.202148
    0.202148
    0.202148
    0.202148
    0.202393
    0.202393
    0.202393
    0.202637
    0.202637
    0.202637
    0.202881
    0.202881
    0.202881
    0.203125
    0.203125
    0.203125
    0.203125
    0.203369
    0.203369
    0.203369
    0.203613
    0.203613
    0.203613
    0.203857
    0.203857
    0.203857
    0.204102
    0.204102
    0.204102
    0.204102
    0.204346
    0.204346
    0.204346
    0.204590
    0.204590
    0.204590
    0.204834
    0.204834
    0.204834
    0.205078
    0.205078
    0.205078
    0.205078
    0.205322
    0.205322
    0.205322
    0.205566
    0.205566
    0.205566
    0.205811
    0.205811
    0.205811
    0.205811
    0.206055
    0.206055
    0.206055
    0.206299
    0.206299
    0.206299
    0.206543
    0.206543
    0.206543
    0.206543
    0.206787
    0.206787
    0.206787
    0.207031
    0.207031
    0.207031
    0.207275
    0.207275
    0.207275
    0.207275
    0.207520
    0.207520
    0.207520
    0.207764
    0.207764
    0.207764
    0.207764
    0.208008
    0.208008
    0.208008
    0.208252
    0.208252
    0.208252
    0.208496
    0.208496
    0.208496
    0.208496
    0.208740
    0.208740
    0.208740
    0.208984
    0.208984
    0.208984
    0.209229
    0.209229
    0.209229
    0.209229
    0.209473
    0.209473
    0.209473
    0.209717
    0.209717
    0.209717
    0.209717
    0.209961
    0.209961
    0.209961
    0.210205
    0.210205
    0.210205
    0.210205
    0.210449
    0.210449
    0.210449
    0.210693
    0.210693
    0.210693
    0.210938
    0.210938
    0.210938
    0.210938
    0.211182
    0.211182
    0.211182
    0.211426
    0.211426
    0.211426
    0.211426
    0.211670
    0.211670
    0.211670
    0.211914
    0.211914
    0.211914
    0.211914
    0.212158
    0.212158
    0.212158
    0.212402
    0.212402
    0.212402
    0.212402
    0.212646
    0.212646
    0.212646
    0.212891
    0.212891
    0.212891
    0.212891
    0.213135
    0.213135
    0.213135
    0.213379
    0.213379
    0.213379
    0.213379
    0.213623
    0.213623
    0.213623
    0.213867
    0.213867
    0.213867
    0.213867
    0.214111
    0.214111
    0.214111
    0.214355
    0.214355
    0.214355
    0.214355
    0.214600
    0.214600
    0.214600
    0.214600
    0.214844
    0.214844
    0.214844
    0.215088
    0.215088
    0.215088
    0.215088
    0.215332
    0.215332
    0.215332
    0.215576
    0.215576
    0.215576
    0.215576
    0.215820
    0.215820
    0.215820
    0.216064
    0.216064
    0.216064
    0.216064
    0.216309
    0.216309
    0.216309
    0.216309
    0.216553
    0.216553
    0.216553
    0.216797
    0.216797
    0.216797
    0.216797
    0.217041
    0.217041
    0.217041
    0.217285
    0.217285
    0.217285
    0.217285
    0.217529
    0.217529
    0.217529
    0.217529
    0.217773
    0.217773
    0.217773
    0.218018
    0.218018
    0.218018
    0.218018
    0.218262
    0.218262
    0.218262
    0.218262
    0.218506
    0.218506
    0.218506
    0.218750
    0.218750
    0.218750
    0.218750
    0.218994
    0.218994
    0.218994
    0.218994
    0.219238
    0.219238
    0.219238
    0.219482
    0.219482
    0.219482
    0.219482
    0.219727
    0.219727
    0.219727
    0.219727
    0.219971
    0.219971
    0.219971
    0.220215
    0.220215
    0.220215
    0.220215
    0.220459
    0.220459
    0.220459
    0.220459
    0.220703
    0.220703
    0.220703
    0.220947
    0.220947
    0.220947
    0.220947
    0.221191
    0.221191
    0.221191
    0.221191
    0.221436
    0.221436
    0.221436
    0.221436
    0.221680
    0.221680
    0.221680
    0.221924
    0.221924
    0.221924
    0.221924
    0.222168
    0.222168
    0.222168
    0.222168
    0.222412
    0.222412
    0.222412
    0.222412
    0.222656
    0.222656
    0.222656
    0.222900
    0.222900
    0.222900
    0.222900
    0.223145
    0.223145
    0.223145
    0.223145
    0.223389
    0.223389
    0.223389
    0.223389
    0.223633
    0.223633
    0.223633
    0.223877
    0.223877
    0.223877
    0.223877
    0.224121
    0.224121
    0.224121
    0.224121
    0.224365
    0.224365
    0.224365
    0.224365
    0.224609
    0.224609
    0.224609
    0.224609
    0.224854
    0.224854
    0.224854
    0.224854
    0.225098
    0.225098
    0.225098
    0.225342
    0.225342
    0.225342
    0.225342
    0.225586
    0.225586
    0.225586
    0.225586
    0.225830
    0.225830
    0.225830
    0.225830
    0.226074
    0.226074
    0.226074
    0.226074
    0.226318
    0.226318
    0.226318
    0.226318
    0.226562
    0.226562
    0.226562
    0.226562
    0.226807
    0.226807
    0.226807
    0.227051
    0.227051
    0.227051
    0.227051
    0.227295
    0.227295
    0.227295
    0.227295
    0.227539
    0.227539
    0.227539
    0.227539
    0.227783
    0.227783
    0.227783
    0.227783
    0.228027
    0.228027
    0.228027
    0.228027
    0.228271
    0.228271
    0.228271
    0.228271
    0.228516
    0.228516
    0.228516
    0.228516
    0.228760
    0.228760
    0.228760
    0.228760
    0.229004
    0.229004
    0.229004
    0.229004
    0.229248
    0.229248
    0.229248
    0.229248
    0.229492
    0.229492
    0.229492
    0.229492
    0.229736
    0.229736
    0.229736
    0.229980
    0.229980
    0.229980
    0.229980
    0.230225
    0.230225
    0.230225
    0.230225
    0.230469
    0.230469
    0.230469
    0.230469
    0.230713
    0.230713
    0.230713
    0.230713
    0.230957
    0.230957
    0.230957
    0.230957
    0.231201
    0.231201
    0.231201
    0.231201
    0.231445
    0.231445
    0.231445
    0.231445
    0.231689
    0.231689
    0.231689
    0.231689
    0.231934
    0.231934
    0.231934
    0.231934
    0.232178
    0.232178
    0.232178
    0.232178
    0.232422
    0.232422
    0.232422
    0.232422
    0.232666
    0.232666
    0.232666
    0.232666
    0.232666
    0.232910
    0.232910
    0.232910
    0.232910
    0.233154
    0.233154
    0.233154
    0.233154
    0.233398
    0.233398
    0.233398
    0.233398
    0.233643
    0.233643
    0.233643
    0.233643
    0.233887
    0.233887
    0.233887
    0.233887
    0.234131
    0.234131
    0.234131
    0.234131
    0.234375
    0.234375
    0.234375
    0.234375
    0.234619
    0.234619
    0.234619
    0.234619
    0.234863
    0.234863
    0.234863
    0.234863
    0.235107
    0.235107
    0.235107
    0.235107
    0.235352
    0.235352
    0.235352
    0.235352
    0.235596
    0.235596
    0.235596
    0.235596
    0.235596
    0.235840
    0.235840
    0.235840
    0.235840
    0.236084
    0.236084
    0.236084
    0.236084
    0.236328
    0.236328
    0.236328
    0.236328
    0.236572
    0.236572
    0.236572
    0.236572
    0.236816
    0.236816
    0.236816
    0.236816
    0.237061
    0.237061
    0.237061
    0.237061
    0.237305
    0.237305
    0.237305
    0.237305
    0.237305
    0.237549
    0.237549
    0.237549
    0.237549
    0.237793
    0.237793
    0.237793
    0.237793
    0.238037
    0.238037
    0.238037
    0.238037
    0.238281
    0.238281
    0.238281
    0.238281
    0.238525
    0.238525
    0.238525
    0.238525
    0.238525
    0.238770
    0.238770
    0.238770
    0.238770
    0.239014
    0.239014
    0.239014
    0.239014
    0.239258
    0.239258
    0.239258
    0.239258
    0.239502
    0.239502
    0.239502
    0.239502
    0.239746
    0.239746
    0.239746
    0.239746
    0.239746
    0.239990
    0.239990
    0.239990
    0.239990
    0.240234
    0.240234
    0.240234
    0.240234
    0.240479
    0.240479
    0.240479
    0.240479
    0.240723
    0.240723
    0.240723
    0.240723
    0.240723
    0.240967
    0.240967
    0.240967
    0.240967
    0.241211
    0.241211
    0.241211
    0.241211
    0.241455
    0.241455
    0.241455
    0.241455
    0.241455
    0.241699
    0.241699
    0.241699
    0.241699
    0.241943
    0.241943
    0.241943
    0.241943
    0.242188
    0.242188
    0.242188
    0.242188
    0.242432
    0.242432
    0.242432
    0.242432
    0.242432
    0.242676
    0.242676
    0.242676
    0.242676
    0.242920
    0.242920
    0.242920
    0.242920
    0.243164
    0.243164
    0.243164
    0.243164
    0.243164
    0.243408
    0.243408
    0.243408
    0.243408
    0.243652
    0.243652
    0.243652
    0.243652
    0.243896
    0.243896
    0.243896
    0.243896
    0.243896
    0.244141
    0.244141
    0.244141
    0.244141
    0.244385
    0.244385
    0.244385
    0.244385
    0.244385
    0.244629
    0.244629
    0.244629
    0.244629
    0.244873
    0.244873
    0.244873
    0.244873
    0.245117
    0.245117
    0.245117
    0.245117
    0.245117
    0.245361
    0.245361
    0.245361
    0.245361
    0.245605
    0.245605
    0.245605
    0.245605
    0.245605
