release/datafiles/colormanagement/luts/Guard_Rail_Shaper_EOTF.spi1d
Version 1
From 0.0000000 1.0000000
Length 4096
Components 1
{
 0.0000000
 0.0000000
 0.0000000
 0.0000000
 0.0000000
 0.0000000
 0.0000000
 0.0000000
 0.0000000
 0.0000000
 0.0000000
 0.0000000
 0.0000000
 0.0000000
 0.0000000
 0.0000000
 0.0000000
 0.0000000
 0.0000000
 0.0000000
 0.0000000
 0.0000000
 0.0000000
 0.0000000
 0.0000000
 0.0000000
 0.0000000
 0.0000000
 0.0000000
 0.0000000
 0.0000000
 0.0000001
 0.0000001
 0.0000001
 0.0000001
 0.0000001
 0.0000001
 0.0000001
 0.0000001
 0.0000001
 0.0000001
 0.0000001
 0.0000001
 0.0000001
 0.0000001
 0.0000001
 0.0000002
 0.0000002
 0.0000002
 0.0000002
 0.0000002
 0.0000002
 0.0000002
 0.0000002
 0.0000002
 0.0000003
 0.0000003
 0.0000003
 0.0000003
 0.0000003
 0.0000003
 0.0000004
 0.0000004
 0.0000004
 0.0000004
 0.0000004
 0.0000004
 0.0000005
 0.0000005
 0.0000005
 0.0000005
 0.0000005
 0.0000006
 0.0000006
 0.0000006
 0.0000006
 0.0000007
 0.0000007
 0.0000007
 0.0000007
 0.0000008
 0.0000008
 0.0000008
 0.0000008
 0.0000009
 0.0000009
 0.0000009
 0.0000010
 0.0000010
 0.0000010
 0.0000011
 0.0000011
 0.0000011
 0.0000012
 0.0000012
 0.0000012
 0.0000013
 0.0000013
 0.0000013
 0.0000014
 0.0000014
 0.0000015
 0.0000015
 0.0000016
 0.0000016
 0.0000016
 0.0000017
 0.0000017
 0.0000018
 0.0000018
 0.0000019
 0.0000019
 0.0000020
 0.0000020
 0.0000021
 0.0000021
 0.0000022
 0.0000022
 0.0000023
 0.0000023
 0.0000024
 0.0000025
 0.0000025
 0.0000026
 0.0000026
 0.0000027
 0.0000028
 0.0000028
 0.0000029
 0.0000030
 0.0000030
 0.0000031
 0.0000032
 0.0000032
 0.0000033
 0.0000034
 0.0000034
 0.0000035
 0.0000036
 0.0000037
 0.0000037
 0.0000038
 0.0000039
 0.0000040
 0.0000041
 0.0000041
 0.0000042
 0.0000043
 0.0000044
 0.0000045
 0.0000046
 0.0000047
 0.0000047
 0.0000048
 0.0000049
 0.0000050
 0.0000051
 0.0000052
 0.0000053
 0.0000054
 0.0000055
 0.0000056
 0.0000057
 0.0000058
 0.0000059
 0.0000060
 0.0000061
 0.0000062
 0.0000064
 0.0000065
 0.0000066
 0.0000067
 0.0000068
 0.0000069
 0.0000070
 0.0000072
 0.0000073
 0.0000074
 0.0000075
 0.0000077
 0.0000078
 0.0000079
 0.0000080
 0.0000082
 0.0000083
 0.0000084
 0.0000086
 0.0000087
 0.0000089
 0.0000090
 0.0000091
 0.0000093
 0.0000094
 0.0000096
 0.0000097
 0.0000099
 0.0000100
 0.0000102
 0.0000103
 0.0000105
 0.0000106
 0.0000108
 0.0000110
 0.0000111
 0.0000113
 0.0000115
 0.0000116
 0.0000118
 0.0000120
 0.0000121
 0.0000123
 0.0000125
 0.0000127
 0.0000128
 0.0000130
 0.0000132
 0.0000134
 0.0000136
 0.0000138
 0.0000140
 0.0000142
 0.0000144
 0.0000146
 0.0000148
 0.0000150
 0.0000152
 0.0000154
 0.0000156
 0.0000158
 0.0000160
 0.0000162
 0.0000164
 0.0000166
 0.0000168
 0.0000171
 0.0000173
 0.0000175
 0.0000177
 0.0000180
 0.0000182
 0.0000184
 0.0000187
 0.0000189
 0.0000191
 0.0000194
 0.0000196
 0.0000199
 0.0000201
 0.0000204
 0.0000206
 0.0000209
 0.0000211
 0.0000214
 0.0000217
 0.0000219
 0.0000222
 0.0000225
 0.0000227
 0.0000230
 0.0000233
 0.0000236
 0.0000238
 0.0000241
 0.0000244
 0.0000247
 0.0000250
 0.0000253
 0.0000256
 0.0000259
 0.0000262
 0.0000265
 0.0000268
 0.0000271
 0.0000274
 0.0000277
 0.0000280
 0.0000283
 0.0000286
 0.0000290
 0.0000293
 0.0000296
 0.0000300
 0.0000303
 0.0000306
 0.0000310
 0.0000313
 0.0000316
 0.0000320
 0.0000323
 0.0000327
 0.0000331
 0.0000334
 0.0000338
 0.0000341
 0.0000345
 0.0000349
 0.0000352
 0.0000356
 0.0000360
 0.0000364
 0.0000368
 0.0000372
 0.0000375
 0.0000379
 0.0000383
 0.0000387
 0.0000391
 0.0000395
 0.0000399
 0.0000404
 0.0000408
 0.0000412
 0.0000416
 0.0000420
 0.0000425
 0.0000429
 0.0000433
 0.0000438
 0.0000442
 0.0000446
 0.0000451
 0.0000455
 0.0000460
 0.0000464
 0.0000469
 0.0000474
 0.0000478
 0.0000483
 0.0000488
 0.0000493
 0.0000497
 0.0000502
 0.0000507
 0.0000512
 0.0000517
 0.0000522
 0.0000527
 0.0000532
 0.0000537
 0.0000542
 0.0000547
 0.0000552
 0.0000558
 0.0000563
 0.0000568
 0.0000574
 0.0000579
 0.0000584
 0.0000590
 0.0000595
 0.0000601
 0.0000606
 0.0000612
 0.0000618
 0.0000623
 0.0000629
 0.0000635
 0.0000641
 0.0000646
 0.0000652
 0.0000658
 0.0000664
 0.0000670
 0.0000676
 0.0000682
 0.0000688
 0.0000695
 0.0000701
 0.0000707
 0.0000713
 0.0000720
 0.0000726
 0.0000732
 0.0000739
 0.0000745
 0.0000752
 0.0000759
 0.0000765
 0.0000772
 0.0000779
 0.0000785
 0.0000792
 0.0000799
 0.0000806
 0.0000813
 0.0000820
 0.0000827
 0.0000834
 0.0000841
 0.0000848
 0.0000855
 0.0000863
 0.0000870
 0.0000877
 0.0000885
 0.0000892
 0.0000900
 0.0000907
 0.0000915
 0.0000922
 0.0000930
 0.0000938
 0.0000946
 0.0000953
 0.0000961
 0.0000969
 0.0000977
 0.0000985
 0.0000993
 0.0001001
 0.0001010
 0.0001018
 0.0001026
 0.0001034
 0.0001043
 0.0001051
 0.0001060
 0.0001068
 0.0001077
 0.0001085
 0.0001094
 0.0001103
 0.0001112
 0.0001120
 0.0001129
 0.0001138
 0.0001147
 0.0001156
 0.0001166
 0.0001175
 0.0001184
 0.0001193
 0.0001203
 0.0001212
 0.0001221
 0.0001231
 0.0001241
 0.0001250
 0.0001260
 0.0001270
 0.0001279
 0.0001289
 0.0001299
 0.0001309
 0.0001319
 0.0001329
 0.0001339
 0.0001350
 0.0001360
 0.0001370
 0.0001381
 0.0001391
 0.0001402
 0.0001412
 0.0001423
 0.0001434
 0.0001444
 0.0001455
 0.0001466
 0.0001477
 0.0001488
 0.0001499
 0.0001510
 0.0001521
 0.0001533
 0.0001544
 0.0001555
 0.0001567
 0.0001578
 0.0001590
 0.0001602
 0.0001613
 0.0001625
 0.0001637
 0.0001649
 0.0001661
 0.0001673
 0.0001685
 0.0001697
 0.0001710
 0.0001722
 0.0001734
 0.0001747
 0.0001759
 0.0001772
 0.0001785
 0.0001797
 0.0001810
 0.0001823
 0.0001836
 0.0001849
 0.0001862
 0.0001875
 0.0001889
 0.0001902
 0.0001915
 0.0001929
 0.0001942
 0.0001956
 0.0001970
 0.0001984
 0.0001997
 0.0002011
 0.0002025
 0.0002039
 0.0002054
 0.0002068
 0.0002082
 0.0002097
 0.0002111
 0.0002126
 0.0002140
 0.0002155
 0.0002170
 0.0002184
 0.0002199
 0.0002214
 0.0002230
 0.0002245
 0.0002260
 0.0002275
 0.0002291
 0.0002306
 0.0002322
 0.0002337
 0.0002353
 0.0002369
 0.0002385
 0.0002401
 0.0002417
 0.0002433
 0.0002449
 0.0002466
 0.0002482
 0.0002499
 0.0002515
 0.0002532
 0.0002549
 0.0002566
 0.0002583
 0.0002600
 0.0002617
 0.0002634
 0.0002651
 0.0002669
 0.0002686
 0.0002704
 0.0002721
 0.0002739
 0.0002757
 0.0002775
 0.0002793
 0.0002811
 0.0002829
 0.0002848
 0.0002866
 0.0002885
 0.0002903
 0.0002922
 0.0002941
 0.0002960
 0.0002979
 0.0002998
 0.0003017
 0.0003036
 0.0003055
 0.0003075
 0.0003094
 0.0003114
 0.0003134
 0.0003154
 0.0003174
 0.0003194
 0.0003214
 0.0003234
 0.0003255
 0.0003275
 0.0003296
 0.0003316
 0.0003337
 0.0003358
 0.0003379
 0.0003400
 0.0003421
 0.0003442
 0.0003464
 0.0003485
 0.0003507
 0.0003529
 0.0003551
 0.0003572
 0.0003595
 0.0003617
 0.0003639
 0.0003661
 0.0003684
 0.0003706
 0.0003729
 0.0003752
 0.0003775
 0.0003798
 0.0003821
 0.0003844
 0.0003868
 0.0003891
 0.0003915
 0.0003939
 0.0003962
 0.0003986
 0.0004010
 0.0004035
 0.0004059
 0.0004083
 0.0004108
 0.0004132
 0.0004157
 0.0004182
 0.0004207
 0.0004232
 0.0004258
 0.0004283
 0.0004308
 0.0004334
 0.0004360
 0.0004386
 0.0004412
 0.0004438
 0.0004464
 0.0004490
 0.0004517
 0.0004543
 0.0004570
 0.0004597
 0.0004624
 0.0004651
 0.0004678
 0.0004706
 0.0004733
 0.0004761
 0.0004789
 0.0004817
 0.0004845
 0.0004873
 0.0004901
 0.0004930
 0.0004958
 0.0004987
 0.0005016
 0.0005045
 0.0005074
 0.0005103
 0.0005132
 0.0005162
 0.0005192
 0.0005221
 0.0005251
 0.0005281
 0.0005312
 0.0005342
 0.0005372
 0.0005403
 0.0005434
 0.0005465
 0.0005496
 0.0005527
 0.0005558
 0.0005590
 0.0005621
 0.0005653
 0.0005685
 0.0005717
 0.0005749
 0.0005782
 0.0005814
 0.0005847
 0.0005880
 0.0005913
 0.0005946
 0.0005979
 0.0006012
 0.0006046
 0.0006080
 0.0006114
 0.0006148
 0.0006182
 0.0006216
 0.0006251
 0.0006285
 0.0006320
 0.0006355
 0.0006390
 0.0006425
 0.0006461
 0.0006496
 0.0006532
 0.0006568
 0.0006604
 0.0006640
 0.0006677
 0.0006713
 0.0006750
 0.0006787
 0.0006824
 0.0006861
 0.0006899
 0.0006936
 0.0006974
 0.0007012
 0.0007050
 0.0007088
 0.0007126
 0.0007165
 0.0007204
 0.0007243
 0.0007282
 0.0007321
 0.0007360
 0.0007400
 0.0007440
 0.0007480
 0.0007520
 0.0007560
 0.0007601
 0.0007641
 0.0007682
 0.0007723
 0.0007764
 0.0007806
 0.0007847
 0.0007889
 0.0007931
 0.0007973
 0.0008015
 0.0008058
 0.0008101
 0.0008143
 0.0008186
 0.0008230
 0.0008273
 0.0008317
 0.0008361
 0.0008405
 0.0008449
 0.0008493
 0.0008538
 0.0008582
 0.0008627
 0.0008672
 0.0008718
 0.0008763
 0.0008809
 0.0008855
 0.0008901
 0.0008947
 0.0008994
 0.0009041
 0.0009088
 0.0009135
 0.0009182
 0.0009230
 0.0009277
 0.0009325
 0.0009373
 0.0009422
 0.0009470
 0.0009519
 0.0009568
 0.0009617
 0.0009667
 0.0009716
 0.0009766
 0.0009816
 0.0009866
 0.0009917
 0.0009967
 0.0010018
 0.0010069
 0.0010121
 0.0010172
 0.0010224
 0.0010276
 0.0010328
 0.0010380
 0.0010433
 0.0010486
 0.0010539
 0.0010592
 0.0010646
 0.0010700
 0.0010754
 0.0010808
 0.0010862
 0.0010917
 0.0010972
 0.0011027
 0.0011082
 0.0011138
 0.0011194
 0.0011250
 0.0011306
 0.0011362
 0.0011419
 0.0011476
 0.0011533
 0.0011591
 0.0011648
 0.0011706
 0.0011765
 0.0011823
 0.0011882
 0.0011940
 0.0012000
 0.0012059
 0.0012119
 0.0012179
 0.0012239
 0.0012299
 0.0012360
 0.0012421
 0.0012482
 0.0012543
 0.0012605
 0.0012667
 0.0012729
 0.0012791
 0.0012854
 0.0012917
 0.0012980
 0.0013043
 0.0013107
 0.0013171
 0.0013235
 0.0013300
 0.0013364
 0.0013429
 0.0013495
 0.0013560
 0.0013626
 0.0013692
 0.0013758
 0.0013825
 0.0013892
 0.0013959
 0.0014026
 0.0014094
 0.0014162
 0.0014230
 0.0014299
 0.0014368
 0.0014437
 0.0014506
 0.0014576
 0.0014646
 0.0014716
 0.0014786
 0.0014857
 0.0014928
 0.0014999
 0.0015071
 0.0015143
 0.0015215
 0.0015288
 0.0015360
 0.0015434
 0.0015507
 0.0015581
 0.0015655
 0.0015729
 0.0015803
 0.0015878
 0.0015953
 0.0016029
 0.0016105
 0.0016181
 0.0016257
 0.0016334
 0.0016411
 0.0016488
 0.0016566
 0.0016643
 0.0016722
 0.0016800
 0.0016879
 0.0016958
 0.0017038
 0.0017117
 0.0017197
 0.0017278
 0.0017359
 0.0017440
 0.0017521
 0.0017603
 0.0017685
 0.0017767
 0.0017850
 0.0017933
 0.0018016
 0.0018100
 0.0018184
 0.0018268
 0.0018353
 0.0018438
 0.0018523
 0.0018608
 0.0018694
 0.0018781
 0.0018867
 0.0018954
 0.0019042
 0.0019129
 0.0019217
 0.0019306
 0.0019394
 0.0019484
 0.0019573
 0.0019663
 0.0019753
 0.0019843
 0.0019934
 0.0020025
 0.0020117
 0.0020209
 0.0020301
 0.0020393
 0.0020486
 0.0020580
 0.0020673
 0.0020767
 0.0020862
 0.0020956
 0.0021052
 0.0021147
 0.0021243
 0.0021339
 0.0021436
 0.0021533
 0.0021630
 0.0021728
 0.0021826
 0.0021924
 0.0022023
 0.0022123
 0.0022222
 0.0022322
 0.0022423
 0.0022523
 0.0022625
 0.0022726
 0.0022828
 0.0022930
 0.0023033
 0.0023136
 0.0023240
 0.0023344
 0.0023448
 0.0023553
 0.0023658
 0.0023763
 0.0023869
 0.0023976
 0.0024082
 0.0024190
 0.0024297
 0.0024405
 0.0024513
 0.0024622
 0.0024731
 0.0024841
 0.0024951
 0.0025062
 0.0025172
 0.0025284
 0.0025395
 0.0025508
 0.0025620
 0.0025733
 0.0025847
 0.0025960
 0.0026075
 0.0026189
 0.0026305
 0.0026420
 0.0026536
 0.0026653
 0.0026770
 0.0026887
 0.0027005
 0.0027123
 0.0027242
 0.0027361
 0.0027480
 0.0027600
 0.0027721
 0.0027842
 0.0027963
 0.0028085
 0.0028207
 0.0028330
 0.0028453
 0.0028577
 0.0028701
 0.0028826
 0.0028951
 0.0029076
 0.0029202
 0.0029329
 0.0029456
 0.0029583
 0.0029711
 0.0029839
 0.0029968
 0.0030097
 0.0030227
 0.0030358
 0.0030488
 0.0030620
 0.0030751
 0.0030884
 0.0031016
 0.0031150
 0.0031283
 0.0031418
 0.0031552
 0.0031688
 0.0031823
 0.0031960
 0.0032096
 0.0032233
 0.0032371
 0.0032510
 0.0032648
 0.0032788
 0.0032927
 0.0033068
 0.0033209
 0.0033350
 0.0033492
 0.0033634
 0.0033777
 0.0033921
 0.0034065
 0.0034209
 0.0034354
 0.0034500
 0.0034646
 0.0034792
 0.0034940
 0.0035087
 0.0035236
 0.0035384
 0.0035534
 0.0035684
 0.0035834
 0.0035985
 0.0036137
 0.0036289
 0.0036442
 0.0036595
 0.0036749
 0.0036903
 0.0037058
 0.0037213
 0.0037370
 0.0037526
 0.0037683
 0.0037841
 0.0037999
 0.0038158
 0.0038318
 0.0038478
 0.0038639
 0.0038800
 0.0038962
 0.0039124
 0.0039287
 0.0039451
 0.0039615
 0.0039780
 0.0039945
 0.0040111
 0.0040278
 0.0040445
 0.0040613
 0.0040781
 0.0040950
 0.0041120
 0.0041290
 0.0041461
 0.0041633
 0.0041805
 0.0041977
 0.0042151
 0.0042325
 0.0042499
 0.0042675
 0.0042851
 0.0043027
 0.0043204
 0.0043382
 0.0043560
 0.0043739
 0.0043919
 0.0044099
 0.0044280
 0.0044462
 0.0044644
 0.0044827
 0.0045011
 0.0045195
 0.0045380
 0.0045566
 0.0045752
 0.0045939
 0.0046127
 0.0046315
 0.0046504
 0.0046693
 0.0046884
 0.0047075
 0.0047266
 0.0047459
 0.0047652
 0.0047845
 0.0048040
 0.0048235
 0.0048431
 0.0048627
 0.0048825
 0.0049022
 0.0049221
 0.0049420
 0.0049620
 0.0049821
 0.0050023
 0.0050225
 0.0050428
 0.0050631
 0.0050836
 0.0051041
 0.0051246
 0.0051453
 0.0051660
 0.0051868
 0.0052077
 0.0052286
 0.0052496
 0.0052707
 0.0052919
 0.0053132
 0.0053345
 0.0053559
 0.0053773
 0.0053989
 0.0054205
 0.0054422
 0.0054640
 0.0054858
 0.0055078
 0.0055298
 0.0055518
 0.0055740
 0.0055962
 0.0056186
 0.0056410
 0.0056634
 0.0056860
 0.0057086
 0.0057313
 0.0057541
 0.0057770
 0.0058000
 0.0058230
 0.0058461
 0.0058693
 0.0058926
 0.0059159
 0.0059394
 0.0059629
 0.0059865
 0.0060102
 0.0060340
 0.0060578
 0.0060817
 0.0061058
 0.0061299
 0.0061541
 0.0061783
 0.0062027
 0.0062271
 0.0062517
 0.0062763
 0.0063010
 0.0063258
 0.0063506
 0.0063756
 0.0064006
 0.0064258
 0.0064510
 0.0064763
 0.0065017
 0.0065272
 0.0065528
 0.0065784
 0.0066042
 0.0066300
 0.0066559
 0.0066820
 0.0067081
 0.0067343
 0.0067606
 0.0067869
 0.0068134
 0.0068400
 0.0068666
 0.0068934
 0.0069202
 0.0069472
 0.0069742
 0.0070013
 0.0070285
 0.0070559
 0.0070833
 0.0071108
 0.0071384
 0.0071661
 0.0071938
 0.0072217
 0.0072497
 0.0072778
 0.0073059
 0.0073342
 0.0073626
 0.0073910
 0.0074196
 0.0074483
 0.0074770
 0.0075059
 0.0075348
 0.0075639
 0.0075930
 0.0076223
 0.0076517
 0.0076811
 0.0077107
 0.0077403
 0.0077701
 0.0078000
 0.0078299
 0.0078600
 0.0078902
 0.0079204
 0.0079508
 0.0079813
 0.0080119
 0.0080426
 0.0080734
 0.0081043
 0.0081353
 0.0081664
 0.0081976
 0.0082289
 0.0082604
 0.0082919
 0.0083236
 0.0083553
 0.0083872
 0.0084192
 0.0084512
 0.0084834
 0.0085157
 0.0085481
 0.0085807
 0.0086133
 0.0086460
 0.0086789
 0.0087119
 0.0087449
 0.0087781
 0.0088114
 0.0088449
 0.0088784
 0.0089120
 0.0089458
 0.0089797
 0.0090137
 0.0090478
 0.0090820
 0.0091163
 0.0091508
 0.0091853
 0.0092200
 0.0092548
 0.0092897
 0.0093248
 0.0093599
 0.0093952
 0.0094306
 0.0094661
 0.0095018
 0.0095375
 0.0095734
 0.0096094
 0.0096455
 0.0096818
 0.0097181
 0.0097546
 0.0097912
 0.0098280
 0.0098648
 0.0099018
 0.0099389
 0.0099761
 0.0100135
 0.0100510
 0.0100886
 0.0101263
 0.0101642
 0.0102022
 0.0102403
 0.0102785
 0.0103169
 0.0103554
 0.0103940
 0.0104328
 0.0104717
 0.0105107
 0.0105499
 0.0105892
 0.0106286
 0.0106681
 0.0107078
 0.0107476
 0.0107876
 0.0108277
 0.0108679
 0.0109082
 0.0109487
 0.0109893
 0.0110301
 0.0110710
 0.0111120
 0.0111532
 0.0111945
 0.0112359
 0.0112775
 0.0113192
 0.0113611
 0.0114031
 0.0114452
 0.0114875
 0.0115300
 0.0115725
 0.0116152
 0.0116581
 0.0117011
 0.0117442
 0.0117875
 0.0118309
 0.0118745
 0.0119182
 0.0119620
 0.0120060
 0.0120502
 0.0120945
 0.0121389
 0.0121835
 0.0122283
 0.0122732
 0.0123182
 0.0123634
 0.0124087
 0.0124542
 0.0124998
 0.0125456
 0.0125916
 0.0126377
 0.0126839
 0.0127303
 0.0127769
 0.0128236
 0.0128704
 0.0129175
 0.0129646
 0.0130120
 0.0130595
 0.0131071
 0.0131549
 0.0132029
 0.0132510
 0.0132993
 0.0133477
 0.0133963
 0.0134451
 0.0134940
 0.0135431
 0.0135923
 0.0136417
 0.0136913
 0.0137410
 0.0137909
 0.0138410
 0.0138912
 0.0139416
 0.0139921
 0.0140429
 0.0140938
 0.0141448
 0.0141961
 0.0142475
 0.0142990
 0.0143508
 0.0144027
 0.0144547
 0.0145070
 0.0145594
 0.0146120
 0.0146648
 0.0147177
 0.0147708
 0.0148241
 0.0148776
 0.0149312
 0.0149850
 0.0150390
 0.0150932
 0.0151475
 0.0152020
 0.0152567
 0.0153116
 0.0153667
 0.0154219
 0.0154773
 0.0155329
 0.0155887
 0.0156447
 0.0157009
 0.0157572
 0.0158137
 0.0158704
 0.0159273
 0.0159844
 0.0160416
 0.0160991
 0.0161567
 0.0162146
 0.0162726
 0.0163308
 0.0163892
 0.0164478
 0.0165065
 0.0165655
 0.0166247
 0.0166840
 0.0167436
 0.0168033
 0.0168633
 0.0169234
 0.0169837
 0.0170442
 0.0171050
 0.0171659
 0.0172270
 0.0172883
 0.0173498
 0.0174116
 0.0174735
 0.0175356
 0.0175979
 0.0176604
 0.0177232
 0.0177861
 0.0178492
 0.0179126
 0.0179761
 0.0180399
 0.0181038
 0.0181680
 0.0182324
 0.0182970
 0.0183618
 0.0184268
 0.0184920
 0.0185574
 0.0186231
 0.0186889
 0.0187550
 0.0188213
 0.0188878
 0.0189545
 0.0190214
 0.0190885
 0.0191559
 0.0192235
 0.0192913
 0.0193593
 0.0194275
 0.0194960
 0.0195647
 0.0196336
 0.0197027
 0.0197721
 0.0198416
 0.0199114
 0.0199815
 0.0200517
 0.0201222
 0.0201929
 0.0202638
 0.0203350
 0.0204064
 0.0204780
 0.0205498
 0.0206219
 0.0206942
 0.0207668
 0.0208396
 0.0209126
 0.0209859
 0.0210593
 0.0211331
 0.0212070
 0.0212812
 0.0213557
 0.0214304
 0.0215053
 0.0215804
 0.0216559
 0.0217315
 0.0218074
 0.0218835
 0.0219599
 0.0220365
 0.0221134
 0.0221905
 0.0222679
 0.0223455
 0.0224234
 0.0225015
 0.0225799
 0.0226585
 0.0227373
 0.0228165
 0.0228958
 0.0229755
 0.0230554
 0.0231355
 0.0232159
 0.0232966
 0.0233775
 0.0234587
 0.0235401
 0.0236218
 0.0237037
 0.0237860
 0.0238685
 0.0239512
 0.0240342
 0.0241175
 0.0242010
 0.0242849
 0.0243689
 0.0244533
 0.0245379
 0.0246228
 0.0247080
 0.0247934
 0.0248791
 0.0249651
 0.0250514
 0.0251379
 0.0252247
 0.0253118
 0.0253992
 0.0254868
 0.0255747
 0.0256629
 0.0257514
 0.0258402
 0.0259292
 0.0260186
 0.0261082
 0.0261981
 0.0262883
 0.0263788
 0.0264695
 0.0265606
 0.0266519
 0.0267436
 0.0268355
 0.0269277
 0.0270203
 0.0271131
 0.0272062
 0.0272996
 0.0273933
 0.0274873
 0.0275816
 0.0276762
 0.0277711
 0.0278663
 0.0279618
 0.0280576
 0.0281537
 0.0282501
 0.0283469
 0.0284439
 0.0285412
 0.0286389
 0.0287369
 0.0288351
 0.0289337
 0.0290326
 0.0291318
 0.0292313
 0.0293312
 0.0294313
 0.0295318
 0.0296326
 0.0297337
 0.0298352
 0.0299369
 0.0300390
 0.0301414
 0.0302441
 0.0303472
 0.0304506
 0.0305543
 0.0306583
 0.0307627
 0.0308674
 0.0309724
 0.0310778
 0.0311835
 0.0312895
 0.0313959
 0.0315026
 0.0316096
 0.0317170
 0.0318247
 0.0319327
 0.0320411
 0.0321499
 0.0322590
 0.0323684
 0.0324782
 0.0325883
 0.0326988
 0.0328096
 0.0329208
 0.0330323
 0.0331442
 0.0332564
 0.0333690
 0.0334819
 0.0335952
 0.0337089
 0.0338229
 0.0339372
 0.0340520
 0.0341671
 0.0342825
 0.0343983
 0.0345145
 0.0346311
 0.0347480
 0.0348653
 0.0349829
 0.0351009
 0.0352193
 0.0353381
 0.0354573
 0.0355768
 0.0356967
 0.0358170
 0.0359376
 0.0360586
 0.0361801
 0.0363019
 0.0364240
 0.0365466
 0.0366695
 0.0367929
 0.0369166
 0.0370407
 0.0371652
 0.0372901
 0.0374154
 0.0375411
 0.0376672
 0.0377936
 0.0379205
 0.0380478
 0.0381754
 0.0383035
 0.0384320
 0.0385609
 0.0386901
 0.0388198
 0.0389499
 0.0390804
 0.0392113
 0.0393427
 0.0394744
 0.0396065
 0.0397391
 0.0398721
 0.0400055
 0.0401393
 0.0402735
 0.0404082
 0.0405432
 0.0406787
 0.0408147
 0.0409510
 0.0410878
 0.0412250
 0.0413626
 0.0415007
 0.0416392
 0.0417781
 0.0419175
 0.0420573
 0.0421975
 0.0423382
 0.0424793
 0.0426209
 0.0427629
 0.0429053
 0.0430482
 0.0431916
 0.0433354
 0.0434796
 0.0436243
 0.0437694
 0.0439150
 0.0440611
 0.0442076
 0.0443546
 0.0445020
 0.0446499
 0.0447982
 0.0449470
 0.0450963
 0.0452461
 0.0453963
 0.0455469
 0.0456981
 0.0458497
 0.0460018
 0.0461544
 0.0463074
 0.0464610
 0.0466150
 0.0467694
 0.0469244
 0.0470799
 0.0472358
 0.0473922
 0.0475491
 0.0477065
 0.0478644
 0.0480228
 0.0481816
 0.0483410
 0.0485009
 0.0486612
 0.0488221
 0.0489835
 0.0491453
 0.0493077
 0.0494706
 0.0496340
 0.0497979
 0.0499623
 0.0501272
 0.0502926
 0.0504586
 0.0506250
 0.0507920
 0.0509595
 0.0511275
 0.0512961
 0.0514651
 0.0516347
 0.0518048
 0.0519755
 0.0521467
 0.0523184
 0.0524906
 0.0526634
 0.0528367
 0.0530106
 0.0531850
 0.0533599
 0.0535354
 0.0537114
 0.0538880
 0.0540651
 0.0542428
 0.0544210
 0.0545998
 0.0547791
 0.0549590
 0.0551395
 0.0553205
 0.0555021
 0.0556842
 0.0558669
 0.0560502
 0.0562340
 0.0564184
 0.0566034
 0.0567890
 0.0569751
 0.0571618
 0.0573491
 0.0575369
 0.0577254
 0.0579144
 0.0581041
 0.0582943
 0.0584851
 0.0586764
 0.0588684
 0.0590610
 0.0592542
 0.0594480
 0.0596423
 0.0598373
 0.0600329
 0.0602291
 0.0604259
 0.0606233
 0.0608213
 0.0610199
 0.0612192
 0.0614190
 0.0616195
 0.0618206
 0.0620223
 0.0622247
 0.0624276
 0.0626312
 0.0628355
 0.0630403
 0.0632458
 0.0634520
 0.0636587
 0.0638661
 0.0640742
 0.0642829
 0.0644922
 0.0647022
 0.0649128
 0.0651241
 0.0653361
 0.0655487
 0.0657619
 0.0659758
 0.0661904
 0.0664057
 0.0666216
 0.0668381
 0.0670554
 0.0672733
 0.0674919
 0.0677111
 0.0679311
 0.0681517
 0.0683730
 0.0685949
 0.0688176
 0.0690410
 0.0692650
 0.0694897
 0.0697152
 0.0699413
 0.0701681
 0.0703956
 0.0706239
 0.0708528
 0.0710824
 0.0713128
 0.0715438
 0.0717756
 0.0720081
 0.0722413
 0.0724752
 0.0727098
 0.0729452
 0.0731813
 0.0734181
 0.0736557
 0.0738939
 0.0741329
 0.0743727
 0.0746132
 0.0748544
 0.0750964
 0.0753391
 0.0755826
 0.0758268
 0.0760718
 0.0763175
 0.0765640
 0.0768112
 0.0770592
 0.0773080
 0.0775576
 0.0778079
 0.0780589
 0.0783108
 0.0785634
 0.0788168
 0.0790710
 0.0793260
 0.0795817
 0.0798382
 0.0800956
 0.0803537
 0.0806126
 0.0808723
 0.0811328
 0.0813941
 0.0816563
 0.0819192
 0.0821829
 0.0824475
 0.0827128
 0.0829790
 0.0832460
 0.0835138
 0.0837824
 0.0840519
 0.0843222
 0.0845933
 0.0848653
 0.0851381
 0.0854117
 0.0856862
 0.0859615
 0.0862376
 0.0865147
 0.0867925
 0.0870712
 0.0873508
 0.0876312
 0.0879125
 0.0881947
 0.0884777
 0.0887616
 0.0890464
 0.0893320
 0.0896186
 0.0899060
 0.0901943
 0.0904834
 0.0907735
 0.0910644
 0.0913563
 0.0916490
 0.0919427
 0.0922372
 0.0925326
 0.0928290
 0.0931263
 0.0934244
 0.0937235
 0.0940235
 0.0943245
 0.0946263
 0.0949291
 0.0952328
 0.0955374
 0.0958430
 0.0961495
 0.0964570
 0.0967654
 0.0970747
 0.0973850
 0.0976963
 0.0980085
 0.0983216
 0.0986357
 0.0989508
 0.0992669
 0.0995839
 0.0999019
 0.1002209
 0.1005408
 0.1008617
 0.1011836
 0.1015065
 0.1018304
 0.1021553
 0.1024812
 0.1028081
 0.1031359
 0.1034648
 0.1037947
 0.1041256
 0.1044575
 0.1047905
 0.1051244
 0.1054594
 0.1057954
 0.1061324
 0.1064705
 0.1068096
 0.1071497
 0.1074909
 0.1078332
 0.1081764
 0.1085208
 0.1088662
 0.1092126
 0.1095601
 0.1099087
 0.1102583
 0.1106090
 0.1109608
 0.1113137
 0.1116676
 0.1120226
 0.1123787
 0.1127359
 0.1130942
 0.1134536
 0.1138141
 0.1141757
 0.1145384
 0.1149022
 0.1152672
 0.1156332
 0.1160004
 0.1163687
 0.1167381
 0.1171087
 0.1174803
 0.1178532
 0.1182271
 0.1186022
 0.1189785
 0.1193559
 0.1197345
 0.1201142
 0.1204951
 0.1208771
 0.1212603
 0.1216447
 0.1220303
 0.1224170
 0.1228050
 0.1231941
 0.1235844
 0.1239759
 0.1243686
 0.1247625
 0.1251576
 0.1255539
 0.1259514
 0.1263502
 0.1267501
 0.1271513
 0.1275537
 0.1279574
 0.1283623
 0.1287684
 0.1291757
 0.1295843
 0.1299942
 0.1304053
 0.1308177
 0.1312313
 0.1316462
 0.1320623
 0.1324798
 0.1328985
 0.1333185
 0.1337397
 0.1341623
 0.1345861
 0.1350113
 0.1354377
 0.1358655
 0.1362945
 0.1367249
 0.1371566
 0.1375896
 0.1380239
 0.1384596
 0.1388966
 0.1393349
 0.1397746
 0.1402156
 0.1406579
 0.1411016
 0.1415467
 0.1419931
 0.1424409
 0.1428901
 0.1433406
 0.1437925
 0.1442458
 0.1447004
 0.1451565
 0.1456140
 0.1460728
 0.1465331
 0.1469947
 0.1474578
 0.1479223
 0.1483882
 0.1488555
 0.1493243
 0.1497945
 0.1502661
 0.1507391
 0.1512137
 0.1516896
 0.1521670
 0.1526459
 0.1531262
 0.1536080
 0.1540913
 0.1545761
 0.1550623
 0.1555500
 0.1560392
 0.1565299
 0.1570221
 0.1575158
 0.1580110
 0.1585077
 0.1590060
 0.1595057
 0.1600070
 0.1605099
 0.1610142
 0.1615201
 0.1620275
 0.1625365
 0.1630471
 0.1635592
 0.1640728
 0.1645881
 0.1651049
 0.1656233
 0.1661432
 0.1666648
 0.1671880
 0.1677127
 0.1682390
 0.1687670
 0.1692966
 0.1698278
 0.1703606
 0.1708950
 0.1714311
 0.1719688
 0.1725081
 0.1730491
 0.1735918
 0.1741361
 0.1746820
 0.1752297
 0.1757790
 0.1763299
 0.1768826
 0.1774370
 0.1779930
 0.1785507
 0.1791102
 0.1796713
 0.1802342
 0.1807988
