release/datafiles/colormanagement/luts/lg10.spi1d
Version 1
From 0.0 1.0
Length 2048
Components 1
{
        3.0517578125e-05
        3.1315700371520417e-05
        3.2134420416480743e-05
        3.2974260634173945e-05
        3.3835756341150887e-05
        3.4719456106020991e-05
        3.5625922066277402e-05
        3.6555730252290222e-05
        3.7509470918612837e-05
        3.848774888275099e-05
        3.9491183871542739e-05
        4.0520410875304305e-05
        4.157608050989493e-05
        4.2658859386858501e-05
        4.3769430491801814e-05
        4.4908493571171243e-05
        4.6076765527590087e-05
        4.7274980823925932e-05
        4.8503891896253155e-05
        4.9764269575883683e-05
        5.1056903520636313e-05
        5.23826026555226e-05
        5.3742195623022875e-05
        5.5136531243133402e-05
        5.6566478983364575e-05
        5.8032929438874994e-05
        5.9536794822921754e-05
        6.107900946781976e-05
        6.266053033659155e-05
        6.4282337545503584e-05
        6.5945434897675929e-05
        6.7650850427961021e-05
        6.9399636959284895e-05
        7.1192872670646201e-05
        7.3031661676970159e-05
        7.4917134621015833e-05
        7.6850449277533482e-05
        7.883279116987421e-05
        8.0865374199248159e-05
        8.2949441286836304e-05
        8.5086265028951372e-05
        8.7277148365452273e-05
        8.9523425261611709e-05
        9.1826461403633804e-05
        9.4187654908027248e-05
        9.6608437045024988e-05
        9.9090272976254585e-05
        0.00010163466250685006
        0.0001042431408522007
        0.00010691727941952996
        0.00010965868660449022
        0.00011246900860296613
        0.00011534993023826097
        0.0001183031758038533
        0.00012133050992189348
        0.00012443373841761641
        0.00012761470920982857
        0.00013087531321763493
        0.00013421748528355998
        0.00013764320511319979
        0.0001411544982315589
        0.00014475343695618813
        0.00014844214138725681
        0.00015222278041466183
        0.0001560975727422808
        0.00016006878792946061
        0.00016413874744980908
        0.00016830982576736611
        0.00017258445143019565
        0.00017696510818143612
        0.00018145433608782391
        0.00018605473268569277
        0.00019076895414442613
        0.00019559971644732675
        0.00020054979658982978
        0.00020562203379498976
        0.00021081933074611453
        0.00021614465483641655
        0.00022160103943550833
        0.00022719158517254615
        0.00023291946123579378
        0.00023878790668832979
        0.00024480023179960483
        0.00025095981939249269
        0.00025727012620546365
        0.0002637346842694291
        0.00027035710229879301
        0.00027714106709616576
        0.00028409034497015891
        0.00029120878316561563
        0.000298500311305564
        0.00030596894284412634
        0.0003136187765295311
        0.00032145399787631942
        0.00032947888064573707
        0.00033769778833323775
        0.00034611517566191668
        0.0003547355900806166
        0.00036356367326532106
        0.00037260416262237776
        0.00038186189279193142
        0.00039134179714988296
        0.00040104890930650258
        0.00041098836459972795
        0.00042116540158101636
        0.00043158536349146204
        0.00044225369972572342
        0.00045317596728114239
        0.00046435783218921873
        0.00047580507092644125
        0.00048752357180124038
        0.00049951933631358573
        0.00051179848048355566
        0.00052436723614490309
        0.00053723195219939159
        0.00055039909582737287
        0.00056387525364977179
        0.00057766713283631305
        0.00059178156215445015
        0.00060622549295310071
        0.00062100600007489301
        0.00063613028269014305
        0.00065160566504540631
        0.0006674395971188571
        0.00068363965517431442
        0.00070021354220506848
        0.00071716908825816426
        0.00073451425062904217
        0.00075225711391582815
        0.00077040588992174507
        0.00078896891739338188
        0.00080795466158165138
        0.00082737171361133596
        0.00084722878964419172
        0.00086753472981940575
        0.00088829849695413695
        0.00090952917498559748
        0.00093123596713474738
        0.0009534281937703152
        0.00097611528995020409
        0.00099930680261566722
        0.001023012387411876
        0.0010472418051064066
        0.001072004917575079
        0.001097311683322229
        0.0011231721524999736
        0.0011495964613881453
        0.0011765948262937604
        0.0012041775368253492
        0.0012323549484940901
        0.0012611374745895919
        0.001290535577273978
        0.0013205597578331381
        0.0013512205460188484
        0.0013825284884097114
        0.0014144941357126792
        0.0014471280289198988
        0.0014804406842279627
        0.0015144425766182672
        0.0015491441219876794
        0.0015845556577083013
        0.0016206874214835659
        0.0016575495283548652
        0.0016951519456985511
        0.0017335044660368639
        0.0017726166774682699
        0.0018124979315022321
        0.0018531573080605274
        0.0018946035773811235
        0.0019368451585313946
        0.0019798900742039752
        0.0020237459014306996
        0.0020684197178066212
        0.0021139180427667448
        0.0021602467734010145
        0.002207411114227815
        0.0022554155002704806
        0.0023042635126938578
        0.0023539577861559388
        0.0024044999069109084
        0.0024558903005605704
        0.0025081281081875918
        0.0025612110494105827
        0.0026151352706719425
        0.002669895176796389
        0.0027254832435312298
        0.0027818898083866168
        0.0028391028366186416
        0.0028971076586204862
        0.0029558866742802185
        0.0030154190189945148
        0.0030756801849507716
        0.0031366415899473626
        0.0031982700843347332
        0.0032605273845242679
        0.0033233694187847647
        0.0033867455675334014
        0.003450597775759197
        0.003514859509213316
        0.0035794545180234992
        0.0036442953606626955
        0.0037092816265877231
        0.0037742977756689928
        0.0038392104841892811
        0.0039038653467270159
        0.0039680827243750577
        0.0040316524423022653
        0.0040943269066936391
        0.0041558120035162403
        0.0042157548076727858
        0.0042737265754496006
        0.0043292053405901811
        0.0043836169381053147
        0.0044383748536647692
        0.0044934613955575188
        0.0045488592860845204
        0.0046045517306858106
        0.0046605224782682074
        0.0047167558726410944
        0.0047732368951445368
        0.0048299511987085963
        0.0048868851337134471
        0.0049440257661253423
        0.0050013608884644364
        0.0050588790242174888
        0.0051165694263439589
        0.0051744220705397951
        0.0052324276439224202
        0.0052905775297853652
        0.0053488637890447555
        0.0054072791389648718
        0.0054658169297088239
        0.0055244711192148997
        0.0055832362468515914
        0.005642107406255919
        0.0057010802177119404
        0.005760150800380062
        0.0058193157446439709
        0.0058785720848009105
        0.0059379172722832194
        0.0059973491495646774
        0.0060568659248740843
        0.0061164661478110647
        0.0061761486859347172
        0.0062359127023746538
        0.0062957576344956617
        0.0063556831736318199
        0.0064156892458926834
        0.0064757759940333882
        0.0065359437603715537
        0.0065961930707267172
        0.0066565246193524136
        0.006716939254826625
        0.0067774379668632178
        0.0068380218740046626
        0.0068986922121550415
        0.0069594503239115441
        0.0070202976486524937
        0.0070812357133403494
        0.0071422661239986989
        0.0072033905578232985
        0.0072646107558884216
        0.007325928516411096
        0.0073873456885374094
        0.0074488641666165464
        0.0075104858849298845
        0.0075722128128442182
        0.0076340469503597052
        0.0076959903240248154
        0.0077580449831922372
        0.0078202129965911967
        0.0078824964491931004
        0.0079448974393490687
        0.0080074180761790324
        0.0080700604771936704
        0.0081328267661315845
        0.008195719070995252
        0.0082587395222706601
        0.008321890251316251
        0.0083851733889081636
        0.0084485910639294191
        0.008512145402191789
        0.0085758385253796761
        0.0086396725501064198
        0.0087036495870738625
        0.0087677717403268438
        0.0088320411065949019
        0.0088964597747139568
        0.0089610298251215133
        0.009025753329418993
        0.0090906323499958357
        0.0091556689397099666
        0.0092208651416198755
        0.0092862229887638367
        0.0093517445039822348
        0.0094174316997791049
        0.0094832865782195006
        0.0095493111308594062
        0.0096155073387053213
        0.0096818771722006654
        0.009748422591236594
        0.0098151455451848859
        0.0098820479729507579
        0.0099491318030436472
        0.010016398953664222
        0.010083851332805874
        0.010151490838369264
        0.010219319358288461
        0.010287338770667382
        0.010355550943925486
        0.010423957736951468
        0.010492560999264077
        0.010561362571179105
        0.010630364283981755
        0.010699567960103623
        0.010768975413303537
        0.010838588448851737
        0.010908408863716664
        0.010978438446754054
        0.01104867897889754
        0.011119132233350681
        0.011189799975779713
        0.011260683964506885
        0.011331785950703896
        0.011403107678585239
        0.011474650885601127
        0.011546417302629822
        0.01161840865416903
        0.011690626658526337
        0.011763073028008336
        0.011835749469108467
        0.011908657682693221
        0.011981799364186816
        0.012055176203754086
        0.012128789886481474
        0.012202642092556178
        0.012276734497443261
        0.012351068772060681
        0.012425646582952287
        0.012500469592458596
        0.012575539458885341
        0.012650857836669971
        0.012726426376545721
        0.012802246725703542
        0.012878320527951724
        0.012954649423873289
        0.013031235050981062
        0.013108079043870506
        0.013185183034370308
        0.013262548651690659
        0.013340177522569356
        0.013418071271415663
        0.013496231520451952
        0.013574659889853164
        0.013653357997884133
        0.013732327461034709
        0.013811569894152834
        0.013891086910575497
        0.013970880122257619
        0.014050951139898918
        0.01413130157306877
        0.014211933030329095
        0.014292847119355297
        0.014374045447055265
        0.014455529619686542
        0.014537301242971635
        0.014619361922211405
        0.014701713262396896
        0.014784356868319087
        0.014867294344677245
        0.014950527296185401
        0.015034057327677154
        0.015117886044208953
        0.01520201505116171
        0.015286445954340861
        0.015371180360074935
        0.015456219875312491
        0.015541566107717768
        0.015627220665764739
        0.015713185158829825
        0.015799461197283215
        0.015886050392578795
        0.015972954357342785
        0.01606017470546111
        0.016147713052165412
        0.01623557101411786
        0.016323750209494829
        0.0164122522580692
        0.016501078781291686
        0.016590231402370891
        0.016679711746352358
        0.01676952144019643
        0.01685966211285508
        0.016950135395347756
        0.017040942920836154
        0.017132086324697957
        0.017223567244599756
        0.017315387320568799
        0.017407548195064019
        0.017500051513046032
        0.017592898922046286
        0.017686092072235374
        0.017779632616490418
        0.017873569977332752
        0.017967968851050207
        0.018062831385412637
        0.018158159443146381
        0.018253954890683283
        0.018350219598159041
        0.018446955439412289
        0.018544164291984605
        0.01864184803712127
        0.018740008559772908
        0.018838647748598121
        0.018937767495966863
        0.019037369697964924
        0.019137456254399238
        0.019238029068804292
        0.019339090048449442
        0.019440641104347293
        0.019542684151263118
        0.019645221107725416
        0.019748253896037415
        0.019851784442289886
        0.019955814676374875
        0.020060346532000835
        0.020165381946708708
        0.020270922861889345
        0.0203769712228021
        0.02048352897859472
        0.020590598082324454
        0.020698180490980402
        0.02080627816550721
        0.020914893070830217
        0.021024027175881616
        0.021133682453628375
        0.021243860881101206
        0.021354564439425121
        0.021465795113851317
        0.021577554893790575
        0.021689845772847993
        0.021802669748859228
        0.021916028823928305
        0.022029925004466825
        0.022144360301234622
        0.022259336729382125
        0.0223748563084941
        0.022490921062635064
        0.022607533020396062
        0.022724694214943334
        0.022842406684068187
        0.022960672470238801
        0.023079493620653438
        0.02319887218729532
        0.023318810226989121
        0.023439309801459095
        0.023560372977388864
        0.023682001826482803
        0.023804198425529041
        0.023926964856464256
        0.02405030320643993
        0.024174215567890431
        0.024298704038602629
        0.024423770721787256
        0.024549417726151882
        0.024675647165975534
        0.024802461161185025
        0.024929861837432944
        0.025057851326177202
        0.025186431764762339
        0.025315605296502362
        0.025445374070765386
        0.025575740243059714
        0.025706705975121657
        0.025838273435004961
        0.025970444797171768
        0.026103222242585294
        0.02623660795880392
        0.026370604140077036
        0.026505212987442336
        0.026640436708824589
        0.02677627751913619
        0.026912737640378947
        0.027049819301747453
        0.027187524739734112
        0.027325856198235285
        0.027464815928659209
        0.02760440619003518
        0.027744629249124093
        0.027885487380530486
        0.028026982866815826
        0.028169117998613245
        0.028311895074743468
        0.0284553164023321
        0.028599384296928175
        0.028744101082623895
        0.028889469092175584
        0.029035490667125886
        0.029182168157927024
        0.029329503924065178
        0.029477500334186155
        0.02962615976622179
        0.029775484607517673
        0.02992547725496169
        0.030076140115113694
        0.030227475604335908
        0.030379486148924498
        0.030532174185241751
        0.030685542159849224
        0.030839592529641829
        0.03099432776198233
        0.03114975033483702
        0.031305862736911744
        0.031462667467788766
        0.031620167038064209
        0.031778363969486169
        0.031937260795093278
        0.032096860059353943
        0.032257164318305817
        0.032418176139696116
        0.032579898103121896
        0.032742332800171206
        0.03290548283456414
        0.033069350822294521
        0.033233939391771619
        0.033399251183962433
        0.033565288852533674
        0.033732055063994598
        0.033899552497839269
        0.034067783846689466
        0.034236751816437372
        0.034406459126388386
        0.034576908509403884
        0.034748102712044121
        0.034920044494710673
        0.035092736631789363
        0.03526618191179242
        0.035440383137501003
        0.035615343126107202
        0.035791064709355953
        0.035967550733686598
        0.036144804060374444
        0.036322827565671477
        0.036501624140947264
        0.03668119669282921
        0.03686154814334254
        0.037042681430049573
        0.037224599506189046
        0.037407305340814469
        0.037590801918932354
        0.037775092241639538
        0.03796017932626046
        0.038146066206483226
        0.038332755932495903
        0.038520251571121274
        0.038708556205951761
        0.038897672937483162
        0.039087604883248091
        0.039278355177948365
        0.039469926973587123
        0.039662323439599696
        0.039855547762984361
        0.040049603148431728
        0.04024449281845386
        0.040440220013512246
        0.040636787992145387
        0.04083420003109503
        0.041032459425432287
        0.041231569488682236
        0.041431533552948298
        0.0416323549690353
        0.041834037106572131
        0.042036583354133107
        0.042239997119358892
        0.04244428182907628
        0.042649440929417359
        0.042855477885937451
        0.043062396183732803
        0.043270199327556554
        0.043478890841934743
        0.043688474271280767
        0.043898953180009435
        0.044110331152649722
        0.044322611793957203
        0.04453579872902505
        0.044749895603394818
        0.044964906083165626
        0.045180833855103297
        0.045397682626748002
        0.0456154561265215
        0.045834158103833463
        0.046053792329186709
        0.046274362594282109
        0.046495872712122376
        0.046718326517115043
        0.046941727865174969
        0.047166080633825692
        0.047391388722300358
        0.047617656051641748
        0.047844886564801556
        0.048073084226739074
        0.048302253024519029
        0.048532396967408839
        0.048763520086975223
        0.048995626437179932
        0.049228720094475271
        0.049462805157898269
        0.049697885749165116
        0.049933966012764404
        0.050171050116049901
        0.050409142249332677
        0.050648246625973191
        0.050888367482471997
        0.051129509078560786
        0.051371675697292236
        0.051614871645129887
        0.051859101252037243
        0.052104368871566539
        0.052350678880947125
        0.052598035681173383
        0.052846443697092169
        0.053095907377490051
        0.053346431195180115
        0.053598019647088456
        0.053850677254340187
        0.054104408562345434
        0.054359218140884985
        0.054615110584195298
        0.054872090511053885
        0.05513016256486402
        0.055389331413739307
        0.055649601750588328
        0.055910978293198653
        0.056173465784321489
        0.056437068991754893
        0.05670179270842856
        0.05696764175248685
        0.057234620967373057
        0.057502735221912869
        0.057771989410397941
        0.058042388452669742
        0.058313937294202825
        0.058586640906188737
        0.058860504285619744
        0.059135532455372182
        0.05941173046429063
        0.059689103387271493
        0.059967656325347146
        0.060247394405769948
        0.060528322782096591
        0.060810446634272174
        0.061093771168715345
        0.061378301618402215
        0.061664043242952091
        0.061951001328712209
        0.062239181188843154
        0.062528588163404591
        0.062819227619441212
        0.063111104951068767
        0.063404225579560713
        0.063698594953434953
        0.063994218548540802
        0.064291101868146655
        0.064589250443027782
        0.064888669831554238
        0.065189365619779796
        0.065491343421530498
        0.065794608878494393
        0.066099167660310945
        0.066405025464661496
        0.066712188017359772
        0.067020661072443116
        0.067330450412263709
        0.06764156184758123
        0.067954001217654797
        0.06826777439033635
        0.068582887262164105
        0.068899345758456645
        0.069217155833407581
        0.069536323470180683
        0.069856854681005567
        0.070178755507274149
        0.070502032019637298
        0.070826690318102556
        0.071152736532131861
        0.07148017682074051
        0.071809017372596332
        0.072139264406119591
        0.072470924169583409
        0.072804002941215196
        0.073138507029298291
        0.073474442772274495
        0.073811816538847108
        0.074150634728085155
        0.074490903769527314
        0.074832630123287711
        0.075175820280161315
        0.075520480761730818
        0.075866618120473961
        0.076214238939871434
        0.076563349834515626
        0.076913957450220408
        0.077266068464130852
        0.077619689584834728
        0.077974827552473758
        0.078331489138856528
        0.078689681147571369
        0.079049410414100477
        0.079410683805934926
        0.079773508222689887
        0.080137890596220993
        0.080503837890741822
        0.080871357102941396
        0.081240455262103203
        0.08161113943022455
        0.081983416702137005
        0.082357294205627374
        0.082732779101560128
        0.083109878583999361
        0.083488599880333553
        0.083868950251398691
        0.084250936991604616
        0.084634567429060795
        0.085019848925703009
        0.08540678887742148
        0.08579539471418958
        0.086185673900193008
        0.086577633933960577
        0.086971282348494813
        0.087366626711404896
        0.087763674625038923
        0.088162433726617986
        0.088562911688371063
        0.088965116217670448
        0.089369055057167635
        0.089774735984931964
        0.090182166814587544
        0.090591355395453307
        0.091002309612682422
        0.091415037387403517
        0.091829546676862342
        0.092245845474564589
        0.092663941810419287
        0.093083843750883799
        0.093505559399108581
        0.093929096895084052
        0.094354464415787487
        0.094781670175331637
        0.095210722425113109
        0.095641629453963248
        0.096074399588298096
        0.096509041192271203
        0.096945562667925519
        0.097383972455348133
        0.097824279032823633
        0.098266490916991064
        0.098710616662999212
        0.099156664864665039
        0.099604644154631369
        0.10005456320452681
        0.10050643072512555
        0.10096025546650912
        0.10141604621822789
        0.10187381180946513
        0.10233356110920022
        0.10279530302637437
        0.10325904651005623
        0.10372480054960917
        0.10419257417485892
        0.10466237645626295
        0.10513421650507994
        0.10560810347354083
        0.10608404655502049
        0.10656205498421091
        0.10704213803729441
        0.10752430503211938
        0.10800856532837444
        0.10849492832776714
        0.10898340347420003
        0.10947400025395039
        0.10996672819584953
        0.11046159687146356
        0.11095861589527506
        0.111457794924866
        0.1119591436611012
        0.11246267184831311
        0.11296838927448753
