release/datafiles/colormanagement/luts/luminance_compensation_srgb.cube
TITLE "Offset the negative values in BT.709 and compensate for luminance"
# Lower Side of Guard Rail Formation for sRGB medium.
# Modified from python script shared by Sakari Kapanen
# This LUT assumes E Gamut encoded in ST2084 (100) curve and then power 0.6
# LUT resolution 37
LUT_3D_SIZE 37
0.0000000 0.0000000 0.0000000
0.0264802 0.0132197 0.0132192
0.0529283 0.0269595 0.0269584
0.0794320 0.0416369 0.0416352
0.1059887 0.0571563 0.0571541
0.1325932 0.0734429 0.0734401
0.1592410 0.0904399 0.0904366
0.1859279 0.1081027 0.1080989
0.2126503 0.1263952 0.1263909
0.2394051 0.1452874 0.1452827
0.2661895 0.1647540 0.1647488
0.2930008 0.1847728 0.1847672
0.3198365 0.2053245 0.2053185
0.3466941 0.2263919 0.2263856
0.3735712 0.2479595 0.2479527
0.4004653 0.2700128 0.2700057
0.4273738 0.2925386 0.2925312
0.4542941 0.3155245 0.3155168
0.4812232 0.3389584 0.3389504
0.5081579 0.3628289 0.3628207
0.5350945 0.3871245 0.3871161
0.5620290 0.4118338 0.4118251
0.5889567 0.4369450 0.4369361
0.6158719 0.4624457 0.4624368
0.6427681 0.4883229 0.4883138
0.6696373 0.5145620 0.5145527
0.6964696 0.5411465 0.5411371
0.7226629 0.5674605 0.5674512
0.7470477 0.5922759 0.5922665
0.7740705 0.6201300 0.6201206
0.8023508 0.6496741 0.6496647
0.8307009 0.6796908 0.6796815
0.8591195 0.7101769 0.7101676
0.8876048 0.7411290 0.7411198
0.9161555 0.7725441 0.7725350
0.9447702 0.8044193 0.8044104
0.9734476 0.8367519 0.8367431
0.0217849 0.0298159 0.0217841
0.0291476 0.0291476 0.0182874
0.0541795 0.0338564 0.0274280
0.0802894 0.0434161 0.0399875
0.1065774 0.0571933 0.0554082
0.1329251 0.0734740 0.0724956
0.1594414 0.0904640 0.0898783
0.1860548 0.1081210 0.1077509
0.2127334 0.1264092 0.1261661
0.2394610 0.1452981 0.1451337
0.2662278 0.1647622 0.1646481
0.2930275 0.1847791 0.1846981
0.3198553 0.2053294 0.2052707
0.3467075 0.2263957 0.2263521
0.3735808 0.2479624 0.2479292
0.4004723 0.2700151 0.2699891
0.4273789 0.2925404 0.2925194
0.4542978 0.3155259 0.3155084
0.4812259 0.3389595 0.3389445
0.5081599 0.3628298 0.3628165
0.5350960 0.3871252 0.3871131
0.5620301 0.4118343 0.4118230
0.5889575 0.4369454 0.4369346
0.6158725 0.4624461 0.4624357
0.6427685 0.4883232 0.4883131
0.6696376 0.5145621 0.5145522
0.6964698 0.5411466 0.5411368
0.7226631 0.5674606 0.5674509
0.7470478 0.5922760 0.5922664
0.7740706 0.6201301 0.6201205
0.8023508 0.6496741 0.6496646
0.8307010 0.6796909 0.6796814
0.8591195 0.7101769 0.7101676
0.8876048 0.7411290 0.7411198
0.9161555 0.7725441 0.7725350
0.9447702 0.8044193 0.8044104
0.9734476 0.8367519 0.8367431
0.0438913 0.0591361 0.0438898
0.0425049 0.0578703 0.0388862
0.0580111 0.0580112 0.0371428
0.0824702 0.0615415 0.0456508
0.1080668 0.0684360 0.0574455
0.1341911 0.0786373 0.0713510
0.1606242 0.0914677 0.0866760
0.1868975 0.1082332 0.1052692
0.2132840 0.1264980 0.1246133
0.2398305 0.1453672 0.1441222
0.2664810 0.1648157 0.1639715
0.2932038 0.1848206 0.1842372
0.3199797 0.2053616 0.2049524
0.3467961 0.2264207 0.2261302
0.3736445 0.2479819 0.2477733
0.4005183 0.2700302 0.2698791
0.4274124 0.2925522 0.2924415
0.4543223 0.3155351 0.3154531
0.4812439 0.3389667 0.3389052
0.5081731 0.3628354 0.3627886
0.5351057 0.3871296 0.3870933
0.5620373 0.4118377 0.4118091
0.5889628 0.4369480 0.4369248
0.6158764 0.4624481 0.4624288
0.6427714 0.4883248 0.4883083
0.6696397 0.5145634 0.5145489
0.6964714 0.5411476 0.5411346
0.7226642 0.5674614 0.5674495
0.7470487 0.5922766 0.5922654
0.7740713 0.6201306 0.6201199
0.8023513 0.6496745 0.6496642
0.8307013 0.6796911 0.6796812
0.8591197 0.7101771 0.7101674
0.8876049 0.7411291 0.7411196
0.9161556 0.7725442 0.7725349
0.9447703 0.8044193 0.8044103
0.9734477 0.8367519 0.8367431
0.0664710 0.0881036 0.0664688
0.0659454 0.0876306 0.0647155
0.0655782 0.0852928 0.0518671
0.0866609 0.0866610 0.0567702
0.1107812 0.0897613 0.0651043
0.1360250 0.0953900 0.0764315
0.1618527 0.1039071 0.0900255
0.1880607 0.1151679 0.1052842
0.2145254 0.1287515 0.1218014
0.2409150 0.1455546 0.1408715
0.2672223 0.1649658 0.1618746
0.2937193 0.1849388 0.1828386
0.3203430 0.2054542 0.2039994
0.3470550 0.2264931 0.2254712
0.3738305 0.2480384 0.2473131
0.4006529 0.2700744 0.2695554
0.4275103 0.2925867 0.2922128
0.4543938 0.3155620 0.3152911
0.4812963 0.3389878 0.3387904
0.5082116 0.3628518 0.3627071
0.5351341 0.3871424 0.3870357
0.5620582 0.4118477 0.4117683
0.5889782 0.4369558 0.4368962
0.6158877 0.4624542 0.4624088
0.6427798 0.4883294 0.4882944
0.6696459 0.5145670 0.5145393
0.6964759 0.5411503 0.5411280
0.7226677 0.5674637 0.5674452
0.7470512 0.5922784 0.5922625
0.7740734 0.6201321 0.6201183
0.8023527 0.6496755 0.6496631
0.8307022 0.6796918 0.6796804
0.8591203 0.7101775 0.7101668
0.8876053 0.7411294 0.7411193
0.9161558 0.7725444 0.7725347
0.9447704 0.8044195 0.8044102
0.9734478 0.8367520 0.8367430
0.0894479 0.1168078 0.0894451
0.0891980 0.1165896 0.0886112
0.0874687 0.1151318 0.0821199
0.0936658 0.1136904 0.0716889
0.1151496 0.1151497 0.0770553
0.1390327 0.1180222 0.0853600
0.1640110 0.1229446 0.0964199
0.1896024 0.1303644 0.1097707
0.2156109 0.1403997 0.1249284
0.2419205 0.1528784 0.1415021
0.2684463 0.1674718 0.1592094
0.2948660 0.1851858 0.1794274
0.3211498 0.2056525 0.2017510
0.3476291 0.2266501 0.2239485
0.3742428 0.2481620 0.2462637
0.4009511 0.2701714 0.2688239
0.4277272 0.2926627 0.2916991
0.4545522 0.3156215 0.3149287
0.4814124 0.3390343 0.3385340
0.5082969 0.3628882 0.3625257
0.5351969 0.3871708 0.3869074
0.5621045 0.4118698 0.4116779
0.5890123 0.4369730 0.4368326
0.6159129 0.4624675 0.4623643
0.6427983 0.4883398 0.4882634
0.6696595 0.5145750 0.5145180
0.6964859 0.5411565 0.5411134
0.7226754 0.5674688 0.5674356
0.7470568 0.5922822 0.5922562
0.7740778 0.6201355 0.6201145
0.8023557 0.6496779 0.6496605
0.8307043 0.6796934 0.6796787
0.8591217 0.7101786 0.7101657
0.8876062 0.7411301 0.7411185
0.9161564 0.7725448 0.7725342
0.9447708 0.8044198 0.8044098
0.9734480 0.8367522 0.8367428
0.1127680 0.1452992 0.1127645
0.1126348 0.1451864 0.1123141
0.1117368 0.1444381 0.1091204
0.1088936 0.1422182 0.0965068
0.1218529 0.1419974 0.0922182
0.1435072 0.1435074 0.0979175
0.1672095 0.1462349 0.1062523
0.1919765 0.1507106 0.1171631
0.2173749 0.1573848 0.1303450
0.2432128 0.1664980 0.1454147
0.2693798 0.1780471 0.1620171
0.2957944 0.1918401 0.1798665
0.3223927 0.2075889 0.1987483
0.3487383 0.2269395 0.2207471
0.3750383 0.2483937 0.2441192
0.4015260 0.2703551 0.2673563
0.4281451 0.2928075 0.2906810
0.4548575 0.3157353 0.3142163
0.4816361 0.3391235 0.3380332
0.5084613 0.3629580 0.3621727
0.5353179 0.3872253 0.3866585
0.5621936 0.4119124 0.4115026
0.5890780 0.4370061 0.4367095
0.6159614 0.4624933 0.4622783
0.6428340 0.4883598 0.4882037
0.6696858 0.5145905 0.5144768
0.6965053 0.5411684 0.5410853
0.7226901 0.5674785 0.5674172
0.7470677 0.5922897 0.5922440
0.7740865 0.6201419 0.6201074
0.8023616 0.6496823 0.6496556
0.8307082 0.6796964 0.6796753
0.8591243 0.7101806 0.7101634
0.8876080 0.7411315 0.7411170
0.9161575 0.7725457 0.7725332
0.9447715 0.8044204 0.8044092
0.9734485 0.8367525 0.8367424
0.1363914 0.1736102 0.1363874
0.1363152 0.1735477 0.1361253
0.1358072 0.1731338 0.1343315
0.1342664 0.1719162 0.1283369
0.1314459 0.1693716 0.1095333
0.1500210 0.1702145 0.1133375
0.1717537 0.1717539 0.1192979
0.1953107 0.1743785 0.1276909
0.2199037 0.1785463 0.1385253
0.2451400 0.1846886 0.1515987
0.2708314 0.1931031 0.1666071
0.2968711 0.2038948 0.1832351
0.3231811 0.2169837 0.2012050
0.3496983 0.2321608 0.2202932
0.3763717 0.2491579 0.2403281
0.4025450 0.2706698 0.2645546
0.4288855 0.2930586 0.2887822
0.4553980 0.3159341 0.3129084
0.4820322 0.3392800 0.3371232
0.5087523 0.3630808 0.3615361
0.5355321 0.3873215 0.3862119
0.5623515 0.4119875 0.4111893
0.5891944 0.4370647 0.4364902
0.6160472 0.4625388 0.4621253
0.6428972 0.4883951 0.4880975
0.6697323 0.5146178 0.5144037
0.6965395 0.5411895 0.5410354
0.7227163 0.5674958 0.5673846
0.7470868 0.5923029 0.5922224
0.7741018 0.6201534 0.6200947
0.8023720 0.6496902 0.6496469
0.8307152 0.6797018 0.6796694
0.8591289 0.7101843 0.7101594
0.8876110 0.7411339 0.7411143
0.9161595 0.7725473 0.7725314
0.9447728 0.8044214 0.8044081
0.9734492 0.8367532 0.8367417
0.1602875 0.2017635 0.1602831
0.1602419 0.2017271 0.1601229
0.1599391 0.2014867 0.1590441
0.1590368 0.2007822 0.1556625
0.1569246 0.1992070 0.1465304
0.1590765 0.1974434 0.1308290
0.1781364 0.1983472 0.1349752
0.1999030 0.1999032 0.1411515
0.2233388 0.2024491 0.1496169
0.2477849 0.2063914 0.1604217
0.2728825 0.2121384 0.1734332
0.2984471 0.2200142 0.1884090
0.3243737 0.2301933 0.2050707
0.3505876 0.2426812 0.2231538
0.3770271 0.2573427 0.2424321
0.4036408 0.2739544 0.2627233
0.4301247 0.2934632 0.2853026
0.4563021 0.3162587 0.3105777
0.4826945 0.3395378 0.3355319
0.5092388 0.3632842 0.3604369
0.5358902 0.3874813 0.3854479
0.5626154 0.4121126 0.4106567
0.5893890 0.4371623 0.4361190
0.6161906 0.4626148 0.4618672
0.6430030 0.4884541 0.4879189
0.6698102 0.5146635 0.5142808
0.6965967 0.5412248 0.5409516
0.7227600 0.5675247 0.5673299
0.7471189 0.5923250 0.5921862
0.7741274 0.6201725 0.6200734
0.8023894 0.6497034 0.6496323
0.8307269 0.6797108 0.6796594
0.8591367 0.7101903 0.7101527
0.8876161 0.7411379 0.7411099
0.9161628 0.7725499 0.7725285
0.9447749 0.8044231 0.8044062
0.9734506 0.8367543 0.8367405
0.1844319 0.2297757 0.1844270
0.1844037 0.2297538 0.1843256
0.1842166 0.2296093 0.1836485
0.1836640 0.2291867 0.1815894
0.1824020 0.2282460 0.1765155
0.1797935 0.2264172 0.1638559
0.1868153 0.2254537 0.1526570
0.2061894 0.2264015 0.1570814
0.2279655 0.2279657 0.1634424
0.2512975 0.2304481 0.1719874
0.2756175 0.2342175 0.1827942
0.3005943 0.2396608 0.1957797
0.3260478 0.2471139 0.2107494
0.3518741 0.2567966 0.2274578
0.3780004 0.2687794 0.2456552
0.4043673 0.2829902 0.2651164
0.4309230 0.2992517 0.2856521
0.4576243 0.3173298 0.3071101
0.4837578 0.3399411 0.3327798
0.5100198 0.3636054 0.3585771
0.5364650 0.3877350 0.3841742
0.5630389 0.4123119 0.4097781
0.5897013 0.4373183 0.4355111
0.6164209 0.4627364 0.4614468
0.6431727 0.4885486 0.4876290
0.6699351 0.5147367 0.5140820
0.6966886 0.5412813 0.5408164
0.7228303 0.5675711 0.5672417
0.7471704 0.5923605 0.5921279
0.7741686 0.6202033 0.6200391
0.8024173 0.6497245 0.6496087
0.8307457 0.6797252 0.6796434
0.8591492 0.7102000 0.7101420
0.8876243 0.7411444 0.7411027
0.9161681 0.7725542 0.7725238
0.9447783 0.8044258 0.8044032
0.9734527 0.8367560 0.8367386
0.2088042 0.2576593 0.2087989
0.2087863 0.2576459 0.2087331
0.2086678 0.2575569 0.2082952
0.2083194 0.2572970 0.2069852
0.2075332 0.2567198 0.2038960
0.2059574 0.2556020 0.1970529
0.2029224 0.2536088 0.1804014
0.2145917 0.2534035 0.1749619
0.2341779 0.2543829 0.1796185
0.2559492 0.2559494 0.1861412
0.2791905 0.2583785 0.1947693
0.3034006 0.2620104 0.2056003
0.3282711 0.2672143 0.2185877
0.3536264 0.2743303 0.2335749
0.3793631 0.2836091 0.2503445
0.4054101 0.2951705 0.2686619
0.4317094 0.3089960 0.2883049
0.4582100 0.3249510 0.3090793
0.4848676 0.3428268 0.3308244
0.5112356 0.3640917 0.3554249
0.5373597 0.3881231 0.3820679
0.5636984 0.4126188 0.4083496
0.5901876 0.4375593 0.4345344
0.6167796 0.4629248 0.4607769
0.6434370 0.4886953 0.4871698
0.6701298 0.5148505 0.5137685
0.6968317 0.5413693 0.5406038
0.7229397 0.5676432 0.5671033
0.7472507 0.5924158 0.5920365
0.7742327 0.6202512 0.6199854
0.8024608 0.6497575 0.6495719
0.8307749 0.6797476 0.6796184
0.8591686 0.7102151 0.7101252
0.8876371 0.7411544 0.7410916
0.9161764 0.7725608 0.7725165
0.9447835 0.8044301 0.8043984
0.9734560 0.8367587 0.8367356
0.2333871 0.2854241 0.2333814
0.2333756 0.2854157 0.2333378
0.2332991 0.2853600 0.2330485
0.2330748 0.2851973 0.2321910
0.2325724 0.2848365 0.2302162
0.2315807 0.2841396 0.2260826
0.2297387 0.2829006 0.2174025
0.2263413 0.2808182 0.1962155
0.2423699 0.2812945 0.1977023
0.2621031 0.2822961 0.2025566
0.2838603 0.2838606 0.2092230
0.3070210 0.2862434 0.2179357
0.3311342 0.2897631 0.2288070
0.3559104 0.2947739 0.2418182
0.3811780 0.3016175 0.2568436
0.4068344 0.3105663 0.2736896
0.4328093 0.3217787 0.2921354
0.4590462 0.3352803 0.3119627
0.4854946 0.3509755 0.3329744
0.5121098 0.3686812 0.3550023
0.5387198 0.3886963 0.3785475
0.5647008 0.4130768 0.4060258
0.5909270 0.4379215 0.4329750
0.6173249 0.4632092 0.4597213
0.6438391 0.4889173 0.4864530
0.6704259 0.5150230 0.5132824
0.6970495 0.5415029 0.5402756
0.7231063 0.5677529 0.5668904
0.7473729 0.5924999 0.5918962
0.7743303 0.6203240 0.6199032
0.8025271 0.6498076 0.6495157
0.8308194 0.6797818 0.6795803
0.8591982 0.7102381 0.7100995
0.8876565 0.7411697 0.7410746
0.9161890 0.7725708 0.7725054
0.9447916 0.8044366 0.8043912
0.9734610 0.8367628 0.8367310
0.2581655 0.3130774 0.2581594
0.2581579 0.3130721 0.2581301
0.2581079 0.3130368 0.2579358
0.2579615 0.3129338 0.2573632
0.2576349 0.3127056 0.2560626
0.2569957 0.3122654 0.2534228
0.2558303 0.3114843 0.2482480
0.2537684 0.3101742 0.2376716
0.2528261 0.3084778 0.2172926
0.2701311 0.3091288 0.2208462
0.2899669 0.3101454 0.2258710
0.3117040 0.3117043 0.2326666
0.3347920 0.3140457 0.2414642
0.3588188 0.3174715 0.2523876
0.3835106 0.3223240 0.2654406
0.4086995 0.3289453 0.2805220
0.4342834 0.3376239 0.2974592
0.4601928 0.3485489 0.3160433
0.4863719 0.3617831 0.3360604
0.5127711 0.3772656 0.3573109
0.5393451 0.3948371 0.3796203
0.5660540 0.4142782 0.4028428
0.5920302 0.4384521 0.4304685
0.6181389 0.4636286 0.4580587
0.6444394 0.4892463 0.4853400
0.6708682 0.5152794 0.5125351
0.6973749 0.5417017 0.5397749
0.7233552 0.5679165 0.5665671
0.7475555 0.5926254 0.5916841
0.7744760 0.6204327 0.6197788
0.8026261 0.6498825 0.6494309
0.8308860 0.6798328 0.6795229
0.8592425 0.7102726 0.7100610
0.8876856 0.7411926 0.7410490
0.9162078 0.7725858 0.7724887
0.9448036 0.8044463 0.8043805
0.9734686 0.8367690 0.8367242
0.2831258 0.3406250 0.2831194
0.2831208 0.3406216 0.2830994
0.2830878 0.3405991 0.2829674
0.2829913 0.3405335 0.2825794
0.2827765 0.3403882 0.2817056
0.2823585 0.3401080 0.2799642
0.2816041 0.3396115 0.2766757
0.2802976 0.3387801 0.2704750
0.2780604 0.3374435 0.2579553
0.2803239 0.3362396 0.2406450
0.2978648 0.3369084 0.2443676
0.3177715 0.3379341 0.2495409
0.3394843 0.3394845 0.2564537
0.3625059 0.3417881 0.2653356
0.3864551 0.3451337 0.2763201
0.4110708 0.3498546 0.2894293
0.4361886 0.3562928 0.3045829
0.4617067 0.3647502 0.3216252
0.4875560 0.3754408 0.3403585
0.5136817 0.3884592 0.3605724
0.5400343 0.4037745 0.3820654
0.5665685 0.4212495 0.4046573
0.5932429 0.4406756 0.4281946
0.6193354 0.4642339 0.4554095
0.6453222 0.4897243 0.4836046
0.6715189 0.5156538 0.5113875
0.6978538 0.5419930 0.5390143
0.7237218 0.5681567 0.5660795
0.7478245 0.5928100 0.5913660
0.7746907 0.6205925 0.6195928
0.8027719 0.6499927 0.6493046
0.8309841 0.6799080 0.6794376
0.8593078 0.7103233 0.7100040
0.8877285 0.7412264 0.7410113
0.9162356 0.7726080 0.7724640
0.9448213 0.8044606 0.8043646
0.9734797 0.8367781 0.8367141
0.3082557 0.3680713 0.3082490
0.3082524 0.3680691 0.3082353
0.3082305 0.3680547 0.3081447
0.3081665 0.3680129 0.3078790
0.3080243 0.3679201 0.3072838
0.3077483 0.3677413 0.3061110
0.3072536 0.3674248 0.3039448
0.3064071 0.3668952 0.3000346
0.3049919 0.3660447 0.2928347
0.3026222 0.3647214 0.2783419
0.3078475 0.3639543 0.2643762
0.3255647 0.3646353 0.2682447
0.3455190 0.3656651 0.2735481
0.3672043 0.3672046 0.2805677
0.3901649 0.3694727 0.2895328
0.4140437 0.3727486 0.3005855
0.4385904 0.3773587 0.3137633
0.4636434 0.3836456 0.3290031
0.4891013 0.3919225 0.3461640
0.5148954 0.4024246 0.3650577
0.5409712 0.4152739 0.3854767
0.5672795 0.4304658 0.4072175
0.5937746 0.4478826 0.4300944
0.6204141 0.4673253 0.4539464
0.6466041 0.4904060 0.4808567
0.6724644 0.5161915 0.5096118
0.6985502 0.5424133 0.5378562
0.7242552 0.5685046 0.5653449
0.7482160 0.5930778 0.5908907
0.7750028 0.6208244 0.6193155
0.8029842 0.6501529 0.6491176
0.8311270 0.6800174 0.6793121
0.8594029 0.7103971 0.7099203
0.8877910 0.7412755 0.7409560
0.9162761 0.7726403 0.7724279
0.9448472 0.8044814 0.8043413
0.9734959 0.8367913 0.8366994
0.3335437 0.3954192 0.3335367
0.3335415 0.3954178 0.3335273
0.3335269 0.3954087 0.3334646
0.3334844 0.3953820 0.3332813
0.3333898 0.3953230 0.3328719
0.3332069 0.3952092 0.3320711
0.3328802 0.3950077 0.3306123
0.3323252 0.3946709 0.3280464
0.3314101 0.3941304 0.3235498
0.3299180 0.3932897 0.3153892
0.3274572 0.3920152 0.2989169
0.3353788 0.3916226 0.2884641
0.3532273 0.3923111 0.2924589
0.3732113 0.3933408 0.2978768
0.3948667 0.3948670 0.3049940
0.4177705 0.3971014 0.3140408
0.4415851 0.4003156 0.3251673
0.4660687 0.4048315 0.3384241
0.4910624 0.4109930 0.3537629
0.5164649 0.4191235 0.3710553
0.5422076 0.4294774 0.3901207
0.5682364 0.4422001 0.4107538
0.5945022 0.4573103 0.4327488
0.6209586 0.4747072 0.4559143
0.6475619 0.4941997 0.4800819
0.6738239 0.5169513 0.5068124
0.6995524 0.5430116 0.5360737
0.7250236 0.5690027 0.5642317
0.7487805 0.5934624 0.5901793
0.7754523 0.6211575 0.6189023
0.8032902 0.6503834 0.6488415
0.8313332 0.6801751 0.6791279
0.8595401 0.7105036 0.7097980
0.8878812 0.7413465 0.7408754
0.9163347 0.7726869 0.7723754
0.9448845 0.8045116 0.8043076
0.9735193 0.8368104 0.8366781
0.3589788 0.4226708 0.3589716
0.3589773 0.4226700 0.3589650
0.3589676 0.4226642 0.3589215
0.3589393 0.4226473 0.3587942
0.3588765 0.4226100 0.3585108
0.3587551 0.4225381 0.3579589
0.3585388 0.4224109 0.3569626
0.3581732 0.4221982 0.3552382
0.3575752 0.4218570 0.3523039
0.3566150 0.4213265 0.3472636
0.3550770 0.4205219 0.3381931
0.3525653 0.4193283 0.3197636
0.3629056 0.4192455 0.3128900
0.3808505 0.4199372 0.3169940
0.4008499 0.4209630 0.3225126
0.4224735 0.4224738 0.3297192
0.4453240 0.4246754 0.3388461
0.4690794 0.4278343 0.3500508
0.4935050 0.4322691 0.3633956
0.5184439 0.4383267 0.3788450
0.5437950 0.4463403 0.3962813
0.5694895 0.4565814 0.4155296
0.5954735 0.4692167 0.4363864
0.6216976 0.4842850 0.4586425
0.6481148 0.5016997 0.4821008
0.6746800 0.5212755 0.5065852
0.7009819 0.5438507 0.5332719
0.7261214 0.5697072 0.5625221
0.7495876 0.5940087 0.5891058
0.7760941 0.6216308 0.6182828
0.8037279 0.6507119 0.6484330
0.8316283 0.6804003 0.6788578
0.8597368 0.7106559 0.7096199
0.8880106 0.7414482 0.7407587
0.9164186 0.7727537 0.7722996
0.9449381 0.8045548 0.8042590
0.9735529 0.8368379 0.8366474
0.3845503 0.4498270 0.3845429
0.3845493 0.4498264 0.3845383
0.3845429 0.4498228 0.3845080
0.3845241 0.4498123 0.3844193
0.3844825 0.4497891 0.3842222
0.3844021 0.4497443 0.3838395
0.3842592 0.4496650 0.3831528
0.3840183 0.4495326 0.3819768
0.3836264 0.4493201 0.3800122
0.3830030 0.4489898 0.3767456
0.3820209 0.4484889 0.3712111
0.3804672 0.4477448 0.3612948
0.3779439 0.4466614 0.3409646
0.3904198 0.4468234 0.3376377
0.4084328 0.4475146 0.3418355
0.4284360 0.4485332 0.3474426
0.4500260 0.4500263 0.3547311
0.4728261 0.4521957 0.3639360
0.4965266 0.4553039 0.3752225
0.5208985 0.4596686 0.3886634
0.5457864 0.4656403 0.4042342
0.5710891 0.4735624 0.4218259
0.5967377 0.4837226 0.4412685
0.6226782 0.4963067 0.4623585
0.6488609 0.5113710 0.4848832
0.6752375 0.5288405 0.5086385
0.7017611 0.5485331 0.5334406
0.7276781 0.5706921 0.5598330
0.7507335 0.5947774 0.5874602
0.7770032 0.6222970 0.6173428
0.8043493 0.6511765 0.6478241
0.8320481 0.6807197 0.6784607
0.8600170 0.7108725 0.7093604
0.8881951 0.7415929 0.7405898
0.9165383 0.7728489 0.7721904
0.9450146 0.8046164 0.8041892
0.9736009 0.8368770 0.8366034
0.4102476 0.4768874 0.4102400
0.4102469 0.4768870 0.4102368
0.4102427 0.4768848 0.4102156
0.4102303 0.4768784 0.4101537
0.4102029 0.4768643 0.4100162
0.4101501 0.4768370 0.4097499
0.4100561 0.4767888 0.4092739
0.4098981 0.4767082 0.4084646
0.4096421 0.4765789 0.4071287
0.4092370 0.4763780 0.4049526
0.4086055 0.4760732 0.4013943
0.4076244 0.4756202 0.3954214
0.4060846 0.4749591 0.3847367
0.4035883 0.4740128 0.3626008
0.4179152 0.4743570 0.3626927
0.4359732 0.4750442 0.3669705
0.4559706 0.4760524 0.3726548
0.4775253 0.4775256 0.3800180
0.5002773 0.4796626 0.3892989
0.5239265 0.4827238 0.4006701
0.5482481 0.4870272 0.4142142
0.5730879 0.4929282 0.4299163
0.5983444 0.5007812 0.4476747
0.6239487 0.5108894 0.4673227
0.6498460 0.5234561 0.4886555
0.6759862 0.5385527 0.5114557
0.7023195 0.5561131 0.5355120
0.7283042 0.5754553 0.5601333
0.7523502 0.5958473 0.5848719
0.7782821 0.6232255 0.6158878
0.8052263 0.6518280 0.6469050
0.8326419 0.6811696 0.6778717
0.8604138 0.7111785 0.7089807
0.8884567 0.7417978 0.7403448
0.9167082 0.7729839 0.7720331
0.9451232 0.8047039 0.8040891
0.9736691 0.8369326 0.8365405
0.4360597 0.5038506 0.4360519
0.4360592 0.5038504 0.4360497
0.4360565 0.5038491 0.4360349
0.4360484 0.5038454 0.4359916
0.4360306 0.5038371 0.4358956
0.4359962 0.5038211 0.4357100
0.4359351 0.5037929 0.4353791
0.4358324 0.5037456 0.4348192
0.4356665 0.5036699 0.4339024
0.4354050 0.5035521 0.4324290
0.4350000 0.5033735 0.4300729
0.4343777 0.5031080 0.4262667
0.4334199 0.5027202 0.4199173
0.4319232 0.5021634 0.4085551
0.4295281 0.5013820 0.3848295
0.4453875 0.5018464 0.3880418
0.4634710 0.5025264 0.3923870
0.4834539 0.5035210 0.3981381
0.5049718 0.5049721 0.4055691
0.5276774 0.5070763 0.4149236
0.5512781 0.5100929 0.4263819
0.5755523 0.5143421 0.4400356
0.6003461 0.5201856 0.4558784
0.6255580 0.5279892 0.4738142
0.6511182 0.5380717 0.4936782
0.6769717 0.5506529 0.5152631
0.7030670 0.5658167 0.5383455
0.7286461 0.5827849 0.5619903
0.7529605 0.6006317 0.5852511
0.7800685 0.6245046 0.6135689
0.8064566 0.6527337 0.6454888
0.8334777 0.6817990 0.6769866
0.8609737 0.7116083 0.7084200
0.8888264 0.7420865 0.7399876
0.9169486 0.7731746 0.7718058
0.9452769 0.8048275 0.8039453
0.9737656 0.8370114 0.8364505
0.4619752 0.5307141 0.4619673
0.4619749 0.5307140 0.4619658
0.4619732 0.5307132 0.4619554
0.4619680 0.5307112 0.4619252
0.4619566 0.5307066 0.4618582
0.4619345 0.5306979 0.4617288
0.4618954 0.5306823 0.4614986
0.4618297 0.5306564 0.4611103
0.4617238 0.5306148 0.4604780
0.4615572 0.5305501 0.4594710
0.4613003 0.5304520 0.4578844
0.4609084 0.5303061 0.4553821
0.4603123 0.5300930 0.4513748
0.4594000 0.5297868 0.4447160
0.4579750 0.5293542 0.4327800
0.4569198 0.5288328 0.4104063
0.4728332 0.5292916 0.4136732
0.4909251 0.5299612 0.4180737
0.5108860 0.5309393 0.4238817
0.5323654 0.5323657 0.4313739
0.5550259 0.5344360 0.4407996
0.5785804 0.5374097 0.4523467
0.6028091 0.5416103 0.4661157
0.6275583 0.5474075 0.4821078
0.6527258 0.5551795 0.5002314
0.6782413 0.5652608 0.5203215
0.7040488 0.5778863 0.5421671
0.7290960 0.5921341 0.5645247
0.7535770 0.6081680 0.5873791
0.7809666 0.6294376 0.6141574
0.8081727 0.6539800 0.6432414
0.8346486 0.6826730 0.6756284
0.8617606 0.7122090 0.7075804
0.8893472 0.7424917 0.7394622
0.9172878 0.7734429 0.7714756
0.9454941 0.8050019 0.8037383
0.9739022 0.8371225 0.8363218
0.4879819 0.5574735 0.4879739
0.4879817 0.5574735 0.4879728
0.4879806 0.5574731 0.4879656
0.4879774 0.5574721 0.4879446
0.4879702 0.5574699 0.4878979
0.4879565 0.5574657 0.4878078
0.4879320 0.5574581 0.4876478
0.4878910 0.5574456 0.4873785
0.4878249 0.5574254 0.4869417
0.4877211 0.5573940 0.4862503
0.4875615 0.5573465 0.4851717
0.4873192 0.5572758 0.4834974
0.4869533 0.5571727 0.4808841
0.4864002 0.5570247 0.4767250
0.4855552 0.5568157 0.4698290
0.4842305 0.5565266 0.4574345
0.4843076 0.5562417 0.4362662
0.5002492 0.5566920 0.4395756
0.5183346 0.5573483 0.4440202
0.5382665 0.5583067 0.4498754
0.5597055 0.5597058 0.4574222
0.5823217 0.5617406 0.4669161
0.6058315 0.5646721 0.4785534
0.6300160 0.5688285 0.4924430
0.6547209 0.5745888 0.5085925
0.6798433 0.5823451 0.5269133
0.7053120 0.5924478 0.5472390
0.7296747 0.6037254 0.5679381
0.7545279 0.6179363 0.5904117
0.7816604 0.6369452 0.6163494
0.8091131 0.6586279 0.6436114
0.8362811 0.6838758 0.6734819
0.8628625 0.7130430 0.7062971
0.8900787 0.7430577 0.7386781
0.9177653 0.7738193 0.7709912
0.9458004 0.8052473 0.8034382
0.9740949 0.8372792 0.8361368
0.5140663 0.5841231 0.5140582
0.5140662 0.5841231 0.5140575
0.5140655 0.5841230 0.5140525
0.5140636 0.5841226 0.5140378
0.5140593 0.5841219 0.5140054
0.5140510 0.5841204 0.5139429
0.5140362 0.5841177 0.5138320
0.5140115 0.5841133 0.5136456
0.5139717 0.5841063 0.5133440
0.5139093 0.5840954 0.5128688
0.5138136 0.5840788 0.5121326
0.5136685 0.5840543 0.5110018
0.5134505 0.5840188 0.5092665
