release/datafiles/colormanagement/luts/luminance_compensation_p3.cube
TITLE "Offset the negative values in P3 and compensate for luminance"
# Lower Side of Guard Rail Formation for P3 medium.
# Modified from python script shared by Sakari Kapanen
# This LUT assumes E Gamut encoded in ST2084 (100) curve and then power 0.6
# LUT resolution 37
LUT_3D_SIZE 7
0.0000000 0.0000000 0.0000000
0.1616873 0.0794908 0.0794879
0.3244534 0.1855863 0.1855807
0.4878811 0.3134908 0.3134831
0.6516051 0.4607807 0.4607717
0.8145461 0.6250820 0.6250726
0.9839429 0.8137119 0.8137031
0.1146319 0.1692173 0.1146284
0.1697292 0.1697293 0.1052233
0.3257249 0.2092479 0.1893030
0.4880535 0.3173650 0.3140232
0.6516284 0.4613391 0.4608496
0.8145496 0.6251501 0.6250829
0.9839432 0.8137176 0.8137039
0.2483891 0.3354911 0.2483831
0.2463857 0.3349310 0.2360478
0.3369892 0.3369894 0.2327494
0.4907725 0.3678900 0.3233397
0.6520572 0.4712315 0.4623006
0.8146137 0.6264249 0.6252767
0.9839480 0.8138243 0.8137200
0.3952113 0.5001068 0.3952038
0.3950204 0.5000967 0.3938800
0.3909142 0.4999668 0.3583763
0.5028773 0.5028775 0.3762809
0.6553082 0.5313235 0.4744944
0.8151979 0.6375646 0.6270686
0.9839937 0.8148209 0.8138715
0.5517218 0.6627021 0.5517136
0.5517123 0.6627164 0.5515569
0.5515253 0.6629873 0.5484811
0.5484407 0.6650815 0.5002477
0.6664118 0.6664120 0.5317097
0.8189816 0.6962212 0.6399170
0.9843560 0.8224772 0.8150876
0.7201339 0.8271665 0.7201257
0.7201332 0.8271684 0.7201084
0.7201214 0.8272056 0.7197803
0.7200008 0.8275558 0.7165447
0.7183031 0.8304407 0.6736993
0.8329283 0.8329285 0.7025781
0.9870124 0.8687800 0.8247399
0.9011206 0.9947440 0.9011133
0.9011205 0.9947441 0.9011119
0.9011196 0.9947469 0.9010861
0.9011108 0.9947732 0.9008422
0.9010349 0.9949872 0.8987891
0.9000015 0.9968866 0.8730079
0.9996552 0.9996554 0.8853000
0.0860258 0.0860262 0.1430104
0.1599002 0.1063268 0.1598992
0.3239624 0.1892190 0.2086866
0.4879359 0.3132286 0.3165902
0.6516963 0.4603276 0.4608031
0.8145599 0.6250321 0.6250805
0.9839440 0.8137078 0.8137037
0.1290957 0.1717874 0.1717855
0.1666667 0.1666667 0.1666667
0.3296913 0.1893664 0.1893639
0.4886285 0.3141205 0.3141132
0.6517194 0.4608898 0.4608809
0.8145633 0.6251002 0.6250908
0.9839442 0.8137135 0.8137046
0.2498987 0.3356241 0.2579328
0.2480152 0.3350520 0.2480102
0.3359971 0.3359972 0.2319383
0.4911698 0.3665456 0.3233612
0.6521445 0.4708464 0.4623299
0.8146274 0.6263760 0.6252846
0.9839491 0.8138201 0.8137207
0.3953989 0.5001151 0.3964955
0.3952095 0.5001048 0.3952021
0.3911375 0.4999714 0.3607586
0.5027995 0.5027997 0.3762101
0.6553687 0.5311835 0.4745107
0.8152110 0.6375239 0.6270760
0.9839947 0.8148169 0.8138722
0.5517443 0.6627009 0.5518829
0.5517348 0.6627152 0.5517266
0.5515483 0.6629860 0.5486608
0.5484701 0.6650806 0.5006434
0.6664130 0.6664132 0.5317109
0.8189909 0.6962072 0.6399218
0.9843570 0.8224737 0.8150882
0.7201364 0.8271663 0.7201450
0.7201358 0.8271683 0.7201277
0.7201239 0.8272055 0.7197996
0.7200034 0.8275556 0.7165654
0.7183063 0.8304405 0.6737427
0.8329285 0.8329287 0.7025782
0.9870132 0.8687786 0.8247403
0.9011208 0.9947440 0.9011148
0.9011207 0.9947441 0.9011134
0.9011198 0.9947469 0.9010876
0.9011110 0.9947732 0.9008438
0.9010351 0.9949872 0.8987907
0.9000017 0.9968866 0.8730106
0.9996553 0.9996554 0.8853000
0.1948125 0.1948132 0.2914973
0.2082523 0.1978556 0.2942663
0.3198704 0.2328291 0.3198688
0.4863654 0.3234116 0.3658125
0.6515096 0.4614158 0.4703703
0.8147558 0.6243229 0.6254699
0.9839636 0.8136295 0.8137162
0.2042111 0.2143222 0.2995830
0.2050119 0.2050124 0.3044114
0.3228435 0.2353253 0.3228422
0.4871491 0.3235802 0.3647735
0.6516377 0.4614460 0.4699888
0.8147752 0.6243320 0.6254215
0.9839639 0.8136352 0.8137170
0.2717905 0.3384733 0.3384705
0.2711474 0.3377532 0.3377507
0.3333333 0.3333333 0.3333333
0.5000000 0.3333333 0.3333333
0.6538515 0.4629268 0.4629190
0.8148871 0.6254435 0.6254343
0.9839687 0.8137420 0.8137332
0.3988178 0.5002774 0.4172872
0.3986544 0.5002643 0.4164145
0.3951760 0.5000684 0.3951711
0.5013057 0.5013058 0.3748512
0.6565446 0.5284231 0.4748351
0.8154591 0.6367469 0.6272172
0.9840143 0.8147401 0.8138846
0.5521671 0.6626777 0.5550049
0.5521580 0.6626919 0.5548577
0.5519799 0.6629616 0.5519720
0.5490212 0.6650632 0.5077488
0.6664357 0.6664359 0.5317334
0.8191663 0.6959414 0.6400126
0.9843759 0.8224067 0.8151001
0.7201844 0.8271637 0.7205068
0.7201838 0.8271656 0.7204896
0.7201721 0.8272028 0.7201640
0.7200526 0.8275528 0.7169537
0.7183661 0.8304364 0.6745561
0.8329314 0.8329316 0.7025814
0.9870276 0.8687518 0.8247486
0.9011246 0.9947438 0.9011435
0.9011245 0.9947439 0.9011421
0.9011236 0.9947467 0.9011163
0.9011148 0.9947730 0.9008726
0.9010390 0.9949869 0.8988209
0.9000062 0.9968863 0.8730618
0.9996555 0.9996556 0.8853003
0.3207836 0.3207845 0.4428863
0.3227187 0.3211922 0.4432450
0.3542280 0.3291922 0.4498288
0.4797711 0.3734426 0.4797692
0.6491513 0.4739042 0.5275917
0.8143671 0.6259176 0.6364344
0.9841276 0.8129743 0.8139213
0.3221983 0.3237201 0.4440292
0.3221665 0.3221674 0.4444642
0.3543341 0.3301987 0.4510864
0.4802377 0.3738708 0.4802358
0.6492718 0.4739549 0.5275065
0.8143864 0.6259271 0.6363962
0.9841290 0.8129751 0.8139172
0.3448001 0.3682731 0.4613091
0.3449445 0.3676169 0.4618373
0.3521250 0.3521255 0.4782756
0.4888200 0.3817640 0.4888188
0.6515356 0.4748726 0.5257285
0.8147500 0.6261050 0.6356636
0.9841543 0.8129993 0.8138508
0.4230730 0.5022464 0.5022431
0.4230428 0.5022146 0.5022114
0.4224740 0.5016169 0.5016143
0.5000000 0.5000000 0.5000000
0.6666667 0.5000000 0.5000000
0.8178643 0.6286034 0.6285954
0.9841990 0.8140104 0.8140016
0.5559642 0.6624706 0.5791567
0.5559588 0.6624844 0.5790681
0.5558525 0.6627441 0.5773433
0.5539228 0.6649142 0.5539181
0.6666525 0.6666525 0.5319478
0.8208597 0.6932831 0.6408930
0.9845547 0.8217706 0.8152122
0.7206339 0.8271386 0.7238220
0.7206334 0.8271406 0.7238060
0.7206226 0.8271776 0.7235016
0.7205128 0.8275264 0.7205050
0.7189255 0.8303986 0.6817991
0.8329591 0.8329593 0.7026107
0.9871634 0.8684974 0.8248273
0.9011603 0.9947419 0.9014125
0.9011602 0.9947420 0.9014111
0.9011593 0.9947448 0.9013855
0.9011506 0.9947711 0.9011433
0.9010753 0.9949850 0.8991044
0.9000483 0.9968837 0.8735414
0.9996575 0.9996577 0.8853026
0.4596654 0.4596665 0.5945150
0.4599154 0.4597023 0.5945665
0.4650517 0.4609161 0.5955112
0.5050311 0.4722355 0.6043422
0.6387524 0.5247297 0.6387504
0.8114014 0.6371580 0.6905517
0.9838881 0.8140576 0.8214861
0.4598726 0.4600877 0.5946719
0.4598837 0.4598848 0.5947438
0.4650159 0.4610797 0.5956995
0.5051015 0.4724169 0.6045453
0.6388342 0.5248102 0.6388322
0.8114200 0.6371698 0.6905469
0.9838895 0.8140584 0.8214827
0.4638503 0.4679416 0.5977101
0.4638788 0.4677751 0.5977983
0.4645856 0.4645866 0.5996641
0.5064610 0.4759427 0.6084873
0.6403691 0.5263214 0.6403672
0.8117709 0.6373916 0.6904534
0.9839171 0.8140731 0.8214188
0.4944057 0.5244841 0.6198126
0.4944538 0.5244381 0.6199056
0.4954138 0.5235539 0.6217322
0.5113254 0.5113259 0.6479295
0.6539483 0.5397310 0.6539472
0.8150169 0.6393858 0.6893047
0.9841761 0.8142105 0.8208088
0.5784601 0.6614053 0.6614020
0.5784707 0.6614159 0.6614126
0.5786702 0.6616155 0.6616123
0.5805676 0.6635132 0.6635107
0.6666667 0.6666667 0.6666667
0.8333333 0.6666667 0.6666667
0.9860399 0.8161568 0.8161489
0.7241287 0.8269448 0.7460557
0.7241285 0.8269467 0.7460460
0.7241252 0.8269828 0.7458620
0.7240872 0.8273220 0.7440640
0.7232292 0.8301052 0.7232243
0.8331838 0.8331839 0.7028493
0.9882890 0.8663234 0.8254818
0.9014496 0.9947265 0.9035573
0.9014495 0.9947267 0.9035560
0.9014486 0.9947294 0.9035316
0.9014404 0.9947557 0.9033011
0.9013697 0.9949690 0.9013626
0.9003893 0.9968626 0.8773136
0.9996744 0.9996746 0.8853217
0.5976621 0.5976632 0.7342792
0.5976758 0.5976512 0.7342963
0.5983103 0.5978021 0.7344075
0.6041614 0.5992655 0.7354976
0.6443947 0.6118405 0.7450781
0.7952806 0.6834247 0.7952787
0.9818806 0.8225544 0.8648463
0.5976878 0.5977146 0.7342976
0.5976995 0.5977006 0.7343159
0.5983145 0.5978318 0.7344386
0.6041698 0.5992975 0.7355310
0.6444176 0.6118771 0.7451154
0.7952954 0.6834402 0.7952936
0.9818820 0.8225554 0.8648455
0.5981779 0.5986874 0.7346509
0.5981901 0.5986742 0.7346696
0.5984255 0.5984266 0.7350279
0.6043389 0.5999137 0.7361710
0.6448504 0.6125699 0.7458223
0.7955750 0.6837316 0.7955731
0.9819088 0.8225730 0.8648310
0.6030818 0.6079096 0.7382721
0.6030975 0.6079024 0.7382940
0.6033968 0.6077665 0.7387100
0.6065343 0.6065354 0.7429653
0.6489683 0.6192272 0.7526026
0.7981539 0.6864217 0.7981522
0.9821609 0.8227382 0.8646924
0.6367946 0.6664350 0.7623931
0.6368138 0.6664427 0.7624165
0.6371753 0.6665882 0.7628595
0.6406071 0.6678952 0.7670739
0.6727117 0.6727121 0.8067555
0.8162791 0.7053942 0.8162780
0.9841851 0.8240336 0.8634002
0.7464187 0.8258827 0.8258796
0.7464203 0.8258843 0.8258812
0.7464510 0.8259137 0.8259106
0.7467392 0.8261903 0.8261872
0.7490435 0.8284006 0.8283982
0.8333333 0.8333333 0.8333333
1.0000000 0.8333333 0.8333333
0.9039068 0.9945966 0.9196734
0.9039067 0.9945967 0.9196726
0.9039063 0.9945994 0.9196563
0.9039025 0.9946251 0.9195028
0.9038682 0.9948339 0.9182177
0.9032676 0.9966833 0.9032625
0.9998228 0.9998228 0.8854891
0.7405549 0.7405560 0.8704623
0.7405600 0.7405589 0.8704676
0.7406604 0.7406174 0.8705446
0.7416384 0.7412033 0.8710597
0.7493017 0.7457700 0.8750620
0.8007293 0.7754521 0.9004775
0.9673366 0.8678784 0.9673350
0.7405655 0.7405688 0.8704716
0.7405706 0.7405717 0.8704769
0.7406705 0.7406298 0.8705562
0.7416484 0.7412156 0.8710712
0.7493111 0.7457815 0.8750728
0.8007351 0.7754593 0.9004842
0.9673377 0.8678796 0.9673361
0.7407645 0.7408096 0.8706457
0.7407696 0.7408125 0.8706510
0.7408655 0.7408666 0.8707503
0.7418372 0.7414459 0.8712877
0.7494871 0.7459969 0.8752751
0.8008455 0.7755961 0.9006124
0.9673590 0.8679031 0.9673574
0.7426060 0.7430423 0.8722551
0.7426110 0.7430451 0.8722603
0.7427048 0.7430975 0.8723576
0.7435856 0.7435867 0.8732712
0.7511146 0.7479964 0.8771531
0.8018726 0.7768726 0.9018075
0.9675596 0.8681239 0.9675580
0.7557990 0.7592798 0.8836732
0.7558033 0.7592821 0.8836776
0.7558830 0.7593236 0.8837612
0.7566325 0.7597113 0.8845471
0.7626639 0.7626650 0.8908835
0.8095091 0.7865761 0.9108895
0.9691667 0.8698935 0.9691652
0.8141540 0.8370889 0.9309121
0.8141559 0.8370896 0.9309142
0.8141914 0.8371040 0.9309543
0.8145261 0.8372380 0.9313319
0.8172604 0.8382866 0.9344219
0.8434310 0.8434316 0.9641785
0.9817255 0.8837504 0.9817244
0.9245521 0.9936480 0.9936454
0.9245522 0.9936481 0.9936455
0.9245546 0.9936503 0.9936477
0.9245772 0.9936712 0.9936686
0.9247601 0.9938404 0.9938378
0.9263486 0.9953096 0.9953074
1.0000000 1.0000000 1.0000000
