release/datafiles/colormanagement/luts/luminance_compensation_p3.cube
TITLE "Offset the negative values in P3 and compensate for luminance"
# Lower Side of Guard Rail Formation for P3 medium.
# Modified from python script shared by Sakari Kapanen
# This LUT assumes E Gamut encoded in ST2084 (100) curve and then power 0.6
# LUT resolution 37
LUT_3D_SIZE 5
0.0000000 0.0000000 0.0000000
0.2429648 0.1295987 0.1295943
0.4878811 0.3134908 0.3134831
0.7334077 0.5411184 0.5411090
0.9839429 0.8137119 0.8137031
0.1796277 0.2525933 0.1796228
0.2535618 0.2535619 0.1667251
0.4887384 0.3317331 0.3162268
0.7334506 0.5421514 0.5412553
0.9839443 0.8137413 0.8137075
0.3952113 0.5001068 0.3952038
0.3941954 0.5000576 0.3878969
0.5028773 0.5028775 0.3762809
0.7345340 0.5731933 0.5460599
0.9839937 0.8148209 0.8138715
0.6333191 0.7435564 0.6333108
0.6333091 0.7435885 0.6330354
0.6328466 0.7447838 0.6212051
0.7495765 0.7495767 0.6155352
0.9850909 0.8367883 0.8176254
0.9011206 0.9947440 0.9011133
0.9011203 0.9947447 0.9011062
0.9011108 0.9947732 0.9008422
0.9008442 0.9954511 0.8938777
0.9996552 0.9996554 0.8853000
0.1379966 0.1379971 0.2167521
0.2398644 0.1675492 0.2398631
0.4875648 0.3156729 0.3310503
0.7335934 0.5403021 0.5411932
0.9839483 0.8136905 0.8137065
0.1991606 0.2555483 0.2555459
0.2500000 0.2500000 0.2500000
0.4916983 0.3167106 0.3167051
0.7336356 0.5413482 0.5413390
0.9839497 0.8137198 0.8137109
0.3961769 0.5001501 0.4016608
0.3952019 0.5000966 0.3951951
0.5024725 0.5024727 0.3759125
0.7347181 0.5727342 0.5461525
0.9839990 0.8147999 0.8138749
0.6333594 0.7435541 0.6336151
0.6333496 0.7435862 0.6333413
0.6328900 0.7447811 0.6215863
0.7495791 0.7495793 0.6155378
0.9850958 0.8367742 0.8176284
0.9011216 0.9947439 0.9011212
0.9011214 0.9947447 0.9011141
0.9011118 0.9947731 0.9008502
0.9008453 0.9954510 0.8938869
0.9996553 0.9996555 0.8853001
0.3207836 0.3207845 0.4428863
0.3305593 0.3230114 0.4447527
0.4797711 0.3734426 0.4797692
0.7325192 0.5454726 0.5721250
0.9841276 0.8129743 0.8139213
0.3279962 0.3354004 0.4486907
0.3287894 0.3287902 0.4519995
0.4821796 0.3756538 0.4821779
0.7327721 0.5455730 0.5717012
0.9841352 0.8129782 0.8139004
0.4230730 0.5022464 0.5022431
0.4229165 0.5020820 0.5020789
0.5000000 0.5000000 0.5000000
0.7417016 0.5495026 0.5494975
0.9841990 0.8140104 0.8140016
0.6348317 0.7434698 0.6440674
0.6348245 0.7435016 0.6438459
0.6344724 0.7446826 0.6344653
0.7496734 0.7496735 0.6156346
0.9852761 0.8362467 0.8177392
0.9011603 0.9947419 0.9014125
0.9011600 0.9947426 0.9014055
0.9011506 0.9947711 0.9011433
0.9008860 0.9954488 0.8942289
0.9996575 0.9996577 0.8853026
0.5318057 0.5318068 0.6687268
0.5322978 0.5319035 0.6688248
0.5502736 0.5366457 0.6724765
0.7139307 0.5998093 0.7139288
0.9833781 0.8163114 0.8353095
0.5322071 0.5326030 0.6690251
0.5322732 0.5322744 0.6691992
0.5503624 0.5370439 0.6729070
0.7141170 0.5999980 0.7141151
0.9833856 0.8163156 0.8352972
0.5473153 0.5604458 0.6804071
0.5474583 0.5603012 0.6806464
0.5544380 0.5544389 0.6914761
0.7208406 0.6068177 0.7208390
0.9836642 0.8164731 0.8348362
0.6601053 0.7422163 0.7422131
0.6601312 0.7422417 0.7422385
0.6610885 0.7431790 0.7431761
0.7500000 0.7500000 0.7500000
0.9898371 0.8205906 0.8205845
0.9020681 0.9946937 0.9079486
0.9020679 0.9946945 0.9079425
0.9020603 0.9947227 0.9077178
0.9018412 0.9953950 0.9018346
0.9997109 0.9997111 0.8853628
0.7405549 0.7405560 0.8704623
0.7405813 0.7405710 0.8704897
0.7416384 0.7412033 0.8710597
0.7643126 0.7545977 0.8827349
0.9673366 0.8678784 0.9673350
0.7406097 0.7406223 0.8705102
0.7406361 0.7406372 0.8705376
0.7416903 0.7412667 0.8711192
0.7643548 0.7546496 0.8827837
0.9673424 0.8678848 0.9673408
0.7426060 0.7430423 0.8722551
0.7426318 0.7430567 0.8722819
0.7435856 0.7435867 0.8732712
0.7658965 0.7565526 0.8845688
0.9675596 0.8681239 0.9675580
0.7769507 0.7862892 0.9015046
0.7769674 0.7862970 0.9015225
0.7775870 0.7865833 0.9021862
0.7922567 0.7922577 0.9179708
0.9725046 0.8735714 0.9725031
0.9245521 0.9936480 0.9936454
0.9245528 0.9936486 0.9936460
0.9245772 0.9936712 0.9936686
0.9251542 0.9942049 0.9942024
1.0000000 1.0000000 1.0000000
