release/datafiles/colormanagement/luts/luminance_compensation_bt2020.cube
TITLE "Offset the negative values in BT.2020 and compensate for luminance"
# Lower Side of Guard Rail Formation for BT.2020 medium.
# Modified from python script shared by Sakari Kapanen
# This LUT assumes input and output to be E Gamut encoded in Log2 (-10 stop to +15 stop)
# LUT resolution 37
LUT_3D_SIZE 7
-0.0000000 0.0000000 -0.0000000
0.1656912 0.0258852 0.0258825
0.3307688 0.1909671 0.1909605
0.4973457 0.3575443 0.3575374
0.6640074 0.5242059 0.5241991
0.8306738 0.6908723 0.6908655
0.9973404 0.8575390 0.8575321
0.0294880 0.1674066 0.0294855
0.1703219 0.1703220 0.0664845
0.3314803 0.2184003 0.1944648
0.4973897 0.3594532 0.3577408
0.6640099 0.5243138 0.5242104
0.8306739 0.6908783 0.6908661
0.9973404 0.8575393 0.8575322
0.1972238 0.3351388 0.1972180
0.2232885 0.3353057 0.1999805
0.3386614 0.3386615 0.2348241
0.4981219 0.3861503 0.3612488
0.6640539 0.5262191 0.5244138
0.8306764 0.6909862 0.6908774
0.9973406 0.8575453 0.8575328
0.3639494 0.5018642 0.3639434
0.3657532 0.5018735 0.3641006
0.3911073 0.5020426 0.3668500
0.5054198 0.5054199 0.4015825
0.6647872 0.5528766 0.5279220
0.8307204 0.6928913 0.6910808
0.9973430 0.8576532 0.8575441
0.5306194 0.6685342 0.5306134
0.5307213 0.6685347 0.5306221
0.5325216 0.6685440 0.5307793
0.5578373 0.6687132 0.5335279
0.6720916 0.6720917 0.5682542
0.8314538 0.7195466 0.6945891
0.9973871 0.8595583 0.8577475
0.6972862 0.8352010 0.6972802
0.6972919 0.8352010 0.6972807
0.6973938 0.8352016 0.6972895
0.6991939 0.8352109 0.6974466
0.7245075 0.8353800 0.7001952
0.8387585 0.8387586 0.7349212
0.9981205 0.8862134 0.8612558
0.8639529 1.0018677 0.8639469
0.8639532 1.0018677 0.8639469
0.8639589 1.0018677 0.8639474
0.8640608 1.0018682 0.8639562
0.8658609 1.0018776 0.8641133
0.8911744 1.0020467 0.8668619
1.0054252 1.0054253 0.9015879
0.0455213 0.0455219 0.1498326
0.1647908 0.0649222 0.1647901
0.3321509 0.1352821 0.1892075
0.4973928 0.3556570 0.3574241
0.6640099 0.5241028 0.5241927
0.8306739 0.6908666 0.6908651
0.9973404 0.8575387 0.8575321
0.0461936 0.1680989 0.1680984
0.1666667 0.1666667 0.1666667
0.3323579 0.1925519 0.1925492
0.4974355 0.3576338 0.3576272
0.6640124 0.5242109 0.5242041
0.8306741 0.6908726 0.6908657
0.9973405 0.8575390 0.8575321
0.1426136 0.3339501 0.1931276
0.1961547 0.3340733 0.1961522
0.3369885 0.3369886 0.2331512
0.4981470 0.3850669 0.3611315
0.6640564 0.5261199 0.5244074
0.8306765 0.6909805 0.6908771
0.9973406 0.8575450 0.8575328
0.3620228 0.5017963 0.3637267
0.3638905 0.5018055 0.3638847
0.3899552 0.5019724 0.3666472
0.5053280 0.5053282 0.4014907
0.6647886 0.5528170 0.5279155
0.8307206 0.6928858 0.6910805
0.9973431 0.8576529 0.8575441
0.5305140 0.6685304 0.5306013
0.5306161 0.6685309 0.5306101
0.5324198 0.6685402 0.5307673
0.5577740 0.6687093 0.5335167
0.6720864 0.6720866 0.5682491
0.8314539 0.7195432 0.6945887
0.9973871 0.8595580 0.8577475
0.6972804 0.8352008 0.6972796
0.6972861 0.8352008 0.6972800
0.6973880 0.8352014 0.6972888
0.6991883 0.8352107 0.6974459
0.7245040 0.8353798 0.7001946
0.8387582 0.8387584 0.7349209
0.9981205 0.8862132 0.8612557
0.8639526 1.0018677 0.8639469
0.8639529 1.0018677 0.8639469
0.8639586 1.0018677 0.8639474
0.8640605 1.0018682 0.8639561
0.8658606 1.0018776 0.8641133
0.8911742 1.0020467 0.8668619
1.0054252 1.0054253 0.9015878
0.2018270 0.2018278 0.3061386
0.2192084 0.2055342 0.3095982
0.3306264 0.2307575 0.3306253
0.4988067 0.2962091 0.3556826
0.6640571 0.5222117 0.5240794
0.8306765 0.6907634 0.6908588
0.9973406 0.8575329 0.8575317
0.1947541 0.2126063 0.3138327
0.2121880 0.2121885 0.3164993
0.3314575 0.2315889 0.3314567
0.4988175 0.3019488 0.3558741
0.6640595 0.5223237 0.5240908
0.8306766 0.6907695 0.6908594
0.9973406 0.8575333 0.8575318
0.2139886 0.3358942 0.3358933
0.2128603 0.3347655 0.3347651
0.3333333 0.3333333 0.3333333
0.4990245 0.3592185 0.3592158
0.6641022 0.5243005 0.5242938
0.8306791 0.6908776 0.6908707
0.9973407 0.8575393 0.8575324
0.3041299 0.5006101 0.3596208
0.3092802 0.5006167 0.3597942
0.3628214 0.5007400 0.3628189
0.5036552 0.5036553 0.3998179
0.6648137 0.5517336 0.5277981
0.8307230 0.6927865 0.6910741
0.9973432 0.8576472 0.8575438
0.5285836 0.6684624 0.5303846
0.5286895 0.6684630 0.5303934
0.5305572 0.6684721 0.5305513
0.5566219 0.6686391 0.5333138
0.6719947 0.6719949 0.5681574
0.8314552 0.7194837 0.6945821
0.9973872 0.8595525 0.8577471
0.6971750 0.8351970 0.6972675
0.6971807 0.8351970 0.6972680
0.6972828 0.8351976 0.6972768
0.6990865 0.8352069 0.6974339
0.7244406 0.8353759 0.7001834
0.8387531 0.8387533 0.7349158
0.9981206 0.8862099 0.8612554
0.8639467 1.0018675 0.8639462
0.8639470 1.0018675 0.8639462
0.8639527 1.0018675 0.8639467
0.8640546 1.0018680 0.8639555
0.8658549 1.0018773 0.8641126
0.8911707 1.0020465 0.8668613
1.0054249 1.0054250 0.9015876
0.3678583 0.3678591 0.4721698
0.3689445 0.3680908 0.4723878
0.3861552 0.3718477 0.4758987
0.4972464 0.3973775 0.4972454
0.6654728 0.4625388 0.5223386
0.8307236 0.6888721 0.6907455
0.9973431 0.8574298 0.8575254
0.3673947 0.3682660 0.4725905
0.3684937 0.3684945 0.4728053
0.3858750 0.3722009 0.4762649
0.4972931 0.3974242 0.4972920
0.6654734 0.4628758 0.5223493
0.8307238 0.6888783 0.6907461
0.9973431 0.8574301 0.8575254
0.3612324 0.3798890 0.4803190
0.3614208 0.3792730 0.4804994
0.3788546 0.3788552 0.4831659
0.4981242 0.3982555 0.4981234
0.6654842 0.4686155 0.5225408
0.8307261 0.6889904 0.6907574
0.9973433 0.8574361 0.8575261
0.3807174 0.5026230 0.5026222
0.3806552 0.5025608 0.5025600
0.3795270 0.5014322 0.5014317
0.5000000 0.5000000 0.5000000
0.6656912 0.5258852 0.5258825
0.8307688 0.6909671 0.6909605
0.9973457 0.8575443 0.8575374
0.4704958 0.6672764 0.5262778
0.4707966 0.6672767 0.5262874
0.4759469 0.6672834 0.5264609
0.5294880 0.6674066 0.5294855
0.6703219 0.6703220 0.5664845
0.8314803 0.7184003 0.6944648
0.9973897 0.8594532 0.8577408
0.6952444 0.8351291 0.6970508
0.6952503 0.8351291 0.6970513
0.6953561 0.8351296 0.6970601
0.6972238 0.8351388 0.6972180
0.7232885 0.8353057 0.6999805
0.8386614 0.8386615 0.7348241
0.9981219 0.8861503 0.8612488
0.8638413 1.0018637 0.8639342
0.8638416 1.0018637 0.8639342
0.8638473 1.0018637 0.8639347
0.8639494 1.0018642 0.8639434
0.8657532 1.0018735 0.8641006
0.8911073 1.0020426 0.8668500
1.0054198 1.0054199 0.9015825
0.5344893 0.5344902 0.6388009
0.5345502 0.5345032 0.6388131
0.5356357 0.5347350 0.6390313
0.5528372 0.5384947 0.6425450
0.6639105 0.5640416 0.6639094
0.8321394 0.6291866 0.6890047
0.9973903 0.8555384 0.8574121
0.5344640 0.5345128 0.6388243
0.5345249 0.5345258 0.6388365
0.5356111 0.5347575 0.6390545
0.5528218 0.5385143 0.6425654
0.6639131 0.5640442 0.6639120
0.8321394 0.6292054 0.6890053
0.9973903 0.8555388 0.8574121
0.5339997 0.5349198 0.6392451
0.5340614 0.5349326 0.6392571
0.5351604 0.5351612 0.6394719
0.5525417 0.5388676 0.6429316
0.6639597 0.5640908 0.6639587
0.8321400 0.6295425 0.6890160
0.9973904 0.8555450 0.8574128
0.5278887 0.5465897 0.6469759
0.5278990 0.5465557 0.6469857
0.5280874 0.5459396 0.6471661
0.5455213 0.5455219 0.6498326
0.6647908 0.5649222 0.6647901
0.8321509 0.6352821 0.6892075
0.9973928 0.8556570 0.8574241
0.5473875 0.6692931 0.6692923
0.5473841 0.6692897 0.6692889
0.5473219 0.6692275 0.6692267
0.5461936 0.6680989 0.6680984
0.6666667 0.6666667 0.6666667
0.8323579 0.6925519 0.6925492
0.9974355 0.8576338 0.8576272
0.6371457 0.8339430 0.6929439
0.6371625 0.8339430 0.6929444
0.6374633 0.8339434 0.6929541
0.6426136 0.8339501 0.6931276
0.6961547 0.8340733 0.6961522
0.8369885 0.8369886 0.7331512
0.9981470 0.8850669 0.8611315
0.8619108 1.0017957 0.8637174
0.8619111 1.0017957 0.8637174
0.8619170 1.0017958 0.8637179
0.8620228 1.0017963 0.8637267
0.8638905 1.0018055 0.8638847
0.8899552 1.0019724 0.8666472
1.0053280 1.0053282 0.9014907
0.7011540 0.7011549 0.8054656
0.7011574 0.7011556 0.8054663
0.7012183 0.7011686 0.8054785
0.7023038 0.7014005 0.8056967
0.7195047 0.7051603 0.8092106
0.8305770 0.7307081 0.8305760
0.9988061 0.7958522 0.8556713
0.7011526 0.7011561 0.8054669
0.7011560 0.7011569 0.8054676
0.7012169 0.7011698 0.8054798
0.7023024 0.7014017 0.8056979
0.7195038 0.7051614 0.8092117
0.8305772 0.7307083 0.8305761
0.9988061 0.7958533 0.8556714
0.7011273 0.7011787 0.8054903
0.7011306 0.7011795 0.8054910
0.7011916 0.7011924 0.8055032
0.7022778 0.7014241 0.8057211
0.7194885 0.7051810 0.8092321
0.8305798 0.7307109 0.8305787
0.9988061 0.7958721 0.8556720
0.7006629 0.7015858 0.8059111
0.7006664 0.7015865 0.8059118
0.7007280 0.7015993 0.8059238
0.7018270 0.7018278 0.8061386
0.7192084 0.7055342 0.8095982
0.8306264 0.7307575 0.8306253
0.9988067 0.7962091 0.8556826
0.6945548 0.7132583 0.8136420
0.6945554 0.7132564 0.8136425
0.6945657 0.7132223 0.8136524
0.6947541 0.7126063 0.8138327
0.7121880 0.7121885 0.8164993
0.8314575 0.7315889 0.8314567
0.9988175 0.8019488 0.8558741
0.7140544 0.8359600 0.8359592
0.7140542 0.8359598 0.8359590
0.7140507 0.8359564 0.8359555
0.7139886 0.8358942 0.8358933
0.7128603 0.8347655 0.8347651
0.8333333 0.8333333 0.8333333
0.9990245 0.8592185 0.8592158
0.8038114 1.0006097 0.8596105
0.8038124 1.0006097 0.8596106
0.8038291 1.0006097 0.8596111
0.8041299 1.0006101 0.8596208
0.8092802 1.0006167 0.8597942
0.8628214 1.0007400 0.8628189
1.0036552 1.0036553 0.8998179
0.8678206 0.8678214 0.9721322
0.8678208 0.8678215 0.9721322
0.8678242 0.8678222 0.9721329
0.8678851 0.8678352 0.9721451
0.8689705 0.8680671 0.9723633
0.8861714 0.8718269 0.9758772
0.9972437 0.8973748 0.9972426
0.8678205 0.8678215 0.9721322
0.8678207 0.8678215 0.9721323
0.8678241 0.8678223 0.9721330
0.8678850 0.8678352 0.9721452
0.8689705 0.8680671 0.9723633
0.8861714 0.8718269 0.9758773
0.9972437 0.8973748 0.9972426
0.8678191 0.8678228 0.9721335
0.8678193 0.8678228 0.9721336
0.8678227 0.8678235 0.9721343
0.8678836 0.8678365 0.9721465
0.8689691 0.8680684 0.9723646
0.8861705 0.8718280 0.9758784
0.9972438 0.8973749 0.9972428
0.8677937 0.8678454 0.9721569
0.8677939 0.8678454 0.9721570
0.8677973 0.8678461 0.9721576
0.8678583 0.8678591 0.9721698
0.8689445 0.8680908 0.9723878
0.8861552 0.8718477 0.9758987
0.9972464 0.8973775 0.9972454
0.8673294 0.8682524 0.9725777
0.8673296 0.8682524 0.9725778
0.8673330 0.8682531 0.9725784
0.8673947 0.8682660 0.9725905
0.8684937 0.8684945 0.9728053
0.8858750 0.8722009 0.9762649
0.9972931 0.8974242 0.9972920
0.8612215 0.8799251 0.9803086
0.8612215 0.8799249 0.9803086
0.8612221 0.8799231 0.9803092
0.8612324 0.8798890 0.9803190
0.8614208 0.8792730 0.9804994
0.8788546 0.8788552 0.9831659
0.9981242 0.8982555 0.9981234
0.8807211 1.0026267 1.0026259
0.8807211 1.0026267 1.0026258
0.8807209 1.0026265 1.0026256
0.8807174 1.0026230 1.0026222
0.8806552 1.0025608 1.0025600
0.8795270 1.0014322 1.0014317
1.0000000 1.0000000 1.0000000
