release/datafiles/colormanagement/luts/luminance_compensation_p3.cube
TITLE "Offset the negative values in P3 and compensate for luminance"
# Lower Side of Guard Rail Formation for P3 medium.
# Modified from python script shared by Sakari Kapanen
# This LUT assumes E Gamut encoded in ST2084 (100) curve and then power 0.6
# LUT resolution 37
LUT_3D_SIZE 37
0.0000000 0.0000000 0.0000000
0.0268859 0.0113659 0.0113655
0.0537630 0.0232065 0.0232056
0.0806857 0.0360109 0.0360094
0.1076502 0.0497004 0.0496985
0.1346520 0.0642104 0.0642079
0.1616873 0.0794908 0.0794879
0.1887529 0.0955026 0.0954991
0.2158462 0.1122139 0.1122100
0.2429648 0.1295987 0.1295943
0.2701068 0.1476346 0.1476298
0.2972702 0.1663026 0.1662974
0.3244534 0.1855863 0.1855807
0.3516548 0.2054709 0.2054649
0.3788729 0.2259434 0.2259370
0.4061061 0.2469920 0.2469853
0.4333529 0.2686060 0.2685989
0.4606118 0.2907753 0.2907679
0.4878811 0.3134908 0.3134831
0.5151591 0.3367437 0.3367357
0.5424439 0.3605255 0.3605173
0.5697335 0.3848283 0.3848198
0.5970254 0.4096438 0.4096352
0.6243170 0.4349640 0.4349552
0.6516051 0.4607807 0.4607717
0.6788861 0.4870851 0.4870760
0.7061554 0.5138678 0.5138586
0.7334077 0.5411184 0.5411090
0.7586256 0.5667628 0.5667535
0.7864543 0.5955360 0.5955266
0.8145461 0.6250820 0.6250726
0.8426799 0.6551723 0.6551629
0.8708544 0.6858046 0.6857953
0.8990689 0.7169768 0.7169675
0.9273224 0.7486866 0.7486774
0.9556140 0.7809323 0.7809232
0.9839429 0.8137119 0.8137031
0.0174378 0.0286055 0.0174371
0.0286087 0.0286087 0.0156703
0.0544917 0.0325146 0.0247784
0.0810246 0.0409337 0.0367270
0.1078241 0.0524380 0.0500770
0.1347489 0.0658246 0.0644267
0.1617447 0.0804900 0.0796223
0.1887885 0.0961446 0.0955853
0.2158689 0.1126385 0.1122670
0.2429798 0.1298857 0.1296328
0.2701168 0.1478320 0.1476563
0.2972770 0.1664403 0.1663159
0.3244581 0.1856833 0.1855937
0.3516581 0.2055398 0.2054742
0.3788752 0.2259927 0.2259437
0.4061077 0.2470274 0.2469901
0.4333540 0.2686315 0.2686024
0.4606126 0.2907938 0.2907705
0.4878817 0.3135042 0.3134850
0.5151595 0.3367534 0.3367371
0.5424442 0.3605325 0.3605183
0.5697337 0.3848333 0.3848205
0.5970255 0.4096474 0.4096357
0.6243171 0.4349667 0.4349556
0.6516052 0.4607826 0.4607720
0.6788861 0.4870864 0.4870762
0.7061554 0.5138687 0.5138587
0.7334077 0.5411190 0.5411091
0.7586256 0.5667633 0.5667535
0.7864543 0.5955364 0.5955267
0.8145462 0.6250822 0.6250726
0.8426799 0.6551725 0.6551629
0.8708544 0.6858047 0.6857953
0.8990689 0.7169768 0.7169675
0.9273224 0.7486867 0.7486774
0.9556140 0.7809323 0.7809232
0.9839429 0.8137120 0.8137031
0.0354506 0.0569791 0.0354493
0.0345125 0.0561585 0.0273640
0.0570427 0.0570427 0.0319611
0.0825956 0.0599025 0.0407619
0.1087878 0.0657886 0.0523959
0.1353343 0.0748160 0.0658181
0.1621059 0.0864748 0.0804918
0.1890168 0.1001471 0.0961474
0.2160167 0.1153455 0.1126402
0.2430774 0.1317399 0.1298860
0.2701824 0.1491174 0.1478309
0.2973218 0.1673408 0.1664380
0.3244890 0.1863198 0.1856799
0.3516796 0.2059929 0.2055356
0.3788903 0.2263171 0.2259877
0.4061184 0.2472608 0.2470218
0.4333616 0.2687999 0.2686253
0.4606180 0.2909156 0.2907871
0.4878855 0.3135923 0.3134970
0.5151623 0.3368172 0.3367458
0.5424462 0.3605788 0.3605247
0.5697351 0.3848667 0.3848251
0.5970265 0.4096716 0.4096390
0.6243178 0.4349840 0.4349580
0.6516057 0.4607950 0.4607737
0.6788865 0.4870953 0.4870774
0.7061557 0.5138750 0.5138596
0.7334079 0.5411235 0.5411098
0.7586257 0.5667663 0.5667539
0.7864544 0.5955386 0.5955270
0.8145462 0.6250837 0.6250728
0.8426799 0.6551735 0.6551631
0.8708545 0.6858054 0.6857954
0.8990689 0.7169773 0.7169676
0.9273224 0.7486870 0.7486775
0.9556140 0.7809325 0.7809233
0.9839429 0.8137121 0.8137031
0.0542758 0.0851943 0.0542740
0.0536991 0.0848593 0.0514255
0.0618748 0.0843173 0.0436855
0.0853457 0.0853458 0.0491639
0.1107003 0.0878325 0.0579818
0.1366768 0.0925634 0.0694584
0.1630193 0.0999690 0.0828741
0.1896285 0.1100311 0.0977275
0.2164261 0.1224386 0.1137049
0.2433533 0.1367858 0.1306143
0.2703701 0.1527006 0.1483358
0.2974507 0.1698901 0.1667920
0.3245784 0.1881397 0.1859305
0.3517421 0.2072971 0.2057142
0.3789343 0.2272550 0.2261158
0.4061495 0.2479373 0.2471141
0.4333837 0.2692890 0.2686921
0.4606338 0.2912698 0.2908355
0.4878968 0.3138490 0.3135322
0.5151703 0.3370033 0.3367713
0.5424520 0.3607135 0.3605432
0.5697392 0.3849642 0.3848386
0.5970295 0.4097419 0.4096487
0.6243199 0.4350346 0.4349650
0.6516072 0.4608313 0.4607788
0.6788876 0.4871212 0.4870810
0.7061565 0.5138934 0.5138622
0.7334084 0.5411365 0.5411116
0.7586259 0.5667753 0.5667550
0.7864547 0.5955450 0.5955280
0.8145465 0.6250881 0.6250735
0.8426801 0.6551765 0.6551635
0.8708546 0.6858075 0.6857957
0.8990690 0.7169786 0.7169678
0.9273224 0.7486879 0.7486776
0.9556140 0.7809331 0.7809234
0.9839429 0.8137124 0.8137031
0.0737989 0.1132919 0.0737964
0.0735206 0.1131392 0.0724436
0.0715100 0.1121433 0.0602971
0.0898018 0.1124475 0.0611189
0.1135499 0.1135500 0.0671616
0.1387617 0.1158417 0.0760951
0.1645808 0.1199394 0.0875322
0.1907681 0.1263185 0.1009606
0.2172366 0.1351791 0.1159470
0.2439216 0.1464503 0.1321760
0.2707667 0.1598840 0.1494308
0.2977277 0.1751643 0.1675653
0.3247725 0.1919866 0.1864803
0.3518787 0.2100944 0.2061075
0.3790308 0.2292869 0.2263985
0.4062180 0.2494130 0.2473182
0.4334325 0.2703610 0.2688397
0.4606686 0.2920485 0.2909426
0.4879217 0.3144147 0.3136099
0.5151882 0.3374139 0.3368278
0.5424648 0.3610112 0.3605842
0.5697484 0.3851797 0.3848683
0.5970361 0.4098974 0.4096702
0.6243246 0.4351466 0.4349806
0.6516106 0.4609116 0.4607900
0.6788899 0.4871786 0.4870890
0.7061581 0.5139342 0.5138679
0.7334096 0.5411652 0.5411156
0.7586264 0.5667951 0.5667575
0.7864554 0.5955591 0.5955301
0.8145469 0.6250979 0.6250750
0.8426804 0.6551832 0.6551646
0.8708548 0.6858120 0.6857964
0.8990691 0.7169816 0.7169682
0.9273225 0.7486898 0.7486779
0.9556141 0.7809344 0.7809236
0.9839430 0.8137133 0.8137033
0.0939376 0.1412947 0.0939346
0.0937867 0.1412170 0.0931955
0.0927497 0.1407073 0.0876705
0.0967690 0.1399830 0.0754407
0.1178162 0.1405294 0.0794016
0.1416737 0.1416738 0.0858691
0.1667741 0.1438426 0.0949552
0.1924683 0.1475441 0.1064244
0.2185327 0.1532374 0.1198986
0.2448838 0.1612149 0.1350096
0.2714666 0.1715563 0.1514571
0.2982305 0.1841539 0.1690152
0.3251315 0.1987803 0.1875203
0.3521346 0.2151625 0.2068557
0.3792133 0.2330356 0.2269385
0.4063483 0.2521706 0.2477089
0.4335257 0.2723823 0.2691231
0.4607353 0.2935263 0.2911483
0.4879695 0.3154929 0.3137595
0.5152225 0.3381990 0.3369365
0.5424894 0.3615817 0.3606632
0.5697661 0.3855932 0.3849256
0.5970487 0.4101964 0.4097117
0.6243337 0.4353620 0.4350105
0.6516170 0.4610662 0.4608115
0.6788945 0.4872889 0.4871045
0.7061614 0.5140126 0.5138789
0.7334119 0.5412206 0.5411235
0.7586273 0.5668332 0.5667623
0.7864568 0.5955865 0.5955343
0.8145479 0.6251167 0.6250778
0.8426810 0.6551960 0.6551665
0.8708552 0.6858206 0.6857977
0.8990694 0.7169874 0.7169691
0.9273227 0.7486936 0.7486785
0.9556142 0.7809368 0.7809239
0.9839431 0.8137148 0.8137035
0.1146319 0.1692173 0.1146284
0.1145441 0.1691750 0.1141924
0.1139524 0.1688967 0.1111308
0.1120911 0.1680956 0.0996855
0.1241412 0.1679480 0.0939141
0.1458259 0.1685602 0.0984084
0.1697292 0.1697293 0.1052233
0.1947383 0.1718114 0.1144768
0.2203290 0.1752420 0.1260220
0.2462919 0.1804515 0.1395720
0.2725443 0.1877705 0.1548131
0.2990369 0.1973697 0.1714657
0.3257249 0.2092479 0.1893030
0.3525665 0.2232654 0.2081510
0.3795257 0.2391997 0.2278797
0.4065736 0.2568001 0.2483931
0.4336879 0.2758271 0.2696209
0.4608520 0.2960724 0.2915107
0.4880535 0.3173650 0.3140232
0.5152829 0.3395699 0.3371284
0.5425328 0.3625819 0.3608027
0.5697972 0.3863203 0.3850269
0.5970711 0.4107230 0.4097851
0.6243496 0.4357419 0.4350635
0.6516284 0.4613391 0.4608496
0.6789026 0.4874840 0.4871318
0.7061671 0.5141513 0.5138984
0.7334160 0.5413186 0.5411373
0.7586290 0.5669006 0.5667708
0.7864593 0.5956348 0.5955416
0.8145496 0.6251501 0.6250829
0.8426822 0.6552188 0.6551699
0.8708560 0.6858360 0.6858000
0.8990699 0.7169977 0.7169706
0.9273230 0.7487004 0.7486795
0.9556144 0.7809412 0.7809246
0.9839432 0.8137176 0.8137039
0.1358352 0.1970699 0.1358313
0.1357817 0.1970458 0.1355610
0.1354243 0.1968870 0.1337152
0.1343382 0.1964273 0.1276129
0.1329419 0.1955325 0.1100647
0.1517520 0.1958823 0.1131397
0.1738056 0.1965419 0.1180627
0.1977250 0.1977252 0.1251756
0.2226567 0.1997412 0.1346016
0.2481590 0.2029746 0.1462511
0.2740356 0.2078275 0.1599010
0.3002038 0.2146449 0.1752824
0.3266171 0.2236526 0.1921365
0.3532358 0.2349278 0.2102404
0.3800208 0.2484065 0.2294139
0.4069363 0.2639205 0.2495170
0.4339521 0.2812459 0.2704429
0.4610436 0.3001453 0.2921112
0.4881921 0.3203972 0.3144616
0.5153829 0.3418104 0.3374480
0.5426049 0.3642272 0.3610353
0.5698491 0.3875221 0.3851959
0.5971083 0.4115964 0.4099075
0.6243763 0.4363736 0.4351520
0.6516475 0.4617936 0.4609134
0.6789162 0.4878093 0.4871775
0.7061768 0.5143827 0.5139310
0.7334228 0.5414822 0.5411604
0.7586317 0.5670134 0.5667850
0.7864634 0.5957156 0.5955538
0.8145523 0.6252058 0.6250913
0.8426840 0.6552568 0.6551757
0.8708572 0.6858617 0.6858039
0.8990707 0.7170148 0.7169732
0.9273236 0.7487116 0.7486812
0.9556147 0.7809485 0.7809257
0.9839434 0.8137222 0.8137046
0.1575106 0.2248600 0.1575062
0.1574769 0.2248459 0.1573328
0.1572527 0.2247525 0.1561647
0.1565830 0.2244814 0.1525076
0.1550074 0.2238894 0.1426957
0.1598767 0.2233930 0.1295421
0.1794630 0.2237833 0.1330299
0.2017479 0.2244772 0.1383107
0.2256676 0.2256677 0.1456869
0.2505318 0.2276308 0.1552863
0.2759572 0.2307137 0.1670585
0.3017588 0.2352945 0.1808276
0.3278538 0.2417218 0.1963604
0.3541974 0.2502561 0.2134178
0.3807534 0.2610314 0.2317825
0.4074854 0.2740467 0.2512714
0.4343586 0.2891855 0.2717364
0.4613421 0.3062552 0.2930619
0.4884099 0.3250290 0.3151583
0.5155412 0.3452797 0.3379575
0.5427194 0.3668007 0.3614070
0.5699317 0.3894158 0.3854663
0.5971678 0.4129802 0.4101037
0.6244190 0.4373783 0.4352939
0.6516780 0.4625186 0.4610156
0.6789379 0.4883293 0.4872508
0.7061922 0.5147532 0.5139833
0.7334336 0.5417444 0.5411975
0.7586361 0.5671941 0.5668078
0.7864700 0.5958452 0.5955734
0.8145568 0.6252952 0.6251048
0.8426870 0.6553179 0.6551849
0.8708592 0.6859029 0.6858101
0.8990720 0.7170423 0.7169774
0.9273244 0.7487297 0.7486840
0.9556153 0.7809602 0.7809274
0.9839437 0.8137297 0.8137057
0.1796277 0.2525933 0.1796228
0.1796059 0.2525848 0.1795086
0.1794615 0.2525288 0.1787454
0.1790342 0.2523659 0.1764222
0.1780528 0.2520083 0.1706850
0.1760074 0.2513347 0.1563300
0.1871113 0.2512288 0.1496859
0.2072141 0.2516504 0.1535242
0.2296509 0.2523690 0.1591116
0.2535618 0.2535619 0.1667251
0.2783662 0.2554806 0.1764967
0.3037236 0.2584445 0.1884042
0.3294589 0.2628120 0.2023076
0.3554893 0.2689305 0.2180028
0.3817712 0.2770834 0.2352680
0.4082704 0.2874472 0.2538924
0.4349534 0.3000716 0.2736913
0.4617865 0.3148870 0.2945107
0.4887384 0.3317331 0.3162268
0.5157820 0.3503976 0.3387423
0.5428949 0.3706529 0.3619814
0.5700590 0.3922816 0.3858853
0.5972597 0.4150914 0.4104082
0.6244851 0.4389204 0.4355143
0.6517253 0.4636363 0.4611745
0.6789717 0.4891333 0.4873649
0.7062162 0.5153275 0.5140647
0.7334506 0.5421514 0.5412553
0.7586429 0.5674750 0.5668432
0.7864803 0.5960469 0.5956040
0.8145638 0.6254344 0.6251259
0.8426917 0.6554130 0.6551993
0.8708623 0.6859672 0.6858199
0.8990741 0.7170851 0.7169839
0.9273257 0.7487579 0.7486882
0.9556161 0.7809784 0.7809302
0.9839443 0.8137413 0.8137075
0.2021606 0.2802741 0.2021554
0.2021463 0.2802689 0.2020788
0.2020516 0.2802349 0.2015687
0.2017725 0.2801359 0.2000404
0.2011403 0.2799179 0.1964234
0.1998624 0.2795040 0.1883514
0.1973724 0.2787947 0.1683507
0.2145139 0.2790384 0.1704372
0.2349758 0.2794840 0.1745775
0.2575152 0.2802200 0.1804329
0.2814115 0.2814116 0.1882632
0.3061619 0.2832918 0.1982046
0.3314585 0.2861590 0.2102563
0.3571344 0.2903554 0.2243061
0.3831073 0.2962262 0.2401740
0.4093338 0.3040704 0.2576531
0.4357818 0.3140968 0.2765388
0.4624195 0.3263971 0.2966459
0.4892147 0.3409424 0.3178156
0.5161360 0.3576034 0.3399170
0.5431555 0.3761845 0.3628453
0.5702493 0.3964604 0.3865176
0.5973978 0.4182060 0.4108690
0.6245848 0.4412152 0.4358485
0.6517969 0.4653103 0.4614158
0.6790229 0.4903434 0.4875382
0.7062526 0.5161946 0.5141885
0.7334763 0.5427677 0.5413432
0.7586532 0.5679010 0.5668973
0.7864960 0.5963531 0.5956505
0.8145744 0.6256460 0.6251580
0.8426989 0.6555577 0.6552212
0.8708671 0.6860649 0.6858346
0.8990772 0.7171503 0.7169937
0.9273277 0.7488008 0.7486947
0.9556174 0.7810062 0.7809344
0.9839451 0.8137589 0.8137102
0.2250875 0.3079058 0.2250819
0.2250780 0.3079026 0.2250297
0.2250149 0.3078819 0.2246831
0.2248298 0.3078214 0.2236542
0.2244135 0.3076880 0.2212771
0.2235865 0.3074336 0.2162670
0.2220335 0.3069928 0.2055946
0.2239361 0.3065379 0.1887239
0.2420137 0.3068213 0.1917510
0.2627327 0.3072849 0.1961546
0.2853419 0.3080326 0.2022475
0.3092198 0.3092200 0.2102780
0.3339210 0.3110657 0.2203863
0.3591625 0.3138523 0.2325885
0.3847846 0.3179093 0.2467948
0.4107057 0.3235793 0.2628449
0.4368822 0.3311728 0.2805447
0.4632835 0.3409245 0.2996955
0.4898795 0.3529608 0.3201116
0.5166390 0.3672883 0.3416301
0.5435309 0.3838062 0.3641137
0.5705264 0.4023356 0.3874507
0.5976004 0.4226551 0.4115515
0.6247319 0.4445338 0.4363449
0.6519030 0.4677535 0.4617749
0.6790989 0.4921217 0.4877965
0.7063068 0.5174755 0.5143732
0.7335147 0.5436812 0.5414745
0.7586686 0.5685342 0.5669780
0.7865194 0.5968091 0.5957200
0.8145903 0.6259616 0.6252060
0.8427095 0.6557736 0.6552540
0.8708742 0.6862109 0.6858568
0.8990819 0.7172478 0.7170085
0.9273308 0.7488649 0.7487044
0.9556193 0.7810477 0.7809407
0.9839463 0.8137853 0.8137142
0.2483891 0.3354911 0.2483831
0.2483827 0.3354892 0.2483471
0.2483402 0.3354765 0.2481086
0.2482160 0.3354396 0.2474046
0.2479379 0.3353582 0.2458015
0.2473912 0.3352025 0.2425301
0.2463857 0.3349310 0.2360478
0.2445823 0.3344903 0.2224928
0.2510675 0.3342795 0.2103293
0.2695698 0.3345775 0.2135917
0.2904765 0.3350540 0.2182269
0.3131323 0.3358087 0.2245326
0.3369892 0.3369894 0.2327494
0.3616449 0.3388038 0.2430213
0.3868361 0.3415219 0.2553787
0.4124091 0.3454636 0.2697500
0.4382829 0.3509694 0.2859910
0.4644140 0.3583597 0.3039189
0.4907725 0.3678900 0.3233397
0.5173299 0.3797162 0.3440675
0.5440558 0.3938758 0.3659354
0.5709193 0.4102939 0.3888004
0.5978909 0.4288069 0.4125438
0.6249444 0.4491982 0.4370695
0.6520572 0.4712315 0.4623006
0.6792099 0.4946776 0.4881755
0.7063861 0.5193298 0.5146447
0.7335710 0.5450108 0.5416676
0.7586913 0.5694592 0.5670967
0.7865538 0.5974774 0.5958225
0.8146137 0.6264249 0.6252767
0.8427253 0.6560911 0.6553023
0.8708846 0.6864258 0.6858894
0.8990887 0.7173913 0.7170302
0.9273352 0.7489594 0.7487187
0.9556222 0.7811089 0.7809499
0.9839480 0.8138243 0.8137200
0.2720482 0.3630320 0.2720419
0.2720438 0.3630308 0.2720169
0.2720151 0.3630232 0.2718511
0.2719310 0.3630009 0.2713637
0.2717435 0.3629517 0.2702639
0.2713771 0.3628574 0.2680630
0.2707117 0.3626924 0.2638743
0.2695468 0.3624224 0.2558559
0.2675200 0.3620061 0.2391229
0.2783358 0.3619983 0.2324608
0.2971572 0.3623071 0.2359305
0.3182021 0.3627925 0.2407709
0.3408879 0.3635502 0.2472685
0.3647218 0.3647220 0.2556595
0.3893350 0.3665071 0.2660918
0.4144798 0.3691659 0.2786080
0.4400077 0.3730111 0.2931514
0.4658379 0.3783825 0.3095916
0.4919272 0.3856085 0.3277551
0.5182463 0.3949634 0.3474519
0.5447677 0.4066280 0.3684955
0.5714618 0.4206673 0.3907151
0.5982977 0.4370289 0.4139618
0.6252453 0.4555634 0.4381107
0.6522772 0.4760578 0.4630590
0.6793693 0.4982711 0.4887239
0.7065005 0.5219631 0.5150383
0.7336525 0.5469131 0.5419481
0.7587240 0.5707896 0.5672695
0.7866037 0.5984427 0.5959715
0.8146477 0.6270960 0.6253796
0.8427481 0.6565520 0.6553726
0.8708998 0.6867383 0.6859369
0.8990987 0.7176002 0.7170619
0.9273417 0.7490970 0.7487395
0.9556263 0.7811981 0.7809634
0.9839506 0.8138810 0.8137286
0.2960495 0.3905300 0.2960430
0.2960466 0.3905293 0.2960254
0.2960270 0.3905248 0.2959094
0.2959698 0.3905116 0.2955690
0.2958425 0.3904824 0.2948056
0.2955949 0.3904265 0.2932964
0.2951488 0.3903284 0.2904934
0.2943792 0.3901670 0.2853809
0.2930763 0.3899157 0.2757790
0.2908546 0.3895455 0.2555670
0.3056971 0.3896944 0.2550906
0.3247605 0.3900106 0.2587433
0.3459068 0.3905010 0.2637661
0.3686097 0.3912583 0.2704379
0.3924192 0.3924194 0.2789923
0.4169923 0.3941766 0.2895819
0.4420940 0.3967833 0.3022594
0.4675798 0.4005470 0.3169814
0.4933697 0.4058080 0.3336288
0.5194201 0.4129029 0.3520356
0.5457025 0.4221222 0.3720151
0.5721901 0.4336695 0.3933795
0.5988538 0.4476334 0.4159541
0.6256627 0.4639816 0.4395844
0.6525858 0.4825768 0.4641386
0.6795946 0.5032084 0.4895078
0.7066633 0.5256297 0.5156028
0.7337690 0.5495893 0.5423512
0.7587708 0.5726752 0.5675181
0.7866755 0.5998190 0.5961862
0.8146966 0.6280569 0.6255281
0.8427811 0.6572137 0.6554742
0.8709218 0.6871878 0.6860056
0.8991131 0.7179012 0.7171077
0.9273510 0.7492954 0.7487697
0.9556323 0.7813268 0.7809829
0.9839544 0.8139630 0.8137410
0.3203790 0.4179861 0.3203722
0.3203770 0.4179858 0.3203599
0.3203637 0.4179832 0.3202782
0.3203247 0.4179756 0.3200391
0.3202380 0.4179589 0.3195047
0.3200698 0.4179269 0.3184568
0.3197684 0.4178706 0.3165404
0.3192534 0.4177778 0.3131450
0.3183959 0.4176324 0.3071173
0.3169774 0.4174155 0.2959045
0.3163296 0.4171590 0.2754732
0.3331223 0.4173676 0.2781956
0.3523693 0.4176883 0.2820098
0.3735888 0.4181805 0.2871950
0.3962988 0.4189344 0.2940253
0.4200826 0.4200828 0.3027335
0.4446177 0.4218130 0.3134771
0.4696789 0.4243731 0.3263182
0.4951254 0.4280676 0.3412244
0.5208773 0.4332383 0.3580865
0.5468914 0.4402303 0.3767447
0.5731391 0.4493496 0.3970140
0.5995945 0.4608200 0.4187052
0.6262287 0.4747515 0.4416391
0.6530106 0.4911290 0.4656553
0.6799083 0.5098248 0.4906154
0.7068918 0.5306291 0.5164038
0.7339335 0.5532881 0.5429251
0.7588752 0.5753467 0.5679121
0.7867777 0.6017565 0.5964930
0.8147664 0.6294173 0.6257405
0.8428282 0.6581546 0.6556196
0.8709532 0.6878288 0.6861039
0.8991338 0.7183314 0.7171734
0.9273644 0.7495795 0.7488129
0.9556408 0.7815112 0.7810109
0.9839597 0.8140805 0.8137588
0.3450238 0.4454010 0.3450168
0.3450224 0.4454008 0.3450080
0.3450133 0.4453994 0.3449503
0.3449867 0.4453953 0.3447815
0.3449276 0.4453863 0.3444054
0.3448132 0.4453691 0.3436717
0.3446089 0.4453388 0.3423435
0.3442619 0.4452888 0.3400330
0.3436903 0.4452102 0.3360665
0.3427622 0.4450922 0.3291471
0.3412515 0.4449240 0.3163201
0.3435378 0.4448063 0.2988985
0.3605915 0.4450180 0.3017560
0.3799766 0.4453405 0.3057122
0.4012472 0.4458316 0.3110420
0.4239561 0.4465793 0.3180167
0.4477130 0.4477132 0.3268699
0.4722116 0.4494168 0.3377643
0.4972346 0.4519347 0.3507708
0.5226438 0.4555699 0.3658667
0.5483598 0.4606672 0.3829508
0.5743392 0.4675810 0.4018682
0.6005539 0.4766322 0.4224350
0.6269781 0.4880634 0.4444595
0.6535833 0.5020038 0.4677576
0.6803375 0.5184528 0.4921626
0.7072081 0.5372897 0.5175293
0.7341147 0.5582538 0.5436859
0.7590826 0.5790813 0.5685324
0.7869218 0.6044487 0.5969283
0.8148653 0.6313226 0.6260424
0.8428952 0.6594799 0.6558266
0.8709979 0.6887355 0.6862441
0.8991633 0.7189416 0.7172670
0.9273835 0.7499833 0.7488745
0.9556530 0.7817737 0.7810509
0.9839674 0.8142479 0.8137842
0.3699717 0.4727746 0.3699645
0.3699708 0.4727745 0.3699583
0.3699646 0.4727739 0.3699174
0.3699465 0.4727719 0.3697979
0.3699062 0.4727677 0.3695322
0.3698284 0.4727595 0.3690157
0.3696898 0.4727451 0.3680870
0.3694555 0.4727213 0.3664910
0.3690722 0.4726840 0.3638084
0.3684573 0.4726280 0.3593024
0.3674765 0.4725480 0.3515301
0.3658980 0.4724415 0.3371144
0.3708373 0.4724329 0.3227792
0.3880909 0.4726457 0.3257545
0.4075777 0.4729675 0.3298351
0.4288812 0.4734548 0.3352933
0.4515822 0.4741937 0.3423995
0.4753111 0.4753113 0.3513895
0.4997743 0.4769884 0.3624315
0.5247609 0.4794672 0.3756049
0.5501344 0.4830514 0.3908954
0.5758159 0.4880900 0.4082087
0.6017619 0.4949474 0.4273935
0.6279445 0.5039596 0.4482656
0.6543380 0.5153873 0.4706303
0.6809137 0.5293765 0.4942979
0.7076391 0.5459388 0.5190947
0.7342941 0.5647688 0.5446806
0.7593705 0.5841264 0.5694031
0.7871233 0.6081363 0.5975415
0.8150042 0.6339601 0.6264690
0.8429895 0.6613291 0.6561197
0.8710611 0.6900080 0.6864428
0.8992050 0.7198015 0.7173999
0.9274107 0.7505540 0.7489621
0.9556703 0.7821455 0.7811076
0.9839783 0.8144854 0.8138204
0.3952113 0.5001068 0.3952038
0.3952107 0.5001068 0.3951994
0.3952065 0.5001065 0.3951705
0.3951942 0.5001059 0.3950858
0.3951669 0.5001044 0.3948976
0.3951141 0.5001016 0.3945329
0.3950204 0.5000967 0.3938800
0.3948622 0.5000886 0.3927671
0.3946049 0.5000761 0.3909225
0.3941954 0.5000576 0.3878969
0.3935508 0.5000320 0.3828925
0.3925360 0.4999999 0.3743220
0.3909142 0.4999668 0.3583763
0.3982070 0.5000388 0.3470993
0.4156106 0.5002507 0.3501760
0.4351691 0.5005694 0.3543646
0.4564904 0.5010504 0.3599363
0.4791775 0.5017780 0.3671620
0.5028773 0.5028775 0.3762809
0.5273060 0.5045276 0.3874675
0.5522573 0.5069699 0.4008089
0.5775964 0.5105098 0.4162988
0.6032443 0.5155025 0.4338485
0.6291576 0.5223232 0.4533088
0.6553082 0.5313235 0.4744944
0.6816708 0.5427815 0.4972063
0.7082160 0.5568586 0.5212486
0.7345340 0.5731933 0.5460599
0.7597653 0.5908069 0.5706159
0.7874024 0.6131064 0.5984002
0.8151979 0.6375646 0.6270686
0.8431218 0.6638833 0.6565327
0.8711501 0.6917796 0.6867234
0.8992638 0.7210056 0.7175878
0.9274490 0.7513565 0.7490860
0.9556949 0.7826698 0.7811879
0.9839937 0.8148209 0.8138715
0.4207315 0.5273967 0.4207238
0.4207310 0.5273967 0.4207207
0.4207282 0.5273967 0.4207001
0.4207199 0.5273968 0.4206401
0.4207015 0.5273969 0.4205068
0.4206659 0.5273972 0.4202488
0.4206028 0.5273977 0.4197885
0.4204966 0.5273986 0.4190082
0.4203243 0.5274004 0.4177270
0.4200517 0.5274036 0.4156581
0.4196264 0.5274098 0.4123248
0.4189663 0.5274219 0.4068718
0.4179360 0.5274464 0.3975736
0.4162963 0.5274973 0.3801933
0.4256314 0.5276238 0.3718441
0.4431432 0.5278329 0.3750070
0.4627482 0.5281464 0.3792883
0.4840742 0.5286186 0.3849593
0.5067421 0.5293324 0.3922932
0.5304115 0.5304118 0.4015334
0.5548062 0.5320342 0.4128614
0.5797232 0.5344417 0.4263720
0.6050285 0.5379429 0.4420660
0.6306433 0.5429007 0.4598590
0.6565237 0.5497027 0.4796031
0.6826420 0.5587168 0.5011104
0.7089724 0.5702379 0.5241766
0.7348475 0.5837922 0.5479538
0.7602993 0.5994529 0.5722910
0.7877847 0.6196802 0.5995943
0.8154659 0.6424179 0.6279067
0.8433062 0.6673708 0.6571122
0.8712746 0.6942243 0.6871182
0.8993465 0.7226803 0.7178527
0.9275029 0.7524788 0.7492609
0.9557294 0.7834059 0.7813015
0.9840154 0.8152934 0.8139439
0.4465213 0.5546429 0.4465135
0.4465210 0.5546429 0.4465113
0.4465191 0.5546430 0.4464968
0.4465136 0.5546435 0.4464542
0.4465013 0.5546445 0.4463598
0.4464775 0.5546464 0.4461773
0.4464354 0.5546498 0.4458524
0.4463646 0.5546556 0.4453038
0.4462500 0.5546650 0.4444088
0.4460694 0.5546799 0.4429788
0.4457894 0.5547031 0.4407141
0.4453590 0.5547393 0.4371136
0.4446975 0.5547957 0.4312701
0.4436706 0.5548850 0.4213303
0.4420384 0.5550299 0.4026495
0.4530990 0.5551875 0.3970010
0.4706833 0.5553921 0.4002356
0.4903130 0.5556982 0.4045949
0.5116321 0.5561592 0.4103519
0.5342759 0.5568569 0.4177829
0.5579137 0.5579139 0.4271371
0.5822745 0.5595075 0.4386032
0.6071575 0.5618812 0.4522840
0.6324293 0.5653484 0.4681864
0.6580105 0.5702811 0.4862298
0.6838574 0.5770812 0.5062657
0.7099421 0.5861333 0.5281028
0.7352461 0.5967378 0.5505257
0.7610096 0.6103588 0.5745830
0.7883018 0.6281890 0.6012430
0.8158331 0.6488391 0.6290719
0.8435611 0.6720681 0.6579220
0.8714480 0.6975633 0.6876719
0.8994622 0.7249919 0.7182252
0.9275787 0.7540400 0.7495073
0.9557781 0.7844356 0.7814617
0.9840461 0.8159568 0.8140460
0.4725701 0.5818434 0.4725622
0.4725699 0.5818434 0.4725606
0.4725686 0.5818437 0.4725503
0.4725650 0.5818443 0.4725202
0.4725568 0.5818457 0.4724534
0.4725412 0.5818484 0.4723245
0.4725134 0.5818532 0.4720953
0.4724667 0.5818612 0.4717093
0.4723914 0.5818741 0.4710825
0.4722729 0.5818944 0.4700882
0.4720899 0.5819255 0.4685318
0.4718106 0.5819727 0.4661031
0.4713858 0.5820438 0.4622802
