release/datafiles/colormanagement/luts/luminance_compensation_srgb.cube
TITLE "Offset the negative values in BT.709 and compensate for luminance"
# Lower Side of Guard Rail Formation for sRGB medium.
# Modified from python script shared by Sakari Kapanen
# This LUT assumes E Gamut encoded in ST2084 (100) curve and then power 0.6
# LUT resolution 37
LUT_3D_SIZE 7
0.0000000 0.0000000 0.0000000
0.1592410 0.0904399 0.0904366
0.3198365 0.2053245 0.2053185
0.4812232 0.3389584 0.3389504
0.6427681 0.4883229 0.4883138
0.8023508 0.6496741 0.6496647
0.9734476 0.8367519 0.8367431
0.1363914 0.1736102 0.1363874
0.1717537 0.1717539 0.1192979
0.3231811 0.2169837 0.2012050
0.4820322 0.3392800 0.3371232
0.6428972 0.4883951 0.4880975
0.8023720 0.6496902 0.6496469
0.9734492 0.8367532 0.8367417
0.2831258 0.3406250 0.2831194
0.2816041 0.3396115 0.2766757
0.3394843 0.3394845 0.2564537
0.4875560 0.3754408 0.3403585
0.6453222 0.4897243 0.4836046
0.8027719 0.6499927 0.6493046
0.9734797 0.8367781 0.8367141
0.4360597 0.5038506 0.4360519
0.4359351 0.5037929 0.4353791
0.4334199 0.5027202 0.4199173
0.5049718 0.5049721 0.4055691
0.6511182 0.5380717 0.4936782
0.8064566 0.6527337 0.6454888
0.9737656 0.8370114 0.8364505
0.5900582 0.6607587 0.5900500
0.5900595 0.6607688 0.5899817
0.5900827 0.6609603 0.5886589
0.5900963 0.6628293 0.5718750
0.6664900 0.6664903 0.5618433
0.8133328 0.7014450 0.6578121
0.9760547 0.8388566 0.8340221
0.7575833 0.8251308 0.7575753
0.7575839 0.8251324 0.7575682
0.7575957 0.8251616 0.7574337
0.7577039 0.8254366 0.7561255
0.7583513 0.8276696 0.7416977
0.8331471 0.8331474 0.7327131
0.9819159 0.8743807 0.8405800
0.9344149 0.9930058 0.9344078
0.9344149 0.9930060 0.9344073
0.9344159 0.9930082 0.9343969
0.9344245 0.9930289 0.9342988
0.9344933 0.9931971 0.9334807
0.9349812 0.9946752 0.9244187
0.9998415 0.9998417 0.9123718
0.0843324 0.0843328 0.1404911
0.1583792 0.1099834 0.1583780
0.3194432 0.2078122 0.2210723
0.4811580 0.3392851 0.3413279
0.6427567 0.4883648 0.4886425
0.8023488 0.6496783 0.6497028
0.9734475 0.8367522 0.8367462
0.1444107 0.1761486 0.1761460
0.1666667 0.1666667 0.1666667
0.3249095 0.2092665 0.2092624
0.4819645 0.3396097 0.3396020
0.6428858 0.4884370 0.4884279
0.8023701 0.6496944 0.6496850
0.9734491 0.8367535 0.8367448
0.2838210 0.3407760 0.2880709
0.2823383 0.3397603 0.2823325
0.3383662 0.3383664 0.2554889
0.4879245 0.3742502 0.3402641
0.6453101 0.4897672 0.4839712
0.8027700 0.6499969 0.6493432
0.9734795 0.8367784 0.8367172
0.4361393 0.5038620 0.4366716
0.4360151 0.5038043 0.4360074
0.4335099 0.5027307 0.4207690
0.5048818 0.5048821 0.4054848
0.6511768 0.5379504 0.4936813
0.8064546 0.6527381 0.6455323
0.9737655 0.8370117 0.8364537
0.5900665 0.6607582 0.5901277
0.5900679 0.6607683 0.5900596
0.5900911 0.6609598 0.5887394
0.5901061 0.6628285 0.5719929
0.6664904 0.6664907 0.5618437
0.8133422 0.7014336 0.6578156
0.9760546 0.8388570 0.8340255
0.7575842 0.8251308 0.7575839
0.7575848 0.8251323 0.7575768
0.7575966 0.8251615 0.7574424
0.7577048 0.8254365 0.7561345
0.7583524 0.8276695 0.7417106
0.8331471 0.8331474 0.7327131
0.9819167 0.8743795 0.8405803
0.9344150 0.9930058 0.9344085
0.9344150 0.9930060 0.9344080
0.9344159 0.9930082 0.9343976
0.9344246 0.9930289 0.9342994
0.9344934 0.9931971 0.9334814
0.9349812 0.9946751 0.9244196
0.9998415 0.9998417 0.9123718
0.1919136 0.1919143 0.2877959
0.2049113 0.1947664 0.2895518
0.3167500 0.2384713 0.3167482
0.4800164 0.3450512 0.3751320
0.6425428 0.4891478 0.4945760
0.8023126 0.6497579 0.6504182
0.9734447 0.8367588 0.8368052
0.2043797 0.2137995 0.2958725
0.2016943 0.2016949 0.3002203
0.3198895 0.2411583 0.3198879
0.4807803 0.3454227 0.3745081
0.6426713 0.4892209 0.4943913
0.8023339 0.6497741 0.6504008
0.9734463 0.8367601 0.8368037
0.2952439 0.3436741 0.3436703
0.2942813 0.3426363 0.3426328
0.3333333 0.3333333 0.3333333
0.4950870 0.3511927 0.3511902
0.6450832 0.4905687 0.4905603
0.8027336 0.6500768 0.6500675
0.9734768 0.8367849 0.8367762
0.4376159 0.5040790 0.4474417
0.4375000 0.5040204 0.4469156
0.4351749 0.5029297 0.4351684
0.5031529 0.5031531 0.4038662
0.6523192 0.5355664 0.4937538
0.8064173 0.6528206 0.6463475
0.9737627 0.8370183 0.8365133
0.5902228 0.6607489 0.5915786
0.5902242 0.6607590 0.5915130
0.5902498 0.6609501 0.5902417
0.5902918 0.6628144 0.5741821
0.6664978 0.6664981 0.5618511
0.8135209 0.7012186 0.6578830
0.9760518 0.8388637 0.8340904
0.7576013 0.8251294 0.7577466
0.7576019 0.8251310 0.7577396
0.7576138 0.8251602 0.7576058
0.7577223 0.8254352 0.7563040
0.7583726 0.8276678 0.7419536
0.8331481 0.8331484 0.7327141
0.9819315 0.8743581 0.8405866
0.9344163 0.9930057 0.9344211
0.9344163 0.9930059 0.9344206
0.9344173 0.9930081 0.9344102
0.9344259 0.9930288 0.9343121
0.9344947 0.9931970 0.9334945
0.9349828 0.9946750 0.9244367
0.9998416 0.9998418 0.9123719
0.3173247 0.3173257 0.4389263
0.3189872 0.3174718 0.4388959
0.3493618 0.3251051 0.4433393
0.4748802 0.3794946 0.4748780
0.6406633 0.4959020 0.5342358
0.8019738 0.6504982 0.6568027
0.9734188 0.8368202 0.8373569
0.3183667 0.3198666 0.4391235
0.3173316 0.3173325 0.4389341
0.3493453 0.3259432 0.4444861
0.4753776 0.3799553 0.4753754
0.6407860 0.4959818 0.5341994
0.8019950 0.6505144 0.6567892
0.9734204 0.8368215 0.8373555
0.3484067 0.3693001 0.4569948
0.3481986 0.3684508 0.4574242
0.3495273 0.3495278 0.4753644
0.4846298 0.3885437 0.4846283
0.6430882 0.4974617 0.5333954
0.8023938 0.6508196 0.6565285
0.9734509 0.8368464 0.8373286
0.4495578 0.5062165 0.5062121
0.4494959 0.5061526 0.5061483
0.4483275 0.5049470 0.5049432
0.5000000 0.5000000 0.5000000
0.6636747 0.5087074 0.5087060
0.8060679 0.6535872 0.6535786
0.9737368 0.8370798 0.8370712
0.5916569 0.6606649 0.6038906
0.5916595 0.6606748 0.6038444
0.5917062 0.6608621 0.6029503
0.5919876 0.6626859 0.5919810
0.6665686 0.6665688 0.5619217
0.8152500 0.6990752 0.6585398
0.9760253 0.8389266 0.8346976
0.7577617 0.8251171 0.7592580
0.7577623 0.8251187 0.7592513
0.7577744 0.8251479 0.7591232
0.7578856 0.8254224 0.7578778
0.7585622 0.8276512 0.7441978
0.8331567 0.8331570 0.7327232
0.9820714 0.8741553 0.8406455
0.9344288 0.9930048 0.9345400
0.9344288 0.9930049 0.9345394
0.9344297 0.9930071 0.9345291
0.9344384 0.9930278 0.9344313
0.9345074 0.9931961 0.9336169
0.9349969 0.9946739 0.9245971
0.9998422 0.9998424 0.9123726
0.4565595 0.4565606 0.5912506
0.4567226 0.4565099 0.5912071
0.4607626 0.4566534 0.5907930
0.4982586 0.4665134 0.5960631
0.6315270 0.5293249 0.6315247
0.7993441 0.6559676 0.6935790
0.9732091 0.8373152 0.8416678
0.4565616 0.4567761 0.5911248
0.4563582 0.4563593 0.5910393
0.4604729 0.4565616 0.5907261
0.4983049 0.4666642 0.5962444
0.6316167 0.5294132 0.6316144
0.7993649 0.6559847 0.6935820
0.9732107 0.8373165 0.8416667
0.4590833 0.4630829 0.5914061
0.4589770 0.4627891 0.5914160
0.4572535 0.4572545 0.5919790
0.4994886 0.4698877 0.6000644
0.6333023 0.5310748 0.6333001
0.7997560 0.6563061 0.6936365
0.9732411 0.8373415 0.8416441
0.4982663 0.5245730 0.6137919
0.4982740 0.5245087 0.6138760
0.4984763 0.5232873 0.6155632
0.5090293 0.5090297 0.6455780
0.6483356 0.5459383 0.6483342
0.8033574 0.6592334 0.6939350
0.9735265 0.8375763 0.8414285
0.6013534 0.6601675 0.6601630
0.6013620 0.6601760 0.6601716
0.6015246 0.6603384 0.6603340
0.6030882 0.6618989 0.6618951
0.6666667 0.6666667 0.6666667
0.8286118 0.6774667 0.6774648
0.9758110 0.8394338 0.8394256
0.7590351 0.8250199 0.7703663
0.7590359 0.8250214 0.7703615
0.7590502 0.8250502 0.7702722
0.7591822 0.8253215 0.7694040
0.7600610 0.8275199 0.7600545
0.8332271 0.8332273 0.7327972
0.9832330 0.8724269 0.8411376
0.9345301 0.9929973 0.9354969
0.9345301 0.9929974 0.9354964
0.9345310 0.9929996 0.9354864
0.9345398 0.9930203 0.9353917
0.9346100 0.9931883 0.9346031
0.9351118 0.9946644 0.9258849
0.9998475 0.9998477 0.9123784
0.5975321 0.5975333 0.7341448
0.5975075 0.5974829 0.7341310
0.5977962 0.5972883 0.7338764
0.6009811 0.5961070 0.7321210
0.6344400 0.6027897 0.7340594
0.7830986 0.6825881 0.7830965
0.9714272 0.8413529 0.8700854
0.5974952 0.5975220 0.7340942
0.5974668 0.5974679 0.7340807
0.5977195 0.5972371 0.7338295
0.6009310 0.5960802 0.7320980
0.6344567 0.6028193 0.7340911
0.7831171 0.6826073 0.7831149
0.9714287 0.8413543 0.8700854
0.5969025 0.5974107 0.7332417
0.5968780 0.5973609 0.7332320
0.5964281 0.5964293 0.7330616
0.6000646 0.5956577 0.7317454
0.6347827 0.6033904 0.7347023
0.7834648 0.6829675 0.7834627
0.9714587 0.8413803 0.8700857
0.5969669 0.6016866 0.7308181
0.5969630 0.6016607 0.7308277
0.5968961 0.6011767 0.7310179
0.5969462 0.5969473 0.7335700
0.6386315 0.6096394 0.7413110
0.7866584 0.6862780 0.7866563
0.9717401 0.8416247 0.8700866
0.6353953 0.6614221 0.7516839
0.6354089 0.6614269 0.7517058
0.6356664 0.6615183 0.7521208
0.6381891 0.6623904 0.7561695
0.6688227 0.6688232 0.8030471
0.8084517 0.7089556 0.8084503
0.9739914 0.8435633 0.8699747
0.7683122 0.8243575 0.8243533
0.7683137 0.8243589 0.8243547
0.7683409 0.8243854 0.8243812
0.7685970 0.8246337 0.8246295
0.7706479 0.8266217 0.8266181
0.8333333 0.8333333 0.8333333
0.9915025 0.8573062 0.8573028
0.9354050 0.9929324 0.9432607
0.9354051 0.9929325 0.9432603
0.9354062 0.9929347 0.9432527
0.9354162 0.9929551 0.9431813
0.9354966 0.9931217 0.9425870
0.9361014 0.9945826 0.9360953
0.9998939 0.9998941 0.9124296
0.6666813 0.6666825 0.8010059
0.6666738 0.6666727 0.8010000
0.6665378 0.6664940 0.8008584
0.6653332 0.6648896 0.7992768
0.6769090 0.6733149 0.8068891
0.7632862 0.7381462 0.8644414
0.9567608 0.8671135 0.9567589
0.6666480 0.6666514 0.8009729
0.6666405 0.6666416 0.8009670
0.6665039 0.6664624 0.8008285
0.6653001 0.6648588 0.7992477
0.6769399 0.6733479 0.8069208
0.7632982 0.7381596 0.8644541
0.9567622 0.8671150 0.9567603
0.6660215 0.6660675 0.8003523
0.6660141 0.6660578 0.8003465
0.6658745 0.6658757 0.8002366
0.6646808 0.6642817 0.7987025
0.6775200 0.6739680 0.8075159
0.7635248 0.7384128 0.8646942
0.9567889 0.8671441 0.9567870
0.6650091 0.6654533 0.7991686
0.6650206 0.6654627 0.7991809
0.6652391 0.6656391 0.7994125
0.6672751 0.6672762 0.8015720
0.6827532 0.6795798 0.8128967
0.7656182 0.7407564 0.8669162
0.9570398 0.8674171 0.9570379
0.7029873 0.7064741 0.8334390
0.7029947 0.7064795 0.8334471
0.7031342 0.7065813 0.8336001
0.7044404 0.7075302 0.8350340
0.7146903 0.7146914 0.8463583
0.7804155 0.7576203 0.8828909
0.9590433 0.8695981 0.9590414
0.8056201 0.8263235 0.9162971
0.8056220 0.8263245 0.9162997
0.8056589 0.8263441 0.9163479
0.8060058 0.8265281 0.9168023
0.8088432 0.8279845 0.9205345
0.8370126 0.8370132 0.9584199
0.9743157 0.8862616 0.9743143
0.9438437 0.9923452 0.9923416
0.9438438 0.9923453 0.9923417
0.9438459 0.9923473 0.9923437
0.9438657 0.9923660 0.9923624
0.9440265 0.9925180 0.9925145
0.9454252 0.9938398 0.9938366
1.0000000 1.0000000 1.0000000
