release/datafiles/colormanagement/luts/luminance_compensation_bt2020.cube
TITLE "Offset the negative values in BT.2020 and compensate for luminance"
# Lower Side of Guard Rail Formation for BT.2020 medium.
# Modified from python script shared by Sakari Kapanen
# This LUT assumes input and output to be E Gamut encoded in Log2 (-10 stop to +15 stop)
# LUT resolution 37
LUT_3D_SIZE 5
-0.0000000 0.0000000 -0.0000000
0.2477423 0.1079398 0.1079339
0.4973457 0.3575443 0.3575374
0.7473405 0.6075390 0.6075322
0.9973404 0.8575390 0.8575321
0.1136879 0.2516036 0.1136827
0.2550124 0.2550125 0.1511751
0.4975377 0.3655667 0.3584312
0.7473431 0.6076518 0.6075440
0.9973405 0.8575405 0.8575323
0.3639494 0.5018642 0.3639434
0.3715395 0.5019056 0.3646361
0.5054198 0.5054199 0.4015825
0.7475354 0.6156591 0.6084379
0.9973430 0.8576532 0.8575441
0.6139529 0.7518676 0.6139469
0.6140594 0.7518682 0.6139560
0.6216351 0.7519096 0.6146485
0.7554251 0.7554253 0.6515878
0.9975353 0.8656603 0.8584380
0.8639529 1.0018677 0.8639469
0.8639543 1.0018677 0.8639470
0.8640608 1.0018682 0.8639562
0.8716364 1.0019096 0.8646487
1.0054252 1.0054253 0.9015879
0.1206208 0.1206216 0.2249323
0.2474527 0.1475838 0.2474517
0.4975763 0.3485583 0.3570463
0.7473432 0.6074313 0.6075256
0.9973405 0.8575376 0.8575320
0.1304415 0.2523470 0.2523463
0.2500000 0.2500000 0.2500000
0.4977423 0.3579398 0.3579339
0.7473457 0.6075443 0.6075374
0.9973405 0.8575390 0.8575322
0.3548166 0.5015647 0.3629748
0.3636879 0.5016036 0.3636827
0.5050124 0.5050125 0.4011751
0.7475377 0.6155667 0.6084312
0.9973431 0.8576518 0.8575440
0.6138427 0.7518637 0.6139343
0.6139494 0.7518642 0.6139434
0.6215395 0.7519056 0.6146361
0.7554198 0.7554199 0.6515825
0.9975354 0.8656591 0.8584379
0.8639515 1.0018676 0.8639467
0.8639529 1.0018676 0.8639469
0.8640594 1.0018682 0.8639560
0.8716351 1.0019096 0.8646485
1.0054251 1.0054253 0.9015878
0.3678583 0.3678591 0.4721698
0.3725532 0.3688656 0.4731155
0.4972464 0.3973775 0.4972454
0.7475741 0.5984245 0.6070345
0.9973431 0.8574298 0.8575254
0.3656706 0.3696758 0.4740483
0.3706208 0.3706216 0.4749323
0.4974527 0.3975838 0.4974517
0.7475763 0.5985583 0.6070463
0.9973432 0.8574313 0.8575256
0.3807174 0.5026230 0.5026222
0.3804415 0.5023470 0.5023463
0.5000000 0.5000000 0.5000000
0.7477423 0.6079398 0.6079339
0.9973457 0.8575443 0.8575374
0.6046904 0.7515642 0.6129654
0.6048166 0.7515647 0.6129748
0.6136879 0.7516036 0.6136827
0.7550124 0.7550125 0.6511751
0.9975377 0.8655667 0.8584312
0.8638413 1.0018637 0.8639342
0.8638427 1.0018637 0.8639343
0.8639494 1.0018642 0.8639434
0.8715395 1.0019056 0.8646361
1.0054198 1.0054199 0.9015825
0.6178211 0.6178219 0.7221327
0.6178847 0.6178355 0.7221454
0.6225766 0.6188428 0.7230919
0.7472437 0.6473748 0.7472427
0.9975741 0.8484227 0.8570343
0.6177946 0.6178455 0.7221571
0.6178583 0.6178591 0.7221698
0.6225532 0.6188656 0.7231155
0.7472464 0.6473775 0.7472454
0.9975741 0.8484245 0.8570345
0.6156033 0.6196631 0.7240363
0.6156706 0.6196758 0.7240483
0.6206208 0.6206216 0.7249323
0.7474527 0.6475838 0.7474517
0.9975763 0.8485583 0.8570463
0.6307210 0.7526266 0.7526258
0.6307174 0.7526230 0.7526222
0.6304415 0.7523470 0.7523463
0.7500000 0.7500000 0.7500000
0.9977423 0.8579398 0.8579339
0.8546887 1.0015642 0.8629653
0.8546904 1.0015642 0.8629654
0.8548166 1.0015647 0.8629748
0.8636879 1.0016036 0.8636827
1.0050124 1.0050125 0.9011751
0.8678206 0.8678214 0.9721322
0.8678214 0.8678216 0.9721323
0.8678851 0.8678352 0.9721451
0.8725769 0.8688425 0.9730916
0.9972437 0.8973748 0.9972426
0.8678202 0.8678217 0.9721325
0.8678211 0.8678219 0.9721327
0.8678847 0.8678355 0.9721454
0.8725766 0.8688428 0.9730919
0.9972437 0.8973748 0.9972427
0.8677937 0.8678454 0.9721569
0.8677946 0.8678455 0.9721571
0.8678583 0.8678591 0.9721698
0.8725532 0.8688656 0.9731155
0.9972464 0.8973775 0.9972454
0.8656024 0.8696629 0.9740362
0.8656033 0.8696631 0.9740363
0.8656706 0.8696758 0.9740483
0.8706208 0.8706216 0.9749323
0.9974527 0.8975838 0.9974517
0.8807211 1.0026267 1.0026259
0.8807210 1.0026266 1.0026258
0.8807174 1.0026230 1.0026222
0.8804415 1.0023470 1.0023463
1.0000000 1.0000000 1.0000000
