release/datafiles/colormanagement/luts/luminance_compensation_srgb.cube
TITLE "Offset the negative values in BT.709 and compensate for luminance"
# Lower Side of Guard Rail Formation for sRGB medium.
# Modified from python script shared by Sakari Kapanen
# This LUT assumes E Gamut encoded in ST2084 (100) curve and then power 0.6
# LUT resolution 37
LUT_3D_SIZE 5
0.0000000 0.0000000 0.0000000
0.2394051 0.1452874 0.1452827
0.4812232 0.3389584 0.3389504
0.7226629 0.5674605 0.5674512
0.9734476 0.8367519 0.8367431
0.2088042 0.2576593 0.2087989
0.2559492 0.2559494 0.1861412
0.4848676 0.3428268 0.3308244
0.7229397 0.5676432 0.5671033
0.9734560 0.8367587 0.8367356
0.4360597 0.5038506 0.4360519
0.4354050 0.5035521 0.4324290
0.5049718 0.5049721 0.4055691
0.7286461 0.5827849 0.5619903
0.9737656 0.8370114 0.8364505
0.6715400 0.7414316 0.6715318
0.6715500 0.7414568 0.6714177
0.6718906 0.7423921 0.6667311
0.7498053 0.7498056 0.6461145
0.9793335 0.8457730 0.8313041
0.9344149 0.9930058 0.9344078
0.9344152 0.9930065 0.9344050
0.9344245 0.9930289 0.9342988
0.9346334 0.9935608 0.9315829
0.9998415 0.9998417 0.9123718
0.1356291 0.1356297 0.2135150
0.2375532 0.1723938 0.2375516
0.4808903 0.3406279 0.3504508
0.7226342 0.5675286 0.5680442
0.9734469 0.8367537 0.8367593
0.2192505 0.2606206 0.2606173
0.2500000 0.2500000 0.2500000
0.4850170 0.3422950 0.3422883
0.7229110 0.5677115 0.5677022
0.9734552 0.8367605 0.8367518
0.4364709 0.5039099 0.4392075
0.4358288 0.5036103 0.4358213
0.5045034 0.5045037 0.4051305
0.7288352 0.5824223 0.5620580
0.9737649 0.8370132 0.8364669
0.6715545 0.7414304 0.6716699
0.6715646 0.7414557 0.6715564
0.6719059 0.7423908 0.6668881
0.7498061 0.7498064 0.6461153
0.9793386 0.8457622 0.8313065
0.9344153 0.9930058 0.9344113
0.9344155 0.9930064 0.9344085
0.9344249 0.9930288 0.9343022
0.9346338 0.9935608 0.9315867
0.9998415 0.9998417 0.9123718
0.3173247 0.3173257 0.4389263
0.3261550 0.3187146 0.4393443
0.4748802 0.3794946 0.4748780
0.7215907 0.5699661 0.5870488
0.9734188 0.8368202 0.8373569
0.3253107 0.3323935 0.4430565
0.3229280 0.3229289 0.4453258
0.4774560 0.3818816 0.4774540
0.7218636 0.5701543 0.5868686
0.9734272 0.8368270 0.8373495
0.4495578 0.5062165 0.5062121
0.4492371 0.5058856 0.5058813
0.5000000 0.5000000 0.5000000
0.7317157 0.5766381 0.5766312
0.9737368 0.8370798 0.8370712
0.6720878 0.7413888 0.6766008
0.6720986 0.7414140 0.6765023
0.6724703 0.7423444 0.6724626
0.7498356 0.7498358 0.6461455
0.9795284 0.8453597 0.8313935
0.9344288 0.9930048 0.9345400
0.9344290 0.9930054 0.9345371
0.9344384 0.9930278 0.9344313
0.9346479 0.9935597 0.9317276
0.9998422 0.9998424 0.9123726
0.5294587 0.5294599 0.6663468
0.5297488 0.5293549 0.6662267
0.5438706 0.5304282 0.6653595
0.7046182 0.6022745 0.7046160
0.9727604 0.8383593 0.8500512
0.5293092 0.5297040 0.6659673
0.5289179 0.5289191 0.6657997
0.5436470 0.5305075 0.6654893
0.7048269 0.6024854 0.7048246
0.9727688 0.8383662 0.8500472
0.5431861 0.5555408 0.6721226
0.5431902 0.5552893 0.6723159
0.5459433 0.5459442 0.6829587
0.7123788 0.6101267 0.7123768
0.9730767 0.8386233 0.8498939
0.6825603 0.7406247 0.7406203
0.6825835 0.7406475 0.7406431
0.6834393 0.7414891 0.7414849
0.7500000 0.7500000 0.7500000
0.9800676 0.8442707 0.8442636
0.9347479 0.9929811 0.9375114
0.9347481 0.9929817 0.9375089
0.9347580 0.9930040 0.9374133
0.9349798 0.9935341 0.9349731
0.9998589 0.9998591 0.9123910
0.6666813 0.6666825 0.8010059
0.6666421 0.6666316 0.8009749
0.6653332 0.6648896 0.7992768
0.7056776 0.6958502 0.8273603
0.9567608 0.8671135 0.9567589
0.6665087 0.6665215 0.8008349
0.6664697 0.6664708 0.8008041
0.6651622 0.6647302 0.7991262
0.7057939 0.6959763 0.8274807
0.9567681 0.8671215 0.9567662
0.6650091 0.6654533 0.7991686
0.6650691 0.6655019 0.7992323
0.6672751 0.6672762 0.8015720
0.7099696 0.7005181 0.8318139
0.9570398 0.8674171 0.9570379
0.7473521 0.7564085 0.8714683
0.7473745 0.7564226 0.8714945
0.7482042 0.7569422 0.8724622
0.7675681 0.7675691 0.8953855
0.9631664 0.8740903 0.9631647
0.9438437 0.9923452 0.9923416
0.9438442 0.9923457 0.9923421
0.9438657 0.9923660 0.9923624
0.9443732 0.9928456 0.9928422
1.0000000 1.0000000 1.0000000
