release/datafiles/colormanagement/luts/luminance_compensation_bt2020.cube
TITLE "Offset the negative values in BT.2020 and compensate for luminance"
# Lower Side of Guard Rail Formation for BT.2020 medium.
# Modified from python script shared by Sakari Kapanen
# This LUT assumes input and output to be E Gamut encoded in Log2 (-10 stop to +15 stop)
# LUT resolution 37
LUT_3D_SIZE 37
-0.0000000 0.0000000 -0.0000000
0.0277778 0.0000000 -0.0000000
0.0555556 0.0000000 -0.0000000
0.0833333 0.0000000 -0.0000000
0.1111111 0.0000000 -0.0000000
0.1388889 0.0000000 -0.0000000
0.1656912 0.0258852 0.0258825
0.1928313 0.0530271 0.0530228
0.2202115 0.0804084 0.0804031
0.2477423 0.1079398 0.1079339
0.2753669 0.1355648 0.1355585
0.3030498 0.1632479 0.1632414
0.3307688 0.1909671 0.1909605
0.3585103 0.2187087 0.2187020
0.3862656 0.2464641 0.2464573
0.4140296 0.2742280 0.2742212
0.4417988 0.3019973 0.3019904
0.4695712 0.3297697 0.3297629
0.4973457 0.3575443 0.3575374
0.5251215 0.3853200 0.3853132
0.5528980 0.4130965 0.4130897
0.5806750 0.4408736 0.4408667
0.6084523 0.4686509 0.4686440
0.6362298 0.4964283 0.4964215
0.6640074 0.5242059 0.5241991
0.6917851 0.5519836 0.5519767
0.7195628 0.5797613 0.5797545
0.7473405 0.6075390 0.6075322
0.7751183 0.6353168 0.6353099
0.8028960 0.6630946 0.6630877
0.8306738 0.6908723 0.6908655
0.8584516 0.7186501 0.7186432
0.8862293 0.7464279 0.7464210
0.9140071 0.7742056 0.7741988
0.9417849 0.8019834 0.8019766
0.9695627 0.8297612 0.8297543
0.9973404 0.8575390 0.8575321
-0.0000000 0.0277778 -0.0000000
0.0277778 0.0277778 -0.0000000
0.0555556 0.0277778 -0.0000000
0.0833333 0.0277778 -0.0000000
0.1111111 0.0277778 -0.0000000
0.1388191 0.0290577 0.0022373
0.1658367 0.0457635 0.0279755
0.1930070 0.0659270 0.0543848
0.2203539 0.0886417 0.0812721
0.2478434 0.1131349 0.1084816
0.2754344 0.1388180 0.1359012
0.3030935 0.1652751 0.1634548
0.3307966 0.1922264 0.1910930
0.3585278 0.2194894 0.2187841
0.3862765 0.2469475 0.2465081
0.4140363 0.2745271 0.2742527
0.4418030 0.3021822 0.3020099
0.4695738 0.3298841 0.3297749
0.4973473 0.3576149 0.3575448
0.5251225 0.3853637 0.3853178
0.5528986 0.4131235 0.4130925
0.5806754 0.4408902 0.4408685
0.6084526 0.4686612 0.4686451
0.6362299 0.4964347 0.4964222
0.6640075 0.5242099 0.5241995
0.6917851 0.5519860 0.5519770
0.7195628 0.5797628 0.5797546
0.7473405 0.6075400 0.6075323
0.7751183 0.6353174 0.6353100
0.8028960 0.6630949 0.6630877
0.8306738 0.6908725 0.6908655
0.8584516 0.7186502 0.7186433
0.8862293 0.7464280 0.7464210
0.9140071 0.7742057 0.7741988
0.9417849 0.8019835 0.8019766
0.9695627 0.8297612 0.8297543
0.9973404 0.8575390 0.8575321
-0.0000000 0.0555556 0.0000000
0.0277778 0.0555556 0.0000000
0.0555556 0.0555556 0.0000000
0.0833333 0.0555556 0.0000000
0.1111111 0.0555556 0.0000000
0.1388127 0.0578553 0.0070310
0.1660840 0.0680307 0.0312158
0.1932800 0.0821572 0.0565177
0.2205756 0.0999124 0.0826471
0.2480026 0.1206757 0.1093551
0.2755418 0.1437291 0.1364505
0.3031634 0.1684148 0.1637980
0.3308412 0.1942089 0.1913065
0.3585559 0.2207313 0.2189166
0.3862941 0.2477215 0.2465903
0.4140473 0.2750079 0.2743035
0.4418097 0.3024803 0.3020413
0.4695780 0.3300687 0.3297944
0.4973499 0.3577291 0.3575569
0.5251241 0.3854343 0.3853252
0.5528996 0.4131672 0.4130971
0.5806760 0.4409172 0.4408713
0.6084529 0.4686778 0.4686468
0.6362302 0.4964450 0.4964232
0.6640076 0.5242162 0.5242002
0.6917852 0.5519900 0.5519774
0.7195629 0.5797652 0.5797549
0.7473406 0.6075415 0.6075324
0.7751183 0.6353183 0.6353101
0.8028960 0.6630955 0.6630878
0.8306738 0.6908729 0.6908655
0.8584516 0.7186504 0.7186433
0.8862293 0.7464281 0.7464210
0.9140071 0.7742058 0.7741988
0.9417849 0.8019835 0.8019766
0.9695627 0.8297612 0.8297543
0.9973404 0.8575390 0.8575321
-0.0000000 0.0833333 0.0000000
0.0277778 0.0833333 0.0000000
0.0555556 0.0833333 0.0000000
0.0833333 0.0833333 0.0000000
0.1111111 0.0833333 0.0000000
0.1390707 0.0859940 0.0141457
0.1665051 0.0920873 0.0361130
0.1936981 0.1014797 0.0598001
0.2209151 0.1145210 0.0847961
0.2482499 0.1311399 0.1107361
0.2757108 0.1509000 0.1373261
0.3032745 0.1731662 0.1643481
0.3309126 0.1972825 0.1916501
0.3586010 0.2226872 0.2191303
0.3863224 0.2489529 0.2467229
0.4140649 0.2757778 0.2743856
0.4418207 0.3029596 0.3020922
0.4695848 0.3303662 0.3298258
0.4973542 0.3579135 0.3575763
0.5251267 0.3855485 0.3853372
0.5529012 0.4132378 0.4131046
0.5806770 0.4409609 0.4408759
0.6084536 0.4687048 0.4686497
0.6362306 0.4964617 0.4964250
0.6640079 0.5242266 0.5242012
0.6917854 0.5519963 0.5519781
0.7195630 0.5797692 0.5797553
0.7473406 0.6075439 0.6075327
0.7751183 0.6353198 0.6353103
0.8028961 0.6630964 0.6630879
0.8306738 0.6908735 0.6908656
0.8584516 0.7186508 0.7186433
0.8862293 0.7464283 0.7464211
0.9140071 0.7742059 0.7741988
0.9417849 0.8019836 0.8019766
0.9695627 0.8297613 0.8297544
0.9973404 0.8575390 0.8575321
-0.0000000 0.1111111 0.0000000
0.0277778 0.1111111 0.0000000
0.0555556 0.1111111 0.0000000
0.0833333 0.1111111 0.0000000
0.1117808 0.1117809 0.0079435
0.1398332 0.1137828 0.0241976
0.1672170 0.1174056 0.0432660
0.1943291 0.1233889 0.0647276
0.2214235 0.1324135 0.0880946
0.2486265 0.1449093 0.1128923
0.2759729 0.1609243 0.1387102
0.3034493 0.1801270 0.1652250
0.3310259 0.2019406 0.1922007
0.3586732 0.2257214 0.2194740
0.3863679 0.2508928 0.2469366
0.4140933 0.2770028 0.2745183
0.4418384 0.3037269 0.3021743
0.4695958 0.3308444 0.3298767
0.4973610 0.3582106 0.3576078
0.5251309 0.3857327 0.3853567
0.5529038 0.4133519 0.4131166
0.5806786 0.4410315 0.4408833
0.6084545 0.4687485 0.4686543
0.6362312 0.4964887 0.4964278
0.6640082 0.5242432 0.5242030
0.6917856 0.5520066 0.5519792
0.7195631 0.5797756 0.5797559
0.7473407 0.6075478 0.6075331
0.7751184 0.6353222 0.6353105
0.8028961 0.6630979 0.6630881
0.8306738 0.6908744 0.6908657
0.8584516 0.7186514 0.7186434
0.8862293 0.7464287 0.7464211
0.9140071 0.7742061 0.7741988
0.9417849 0.8019837 0.8019766
0.9695627 0.8297614 0.8297544
0.9973404 0.8575391 0.8575321
0.0009992 0.1389204 0.0009991
0.0302524 0.1390284 0.0041072
0.0587355 0.1392208 0.0087855
0.0866810 0.1395719 0.0155905
0.1142141 0.1402220 0.0250630
0.1414220 0.1414221 0.0375846
0.1684005 0.1435797 0.0532569
0.1952722 0.1472742 0.0718790
0.2221676 0.1532002 0.0930311
0.2491856 0.1620291 0.1161975
0.2763710 0.1742254 0.1408699
0.3037202 0.1898987 0.1666107
0.3312042 0.2087780 0.1930782
0.3587880 0.2303237 0.2200249
0.3864406 0.2539031 0.2472804
0.4141390 0.2789330 0.2747321
0.4418669 0.3049480 0.3023069
0.4696136 0.3316103 0.3299588
0.4973720 0.3586883 0.3576586
0.5251377 0.3860295 0.3853881
0.5529081 0.4135360 0.4131360
0.5806812 0.4411455 0.4408953
0.6084562 0.4688190 0.4686617
0.6362322 0.4965323 0.4964324
0.6640089 0.5242702 0.5242058
0.6917860 0.5520233 0.5519809
0.7195633 0.5797859 0.5797570
0.7473409 0.6075542 0.6075338
0.7751185 0.6353262 0.6353109
0.8028962 0.6631003 0.6630883
0.8306739 0.6908759 0.6908658
0.8584516 0.7186523 0.7186435
0.8862294 0.7464292 0.7464212
0.9140071 0.7742065 0.7741989
0.9417849 0.8019839 0.8019766
0.9695627 0.8297615 0.8297544
0.9973404 0.8575392 0.8575321
0.0294880 0.1674066 0.0294855
0.0486611 0.1674907 0.0313786
0.0703224 0.1676321 0.0343092
0.0938451 0.1678735 0.0387419
0.1186431 0.1682923 0.0452318
0.1442456 0.1690280 0.0543386
0.1703219 0.1703220 0.0664845
0.1966785 0.1725604 0.0818189
0.2232378 0.1762922 0.1001738
0.2499939 0.1821857 0.1211364
0.2769597 0.1909037 0.1441782
0.3041310 0.2029273 0.1687723
0.3314803 0.2184003 0.1944648
0.3589684 0.2370872 0.2209029
0.3865562 0.2584717 0.2478315
0.4142121 0.2819288 0.2750760
0.4419127 0.3068722 0.3025208
0.4696421 0.3328290 0.3300915
0.4973897 0.3594532 0.3577408
0.5251487 0.3865068 0.3854390
0.5529149 0.4138327 0.4131675
0.5806854 0.4413295 0.4409148
0.6084588 0.4689330 0.4686737
0.6362338 0.4966029 0.4964398
0.6640099 0.5243138 0.5242104
0.6917866 0.5520503 0.5519838
0.7195637 0.5798025 0.5797588
0.7473411 0.6075645 0.6075349
0.7751186 0.6353325 0.6353116
0.8028962 0.6631043 0.6630887
0.8306739 0.6908783 0.6908661
0.8584516 0.7186538 0.7186436
0.8862294 0.7464302 0.7464213
0.9140071 0.7742071 0.7741989
0.9417849 0.8019843 0.8019767
0.9695627 0.8297617 0.8297544
0.9973404 0.8575393 0.8575322
0.0577008 0.1956179 0.0576969
0.0700436 0.1956761 0.0588564
0.0856656 0.1957719 0.0606825
0.1043538 0.1959313 0.0635148
0.1256084 0.1961990 0.0678102
0.1488064 0.1966545 0.0741218
0.1733549 0.1974368 0.0830186
0.1987823 0.1987824 0.0949450
0.2247693 0.2010655 0.1100781
0.2511372 0.2048181 0.1282713
0.2778057 0.2106924 0.1491174
0.3047374 0.2193453 0.1720821
0.3318989 0.2312664 0.1966274
0.3592477 0.2466195 0.2222899
0.3867379 0.2651903 0.2487097
0.4143282 0.2864767 0.2756271
0.4419860 0.3098591 0.3028647
0.4696880 0.3347495 0.3303053
0.4974183 0.3606704 0.3578734
0.5251665 0.3872712 0.3855211
0.5529259 0.4143098 0.4132183
0.5806923 0.4416262 0.4409462
0.6084630 0.4691171 0.4686932
0.6362364 0.4967169 0.4964519
0.6640115 0.5243844 0.5242179
0.6917876 0.5520939 0.5519883
0.7195643 0.5798295 0.5797616
0.7473415 0.6075812 0.6075366
0.7751189 0.6353428 0.6353127
0.8028964 0.6631107 0.6630894
0.8306740 0.6908823 0.6908665
0.8584517 0.7186562 0.7186439
0.8862294 0.7464317 0.7464214
0.9140072 0.7742080 0.7741990
0.9417849 0.8019849 0.8019767
0.9695627 0.8297621 0.8297544
0.9973404 0.8575395 0.8575322
0.0857457 0.2236619 0.0857410
0.0935845 0.2237001 0.0864537
0.1043590 0.2237626 0.0875878
0.1183812 0.2238652 0.0893752
0.1356137 0.2240347 0.0921505
0.1556783 0.2243174 0.0963658
0.1779913 0.2247938 0.1025729
0.2019340 0.2256028 0.1113455
0.2269779 0.2269780 0.1231406
0.2527418 0.2292870 0.1381522
0.2789923 0.2330515 0.1562466
0.3056059 0.2389142 0.1770211
0.3325159 0.2475281 0.1999380
0.3596709 0.2593876 0.2244532
0.3870192 0.2746680 0.2500971
0.4145107 0.2931679 0.2765054
0.4421024 0.3143944 0.3034159
0.4697614 0.3377309 0.3306493
0.4974642 0.3625886 0.3580873
0.5251951 0.3884875 0.3856538
0.5529437 0.4150738 0.4133005
0.5807033 0.4421031 0.4409971
0.6084698 0.4694137 0.4687246
0.6362406 0.4969009 0.4964713
0.6640141 0.5244984 0.5242299
0.6917892 0.5521645 0.5519958
0.7195653 0.5798732 0.5797662
0.7473421 0.6076082 0.6075395
0.7751192 0.6353595 0.6353144
0.8028966 0.6631210 0.6630905
0.8306742 0.6908886 0.6908672
0.8584518 0.7186602 0.7186443
0.8862295 0.7464341 0.7464217
0.9140072 0.7742095 0.7741992
0.9417849 0.8019858 0.8019768
0.9695627 0.8297627 0.8297545
0.9973405 0.8575399 0.8575322
0.1136879 0.2516036 0.1136827
0.1186189 0.2516281 0.1141217
0.1257959 0.2516679 0.1148247
0.1357869 0.2517329 0.1159438
0.1489760 0.2518394 0.1177082
0.1654188 0.2520148 0.1204495
0.1848142 0.2523064 0.1246171
0.2066149 0.2527950 0.1307616
0.2301991 0.2536198 0.1394594
0.2550124 0.2550125 0.1511751
0.2806404 0.2573368 0.1661126
0.3068185 0.2611084 0.1841464
0.3333981 0.2669640 0.2048768
0.3602945 0.2755542 0.2277642
0.3874453 0.2873761 0.2522606
0.4147932 0.3026122 0.2778930
0.4422854 0.3210688 0.3042943
0.4698780 0.3422584 0.3312005
0.4975377 0.3655667 0.3584312
0.5252411 0.3904043 0.3858676
0.5529723 0.4162895 0.4134331
0.5807211 0.4428669 0.4410792
0.6084808 0.4698905 0.4687755
0.6362474 0.4971974 0.4965028
0.6640183 0.5246824 0.5242493
0.6917918 0.5522785 0.5520078
0.7195669 0.5799437 0.5797736
0.7473431 0.6076518 0.6075440
0.7751198 0.6353865 0.6353173
0.8028970 0.6631376 0.6630922
0.8306744 0.6908990 0.6908683
0.8584519 0.7186666 0.7186450
0.8862296 0.7464380 0.7464221
0.9140073 0.7742119 0.7741994
0.9417850 0.8019873 0.8019770
0.9695627 0.8297636 0.8297546
0.9973405 0.8575405 0.8575323
0.1415671 0.2794824 0.1415616
0.1446490 0.2794979 0.1418323
0.1493100 0.2795229 0.1422675
0.1561314 0.2795637 0.1429648
0.1656930 0.2796302 0.1440748
0.1784154 0.2797390 0.1458254
0.1944060 0.2799181 0.1485462
0.2134105 0.2802149 0.1526849
0.2349068 0.2807109 0.1587914
0.2582751 0.2815451 0.1674437
0.2829482 0.2829484 0.1791109
0.3084930 0.2852818 0.1940031
0.3346266 0.2890577 0.2119996
0.3611850 0.2949089 0.2327028
0.3880729 0.3034847 0.2555719
0.4152210 0.3152837 0.2800568
0.4425686 0.3304925 0.3056820
0.4700613 0.3489224 0.3320790
0.4976544 0.3700894 0.3589825
0.5253146 0.3933803 0.3862116
0.5530183 0.4182054 0.4136470
0.5807497 0.4440823 0.4412119
0.6084986 0.4706541 0.4688576
0.6362584 0.4976742 0.4965536
0.6640251 0.5249789 0.5242808
0.6917960 0.5524625 0.5520272
0.7195695 0.5800577 0.5797857
0.7473447 0.6077224 0.6075515
0.7751208 0.6354301 0.6353219
0.8028976 0.6631646 0.6630951
0.8306748 0.6909156 0.6908700
0.8584522 0.7186769 0.7186461
0.8862297 0.7464444 0.7464228
0.9140073 0.7742159 0.7741999
0.9417850 0.8019897 0.8019772
0.9695627 0.8297651 0.8297548
0.9973405 0.8575414 0.8575324
0.1694074 0.3073225 0.1694017
0.1713256 0.3073322 0.1695688
0.1742999 0.3073479 0.1698381
0.1788084 0.3073733 0.1702711
0.1854271 0.3074147 0.1709648
0.1947416 0.3074821 0.1720693
0.2071920 0.3075923 0.1738115
0.2229155 0.3077735 0.1765198
0.2416864 0.3080735 0.1806409
0.2629990 0.3085740 0.1867242
0.2862361 0.3094139 0.1953487
0.3108235 0.3108236 0.2069861
0.3363171 0.3131627 0.2218504
0.3624231 0.3169411 0.2398240
0.3889685 0.3227897 0.2605104
0.4158510 0.3313566 0.2833682
0.4429976 0.3431415 0.3078459
0.4703450 0.3583335 0.3334667
0.4978379 0.3767470 0.3598610
0.5254314 0.3979000 0.3867629
0.5530918 0.4211802 0.4139910
0.5807957 0.4459977 0.4414258
0.6085272 0.4718693 0.4689903
0.6362762 0.4984377 0.4966358
0.6640361 0.5254557 0.5243316
0.6918028 0.5527590 0.5520587
0.7195738 0.5802417 0.5798051
0.7473473 0.6078363 0.6075635
0.7751225 0.6355007 0.6353293
0.8028986 0.6632083 0.6630997
0.8306754 0.6909426 0.6908729
0.8584525 0.7186935 0.7186478
0.8862299 0.7464547 0.7464238
0.9140075 0.7742222 0.7742005
0.9417851 0.8019937 0.8019776
0.9695628 0.8297675 0.8297550
0.9973405 0.8575429 0.8575325
0.1972238 0.3351388 0.1972180
0.1984145 0.3351448 0.1973212
0.2002905 0.3351546 0.1974877
0.2032020 0.3351704 0.1977561
0.2076211 0.3351961 0.1981878
0.2141205 0.3352378 0.1988793
0.2232885 0.3353057 0.1999805
0.2355766 0.3354168 0.2017174
0.2511397 0.3355994 0.2044181
0.2697692 0.3359013 0.2085284
0.2909699 0.3364045 0.2145975
0.3141267 0.3372479 0.2232049
0.3386614 0.3386615 0.2348241
0.3641235 0.3410040 0.2496711
0.3902126 0.3447840 0.2676306
0.4167499 0.3506310 0.2883066
0.4436291 0.3591924 0.3111574
0.4707746 0.3709686 0.3356307
0.4981219 0.3861503 0.3612488
0.5256150 0.4045537 0.3876414
0.5532086 0.4256981 0.4145423
0.5808692 0.4489716 0.4417698
0.6085732 0.4737844 0.4692042
0.6363049 0.4996528 0.4967684
0.6640539 0.5262191 0.5244138
0.6918139 0.5532357 0.5521095
0.7195806 0.5805382 0.5798366
0.7473515 0.6080203 0.6075829
0.7751251 0.6356147 0.6353413
0.8029002 0.6632788 0.6631071
0.8306764 0.6909862 0.6908774
0.8584532 0.7187205 0.7186506
0.8862303 0.7464714 0.7464256
0.9140077 0.7742325 0.7742016
0.9417853 0.8020000 0.8019783
0.9695629 0.8297715 0.8297554
0.9973406 0.8575453 0.8575328
0.2250255 0.3629404 0.2250196
0.2257633 0.3629441 0.2250833
0.2269376 0.3629502 0.2251862
0.2287884 0.3629600 0.2253524
0.2316623 0.3629759 0.2256204
0.2360280 0.3630017 0.2260512
0.2424559 0.3630436 0.2267414
0.2515357 0.3631119 0.2278405
0.2637256 0.3632235 0.2295742
0.2791912 0.3634069 0.2322702
0.2977344 0.3637100 0.2363739
0.3188666 0.3642149 0.2424342
0.3419741 0.3650604 0.2510311
0.3664763 0.3664764 0.2626390
0.3919190 0.3688211 0.2774754
0.4179976 0.3726020 0.2954262
0.4445298 0.3784480 0.3160957
0.4714070 0.3870060 0.3389423
0.4985519 0.3987768 0.3634129
0.5258991 0.4139522 0.3890292
0.5533923 0.4323494 0.4154208
0.5809861 0.4534884 0.4423211
0.6086468 0.4767578 0.4695481
0.6363509 0.5015677 0.4969823
0.6640826 0.5274341 0.5245465
0.6918316 0.5539992 0.5521917
0.7195916 0.5810149 0.5798874
0.7473583 0.6083168 0.6076144
0.7751293 0.6357986 0.6353608
0.8029028 0.6633928 0.6631191
0.8306780 0.6910568 0.6908849
0.8584542 0.7187641 0.7186552
0.8862309 0.7464984 0.7464284
0.9140081 0.7742492 0.7742034
0.9417855 0.8020104 0.8019794
0.9695630 0.8297778 0.8297561
0.9973407 0.8575493 0.8575332
0.2528180 0.3907328 0.2528120
0.2532747 0.3907352 0.2528514
0.2540062 0.3907389 0.2529150
0.2551706 0.3907450 0.2530179
0.2570061 0.3907548 0.2531839
0.2598574 0.3907708 0.2534515
0.2641907 0.3907967 0.2538818
0.2705751 0.3908387 0.2545712
0.2796013 0.3909072 0.2556689
0.2917313 0.3910192 0.2574008
0.3071373 0.3912030 0.2600938
0.3256275 0.3915069 0.2641934
0.3467176 0.3920128 0.2702483
0.3697948 0.3928597 0.2788388
0.3942770 0.3942771 0.2904397
0.4197077 0.3966231 0.3052696
0.4457798 0.4004046 0.3232149
0.4723090 0.4062499 0.3438805
0.4991849 0.4148059 0.3667244
0.5263294 0.4265734 0.3911933
0.5536766 0.4417449 0.4168087
0.5811698 0.4601382 0.4431996
0.6087637 0.4812739 0.4700994
0.6364244 0.5045408 0.4973263
0.6641286 0.5293489 0.5247603
0.6918603 0.5552141 0.5523244
0.7196094 0.5817783 0.5799696
0.7473694 0.6087935 0.6076652
0.7751361 0.6360951 0.6353922
0.8029071 0.6635767 0.6631386
0.8306806 0.6911708 0.6908969
0.8584558 0.7188347 0.7186627
0.8862319 0.7465420 0.7464330
0.9140087 0.7742762 0.7742062
0.9417859 0.8020270 0.8019811
0.9695633 0.8297881 0.8297572
0.9973408 0.8575556 0.8575339
0.2806049 0.4185197 0.2805989
0.2808874 0.4185211 0.2806232
0.2813417 0.4185234 0.2806625
0.2820694 0.4185272 0.2807261
0.2832277 0.4185333 0.2808289
0.2850539 0.4185432 0.2809948
0.2878914 0.4185591 0.2812622
0.2922049 0.4185851 0.2816922
0.2985628 0.4186272 0.2823810
0.3075561 0.4186958 0.2834780
0.3196494 0.4188080 0.2852086
0.3350188 0.4189921 0.2878999
0.3534765 0.4192965 0.2919970
0.3745406 0.4198030 0.2980486
0.3975990 0.4206507 0.3066350
0.4220689 0.4220691 0.3182316
0.4474923 0.4244158 0.3330575
0.4735604 0.4281977 0.3509995
0.5000876 0.4340427 0.3716627
0.5269628 0.4425974 0.3945049
0.5541070 0.4543628 0.4189727
0.5814541 0.4695319 0.4445875
0.6089474 0.4879228 0.4709780
0.6365413 0.5090565 0.4978776
0.6642021 0.5323218 0.5251043
0.6919063 0.5571287 0.5525382
0.7196380 0.5829932 0.5801022
0.7473871 0.6095569 0.6077474
0.7751471 0.6365719 0.6354431
0.8029139 0.6638733 0.6631700
0.8306848 0.6913547 0.6909163
0.8584584 0.7189487 0.7186747
0.8862336 0.7466125 0.7464404
0.9140097 0.7743198 0.7742108
0.9417865 0.8020540 0.8019840
0.9695637 0.8298048 0.8297589
0.9973411 0.8575659 0.8575350
0.3083883 0.4463031 0.3083823
0.3085630 0.4463040 0.3083973
0.3088446 0.4463054 0.3084216
0.3092974 0.4463077 0.3084609
0.3100227 0.4463115 0.3085245
0.3111773 0.4463176 0.3086272
0.3129979 0.4463275 0.3087930
0.3158268 0.4463435 0.3090603
0.3201282 0.4463694 0.3094901
0.3264698 0.4464116 0.3101786
0.3354429 0.4464803 0.3112751
0.3475137 0.4465926 0.3130050
0.3628605 0.4467769 0.3156952
0.3812982 0.4470816 0.3197907
0.4023463 0.4475885 0.3258402
0.4253932 0.4484367 0.3344242
0.4498555 0.4498556 0.3460182
0.4752742 0.4522028 0.3608415
0.5013398 0.4559850 0.3787815
0.5278659 0.4618297 0.3994431
0.5547406 0.4703836 0.4222844
0.5818847 0.4821478 0.4467516
0.6092318 0.4973153 0.4723659
0.6367251 0.5157048 0.4987561
0.6643190 0.5368372 0.5256556
0.6919799 0.5601016 0.5528822
0.7196840 0.5849078 0.5803161
0.7474158 0.6107718 0.6078801
0.7751649 0.6373353 0.6355252
0.8029249 0.6643500 0.6632209
0.8306916 0.6916512 0.6909478
0.8584626 0.7191326 0.7186941
0.8862362 0.7467265 0.7464525
0.9140113 0.7743904 0.7742182
0.9417875 0.8020976 0.8019886
0.9695643 0.8298318 0.8297618
0.9973414 0.8575826 0.8575367
0.3361695 0.4740843 0.3361635
0.3362775 0.4740849 0.3361728
0.3364519 0.4740858 0.3361878
0.3367329 0.4740872 0.3362121
0.3371848 0.4740895 0.3362514
0.3379087 0.4740933 0.3363150
0.3390610 0.4740994 0.3364176
0.3408781 0.4741093 0.3365834
0.3437018 0.4741253 0.3368506
0.3479957 0.4741513 0.3372803
0.3543273 0.4741935 0.3379686
0.3632880 0.4742622 0.3390649
0.3753449 0.4743746 0.3407943
0.3906777 0.4745591 0.3434838
0.4091030 0.4748638 0.3475783
0.4301414 0.4753710 0.3536266
0.4531811 0.4762195 0.3622090
0.4776387 0.4776388 0.3738013
0.5030546 0.4799863 0.3886232
0.5291187 0.4837686 0.4065619
0.5556440 0.4896132 0.4272226
0.5825184 0.4981666 0.4500632
0.6096624 0.5099300 0.4745300
0.6370095 0.5250966 0.5001440
0.6645028 0.5434852 0.5265342
0.6920968 0.5646168 0.5534335
0.7197576 0.5878806 0.5806601
0.7474618 0.6126864 0.6080939
0.7751935 0.6385501 0.6356579
0.8029427 0.6651134 0.6633030
0.8307027 0.6921280 0.6909986
0.8584694 0.7194291 0.7187256
0.8862404 0.7469105 0.7464719
0.9140139 0.7745043 0.7742302
0.9417891 0.8021682 0.8019960
0.9695653 0.8298754 0.8297664
0.9973420 0.8576096 0.8575395
0.3639494 0.5018642 0.3639434
0.3640162 0.5018646 0.3639492
0.3641241 0.5018651 0.3639585
0.3642982 0.5018660 0.3639735
0.3645789 0.5018674 0.3639978
0.3650302 0.5018698 0.3640371
0.3657532 0.5018735 0.3641006
0.3669041 0.5018796 0.3642033
0.3687190 0.5018895 0.3643690
0.3715395 0.5019056 0.3646361
0.3758288 0.5019316 0.3650657
0.3821542 0.5019738 0.3657540
0.3911073 0.5020426 0.3668500
0.4031556 0.5021550 0.3685791
0.4184799 0.5023395 0.3712682
0.4368976 0.5026444 0.3753622
0.4579298 0.5031517 0.3814097
0.4809651 0.5040004 0.3899911
0.5054198 0.5054199 0.4015825
0.5308340 0.5077676 0.4164034
0.5568971 0.5115500 0.4343412
0.5834220 0.5173945 0.4550014
0.6102962 0.5259476 0.4778416
0.6374401 0.5377105 0.5023081
0.6647872 0.5528766 0.5279220
0.6922805 0.5712645 0.5543121
0.7198745 0.5923957 0.5812114
0.7475354 0.6156591 0.6084379
0.7752395 0.6404647 0.6358718
0.8029713 0.6663282 0.6634357
0.8307204 0.6928913 0.6910808
0.8584804 0.7199059 0.7187764
0.8862472 0.7472070 0.7465034
0.9140182 0.7746883 0.7742497
0.9417917 0.8022822 0.8020080
0.9695669 0.8299460 0.8297738
0.9973430 0.8576532 0.8575441
0.3917285 0.5296433 0.3917225
0.3917698 0.5296435 0.3917261
0.3918365 0.5296439 0.3917318
0.3919443 0.5296444 0.3917411
0.3921183 0.5296453 0.3917561
0.3923988 0.5296468 0.3917804
0.3928498 0.5296491 0.3918197
0.3935721 0.5296529 0.3918832
0.3947222 0.5296590 0.3919859
0.3965358 0.5296689 0.3921516
0.3993543 0.5296849 0.3924187
0.4036408 0.5297109 0.3928483
0.4099624 0.5297531 0.3935364
0.4189107 0.5298219 0.3946324
0.4309537 0.5299344 0.3963613
0.4462727 0.5301189 0.3990501
0.4646857 0.5304239 0.4031437
0.4857141 0.5309313 0.4091907
0.5087467 0.5317801 0.4177716
0.5331996 0.5331998 0.4293623
0.5586127 0.5355476 0.4441826
0.5846753 0.5393300 0.4621200
0.6111999 0.5451744 0.4827798
0.6380740 0.5537273 0.5056198
0.6652179 0.5654900 0.5300862
0.6925650 0.5806557 0.5557000
0.7200583 0.5990433 0.5820900
0.7476523 0.6201742 0.6089892
0.7753131 0.6434374 0.6362157
0.8030173 0.6682428 0.6636496
0.8307491 0.6941062 0.6912135
0.8584982 0.7206692 0.7188586
0.8862582 0.7476837 0.7465542
0.9140250 0.7749848 0.7742811
0.9417959 0.8024661 0.8020275
0.9695695 0.8300600 0.8297858
0.9973447 0.8577238 0.8575516
0.4195071 0.5574219 0.4195011
0.4195326 0.5574221 0.4195033
0.4195739 0.5574223 0.4195069
0.4196406 0.5574226 0.4195126
0.4197483 0.5574232 0.4195219
0.4199222 0.5574240 0.4195369
0.4202026 0.5574255 0.4195612
0.4206533 0.5574278 0.4196005
0.4213754 0.5574316 0.4196640
0.4225249 0.5574377 0.4197666
0.4243377 0.5574476 0.4199323
0.4271550 0.5574636 0.4201994
0.4314397 0.5574896 0.4206290
0.4377589 0.5575319 0.4213171
0.4467043 0.5576007 0.4224129
0.4587441 0.5577131 0.4241418
0.4740598 0.5578977 0.4268304
0.4924699 0.5582028 0.4309238
0.5134960 0.5587102 0.4369705
0.5365269 0.5595591 0.4455511
0.5609787 0.5609788 0.4571414
0.5863911 0.5633267 0.4719613
0.6124533 0.5671092 0.4898984
0.6389778 0.5729536 0.5105580
0.6658518 0.5815064 0.5333978
0.6929956 0.5932688 0.5578641
0.7203427 0.6084343 0.5834778
0.7478361 0.6268217 0.6098678
0.7754300 0.6479524 0.6367671
0.8030909 0.6712154 0.6639935
0.8307951 0.6960207 0.6914273
0.8585269 0.7218841 0.7189913
0.8862760 0.7484471 0.7466364
0.9140360 0.7754615 0.7743320
0.9418028 0.8027626 0.8020589
0.9695737 0.8302439 0.8298053
0.9973473 0.8578377 0.8575636
0.4472854 0.5852002 0.4472794
0.4473012 0.5852003 0.4472808
0.4473267 0.5852004 0.4472830
0.4473679 0.5852006 0.4472865
0.4474346 0.5852010 0.4472922
0.4475423 0.5852015 0.4473015
0.4477161 0.5852024 0.4473165
0.4479964 0.5852038 0.4473408
0.4484470 0.5852062 0.4473801
0.4491689 0.5852099 0.4474436
0.4503181 0.5852161 0.4475463
0.4521303 0.5852260 0.4477120
