release/datafiles/colormanagement/luts/rec709_aces_rrt_srgb.3dl
0 256 512 767 1023
0 0 0
0 354 1808
0 661 2699
0 864 3189
0 1021 3497
59 1633 0
175 1769 1871
0 1846 2747
374 1901 3221
195 1956 3522
425 2515 0
348 2578 1847
518 2593 2712
730 2587 3192
769 2583 3497
767 3020 0
1036 3055 1818
931 3048 2661
885 3023 3140
1013 2997 3447
968 3340 0
1341 3362 1806
1445 3348 2616
1386 3315 3086
1421 3281 3390
1750 0 0
1503 492 1826
1420 785 2720
1378 981 3208
1426 1130 3515
1851 1825 0
1858 1858 1858
1777 1935 2734
1724 1986 3214
1741 2031 3517
1955 2616 0
2007 2633 1838
1940 2630 2688
1898 2627 3171
1907 2624 3478
2087 3073 0
2126 3083 1810
2097 3059 2635
2095 3039 3114
2074 3015 3421
2271 3370 0
2272 3380 1801
2235 3348 2593
2226 3317 3061
2223 3285 3365
2466 0 0
2454 606 1823
2386 914 2715
2323 1095 3210
2295 1227 3516
2682 1870 0
2671 1930 1817
2580 2006 2705
2505 2055 3193
2469 2096 3502
2764 2666 0
2763 2693 1838
2658 2658 2658
2589 2659 3144
2541 2657 3451
2805 3106 0
2794 3113 1805
2709 3079 2619
2643 3049 3086
2605 3030 3395
2859 3390 0
2862 3397 1798
2779 3355 2577
2714 3315 3034
2676 3287 3339
2997 62 0
3096 536 1766
3006 1036 2690
2920 1197 3192
2856 1331 3504
3174 1885 0
3165 1950 1729
3085 2046 2655
3009 2111 3164
2940 2150 3477
3268 2673 0
3228 2696 1791
3073 2646 2588
3029 2684 3111
2970 2686 3423
3273 3113 0
3248 3130 1794
3153 3101 2605
3057 3057 3057
2994 3040 3366
3268 3387 0
3239 3396 1786
3155 3363 2563
3078 3322 3015
3014 3287 3313
3288 228 0
3466 562 1637
3443 1124 2651
3348 1301 3164
3271 1418 3483
3520 1899 0
3493 1958 1635
3440 2052 2584
3390 2163 3131
3304 2202 3447
3613 2663 0
3567 2692 1747
3398 2641 2528
3358 2694 3065
3297 2709 3392
3608 3105 0
3568 3124 1767
3450 3093 2563
3324 3038 3000
3280 3050 3337
3581 3379 0
3555 3398 1777
3459 3371 2550
3366 3332 3000
3288 3288 3288
