release/datafiles/colormanagement/luts/rec709_aces_rrt_xyz.3dl
0 128 256 384 512 639 767 895 1023
4 4 4
526 423 1208
852 689 1882
1086 885 2325
1264 1037 2636
1405 1160 2864
1525 1266 3042
1628 1357 3180
1719 1440 3297
685 978 369
950 1132 1320
1190 1277 1957
1378 1395 2384
1519 1492 2686
1639 1574 2907
1740 1648 3080
1827 1712 3215
1906 1773 3329
1142 1572 596
1326 1665 1416
1500 1756 2015
1647 1831 2427
1759 1886 2723
1856 1938 2938
1939 1985 3107
2009 2029 3241
2074 2070 3351
1471 1978 752
1617 2048 1498
1754 2114 2059
1873 2164 2457
1968 2203 2745
2042 2233 2957
2110 2261 3123
2173 2290 3255
2228 2317 3362
1726 2279 869
1848 2335 1565
1962 2382 2093
2057 2420 2474
2138 2449 2754
2206 2471 2966
2263 2488 3128
2312 2504 3261
2357 2519 3367
1933 2509 971
2035 2555 1625
2131 2592 2122
2215 2621 2488
2284 2641 2759
2342 2657 2969
2390 2668 3128
2436 2680 3261
2473 2689 3364
2104 2693 1059
2197 2735 1677
2277 2764 2150
2347 2784 2500
2408 2800 2763
2460 2810 2968
2501 2817 3125
2540 2825 3257
2573 2828 3360
2246 2839 1136
2328 2875 1728
2399 2899 2174
2461 2916 2509
2515 2928 2765
2560 2937 2966
2597 2941 3121
2631 2946 3251
2658 2947 3351
2370 2964 1204
2444 2996 1776
2507 3017 2199
2562 3031 2521
2609 3039 2768
2648 3045 2963
2680 3045 3115
2711 3047 3243
2734 3046 3342
837 631 0
933 742 1229
1183 952 1900
1373 1114 2341
1517 1238 2651
1635 1343 2879
1736 1434 3057
1825 1514 3195
1903 1586 3311
1194 1281 510
1312 1337 1342
1495 1465 1968
1643 1571 2393
1756 1653 2695
1853 1722 2917
1936 1785 3090
2006 1839 3225
2073 1892 3338
1511 1766 689
1632 1825 1444
1759 1894 2021
1877 1960 2432
1970 2012 2728
2045 2055 2942
2113 2094 3111
2174 2133 3245
2229 2169 3355
1766 2124 824
1876 2177 1523
1975 2220 2063
2069 2263 2458
2149 2299 2744
2212 2329 2957
2269 2353 3123
2319 2378 3256
2363 2400 3363
1970 2394 926
2069 2442 1589
2154 2473 2098
2233 2503 2474
2299 2527 2753
2353 2545 2964
2400 2561 3126
2444 2576 3258
2482 2590 3364
2138 2601 1015
2227 2643 1643
2303 2671 2130
2367 2690 2486
2424 2708 2756
2474 2721 2964
2513 2729 3124
2551 2739 3258
2583 2748 3361
2280 2769 1105
2360 2807 1693
2425 2828 2155
2481 2843 2496
2533 2856 2759
2576 2865 2964
2611 2869 3120
2643 2874 3252
2670 2877 3354
2400 2905 1163
2472 2937 1742
2531 2956 2179
2585 2971 2510
2626 2977 2760
2664 2984 2960
2695 2986 3114
2725 2989 3245
2747 2989 3345
2507 3022 1231
2571 3050 1789
2625 3067 2205
2671 3078 2521
2707 3080 2762
2743 3085 2956
2769 3084 3109
2796 3085 3237
2817 3082 3337
1361 1029 0
1342 1056 1279
1499 1201 1914
1643 1328 2354
1758 1431 2663
1852 1516 2891
1936 1593 3068
2006 1658 3205
2074 1722 3321
1538 1484 570
1678 1586 1397
1761 1642 1977
1879 1732 2400
1968 1801 2703
2046 1859 2923
2115 1913 3096
2173 1962 3232
2228 2008 3343
1825 1946 776
1921 2001 1486
1983 2019 2026
2078 2079 2434
2157 2127 2727
2216 2166 2944
2273 2200 3112
2322 2232 3247
2366 2262 3356
2022 2263 891
2111 2309 1554
2184 2336 2078
2247 2360 2455
2310 2390 2741
2363 2414 2954
2408 2436 3120
2450 2456 3254
2487 2475 3360
2189 2506 982
2268 2544 1612
2329 2562 2110
2384 2579 2471
2440 2601 2748
2487 2617 2959
2526 2630 3122
2561 2643 3255
2592 2654 3361
2326 2696 1054
2399 2729 1662
2453 2742 2136
2501 2753 2484
2549 2767 2751
2591 2780 2960
2625 2788 3119
2657 2796 3253
2681 2802 3356
2444 2849 1134
2512 2881 1710
2563 2893 2164
2606 2901 2499
2643 2906 2753
2679 2912 2957
2709 2916 3114
2737 2920 3246
2760 2923 3347
2544 2973 1182
2607 3002 1758
2655 3015 2188
2695 3021 2511
2724 3020 2754
2758 3025 2953
2784 3027 3108
2810 3028 3239
2830 3028 3339
2632 3079 1253
2689 3105 1801
2735 3118 2212
2770 3121 2522
2799 3121 2759
2828 3121 2950
2851 3120 3103
2872 3119 3231
2889 3115 3330
1603 1220 0
1705 1320 1314
1768 1416 1922
1883 1520 2360
1971 1602 2671
2048 1674 2898
2117 1737 3075
2173 1794 3213
2227 1846 3328
1800 1650 542
1921 1744 1370
1995 1805 1986
2085 1878 2402
2160 1936 2704
2220 1986 2925
2275 2031 3098
2324 2072 3233
2368 2110 3345
2055 2076 827
2132 2124 1486
2186 2145 2026
2257 2191 2432
2319 2233 2726
2370 2264 2941
2414 2294 3111
2455 2320 3247
2492 2345 3355
2239 2381 949
2315 2425 1577
2368 2444 2096
2398 2443 2451
2452 2471 2735
2496 2493 2950
2535 2513 3116
2569 2531 3251
2598 2547 3358
2373 2603 1030
2441 2638 1629
2490 2652 2121
2528 2659 2474
2566 2668 2741
2605 2681 2954
2637 2691 3116
2665 2701 3249
2690 2709 3355
2487 2775 1094
2549 2806 1677
2595 2818 2147
2633 2825 2491
2660 2825 2744
2696 2834 2952
2723 2840 3112
2751 2847 3246
2771 2851 3349
2586 2918 1170
2644 2946 1725
2685 2953 2172
2716 2955 2500
2744 2956 2749
2773 2959 2950
2799 2962 3107
2823 2966 3239
2842 2967 3341
2668 3031 1212
2722 3057 1769
2764 3067 2195
2793 3067 2512
2817 3064 2753
2843 3065 2947
2867 3066 3102
2887 3067 3232
2902 3065 3331
2743 3130 1280
2795 3154 1812
2834 3164 2218
2860 3163 2523
2885 3159 2759
2902 3154 2943
2922 3151 3095
2940 3149 3222
2954 3147 3322
1817 1391 0
1946 1500 1270
1999 1597 1932
2090 1687 2362
2163 1755 2673
2223 1813 2900
2276 1868 3078
2325 1915 3215
2369 1959 3330
2011 1790 517
2119 1878 1335
2194 1936 1985
2264 2005 2401
2324 2055 2703
2374 2097 2923
2418 2136 3096
2457 2170 3233
2494 2203 3345
2234 2172 860
2301 2221 1477
2351 2247 2020
2404 2282 2420
2462 2324 2719
2504 2353 2938
2541 2379 3106
2574 2402 3244
2602 2423 3354
2410 2473 992
2469 2509 1578
2506 2520 2083
2523 2513 2433
2579 2548 2729
2616 2567 2945
2646 2583 3110
2674 2597 3245
2698 2610 3352
2528 2683 1070
2590 2719 1643
2632 2733 2133
2659 2734 2481
2675 2726 2735
2708 2738 2945
2735 2747 3109
2759 2757 3243
2780 2765 3348
2624 2845 1130
2679 2874 1689
2719 2885 2155
2747 2887 2494
2765 2881 2743
2790 2883 2945
2813 2888 3105
2836 2894 3240
2853 2895 3342
2706 2975 1192
2757 3001 1735
2795 3011 2178
2820 3009 2503
2844 3009 2752
2859 3002 2942
2881 3003 3099
2899 3005 3232
2913 3004 3333
2778 3082 1241
2827 3107 1781
2863 3116 2201
2888 3115 2515
2907 3111 2754
2920 3104 2941
2937 3101 3093
2955 3102 3223
2968 3100 3324
2844 3176 1311
2891 3199 1824
2923 3205 2224
2943 3201 2525
2959 3194 2756
2975 3189 2941
2987 3182 3087
3003 3180 3214
3016 3177 3314
1997 1535 0
2123 1641 1206
2195 1746 1931
2267 1833 2362
2328 1889 2671
2376 1938 2900
2420 1984 3077
2457 2023 3216
2495 2063 3331
2189 1915 368
2277 1990 1295
2348 2041 1958
2412 2111 2390
2469 2165 2696
2509 2201 2920
2546 2234 3093
2577 2262 3230
2605 2288 3343
2377 2254 871
2434 2300 1453
2479 2324 1993
2526 2357 2399
2589 2412 2713
2623 2435 2931
2652 2457 3101
2679 2475 3237
2703 2493 3347
2537 2536 1017
2590 2571 1570
2621 2583 2067
2630 2572 2414
2681 2608 2713
2719 2631 2936
2744 2644 3103
2769 2657 3239
2789 2668 3346
2663 2753 1105
2711 2781 1649
2740 2790 2126
2752 2781 2464
2759 2767 2710
2802 2794 2937
2825 2801 3101
2846 2810 3237
2862 2815 3342
2740 2901 1159
2790 2930 1697
2827 2944 2161
2850 2943 2497
2864 2937 2746
2875 2929 2939
2893 2931 3097
2911 2935 3231
2924 2936 3334
2811 3024 1203
2857 3051 1744
2893 3061 2183
2916 3061 2507
2933 3056 2753
2938 3043 2939
2951 3039 3091
2966 3040 3223
2978 3039 3325
2874 3127 1258
2919 3152 1789
2951 3159 2204
2970 3157 2516
2983 3150 2753
2995 3143 2939
3002 3134 3085
3018 3134 3215
3029 3130 3316
2930 3215 1330
2970 3234 1829
2999 3241 2225
3018 3238 2525
3030 3230 2755
3044 3224 2939
3049 3213 3081
3062 3209 3206
3073 3205 3307
2152 1662 0
2263 1756 1137
2346 1852 1903
2417 1949 2353
2472 2009 2667
2511 2049 2897
2547 2086 3075
2578 2122 3214
2606 2155 3329
2319 2005 342
2388 2064 1249
2466 2122 1918
2537 2201 2375
2595 2262 2691
2628 2291 2913
2656 2319 3088
2683 2343 3226
2706 2366 3338
2493 2323 865
2547 2369 1428
2589 2394 1969
2627 2420 2376
2686 2472 2691
2728 2507 2923
2752 2525 3093
2774 2543 3231
2795 2558 3341
2648 2594 1039
2694 2626 1564
2717 2635 2052
2718 2619 2392
2758 2646 2684
2813 2689 2928
2834 2701 3095
2855 2713 3233
2870 2722 3340
2758 2797 1124
2801 2825 1641
2827 2834 2113
2837 2825 2448
2834 2806 2689
2881 2839 2923
2905 2849 3092
2921 2855 3227
2933 2859 3334
2843 2952 1185
2888 2981 1705
2919 2991 2161
2934 2987 2491
2935 2971 2729
2935 2956 2915
2964 2972 3087
2979 2974 3222
2990 2975 3325
2905 3070 1226
2948 3096 1752
2978 3104 2186
2996 3103 2507
3008 3096 2751
3011 3083 2937
3015 3073 3083
3029 3073 3215
3040 3072 3316
2956 3165 1273
2996 3187 1793
3026 3196 2205
3044 3195 2515
3054 3187 2752
3064 3179 2938
3067 3168 3081
3077 3163 3207
3086 3159 3308
3002 3246 1338
3041 3266 1833
3069 3274 2227
3088 3273 2526
3098 3263 2754
3108 3256 2937
3112 3245 3079
3116 3235 3198
3124 3229 3299
2255 1748 0
2352 1833 1071
2464 1936 1868
2546 2054 2344
2596 2112 2660
2630 2148 2890
2658 2180 3070
2683 2209 3209
2707 2237 3324
2418 2072 388
2488 2133 1217
2564 2191 1879
2635 2269 2349
2695 2333 2672
2733 2371 2906
2757 2395 3081
2777 2418 3221
2798 2438 3333
2593 2385 864
2640 2425 1408
2671 2443 1939
2706 2466 2342
2766 2521 2666
2822 2572 2915
2843 2589 3085
2861 2604 3224
2875 2616 3334
2740 2641 1055
2780 2673 1552
2799 2680 2033
2797 2665 2371
2830 2687 2659
2888 2735 2910
2915 2755 3086
2930 2763 3223
2942 2770 3332
2843 2837 1142
2882 2865 1635
2907 2874 2102
2912 2864 2433
2899 2838 2667
2935 2862 2895
2975 2892 3083
2989 2896 3218
2999 2899 3324
2924 2990 1202
2962 3015 1700
2988 3024 2149
2997 3018 2474
2992 2998 2708
2989 2980 2893
3023 3003 3073
3042 3011 3213
3052 3010 3316
2985 3106 1246
3023 3131 1756
3052 3141 2186
3065 3138 2502
3071 3127 2742
3066 3108 2920
3064 3094 3062
3089 3107 3206
3098 3105 3308
3028 3197 1296
3066 3220 1798
3095 3230 2207
3113 3231 2516
3121 3222 2751
3128 3214 2937
3129 3201 3079
3129 3190 3200
3135 3184 3300
3069 3275 1348
3106 3295 1837
3134 3304 2228
3152 3305 2526
3161 3295 2753
3166 3285 2935
3167 3273 3077
3166 3260 3193
3169 3252 3291
2338 1820 0
2427 1897 1009
2545 2002 1813
2634 2118 2310
2700 2195 2647
2734 2236 2883
2758 2264 3062
2779 2289 3205
2799 2313 3320
2503 2133 404
2569 2191 1190
2634 2240 1837
2704 2312 2304
2784 2397 2655
2823 2440 2895
2847 2466 3073
2864 2485 3213
2878 2502 3327
2677 2435 871
2719 2473 1391
2745 2488 1912
2776 2508 2310
2840 2566 2643
2890 2614 2891
2922 2645 3077
2935 2657 3214
2947 2668 3326
2815 2683 1054
2853 2714 1534
2870 2722 2011
2866 2706 2349
2891 2721 2634
2945 2766 2884
2985 2802 3076
2998 2810 3214
3008 2815 3322
2920 2875 1158
2954 2901 1634
2975 2909 2092
2977 2898 2419
2959 2869 2650
2985 2884 2869
3029 2919 3062
3053 2935 3210
3061 2937 3316
2991 3020 1216
3025 3044 1698
3050 3053 2138
3055 3046 2459
3049 3026 2694
3039 3004 2873
3068 3022 3048
3101 3045 3205
3109 3044 3308
3049 3134 1260
3083 3157 1755
3108 3166 2175
3119 3163 2488
3123 3152 2726
3113 3129 2901
3110 3114 3043
3136 3132 3193
3146 3132 3299
3095 3227 1317
3131 3250 1803
3160 3262 2208
3176 3262 2515
3179 3251 2746
3177 3236 2926
3170 3219 3064
3166 3204 3180
3180 3208 3291
3132 3302 1365
3167 3322 1842
3194 3333 2230
3208 3331 2525
3214 3322 2751
3217 3312 2932
3217 3300 3074
3215 3286 3190
3212 3273 3284
