release/datafiles/colormanagement/luts/rec709_aces_rrt_p3dci.3dl
0 256 512 767 1023
5 4 5
0 592 2019
0 891 2827
0 1089 3262
0 1243 3534
524 1820 350
776 1944 2128
859 2012 2901
676 2062 3317
964 2112 3579
1371 2608 543
1558 2664 2175
1538 2679 2911
1513 2675 3320
1680 2673 3582
1875 3054 724
1975 3085 2206
2014 3080 2900
2024 3057 3301
2062 3036 3560
2255 3334 889
2313 3353 2238
2340 3341 2890
2334 3314 3278
2352 3284 3531
1917 304 0
1719 832 2050
1675 1083 2855
1666 1256 3288
1727 1391 3558
2185 2023 625
2192 2052 2137
2152 2118 2902
2130 2162 3320
2151 2203 3583
2439 2717 734
2473 2732 2189
2434 2730 2900
2412 2726 3311
2418 2724 3572
2653 3115 851
2682 3124 2218
2653 3103 2887
2637 3083 3288
2624 3063 3546
2847 3371 965
2859 3380 2250
2827 3353 2878
2808 3326 3263
2795 3297 3516
2553 569 0
2561 1035 2067
2518 1264 2862
2480 1410 3298
2469 1522 3567
2857 2095 741
2856 2144 2125
2793 2206 2890
2742 2246 3311
2721 2280 3578
3044 2782 867
3048 2803 2210
2958 2770 2884
2909 2769 3296
2875 2767 3557
3156 3157 946
3152 3163 2231
3087 3134 2884
3033 3105 3271
3001 3087 3529
3258 3400 1059
3258 3405 2262
3191 3368 2874
3137 3333 3246
3107 3308 3499
3016 777 0
3114 1097 2034
3056 1420 2853
2994 1541 3292
2950 1646 3565
3263 2132 737
3265 2187 2067
3208 2264 2858
3156 2317 3294
3108 2347 3563
3436 2804 949
3409 2821 2185
3283 2774 2833
3255 2805 3277
3208 2804 3540
3510 3176 998
3495 3189 2237
3417 3162 2881
3335 3122 3251
3287 3105 3510
3555 3408 1103
3537 3415 2263
3469 3384 2870
3405 3348 3236
3353 3317 3480
3271 933 0
3431 1159 1935
3431 1534 2830
3361 1662 3276
3305 1749 3553
3547 2163 738
3532 2209 2002
3498 2287 2805
3469 2378 3275
3405 2406 3544
3709 2807 1000
3674 2831 2160
3534 2781 2789
3511 2823 3243
3465 2834 3520
3765 3180 1052
3737 3195 2224
3644 3165 2853
3538 3114 3207
3508 3123 3490
3789 3410 1149
3772 3425 2265
3696 3399 2866
3619 3363 3229
3552 3325 3463
