release/datafiles/colormanagement/luts/rec709_aces_rrt_xyz.3dl
0 256 512 767 1023
4 4 4
852 689 1882
1264 1037 2636
1525 1266 3042
1719 1440 3297
1142 1572 596
1500 1756 2015
1759 1886 2723
1939 1985 3107
2074 2070 3351
1726 2279 869
1962 2382 2093
2138 2449 2754
2263 2488 3128
2357 2519 3367
2104 2693 1059
2277 2764 2150
2408 2800 2763
2501 2817 3125
2573 2828 3360
2370 2964 1204
2507 3017 2199
2609 3039 2768
2680 3045 3115
2734 3046 3342
1361 1029 0
1499 1201 1914
1758 1431 2663
1936 1593 3068
2074 1722 3321
1825 1946 776
1983 2019 2026
2157 2127 2727
2273 2200 3112
2366 2262 3356
2189 2506 982
2329 2562 2110
2440 2601 2748
2526 2630 3122
2592 2654 3361
2444 2849 1134
2563 2893 2164
2643 2906 2753
2709 2916 3114
2760 2923 3347
2632 3079 1253
2735 3118 2212
2799 3121 2759
2851 3120 3103
2889 3115 3330
1817 1391 0
1999 1597 1932
2163 1755 2673
2276 1868 3078
2369 1959 3330
2234 2172 860
2351 2247 2020
2462 2324 2719
2541 2379 3106
2602 2423 3354
2528 2683 1070
2632 2733 2133
2675 2726 2735
2735 2747 3109
2780 2765 3348
2706 2975 1192
2795 3011 2178
2844 3009 2752
2881 3003 3099
2913 3004 3333
2844 3176 1311
2923 3205 2224
2959 3194 2756
2987 3182 3087
3016 3177 3314
2152 1662 0
2346 1852 1903
2472 2009 2667
2547 2086 3075
2606 2155 3329
2493 2323 865
2589 2394 1969
2686 2472 2691
2752 2525 3093
2795 2558 3341
2758 2797 1124
2827 2834 2113
2834 2806 2689
2905 2849 3092
2933 2859 3334
2905 3070 1226
2978 3104 2186
3008 3096 2751
3015 3073 3083
3040 3072 3316
3002 3246 1338
3069 3274 2227
3098 3263 2754
3112 3245 3079
3124 3229 3299
2338 1820 0
2545 2002 1813
2700 2195 2647
2758 2264 3062
2799 2313 3320
2677 2435 871
2745 2488 1912
2840 2566 2643
2922 2645 3077
2947 2668 3326
2920 2875 1158
2975 2909 2092
2959 2869 2650
3029 2919 3062
3061 2937 3316
3049 3134 1260
3108 3166 2175
3123 3152 2726
3110 3114 3043
3146 3132 3299
3132 3302 1365
3194 3333 2230
3214 3322 2751
3217 3300 3074
3212 3273 3284
