release/datafiles/colormanagement/luts/rec709_aces_rrt_p3dci.3dl
0 128 256 384 512 639 767 895 1023
5 4 5
0 367 1296
0 592 2019
0 760 2493
0 891 2827
0 996 3071
0 1089 3262
0 1170 3410
0 1243 3534
293 1142 204
274 1262 1395
0 1368 2086
339 1448 2547
36 1517 2871
165 1574 3109
320 1628 3295
448 1673 3441
578 1717 3562
524 1820 350
903 1884 1465
776 1944 2128
746 1984 2579
859 2012 2901
725 2038 3134
676 2062 3317
812 2089 3461
964 2112 3579
1022 2276 458
1152 2320 1519
1258 2358 2157
1208 2378 2595
1045 2390 2912
1207 2398 3143
1318 2405 3324
1240 2415 3468
1297 2425 3584
1371 2608 543
1473 2641 1565
1558 2664 2175
1539 2676 2601
1538 2679 2911
1454 2677 3143
1513 2675 3320
1646 2674 3466
1680 2673 3582
1643 2858 639
1737 2884 1605
1784 2897 2190
1806 2904 2603
1792 2901 2905
1813 2895 3136
1813 2886 3312
1818 2880 3458
1871 2874 3571
1875 3054 724
1939 3076 1645
1975 3085 2206
2010 3085 2605
2014 3080 2900
2001 3069 3128
2024 3057 3301
2031 3048 3447
2062 3036 3560
2085 3206 815
2142 3224 1686
2159 3230 2221
2178 3227 2606
2189 3221 2894
2188 3211 3118
2196 3197 3291
2206 3186 3435
2217 3172 3545
2255 3334 889
2298 3349 1726
2313 3353 2238
2329 3349 2609
2340 3341 2890
2341 3331 3109
2334 3314 3278
2335 3299 3421
2352 3284 3531
1180 146 8
1050 500 1317
1005 708 2037
788 865 2510
807 985 2842
858 1086 3087
894 1173 3277
887 1248 3424
937 1316 3548
1421 1336 408
1451 1359 1415
1439 1453 2097
1393 1533 2557
1381 1595 2882
1298 1646 3119
1306 1693 3304
1421 1737 3450
1477 1779 3571
1636 1932 503
1710 1961 1490
1700 2001 2135
1680 2038 2584
1648 2067 2904
1660 2091 3137
1695 2114 3320
1702 2137 3465
1724 2159 3582
1824 2353 581
1898 2380 1543
1903 2397 2160
1908 2417 2596
1889 2429 2910
1885 2436 3142
1881 2443 3323
1909 2452 3468
1943 2460 3584
2005 2663 646
2067 2689 1587
2075 2695 2178
2071 2703 2598
2070 2706 2907
2081 2704 3139
2085 2702 3317
2080 2701 3462
2097 2699 3577
2176 2897 719
2230 2918 1622
2233 2925 2197
2225 2922 2599
2230 2920 2899
2220 2914 3130
2236 2906 3307
2254 2901 3454
2260 2895 3567
2329 3085 810
2373 3102 1661
2375 3102 2210
2371 3097 2599
2362 3092 2893
2365 3084 3122
2366 3071 3296
2373 3062 3441
2388 3050 3554
2465 3229 861
2504 3243 1700
2508 3244 2226
2502 3240 2605
2490 3230 2888
2486 3221 3111
2479 3207 3283
2477 3196 3427
2489 3183 3538
2586 3353 934
2622 3366 1740
2622 3367 2244
2610 3359 2609
2600 3345 2882
2590 3335 3101
2592 3321 3271
2585 3306 3413
2593 3291 3524
1917 304 0
1733 630 1370
1719 832 2050
1703 971 2522
1675 1083 2855
1679 1175 3098
1666 1256 3288
1697 1324 3434
1727 1391 3558
1977 1417 482
2064 1493 1469
1999 1537 2103
1982 1610 2561
1963 1666 2888
1940 1712 3124
1944 1756 3310
1960 1799 3456
1968 1838 3576
2185 2023 625
2235 2055 1531
2192 2052 2137
2178 2089 2584
2152 2118 2902
2146 2141 3138
2130 2162 3320
2134 2182 3466
2151 2203 3583
2317 2424 683
2365 2445 1572
2347 2448 2173
2317 2452 2591
2304 2465 2906
2290 2471 3138
2295 2477 3319
2291 2485 3464
2298 2492 3580
2439 2717 734
2489 2735 1608
2473 2732 2189
2449 2727 2594
2434 2730 2900
2418 2729 3132
2412 2726 3311
2419 2727 3458
2418 2724 3572
2550 2939 777
2589 2954 1641
2584 2948 2201
2569 2940 2596
2553 2936 2893
2546 2933 3125
2530 2925 3300
2522 2919 3447
2527 2914 3560
2653 3115 851
2687 3129 1678
2682 3124 2218
2668 3114 2601
2653 3103 2887
2645 3094 3115
2637 3083 3288
2624 3074 3433
2624 3063 3546
2757 3253 886
2783 3267 1717
2777 3264 2235
2758 3253 2605
2743 3237 2880
2728 3228 3103
2726 3216 3276
2721 3206 3421
2719 3193 3531
2847 3371 965
2865 3382 1752
2859 3380 2250
2842 3367 2608
2827 3353 2878
2813 3340 3094
2808 3326 3263
2805 3313 3406
2795 3297 3516
2255 446 0
2290 661 1407
2189 950 2058
2178 1075 2528
2153 1177 2861
2136 1260 3104
2132 1332 3294
2144 1400 3442
2154 1460 3565
2377 1477 387
2461 1549 1436
2409 1611 2111
2386 1681 2561
2360 1730 2887
2342 1776 3126
2326 1818 3311
2321 1856 3457
2327 1891 3577
2568 2073 696
2601 2102 1528
2560 2102 2134
2529 2137 2578
2510 2166 2899
2482 2185 3133
2473 2205 3317
2464 2223 3464
2463 2242 3581
2690 2471 768
2727 2498 1594
2702 2499 2189
2652 2482 2586
2624 2495 2897
2604 2503 3132
2586 2509 3312
2580 2517 3460
2575 2523 3576
2773 2756 807
2805 2773 1624
2784 2768 2199
2746 2757 2596
2716 2750 2892
2703 2752 3126
2685 2749 3304
2674 2747 3449
2673 2746 3565
2860 2971 841
2884 2984 1657
2865 2978 2212
2835 2967 2602
2802 2952 2885
2782 2947 3116
2770 2942 3292
2753 2936 3439
2748 2929 3552
2931 3141 911
2959 3154 1694
2941 3145 2226
2912 3130 2601
2886 3115 2882
2862 3105 3106
2848 3095 3280
2837 3087 3426
2829 3076 3538
3000 3272 935
3019 3284 1728
3008 3280 2241
2985 3265 2605
2961 3249 2878
2940 3236 3096
2924 3225 3268
2911 3215 3412
2896 3202 3523
3064 3386 1008
3080 3396 1764
3072 3393 2256
3049 3378 2609
3027 3362 2877
3007 3344 3086
2987 3329 3255
2973 3317 3397
2964 3304 3508
2553 569 0
2657 722 1357
2561 1035 2067
2543 1171 2528
2518 1264 2862
2494 1339 3107
2480 1410 3298
2469 1469 3445
2469 1522 3567
2694 1536 333
2774 1606 1392
2750 1658 2109
2711 1743 2559
2682 1792 2884
2651 1834 3122
2631 1873 3308
2621 1907 3456
2612 1940 3576
2857 2095 741
2885 2132 1514
2856 2144 2125
2817 2173 2564
2793 2206 2890
2768 2227 3128
2742 2246 3311
2729 2263 3460
2721 2280 3578
2981 2503 830
3000 2525 1592
2958 2521 2174
2893 2499 2564
2877 2524 2889
2851 2533 3125
2829 2539 3305
2809 2544 3452
2799 2550 3569
3044 2782 867
3073 2804 1637
3048 2803 2210
3003 2789 2603
2958 2770 2884
2928 2770 3116
2909 2769 3296
2888 2768 3442
2875 2767 3557
3102 2991 896
3121 3007 1668
3098 3003 2219
3062 2989 2603
3020 2972 2883
2991 2962 3108
2972 2956 3283
2961 2952 3432
2948 2944 3544
3156 3157 946
3170 3168 1704
3152 3163 2231
3118 3147 2603
3087 3134 2884
3055 3115 3097
3033 3105 3271
3015 3097 3417
3001 3087 3529
3211 3289 984
3223 3299 1740
3208 3295 2247
3176 3280 2608
3142 3263 2879
3111 3245 3089
3084 3231 3258
3066 3222 3402
3054 3211 3514
3258 3400 1059
3272 3410 1776
3258 3405 2262
3224 3387 2611
3191 3368 2874
3164 3351 3082
3137 3333 3246
3119 3321 3387
3107 3308 3499
2803 677 0
2923 806 1287
2874 1096 2066
2844 1261 2527
2811 1342 2859
2781 1415 3104
2757 1479 3295
2745 1533 3445
2731 1588 3568
2951 1585 260
3016 1648 1345
3004 1688 2078
2966 1786 2545
2937 1849 2875
2907 1890 3118
2878 1926 3305
2858 1956 3453
2846 1986 3573
3084 2114 752
3106 2154 1485
3077 2166 2094
3038 2192 2541
3027 2246 2882
2992 2264 3119
2967 2284 3304
2942 2298 3451
2925 2314 3570
3191 2510 865
3207 2535 1582
3167 2537 2155
3099 2513 2543
3083 2542 2871
3060 2558 3115
3035 2565 3296
3014 2571 3446
2996 2576 3562
3275 2805 919
3286 2822 1642
3251 2818 2201
3192 2796 2583
3129 2771 2857
3119 2789 3107
3093 2787 3287
3075 2789 3435
3055 2787 3549
3306 3005 941
3321 3022 1676
3301 3023 2224
3261 3011 2606
3217 2994 2884
3180 2976 3100
3148 2969 3274
3126 2964 3422
3108 2957 3535
3343 3166 962
3354 3179 1712
3336 3178 2236
3301 3165 2607
3264 3150 2884
3221 3127 3092
3190 3113 3261
3168 3105 3406
3154 3096 3520
3385 3298 1010
3393 3309 1749
3372 3305 2249
3335 3291 2607
3298 3274 2876
3263 3256 3086
3231 3238 3248
3209 3228 3392
3193 3216 3504
3422 3408 1091
3424 3415 1783
3404 3410 2263
3371 3395 2610
3337 3376 2871
3306 3360 3079
3276 3339 3239
3253 3325 3377
3238 3313 3490
3016 777 0
3127 893 1209
3114 1097 2034
3085 1319 2516
3056 1420 2853
3022 1485 3100
2994 1541 3292
2967 1597 3441
2950 1646 3565
3142 1618 159
3188 1672 1291
3200 1712 2032
3179 1824 2527
3159 1903 2868
3118 1938 3110
3089 1973 3298
3060 2001 3446
3038 2030 3566
3263 2132 737
3287 2174 1454
3265 2187 2067
3224 2209 2515
3208 2264 2858
3186 2299 3110
3156 2317 3294
3132 2333 3444
3108 2347 3563
3373 2520 898
3385 2545 1574
3343 2547 2136
3270 2522 2518
3244 2544 2839
3246 2582 3107
3214 2589 3288
3192 2596 3438
3167 2601 3554
3436 2804 949
3445 2822 1633
3409 2821 2185
3349 2802 2564
3283 2774 2833
3281 2801 3091
3255 2805 3277
3228 2805 3424
3208 2804 3540
3487 3018 981
3498 3036 1683
3469 3036 2222
3421 3022 2597
3362 2997 2866
3307 2973 3074
3294 2981 3263
3267 2975 3411
3246 2969 3525
3510 3176 998
3519 3191 1720
3495 3189 2237
3456 3177 2606
3417 3162 2881
3370 3140 3089
3335 3122 3251
3307 3114 3397
3287 3105 3510
3532 3302 1032
3535 3314 1753
3514 3313 2249
3479 3301 2607
3440 3285 2874
3403 3268 3084
3367 3248 3243
3342 3234 3383
3323 3222 3495
3555 3408 1103
3557 3417 1787
3537 3415 2263
3506 3403 2610
3469 3384 2870
3438 3368 3077
3405 3348 3236
3376 3330 3369
3353 3317 3480
3159 859 0
3258 964 1135
3305 1117 1995
3292 1382 2504
3263 1484 2846
3224 1547 3093
3191 1603 3285
3161 1654 3435
3137 1699 3559
3289 1642 47
3340 1699 1252
3359 1740 1989
3348 1849 2498
3330 1934 2847
3302 1983 3100
3267 2015 3289
3240 2046 3440
3212 2073 3560
3418 2150 731
3437 2188 1428
3406 2197 2032
3367 2217 2477
3361 2275 2830
3359 2331 3100
3323 2348 3285
3295 2365 3435
3268 2378 3555
3524 2527 920
3532 2552 1560
3486 2554 2114
3413 2531 2493
3384 2549 2812
3389 2593 3086
3365 2613 3277
3334 2618 3426
3308 2623 3544
3579 2804 975
3587 2825 1626
3551 2826 2173
3491 2809 2547
3416 2776 2809
3399 2796 3060
3398 2820 3266
3366 2820 3414
3342 2819 3529
3624 3018 1007
3628 3036 1677
3595 3035 2208
3544 3022 2578
3481 2994 2842
3423 2969 3049
3419 2986 3247
3397 2987 3401
3373 2980 3515
3652 3181 1029
3657 3197 1725
3632 3197 2236
3589 3185 2600
3541 3167 2870
3485 3140 3071
3440 3117 3228
3429 3123 3387
3406 3114 3500
3661 3305 1069
3665 3319 1758
3644 3320 2250
3611 3311 2606
3569 3295 2872
3533 3279 3081
3494 3258 3240
3461 3240 3374
3433 3227 3486
3676 3409 1120
3679 3420 1792
3660 3420 2264
3631 3410 2610
3591 3392 2869
3556 3376 3073
3516 3355 3233
3482 3336 3363
3455 3321 3471
3271 933 0
3364 1029 1062
3431 1159 1935
3439 1400 2467
3431 1534 2830
3401 1610 3084
3361 1662 3276
3332 1707 3429
3305 1749 3553
3412 1668 18
3462 1726 1219
3474 1760 1941
3470 1855 2450
3483 1964 2828
3461 2021 3088
3426 2057 3280
3392 2087 3430
3364 2113 3553
3547 2163 738
3564 2202 1407
3532 2209 2002
3494 2227 2442
3498 2287 2805
3489 2342 3074
3469 2378 3275
3433 2393 3423
3405 2406 3544
3643 2531 917
3650 2558 1537
3608 2561 2089
3536 2540 2469
3503 2553 2784
3502 2596 3057
3498 2634 3266
3463 2639 3415
3434 2643 3533
3709 2807 1000
3712 2828 1623
3674 2831 2160
3613 2815 2530
3534 2781 2789
3507 2792 3031
3511 2823 3243
3494 2835 3404
3465 2834 3520
3738 3017 1030
3740 3034 1675
3709 3036 2196
3657 3023 2561
3593 2996 2826
3530 2967 3027
3518 2979 3220
3517 2998 3392
3491 2991 3506
3765 3180 1052
3764 3194 1724
3737 3195 2224
3694 3183 2585
3644 3165 2853
3586 3136 3049
3538 3114 3207
3531 3127 3372
3508 3123 3490
3779 3308 1104
3782 3323 1765
3765 3328 2251
3729 3319 2605
3681 3301 2867
3635 3280 3069
3584 3255 3224
3543 3234 3353
3528 3233 3476
3789 3410 1149
3790 3422 1798
3772 3425 2265
3736 3415 2608
3696 3399 2866
3659 3382 3070
3619 3363 3229
3582 3344 3359
3552 3325 3463
