release/datafiles/colormanagement/luts/rec709.spi1d
Version 1
From -0.125 1.125
Length 4101
Components 1
{
        -0.0277777777778
        -0.0277100271003
        -0.0276422764228
        -0.0275745257453
        -0.0275067750678
        -0.0274390243902
        -0.0273712737127
        -0.0273035230352
        -0.0272357723577
        -0.0271680216802
        -0.0271002710027
        -0.0270325203252
        -0.0269647696477
        -0.0268970189702
        -0.0268292682927
        -0.0267615176152
        -0.0266937669377
        -0.0266260162602
        -0.0265582655827
        -0.0264905149051
        -0.0264227642276
        -0.0263550135501
        -0.0262872628726
        -0.0262195121951
        -0.0261517615176
        -0.0260840108401
        -0.0260162601626
        -0.0259485094851
        -0.0258807588076
        -0.0258130081301
        -0.0257452574526
        -0.0256775067751
        -0.0256097560976
        -0.0255420054201
        -0.0254742547425
        -0.025406504065
        -0.0253387533875
        -0.02527100271
        -0.0252032520325
        -0.025135501355
        -0.0250677506775
        -0.025
        -0.0249322493225
        -0.024864498645
        -0.0247967479675
        -0.02472899729
        -0.0246612466125
        -0.024593495935
        -0.0245257452575
        -0.0244579945799
        -0.0243902439024
        -0.0243224932249
        -0.0242547425474
        -0.0241869918699
        -0.0241192411924
        -0.0240514905149
        -0.0239837398374
        -0.0239159891599
        -0.0238482384824
        -0.0237804878049
        -0.0237127371274
        -0.0236449864499
        -0.0235772357724
        -0.0235094850949
        -0.0234417344173
        -0.0233739837398
        -0.0233062330623
        -0.0232384823848
        -0.0231707317073
        -0.0231029810298
        -0.0230352303523
        -0.0229674796748
        -0.0228997289973
        -0.0228319783198
        -0.0227642276423
        -0.0226964769648
        -0.0226287262873
        -0.0225609756098
        -0.0224932249322
        -0.0224254742547
        -0.0223577235772
        -0.0222899728997
        -0.0222222222222
        -0.0221544715447
        -0.0220867208672
        -0.0220189701897
        -0.0219512195122
        -0.0218834688347
        -0.0218157181572
        -0.0217479674797
        -0.0216802168022
        -0.0216124661247
        -0.0215447154472
        -0.0214769647696
        -0.0214092140921
        -0.0213414634146
        -0.0212737127371
        -0.0212059620596
        -0.0211382113821
        -0.0210704607046
        -0.0210027100271
        -0.0209349593496
        -0.0208672086721
        -0.0207994579946
        -0.0207317073171
        -0.0206639566396
        -0.0205962059621
        -0.0205284552846
        -0.020460704607
        -0.0203929539295
        -0.020325203252
        -0.0202574525745
        -0.020189701897
        -0.0201219512195
        -0.020054200542
        -0.0199864498645
        -0.019918699187
        -0.0198509485095
        -0.019783197832
        -0.0197154471545
        -0.019647696477
        -0.0195799457995
        -0.019512195122
        -0.0194444444444
        -0.0193766937669
        -0.0193089430894
        -0.0192411924119
        -0.0191734417344
        -0.0191056910569
        -0.0190379403794
        -0.0189701897019
        -0.0189024390244
        -0.0188346883469
        -0.0187669376694
        -0.0186991869919
        -0.0186314363144
        -0.0185636856369
        -0.0184959349593
        -0.0184281842818
        -0.0183604336043
        -0.0182926829268
        -0.0182249322493
        -0.0181571815718
        -0.0180894308943
        -0.0180216802168
        -0.0179539295393
        -0.0178861788618
        -0.0178184281843
        -0.0177506775068
        -0.0176829268293
        -0.0176151761518
        -0.0175474254743
        -0.0174796747967
        -0.0174119241192
        -0.0173441734417
        -0.0172764227642
        -0.0172086720867
        -0.0171409214092
        -0.0170731707317
        -0.0170054200542
        -0.0169376693767
        -0.0168699186992
        -0.0168021680217
        -0.0167344173442
        -0.0166666666667
        -0.0165989159892
        -0.0165311653117
        -0.0164634146341
        -0.0163956639566
        -0.0163279132791
        -0.0162601626016
        -0.0161924119241
        -0.0161246612466
        -0.0160569105691
        -0.0159891598916
        -0.0159214092141
        -0.0158536585366
        -0.0157859078591
        -0.0157181571816
        -0.0156504065041
        -0.0155826558266
        -0.0155149051491
        -0.0154471544715
        -0.015379403794
        -0.0153116531165
        -0.015243902439
        -0.0151761517615
        -0.015108401084
        -0.0150406504065
        -0.014972899729
        -0.0149051490515
        -0.014837398374
        -0.0147696476965
        -0.014701897019
        -0.0146341463415
        -0.014566395664
        -0.0144986449864
        -0.0144308943089
        -0.0143631436314
        -0.0142953929539
        -0.0142276422764
        -0.0141598915989
        -0.0140921409214
        -0.0140243902439
        -0.0139566395664
        -0.0138888888889
        -0.0138211382114
        -0.0137533875339
        -0.0136856368564
        -0.0136178861789
        -0.0135501355014
        -0.0134823848238
        -0.0134146341463
        -0.0133468834688
        -0.0132791327913
        -0.0132113821138
        -0.0131436314363
        -0.0130758807588
        -0.0130081300813
        -0.0129403794038
        -0.0128726287263
        -0.0128048780488
        -0.0127371273713
        -0.0126693766938
        -0.0126016260163
        -0.0125338753388
        -0.0124661246612
        -0.0123983739837
        -0.0123306233062
        -0.0122628726287
        -0.0121951219512
        -0.0121273712737
        -0.0120596205962
        -0.0119918699187
        -0.0119241192412
        -0.0118563685637
        -0.0117886178862
        -0.0117208672087
        -0.0116531165312
        -0.0115853658537
        -0.0115176151762
        -0.0114498644986
        -0.0113821138211
        -0.0113143631436
        -0.0112466124661
        -0.0111788617886
        -0.0111111111111
        -0.0110433604336
        -0.0109756097561
        -0.0109078590786
        -0.0108401084011
        -0.0107723577236
        -0.0107046070461
        -0.0106368563686
        -0.0105691056911
        -0.0105013550136
        -0.010433604336
        -0.0103658536585
        -0.010298102981
        -0.0102303523035
        -0.010162601626
        -0.0100948509485
        -0.010027100271
        -0.0099593495935
        -0.00989159891599
        -0.00982384823848
        -0.00975609756098
        -0.00968834688347
        -0.00962059620596
        -0.00955284552846
        -0.00948509485095
        -0.00941734417344
        -0.00934959349593
        -0.00928184281843
        -0.00921409214092
        -0.00914634146341
        -0.00907859078591
        -0.0090108401084
        -0.00894308943089
        -0.00887533875339
        -0.00880758807588
        -0.00873983739837
        -0.00867208672087
        -0.00860433604336
        -0.00853658536585
        -0.00846883468835
        -0.00840108401084
        -0.00833333333333
        -0.00826558265583
        -0.00819783197832
        -0.00813008130081
        -0.00806233062331
        -0.0079945799458
        -0.00792682926829
        -0.00785907859079
        -0.00779132791328
        -0.00772357723577
        -0.00765582655827
        -0.00758807588076
        -0.00752032520325
        -0.00745257452575
        -0.00738482384824
        -0.00731707317073
        -0.00724932249322
        -0.00718157181572
        -0.00711382113821
        -0.0070460704607
        -0.0069783197832
        -0.00691056910569
        -0.00684281842818
        -0.00677506775068
        -0.00670731707317
        -0.00663956639566
        -0.00657181571816
        -0.00650406504065
        -0.00643631436314
        -0.00636856368564
        -0.00630081300813
        -0.00623306233062
        -0.00616531165312
        -0.00609756097561
        -0.0060298102981
        -0.0059620596206
        -0.00589430894309
        -0.00582655826558
        -0.00575880758808
        -0.00569105691057
        -0.00562330623306
        -0.00555555555556
        -0.00548780487805
        -0.00542005420054
        -0.00535230352304
        -0.00528455284553
        -0.00521680216802
        -0.00514905149051
        -0.00508130081301
        -0.0050135501355
        -0.00494579945799
        -0.00487804878049
        -0.00481029810298
        -0.00474254742547
        -0.00467479674797
        -0.00460704607046
        -0.00453929539295
        -0.00447154471545
        -0.00440379403794
        -0.00433604336043
        -0.00426829268293
        -0.00420054200542
        -0.00413279132791
        -0.00406504065041
        -0.0039972899729
        -0.00392953929539
        -0.00386178861789
        -0.00379403794038
        -0.00372628726287
        -0.00365853658537
        -0.00359078590786
        -0.00352303523035
        -0.00345528455285
        -0.00338753387534
        -0.00331978319783
        -0.00325203252033
        -0.00318428184282
        -0.00311653116531
        -0.0030487804878
        -0.0029810298103
        -0.00291327913279
        -0.00284552845528
        -0.00277777777778
        -0.00271002710027
        -0.00264227642276
        -0.00257452574526
        -0.00250677506775
        -0.00243902439024
        -0.00237127371274
        -0.00230352303523
        -0.00223577235772
        -0.00216802168022
        -0.00210027100271
        -0.0020325203252
        -0.0019647696477
        -0.00189701897019
        -0.00182926829268
        -0.00176151761518
        -0.00169376693767
        -0.00162601626016
        -0.00155826558266
        -0.00149051490515
        -0.00142276422764
        -0.00135501355014
        -0.00128726287263
        -0.00121951219512
        -0.00115176151762
        -0.00108401084011
        -0.0010162601626
        -0.000948509485095
        -0.000880758807588
        -0.000813008130081
        -0.000745257452575
        -0.000677506775068
        -0.000609756097561
        -0.000542005420054
        -0.000474254742547
        -0.000406504065041
        -0.000338753387534
        -0.000271002710027
        -0.00020325203252
        -0.000135501355014
        -6.77506775068e-05
        0.0
        6.77506775068e-05
        0.000135501355014
        0.00020325203252
        0.000271002710027
        0.000338753387534
        0.000406504065041
        0.000474254742547
        0.000542005420054
        0.000609756097561
        0.000677506775068
        0.000745257452575
        0.000813008130081
        0.000880758807588
        0.000948509485095
        0.0010162601626
        0.00108401084011
        0.00115176151762
        0.00121951219512
        0.00128726287263
        0.00135501355014
        0.00142276422764
        0.00149051490515
        0.00155826558266
        0.00162601626016
        0.00169376693767
        0.00176151761518
        0.00182926829268
        0.00189701897019
        0.0019647696477
        0.0020325203252
        0.00210027100271
        0.00216802168022
        0.00223577235772
        0.00230352303523
        0.00237127371274
        0.00243902439024
        0.00250677506775
        0.00257452574526
        0.00264227642276
        0.00271002710027
        0.00277777777778
        0.00284552845528
        0.00291327913279
        0.0029810298103
        0.0030487804878
        0.00311653116531
        0.00318428184282
        0.00325203252033
        0.00331978319783
        0.00338753387534
        0.00345528455285
        0.00352303523035
        0.00359078590786
        0.00365853658537
        0.00372628726287
        0.00379403794038
        0.00386178861789
        0.00392953929539
        0.0039972899729
        0.00406504065041
        0.00413279132791
        0.00420054200542
        0.00426829268293
        0.00433604336043
        0.00440379403794
        0.00447154471545
        0.00453929539295
        0.00460704607046
        0.00467479674797
        0.00474254742547
        0.00481029810298
        0.00487804878049
        0.00494579945799
        0.0050135501355
        0.00508130081301
        0.00514905149051
        0.00521680216802
        0.00528455284553
        0.00535230352304
        0.00542005420054
        0.00548780487805
        0.00555555555556
        0.00562330623306
        0.00569105691057
        0.00575880758808
        0.00582655826558
        0.00589430894309
        0.0059620596206
        0.0060298102981
        0.00609756097561
        0.00616531165312
        0.00623306233062
        0.00630081300813
        0.00636856368564
        0.00643631436314
        0.00650406504065
        0.00657181571816
        0.00663956639566
        0.00670731707317
        0.00677506775068
        0.00684281842818
        0.00691056910569
        0.0069783197832
        0.0070460704607
        0.00711382113821
        0.00718157181572
        0.00724932249322
        0.00731707317073
        0.00738482384824
        0.00745257452575
        0.00752032520325
        0.00758807588076
        0.00765582655827
        0.00772357723577
        0.00779132791328
        0.00785907859079
        0.00792682926829
        0.0079945799458
        0.00806233062331
        0.00813008130081
        0.00819783197832
        0.00826558265583
        0.00833333333333
        0.00840108401084
        0.00846883468835
        0.00853658536585
        0.00860433604336
        0.00867208672087
        0.00873983739837
        0.00880758807588
        0.00887533875339
        0.00894308943089
        0.0090108401084
        0.00907859078591
        0.00914634146341
        0.00921409214092
        0.00928184281843
        0.00934959349593
        0.00941734417344
        0.00948509485095
        0.00955284552846
        0.00962059620596
        0.00968834688347
        0.00975609756098
        0.00982384823848
        0.00989159891599
        0.0099593495935
        0.010027100271
        0.0100948509485
        0.010162601626
        0.0102303523035
        0.010298102981
        0.0103658536585
        0.010433604336
        0.0105013550136
        0.0105691056911
        0.0106368563686
        0.0107046070461
        0.0107723577236
        0.0108401084011
        0.0109078590786
        0.0109756097561
        0.0110433604336
        0.0111111111111
        0.0111788617886
        0.0112466124661
        0.0113143631436
        0.0113821138211
        0.0114498644986
        0.0115176151762
        0.0115853658537
        0.0116531165312
        0.0117208672087
        0.0117886178862
        0.0118563685637
        0.0119241192412
        0.0119918699187
        0.0120596205962
        0.0121273712737
        0.0121951219512
        0.0122628726287
        0.0123306233062
        0.0123983739837
        0.0124661246612
        0.0125338753388
        0.0126016260163
        0.0126693766938
        0.0127371273713
        0.0128048780488
        0.0128726287263
        0.0129403794038
        0.0130081300813
        0.0130758807588
        0.0131436314363
        0.0132113821138
        0.0132791327913
        0.0133468834688
        0.0134146341463
        0.0134823848238
        0.0135501355014
        0.0136178861789
        0.0136856368564
        0.0137533875339
        0.0138211382114
        0.0138888888889
        0.0139566395664
        0.0140243902439
        0.0140921409214
        0.0141598915989
        0.0142276422764
        0.0142953929539
        0.0143631436314
        0.0144308943089
        0.0144986449864
        0.014566395664
        0.0146341463415
        0.014701897019
        0.0147696476965
        0.014837398374
        0.0149051490515
        0.014972899729
        0.0150406504065
        0.015108401084
        0.0151761517615
        0.015243902439
        0.0153116531165
        0.015379403794
        0.0154471544715
        0.0155149051491
        0.0155826558266
        0.0156504065041
        0.0157181571816
        0.0157859078591
        0.0158536585366
        0.0159214092141
        0.0159891598916
        0.0160569105691
        0.0161246612466
        0.0161924119241
        0.0162601626016
        0.0163279132791
        0.0163956639566
        0.0164634146341
        0.0165311653117
        0.0165989159892
        0.0166666666667
        0.0167344173442
        0.0168021680217
        0.0168699186992
        0.0169376693767
        0.0170054200542
        0.0170731707317
        0.0171409214092
        0.0172086720867
        0.0172764227642
        0.0173441734417
        0.0174119241192
        0.0174796747967
        0.0175474254743
        0.0176151761518
        0.0176829268293
        0.0177506775068
        0.0178184281843
        0.0178861788618
        0.0179539295393
        0.017966644526
        0.018034302953
        0.0181021012757
        0.0181700395467
        0.0182381178183
        0.018306336143
        0.0183746945731
        0.0184431931607
        0.0185118319581
        0.0185806110173
        0.0186495303904
        0.0187185901292
        0.0187877902858
        0.018857130912
        0.0189266120594
        0.0189962337798
        0.0190659961248
        0.019135899146
        0.0192059428948
        0.0192761274227
        0.0193464527811
        0.0194169190212
        0.0194875261943
        0.0195582743515
        0.0196291635439
        0.0197001938227
        0.0197713652386
        0.0198426778427
        0.0199141316858
        0.0199857268187
        0.020057463292
        0.0201293411565
        0.0202013604627
        0.0202735212611
        0.0203458236023
        0.0204182675365
        0.0204908531142
        0.0205635803856
        0.0206364494009
        0.0207094602103
        0.0207826128639
        0.0208559074116
        0.0209293439035
        0.0210029223894
        0.0210766429192
        0.0211505055427
        0.0212245103096
        0.0212986572695
        0.021372946472
        0.0214473779667
        0.0215219518031
        0.0215966680305
        0.0216715266984
        0.0217465278559
        0.0218216715525
        0.0218969578371
        0.021972386759
        0.0220479583672
        0.0221236727107
        0.0221995298385
        0.0222755297994
        0.0223516726422
        0.0224279584158
        0.0225043871688
        0.0225809589499
        0.0226576738076
        0.0227345317905
        0.0228115329471
        0.0228886773258
        0.022965964975
        0.0230433959429
        0.0231209702778
        0.023198688028
        0.0232765492414
        0.0233545539663
        0.0234327022506
        0.0235109941423
        0.0235894296893
        0.0236680089395
        0.0237467319406
        0.0238255987405
        0.0239046093867
        0.0239837639269
        0.0240630624087
        0.0241425048797
        0.0242220913872
        0.0243018219787
        0.0243816967016
        0.0244617156031
        0.0245418787306
        0.0246221861311
        0.0247026378519
        0.02478323394
        0.0248639744424
        0.0249448594062
        0.0250258888783
        0.0251070629054
        0.0251883815346
        0.0252698448125
        0.0253514527858
        0.0254332055012
        0.0255151030053
        0.0255971453446
        0.0256793325658
        0.0257616647151
        0.0258441418391
        0.025926763984
        0.0260095311962
        0.0260924435219
        0.0261755010073
        0.0262587036985
        0.0263420516417
        0.0264255448828
        0.0265091834679
        0.0265929674429
        0.0266768968536
        0.026760971746
        0.0268451921658
        0.0269295581587
        0.0270140697704
        0.0270987270465
        0.0271835300327
        0.0272684787745
        0.0273535733173
        0.0274388137066
        0.0275241999878
        0.0276097322062
        0.0276954104072
        0.0277812346358
        0.0278672049374
        0.027953321357
        0.0280395839398
        0.0281259927308
        0.028212547775
        0.0282992491173
        0.0283860968027
        0.028473090876
        0.0285602313819
        0.0286475183653
        0.0287349518709
        0.0288225319432
        0.028910258627
        0.0289981319667
        0.029086152007
        0.0291743187922
        0.0292626323668
        0.0293510927751
        0.0294397000615
        0.0295284542704
        0.0296173554458
        0.0297064036319
        0.0297955988731
        0.0298849412132
        0.0299744306964
        0.0300640673667
        0.030153851268
        0.0302437824443
        0.0303338609394
        0.0304240867971
        0.0305144600612
        0.0306049807754
        0.0306956489834
        0.0307864647289
        0.0308774280554
        0.0309685390065
        0.0310597976257
        0.0311512039564
        0.0312427580421
        0.0313344599261
        0.0314263096517
        0.0315183072623
        0.0316104528011
        0.0317027463112
        0.0317951878358
        0.031887777418
        0.0319805151009
        0.0320734009274
        0.0321664349406
        0.0322596171834
        0.0323529476987
        0.0324464265292
        0.0325400537179
        0.0326338293074
        0.0327277533405
        0.0328218258598
        0.0329160469079
        0.0330104165276
        0.0331049347612
        0.0331996016513
        0.0332944172403
        0.0333893815707
        0.0334844946847
        0.0335797566249
        0.0336751674334
        0.0337707271524
        0.0338664358243
        0.0339622934911
        0.0340583001949
        0.0341544559779
        0.0342507608821
        0.0343472149494
        0.0344438182219
        0.0345405707413
        0.0346374725497
        0.0347345236889
        0.0348317242005
        0.0349290741264
        0.0350265735083
        0.0351242223879
        0.0352220208067
        0.0353199688063
        0.0354180664284
        0.0355163137143
        0.0356147107057
        0.0357132574438
        0.0358119539701
        0.0359108003259
        0.0360097965525
        0.0361089426912
        0.0362082387833
        0.0363076848698
        0.0364072809919
        0.0365070271909
        0.0366069235076
        0.0367069699831
        0.0368071666585
        0.0369075135747
        0.0370080107725
        0.0371086582929
        0.0372094561767
        0.0373104044647
        0.0374115031976
        0.0375127524162
        0.0376141521611
        0.037715702473
        0.0378174033924
        0.03791925496
        0.0380212572162
        0.0381234102016
        0.0382257139565
        0.0383281685215
        0.0384307739368
        0.0385335302428
        0.0386364374799
        0.0387394956882
        0.038842704908
        0.0389460651794
        0.0390495765427
        0.0391532390379
        0.0392570527051
        0.0393610175843
        0.0394651337156
        0.0395694011388
        0.039673819894
        0.039778390021
        0.0398831115596
        0.0399879845497
