release/datafiles/colormanagement/luts/rec709_aces_rrt_xyz.3dl
0 64 128 192 256 320 384 448 512 575 639 703 767 831 895 959 1023
4 4 4
301 242 698
526 423 1208
705 568 1587
852 689 1882
976 792 2122
1086 885 2325
1177 962 2492
1264 1037 2636
1338 1101 2759
1405 1160 2864
1469 1216 2959
1525 1266 3042
1576 1311 3113
1628 1357 3180
1676 1401 3242
1719 1440 3297
378 559 210
541 654 776
729 781 1263
885 888 1631
1017 981 1920
1129 1062 2156
1231 1140 2354
1314 1204 2518
1393 1264 2661
1462 1318 2782
1522 1367 2886
1580 1415 2981
1634 1459 3062
1682 1498 3133
1727 1535 3198
1769 1570 3260
1811 1606 3313
685 978 369
806 1044 866
950 1132 1320
1079 1210 1673
1190 1277 1957
1286 1338 2189
1378 1395 2384
1452 1445 2545
1519 1492 2686
1581 1534 2804
1639 1574 2907
1693 1613 3001
1740 1648 3080
1782 1680 3150
1827 1712 3215
1869 1744 3276
1906 1773 3329
934 1307 494
1035 1360 939
1149 1423 1372
1255 1482 1711
1355 1535 1988
1439 1582 2216
1514 1623 2409
1583 1663 2567
1647 1703 2705
1701 1734 2821
1750 1766 2924
1797 1798 3017
1840 1825 3095
1881 1851 3165
1921 1876 3230
1958 1902 3290
1990 1924 3341
1142 1572 596
1228 1616 1008
1326 1665 1416
1418 1714 1744
1500 1756 2015
1577 1795 2239
1647 1831 2427
1705 1858 2585
1759 1886 2723
1808 1911 2836
1856 1938 2938
1901 1964 3030
1939 1985 3107
1975 2007 3176
2009 2029 3241
2043 2051 3301
2074 2070 3351
1321 1791 680
1397 1830 1070
1477 1868 1457
1561 1910 1776
1637 1948 2037
1703 1979 2259
1762 2007 2443
1817 2031 2599
1869 2056 2734
1911 2074 2848
1952 2093 2950
1993 2114 3040
2027 2131 3116
2061 2148 3185
2095 2166 3250
2128 2184 3310
2155 2199 3358
1471 1978 752
1544 2015 1123
1617 2048 1498
1688 2081 1804
1754 2114 2059
1817 2140 2275
1873 2164 2457
1922 2184 2611
1968 2203 2745
2006 2217 2856
2042 2233 2957
2078 2248 3047
2110 2261 3123
2142 2275 3191
2173 2290 3255
2203 2305 3313
2228 2317 3362
1610 2141 815
1672 2171 1172
1737 2201 1534
1802 2229 1829
1864 2257 2076
1920 2281 2288
1970 2300 2466
2013 2317 2618
2053 2332 2750
2092 2345 2862
2128 2358 2962
2161 2371 3050
2189 2381 3126
2217 2391 3195
2245 2402 3260
2272 2413 3317
2294 2424 3365
1726 2279 869
1787 2308 1219
1848 2335 1565
1906 2359 1852
1962 2382 2093
2012 2404 2300
2057 2420 2474
2101 2436 2625
2138 2449 2754
2172 2460 2866
2206 2471 2966
2237 2480 3053
2263 2488 3128
2288 2496 3197
2312 2504 3261
2336 2512 3318
2357 2519 3367
1839 2404 928
1894 2431 1266
1948 2453 1597
2000 2475 1875
2050 2494 2109
2098 2513 2310
2140 2527 2481
2180 2540 2630
2215 2551 2757
2246 2559 2868
2276 2568 2968
2304 2576 3054
2329 2582 3129
2353 2589 3197
2376 2596 3261
2398 2602 3316
2417 2608 3365
1933 2509 971
1984 2534 1306
2035 2555 1625
2085 2575 1894
2131 2592 2122
2175 2608 2318
2215 2621 2488
2251 2633 2634
2284 2641 2759
2314 2649 2870
2342 2657 2969
2366 2663 3053
2390 2668 3128
2414 2674 3197
2436 2680 3261
2456 2685 3315
2473 2689 3364
2020 2604 1009
2071 2629 1343
2120 2649 1651
2165 2667 1912
2207 2681 2136
2248 2696 2327
2284 2707 2494
2318 2718 2639
2348 2725 2762
2377 2732 2871
2404 2739 2970
2427 2743 3053
2448 2748 3128
2470 2752 3196
2491 2757 3260
2509 2760 3314
2525 2763 3362
2104 2693 1059
2151 2716 1379
2197 2735 1677
2237 2751 1931
2277 2764 2150
2314 2775 2337
2347 2784 2500
2381 2794 2642
2408 2800 2763
2434 2805 2871
2460 2810 2968
2481 2814 3051
2501 2817 3125
2520 2821 3194
2540 2825 3257
2557 2827 3311
2573 2828 3360
2179 2770 1102
2222 2791 1414
2265 2808 1703
2301 2822 1948
2339 2834 2163
2374 2844 2344
2406 2852 2504
2437 2861 2644
2463 2867 2764
2487 2871 2871
2512 2876 2967
2531 2878 3048
2551 2882 3123
2569 2884 3191
2586 2888 3255
2602 2889 3307
2617 2890 3355
2246 2839 1136
2287 2859 1449
2328 2875 1728
2364 2888 1965
2399 2899 2174
2431 2908 2353
2461 2916 2509
2490 2923 2646
2515 2928 2765
2538 2933 2871
2560 2937 2966
2579 2939 3046
2597 2941 3121
2615 2944 3189
2631 2946 3251
2644 2946 3303
2658 2947 3351
2310 2904 1164
2349 2922 1481
2387 2937 1752
2422 2950 1984
2455 2960 2186
2485 2968 2362
2513 2976 2514
2540 2981 2649
2563 2986 2766
2586 2991 2872
2606 2994 2965
2623 2995 3045
2640 2996 3118
2657 2998 3186
2673 3000 3248
2685 3000 3299
2697 3000 3347
2370 2964 1204
2408 2982 1513
2444 2996 1776
2477 3008 2003
2507 3017 2199
2536 3025 2371
2562 3031 2521
2587 3036 2652
2609 3039 2768
2630 3042 2872
2648 3045 2963
2664 3044 3042
2680 3045 3115
2696 3046 3182
2711 3047 3243
2723 3046 3295
2734 3046 3342
466 352 0
528 419 709
724 578 1217
882 708 1595
1014 818 1891
1126 913 2131
1227 998 2333
1312 1071 2500
1392 1139 2644
1461 1199 2767
1520 1252 2871
1580 1304 2967
1634 1352 3050
1681 1395 3122
1726 1436 3188
1769 1475 3250
1812 1513 3304
699 749 298
779 793 796
934 911 1275
1069 1011 1639
1183 1097 1928
1281 1172 2163
1373 1242 2361
1448 1300 2526
1515 1352 2668
1578 1404 2789
1636 1451 2893
1690 1496 2988
1737 1536 3069
1781 1572 3139
1825 1608 3205
1867 1645 3266
1904 1677 3319
945 1126 437
1031 1169 895
1137 1235 1331
1249 1309 1681
1348 1373 1963
1434 1429 2194
1509 1481 2389
1579 1528 2550
1644 1575 2691
1698 1613 2809
1747 1649 2912
1796 1686 3006
1839 1718 3086
1879 1748 3156
1918 1777 3221
1955 1807 3282
1988 1833 3334
1153 1422 549
1234 1465 965
1320 1508 1381
1412 1564 1717
1497 1614 1993
1574 1660 2221
1646 1703 2412
1703 1738 2571
1757 1772 2710
1807 1802 2825
1855 1832 2928
1900 1862 3020
1938 1887 3098
1973 1911 3169
2007 1934 3234
2042 1959 3294
2073 1981 3345
1331 1665 641
1406 1708 1033
1480 1742 1427
1561 1785 1750
1636 1826 2018
1701 1860 2243
1761 1894 2430
1817 1923 2588
1870 1951 2726
1912 1975 2839
1952 1998 2941
1993 2022 3033
2027 2041 3109
2061 2061 3179
2095 2082 3243
2127 2102 3303
2154 2120 3353
1484 1869 718
1555 1908 1090
1625 1942 1471
1691 1974 1781
1756 2009 2040
1819 2038 2260
1874 2065 2444
1921 2087 2601
1969 2111 2736
2007 2129 2850
2044 2147 2952
2081 2167 3042
2112 2183 3118
2144 2199 3187
2175 2215 3252
2204 2231 3311
2229 2245 3359
1619 2045 786
1684 2082 1140
1746 2110 1509
1808 2138 1809
1871 2169 2061
1926 2193 2277
1975 2215 2458
2017 2232 2612
2058 2250 2746
2094 2264 2857
2130 2281 2957
2164 2296 3047
2193 2308 3123
2220 2322 3192
2246 2335 3256
2273 2349 3315
2296 2360 3363
1740 2199 844
1800 2230 1186
1859 2257 1543
1917 2284 1836
1969 2306 2078
2018 2328 2289
2064 2346 2466
2106 2362 2618
2143 2377 2749
2176 2388 2862
2209 2400 2962
2239 2412 3050
2265 2422 3125
2291 2432 3195
2316 2443 3260
2340 2454 3317
2360 2463 3365
1850 2334 897
1903 2360 1234
1959 2385 1576
2011 2408 1859
2058 2427 2095
2107 2448 2300
2148 2464 2474
2188 2478 2624
2222 2489 2753
2252 2499 2865
2281 2509 2966
2309 2517 3053
2333 2524 3127
2356 2531 3196
2380 2540 3259
2402 2548 3316
2422 2555 3365
1950 2453 955
1998 2476 1279
2049 2498 1606
2098 2518 1880
2143 2535 2111
2186 2552 2310
2225 2566 2481
2259 2578 2629
2292 2587 2756
2320 2595 2867
2347 2603 2966
2372 2610 3052
2396 2616 3128
2418 2622 3196
2439 2628 3259
2459 2634 3315
2477 2639 3364
2037 2554 995
2084 2577 1317
2131 2596 1632
2175 2614 1898
2220 2632 2125
2257 2645 2318
2294 2657 2487
2326 2668 2633
2356 2676 2758
2384 2683 2868
2410 2690 2966
2432 2695 3051
2453 2700 3127
2475 2705 3196
2496 2710 3260
2513 2715 3314
2530 2718 3362
2119 2647 1032
2164 2669 1354
2207 2686 1658
2247 2702 1916
2288 2717 2140
2323 2729 2327
2358 2740 2493
2390 2750 2637
2416 2757 2760
2443 2763 2869
2468 2769 2967
2489 2773 3050
2508 2777 3125
2527 2781 3195
2547 2785 3258
2564 2787 3313
2578 2789 3361
2196 2732 1083
2237 2753 1389
2279 2769 1684
2315 2783 1936
2352 2795 2153
2387 2807 2338
2417 2814 2498
2448 2824 2640
2472 2829 2761
2496 2833 2869
2520 2839 2966
2540 2842 3049
2558 2844 3123
2576 2847 3192
2593 2851 3256
2608 2852 3308
2623 2853 3357
2263 2806 1122
2302 2825 1423
2341 2839 1710
2376 2852 1952
2410 2863 2164
2443 2873 2346
2471 2880 2502
2500 2889 2642
2525 2894 2762
2546 2898 2869
2568 2902 2965
2587 2904 3046
2605 2907 3121
2621 2909 3189
2637 2911 3252
2650 2912 3304
2664 2913 3352
2326 2873 1151
2363 2890 1457
2401 2905 1734
2434 2917 1970
2464 2925 2176
2496 2935 2354
2523 2943 2508
2549 2949 2644
2572 2954 2763
2594 2958 2869
2614 2961 2964
2631 2962 3044
2648 2964 3118
2664 2966 3186
2679 2968 3248
2691 2968 3299
2703 2969 3348
2385 2935 1176
2421 2952 1490
2457 2966 1759
2488 2977 1988
2516 2985 2188
2545 2993 2363
2573 3001 2515
2596 3006 2648
2618 3009 2764
2639 3013 2869
2657 3016 2962
2672 3017 3042
2688 3018 3115
2704 3020 3183
2719 3021 3244
2730 3020 3296
2741 3020 3344
2441 2994 1218
2476 3010 1521
2509 3023 1783
2540 3034 2007
2566 3040 2201
2592 3047 2372
2618 3054 2521
2639 3058 2650
2659 3060 2765
2679 3063 2868
2697 3065 2960
2711 3065 3039
2726 3065 3112
2741 3066 3179
2754 3066 3240
2766 3065 3292
2776 3064 3339
837 631 0
820 638 765
933 742 1229
1070 856 1605
1183 952 1900
1282 1035 2139
1373 1114 2341
1449 1178 2508
1517 1238 2651
1580 1294 2774
1635 1343 2879
1688 1390 2975
1736 1434 3057
1781 1475 3129
1825 1514 3195
1866 1551 3257
1903 1586 3311
970 929 335
1128 1055 907
1129 1041 1287
1245 1133 1648
1344 1211 1935
1431 1279 2170
1508 1341 2368
1576 1395 2532
1641 1448 2674
1696 1493 2795
1744 1534 2899
1795 1576 2993
1839 1612 3074
1878 1645 3145
1916 1679 3211
1953 1712 3272
1986 1741 3325
1194 1281 510
1268 1325 944
1312 1337 1342
1407 1405 1688
1495 1465 1968
1571 1520 2199
1643 1571 2393
1701 1612 2555
1756 1653 2695
1806 1689 2813
1853 1722 2917
1898 1756 3011
1936 1785 3090
1971 1812 3160
2006 1839 3225
2041 1867 3286
2073 1892 3338
1361 1542 606
1428 1582 999
1493 1612 1405
1561 1648 1723
1635 1694 1998
1701 1735 2225
1762 1775 2415
1817 1808 2574
1869 1842 2712
1912 1869 2828
1952 1896 2931
1991 1924 3024
2026 1947 3102
2061 1971 3172
2094 1993 3236
2126 2016 3297
2154 2036 3347
1511 1766 689
1575 1801 1058
1632 1825 1444
1691 1854 1756
1759 1894 2021
1821 1929 2245
1877 1960 2432
1923 1986 2590
1970 2012 2728
2008 2033 2841
2045 2055 2942
2082 2077 3034
2113 2094 3111
2143 2113 3181
2174 2133 3245
2203 2153 3305
2229 2169 3355
1647 1958 761
1705 1991 1112
1757 2011 1484
1813 2035 1787
1873 2068 2042
1927 2096 2262
1978 2122 2445
2021 2143 2602
2061 2165 2737
2098 2183 2850
2133 2200 2952
2167 2218 3042
2195 2232 3118
2222 2246 3188
2248 2261 3253
2274 2275 3313
2297 2288 3361
1766 2124 824
1825 2157 1161
1876 2177 1523
1926 2198 1818
1975 2220 2063
2024 2242 2279
2069 2263 2458
2111 2282 2611
2149 2299 2744
2181 2314 2857
2212 2329 2957
2243 2343 3047
2269 2353 3123
2294 2365 3192
2319 2378 3256
2342 2390 3314
2363 2400 3363
1875 2268 879
1929 2297 1205
1978 2319 1558
2023 2337 1844
2065 2352 2080
2113 2373 2289
2154 2390 2465
2192 2404 2617
2226 2419 2748
2257 2430 2861
2285 2443 2962
2312 2454 3050
2337 2463 3125
2361 2473 3194
2385 2482 3258
2407 2492 3316
2425 2500 3364
1970 2394 926
2020 2420 1251
2069 2442 1589
2112 2457 1866
2154 2473 2098
2195 2489 2300
2233 2503 2474
2267 2516 2624
2299 2527 2753
2326 2535 2864
2353 2545 2964
2378 2554 3052
2400 2561 3126
2422 2568 3194
2444 2576 3258
2464 2584 3315
2482 2590 3364
2059 2506 976
2107 2530 1293
2153 2550 1618
2191 2562 1885
2233 2579 2115
2267 2589 2310
2303 2602 2480
2334 2613 2628
2364 2622 2755
2390 2629 2865
2415 2636 2964
2438 2642 3050
2459 2648 3126
2479 2655 3195
2499 2661 3258
2518 2667 3314
2534 2672 3362
2138 2601 1015
2183 2625 1330
2227 2643 1643
2264 2657 1905
2303 2671 2130
2334 2680 2319
2367 2690 2486
2398 2700 2631
2424 2708 2756
2450 2714 2866
2474 2721 2964
2494 2725 3049
2513 2729 3124
2532 2734 3194
2551 2739 3258
2568 2744 3313
2583 2748 3361
2211 2689 1053
2254 2711 1366
2295 2729 1667
2333 2745 1924
2366 2754 2143
2399 2764 2329
2426 2771 2491
2457 2781 2635
2481 2787 2758
2504 2792 2867
2528 2798 2965
2547 2801 3048
2565 2804 3123
2582 2807 3192
2599 2811 3256
2614 2813 3310
2628 2814 3358
2280 2769 1105
2320 2791 1399
2360 2807 1693
2395 2821 1942
2425 2828 2155
2459 2840 2340
2481 2843 2496
2510 2852 2638
2533 2856 2759
2555 2860 2866
2576 2865 2964
2595 2868 3046
2611 2869 3120
2627 2871 3188
2643 2874 3252
2657 2875 3305
2670 2877 3354
2342 2840 1137
2380 2859 1433
2418 2874 1717
2451 2887 1958
2479 2894 2167
2510 2904 2348
2534 2909 2503
2559 2915 2640
2582 2919 2760
2602 2923 2866
2621 2927 2962
2638 2928 3043
2655 2930 3118
2670 2931 3185
2685 2933 3249
2697 2934 3300
2709 2935 3349
2400 2905 1163
2436 2922 1466
2472 2937 1742
2504 2949 1976
2531 2956 2179
2559 2964 2356
2585 2971 2510
2605 2974 2643
2626 2977 2760
2647 2981 2866
2664 2984 2960
2679 2985 3041
2695 2986 3114
2711 2988 3183
2725 2989 3245
2736 2989 3296
2747 2989 3345
2455 2965 1189
2489 2981 1498
2523 2995 1766
2553 3006 1994
2581 3015 2193
2605 3020 2365
2630 3027 2516
2648 3029 2645
2668 3031 2761
2688 3035 2866
2705 3037 2958
2719 3038 3038
2734 3039 3112
2749 3040 3180
2762 3041 3241
2773 3039 3293
2783 3039 3341
2507 3022 1231
2540 3037 1529
2571 3050 1789
2600 3060 2012
2625 3067 2205
2647 3072 2373
2671 3078 2521
2691 3080 2649
2707 3080 2762
2726 3083 2865
2743 3085 2956
2756 3084 3036
2769 3084 3109
2783 3085 3177
2796 3085 3237
2807 3083 3289
2817 3082 3337
1150 867 0
1196 910 867
1132 899 1243
1249 997 1613
1347 1081 1907
1432 1155 2146
1512 1223 2347
1579 1282 2514
1641 1338 2658
1696 1387 2780
1746 1430 2885
1796 1476 2981
1840 1517 3063
1879 1553 3135
1916 1587 3201
1952 1621 3263
1986 1653 3317
1229 1111 217
1353 1209 902
1339 1191 1322
1406 1250 1656
1495 1321 1941
1572 1383 2176
1641 1438 2374
1700 1487 2538
1756 1534 2680
1805 1576 2800
1852 1614 2904
1896 1651 2998
1935 1684 3079
1970 1715 3149
2005 1747 3215
2041 1778 3276
