release/datafiles/colormanagement/luts/rec709_aces_rrt_p3dci.3dl
0 64 128 192 256 320 384 448 512 575 639 703 767 831 895 959 1023
5 4 5
0 212 749
0 367 1296
0 490 1702
0 592 2019
0 680 2277
0 760 2493
0 826 2672
0 891 2827
0 946 2958
0 996 3071
0 1046 3173
0 1089 3262
0 1128 3339
0 1170 3410
0 1209 3476
0 1243 3534
127 658 109
146 734 820
0 840 1348
14 923 1744
16 992 2056
0 1056 2309
0 1117 2522
0 1166 2699
0 1211 2851
0 1254 2980
0 1295 3092
110 1334 3193
185 1369 3280
154 1400 3357
127 1430 3427
107 1459 3493
152 1488 3550
293 1142 204
412 1194 892
274 1262 1395
297 1321 1779
0 1368 2086
128 1410 2336
339 1448 2547
176 1483 2721
36 1517 2871
69 1546 2999
165 1574 3109
269 1603 3210
320 1628 3295
351 1650 3370
448 1673 3441
550 1695 3506
578 1717 3562
402 1521 282
644 1559 941
653 1604 1434
372 1646 1808
606 1679 2110
495 1708 2359
508 1735 2567
505 1759 2738
539 1783 2888
465 1801 3013
401 1822 3123
374 1843 3223
469 1860 3307
604 1876 3383
749 1892 3453
840 1909 3518
818 1924 3572
524 1820 350
766 1851 988
903 1884 1465
759 1918 1831
776 1944 2128
763 1964 2374
746 1984 2579
793 1997 2751
859 2012 2901
768 2024 3024
725 2038 3134
696 2052 3233
676 2062 3317
744 2075 3391
812 2089 3461
878 2102 3526
964 2112 3579
660 2066 408
914 2092 1027
1042 2117 1493
1092 2145 1853
1006 2166 2143
1011 2182 2386
956 2196 2588
868 2205 2759
931 2216 2906
1021 2222 3030
1106 2229 3141
1047 2239 3239
1004 2246 3321
972 2253 3397
947 2260 3467
933 2269 3532
1029 2276 3583
1022 2276 458
1084 2301 1063
1152 2320 1519
1265 2341 1871
1258 2358 2157
1206 2369 2396
1208 2378 2595
1148 2384 2765
1045 2390 2912
1125 2393 3034
1207 2398 3143
1270 2402 3241
1318 2405 3324
1276 2410 3398
1240 2415 3468
1220 2421 3531
1297 2425 3584
1192 2455 504
1270 2476 1093
1330 2493 1544
1369 2509 1887
1419 2521 2166
1398 2531 2401
1372 2537 2599
1389 2541 2767
1367 2545 2911
1292 2545 3034
1300 2546 3143
1350 2548 3239
1412 2548 3322
1474 2550 3399
1512 2552 3469
1497 2555 3531
1564 2557 3583
1371 2608 543
1447 2627 1126
1473 2641 1565
1519 2654 1900
1558 2664 2175
1560 2673 2407
1539 2676 2601
1524 2678 2769
1538 2679 2911
1522 2678 3033
1454 2677 3143
1447 2676 3238
1513 2675 3320
1581 2674 3396
1646 2674 3466
1678 2674 3529
1680 2673 3582
1504 2743 601
1568 2760 1161
1605 2772 1586
1632 2782 1915
1667 2789 2184
1684 2795 2411
1687 2797 2602
1665 2798 2767
1662 2796 2908
1682 2794 3030
1678 2792 3139
1665 2789 3234
1691 2785 3318
1711 2783 3392
1733 2782 3462
1761 2780 3523
1793 2778 3576
1643 2858 639
1702 2873 1194
1737 2884 1605
1755 2892 1926
1784 2897 2190
1802 2903 2413
1806 2904 2603
1799 2904 2766
1792 2901 2905
1797 2898 3027
1813 2895 3136
1823 2891 3229
1813 2886 3312
1807 2883 3388
1818 2880 3458
1842 2877 3518
1871 2874 3571
1769 2961 669
1815 2975 1226
1842 2985 1625
1857 2992 1938
1885 2996 2198
1897 3000 2417
1911 3000 2604
1919 3001 2766
1910 2996 2902
1903 2992 3023
1902 2988 3133
1916 2983 3224
1929 2979 3307
1920 2974 3383
1916 2969 3454
1932 2964 3513
1960 2960 3566
1875 3054 724
1916 3067 1258
1939 3076 1645
1959 3082 1951
1975 3085 2206
1995 3087 2421
2010 3085 2605
2011 3084 2764
2014 3080 2900
2005 3074 3019
2001 3069 3128
2009 3063 3219
2024 3057 3301
2039 3053 3377
2031 3048 3447
2044 3042 3506
2062 3036 3560
1981 3135 774
2021 3146 1288
2046 3154 1666
2073 3158 1962
2077 3161 2214
2094 3161 2424
2097 3159 2605
2102 3157 2762
2106 3154 2897
2103 3148 3016
2096 3143 3123
2102 3136 3213
2111 3130 3296
2125 3125 3372
2140 3120 3442
2141 3113 3499
2143 3107 3552
2085 3206 815
2122 3217 1320
2142 3224 1686
2156 3228 1975
2159 3230 2221
2172 3229 2427
2178 3227 2606
2187 3225 2760
2189 3221 2894
2196 3217 3013
2188 3211 3118
2190 3204 3208
2196 3197 3291
2198 3191 3367
2206 3186 3435
2217 3179 3492
2217 3172 3545
2176 3272 843
2204 3282 1350
2223 3288 1706
2233 3292 1990
2237 3294 2230
2246 3292 2432
2258 3290 2607
2262 3288 2759
2267 3284 2892
2271 3280 3011
2273 3275 3114
2267 3267 3203
2264 3259 3285
2264 3253 3360
2268 3247 3429
2277 3240 3485
2288 3233 3539
2255 3334 889
2281 3342 1379
2298 3349 1726
2305 3353 2004
2313 3353 2238
2317 3352 2437
2329 3349 2609
2333 3346 2759
2340 3341 2890
2339 3337 3007
2341 3331 3109
2338 3322 3197
2334 3314 3278
2333 3306 3353
2335 3299 3421
2343 3291 3478
2352 3284 3531
656 104 0
584 282 760
507 428 1305
389 547 1711
203 646 2028
25 734 2285
0 808 2502
26 876 2681
232 936 2835
312 991 2966
267 1041 3079
325 1087 3181
345 1129 3270
298 1171 3347
257 1209 3417
249 1246 3483
330 1279 3542
830 781 239
861 806 840
861 902 1359
785 979 1752
740 1049 2063
670 1110 2316
552 1166 2530
356 1212 2706
179 1255 2858
232 1297 2987
425 1337 3099
618 1374 3200
665 1407 3287
655 1437 3363
687 1466 3433
725 1497 3499
738 1525 3556
991 1242 312
1064 1266 919
1064 1312 1406
1040 1366 1786
916 1411 2092
901 1451 2343
965 1490 2553
884 1523 2727
784 1557 2877
736 1585 3004
717 1610 3115
753 1638 3215
813 1661 3300
883 1683 3376
960 1705 3446
1050 1728 3512
1051 1749 3567
1126 1591 375
1205 1618 965
1222 1643 1443
1239 1683 1814
1208 1715 2115
1174 1743 2362
1085 1771 2570
1109 1793 2742
1147 1817 2892
1095 1834 3017
1050 1853 3127
1024 1873 3227
1082 1889 3311
1147 1904 3386
1212 1920 3456
1241 1936 3521
1283 1951 3576
1268 1873 431
1336 1902 1010
1356 1919 1474
1365 1947 1836
1354 1973 2132
1370 1993 2378
1353 2012 2582
1310 2025 2753
1283 2039 2903
1306 2052 3026
1335 2065 3136
1289 2079 3236
1239 2089 3319
1258 2100 3394
1303 2113 3463
1349 2126 3527
1416 2135 3580
1399 2107 479
1469 2133 1046
1485 2152 1505
1482 2170 1857
1499 2191 2145
1474 2206 2388
1495 2220 2590
1508 2229 2761
1471 2240 2908
1468 2245 3031
1471 2252 3142
1487 2262 3241
1515 2268 3323
1467 2275 3398
1424 2282 3468
1390 2290 3533
1470 2297 3584
1526 2310 522
1585 2334 1079
1602 2348 1530
1616 2362 1874
1609 2378 2158
1609 2389 2398
1587 2398 2596
1608 2404 2766
1622 2411 2912
1628 2413 3034
1618 2417 3143
1617 2421 3240
1633 2424 3324
1657 2429 3399
1681 2435 3469
1649 2440 3532
1700 2443 3584
1634 2484 561
1700 2504 1108
1722 2516 1553
1727 2530 1893
1722 2539 2167
1727 2548 2402
1716 2554 2599
1711 2558 2766
1727 2561 2910
1745 2561 3033
1721 2562 3143
1752 2564 3239
1762 2564 3321
1775 2566 3398
1787 2568 3469
1804 2571 3531
1824 2572 3583
1737 2633 597
1806 2650 1141
1825 2663 1575
1829 2673 1907
1834 2679 2176
1826 2687 2407
1839 2690 2600
1816 2692 2767
1816 2693 2909
1832 2692 3031
1854 2691 3142
1836 2690 3238
1868 2688 3319
1885 2687 3394
1890 2687 3464
1900 2687 3526
1917 2686 3580
1832 2766 654
1896 2780 1175
1923 2790 1595
1932 2797 1919
1939 2802 2185
1930 2806 2409
1933 2809 2601
1935 2810 2765
1923 2808 2906
1933 2806 3028
1945 2804 3137
1960 2801 3232
1951 2797 3315
1960 2795 3390
1975 2794 3460
1996 2792 3521
2010 2789 3574
1936 2878 685
1989 2890 1207
2020 2898 1613
2030 2905 1930
2033 2911 2194
2030 2913 2412
2026 2914 2601
2034 2915 2764
2029 2911 2902
2020 2907 3025
2024 2905 3133
2036 2901 3226
2051 2897 3309
2044 2893 3386
2046 2891 3456
2064 2888 3516
2087 2884 3569
2029 2978 712
2076 2990 1238
2106 2997 1632
2121 3003 1942
2119 3007 2201
2124 3009 2416
2114 3008 2602
2113 3008 2763
2121 3004 2900
2108 3000 3021
2101 2997 3130
2109 2992 3222
2122 2987 3304
2137 2983 3381
2135 2979 3451
2145 2974 3511
2168 2969 3563
2114 3070 770
2157 3081 1269
2183 3088 1653
2202 3092 1955
2201 3094 2208
2204 3095 2421
2197 3091 2602
2193 3090 2761
2197 3086 2897
2198 3081 3017
2189 3077 3125
2192 3070 3217
2203 3064 3299
2215 3060 3374
2228 3056 3445
2231 3050 3503
2232 3044 3557
2204 3148 815
2244 3157 1299
2265 3163 1673
2278 3167 1967
2280 3167 2215
2280 3168 2424
2279 3164 2602
2273 3162 2759
2273 3159 2894
2279 3154 3013
2274 3150 3120
2275 3142 3211
2278 3136 3294
2281 3131 3368
2287 3126 3438
2297 3119 3496
2301 3113 3549
2285 3218 842
2318 3226 1329
2336 3232 1693
2347 3236 1980
2355 3235 2223
2353 3235 2428
2355 3232 2604
2348 3229 2757
2346 3226 2891
2349 3222 3010
2353 3217 3116
2346 3209 3205
2342 3202 3287
2341 3196 3363
2345 3191 3431
2353 3184 3488
2362 3178 3542
2358 3283 863
2386 3291 1359
2403 3297 1713
2413 3300 1994
2424 3299 2231
2422 3298 2433
2423 3296 2608
2420 3292 2757
2414 3288 2889
2410 3284 3007
2411 3279 3110
2410 3271 3199
2404 3264 3281
2400 3258 3357
2401 3252 3425
2408 3244 3482
2416 3237 3535
2426 3344 912
2452 3352 1389
2467 3357 1733
2475 3360 2009
2485 3359 2240
2488 3357 2438
2485 3354 2610
2483 3349 2756
2474 3343 2886
2469 3339 3003
2469 3333 3105
2471 3325 3194
2467 3317 3275
2463 3310 3350
2463 3303 3417
2468 3295 3474
2475 3288 3527
1180 146 8
1066 348 820
1050 500 1317
1050 613 1720
1005 708 2037
973 789 2294
788 865 2510
780 928 2688
807 985 2842
815 1040 2974
858 1086 3087
902 1129 3189
894 1173 3277
881 1212 3353
887 1248 3424
897 1283 3490
937 1316 3548
1253 880 268
1403 980 953
1279 962 1371
1284 1038 1760
1277 1104 2069
1231 1162 2322
1214 1212 2536
1185 1257 2712
1029 1303 2864
1032 1342 2993
1124 1377 3104
1132 1413 3205
1159 1444 3292
1199 1472 3368
1244 1503 3439
1268 1533 3504
1256 1559 3561
1421 1336 408
1479 1363 967
1451 1359 1415
1454 1410 1793
1439 1453 2097
1439 1493 2348
1393 1533 2557
1378 1563 2731
1381 1595 2882
1369 1622 3008
1298 1646 3119
1272 1671 3220
1306 1693 3304
1359 1714 3380
1421 1737 3450
1444 1760 3515
1477 1779 3571
1536 1662 458
1588 1687 998
1591 1698 1466
1583 1718 1819
1582 1748 2118
1566 1777 2365
1571 1805 2572
1549 1826 2744
1537 1848 2894
1536 1865 3019
1544 1883 3131
1531 1903 3231
1540 1918 3314
1539 1932 3389
1541 1947 3459
1547 1962 3524
1577 1977 3578
1636 1932 503
1703 1954 1034
1710 1961 1490
1701 1976 1840
1700 2001 2135
1689 2020 2380
1680 2038 2584
1684 2052 2755
1648 2067 2904
1649 2078 3028
1660 2091 3137
1673 2104 3237
1695 2114 3320
1706 2125 3396
1702 2137 3465
1700 2149 3529
1724 2159 3582
1732 2158 545
1788 2180 1067
1807 2184 1517
1817 2196 1862
1815 2214 2146
1814 2229 2390
1793 2243 2590
1782 2252 2762
1789 2263 2908
1775 2268 3031
1760 2274 3142
1763 2283 3240
1780 2289 3322
1799 2295 3398
1821 2303 3469
1810 2311 3534
1846 2316 3585
1824 2353 581
1881 2374 1099
1898 2380 1543
1902 2388 1883
1903 2397 2160
1908 2408 2399
1908 2417 2596
1894 2423 2764
1889 2429 2910
1895 2432 3033
1885 2436 3142
1875 2440 3240
1881 2443 3323
1895 2447 3398
1909 2452 3468
1923 2457 3531
1943 2460 3584
1919 2519 616
1968 2538 1127
1983 2547 1567
1984 2553 1900
1993 2555 2168
1988 2563 2401
1998 2569 2597
1995 2573 2764
1991 2576 2907
1989 2577 3031
1993 2579 3142
1992 2581 3238
1988 2581 3320
1987 2582 3396
1990 2583 3466
1999 2586 3529
2016 2587 3581
2005 2663 646
2048 2680 1159
2067 2689 1587
2073 2692 1912
2075 2695 2178
2068 2699 2406
2071 2703 2598
2081 2706 2765
2070 2706 2907
2079 2705 3029
2081 2704 3139
2085 2703 3235
2085 2702 3317
2081 2701 3392
2080 2701 3462
2085 2700 3524
2097 2699 3577
2091 2789 689
2134 2804 1190
2150 2812 1605
2157 2813 1924
2156 2818 2189
2154 2818 2408
2149 2820 2599
2156 2821 2763
2155 2819 2904
2150 2816 3025
2153 2814 3134
2162 2811 3229
2171 2809 3313
2172 2807 3388
2168 2806 3458
2171 2804 3518
2180 2801 3572
2176 2897 719
2214 2910 1220
2230 2918 1622
2235 2921 1936
2233 2925 2197
2234 2923 2412
2225 2922 2599
2225 2922 2761
2230 2920 2899
2222 2917 3022
2220 2914 3130
2226 2910 3223
2236 2906 3307
2248 2903 3384
2254 2901 3454
2255 2898 3514
2260 2895 3567
2255 2996 750
2289 3007 1251
2305 3015 1641
2309 3020 1950
2305 3019 2204
2304 3019 2417
2298 3015 2599
2292 3015 2760
2294 3011 2896
2299 3008 3018
2286 3005 3128
2290 2999 3219
2298 2994 3301
2309 2990 3378
2319 2987 3449
2325 2982 3508
2329 2976 3560
2329 3085 810
2360 3095 1280
2373 3102 1661
2377 3105 1962
2375 3102 2210
2373 3104 2423
2371 3097 2599
2362 3096 2758
2362 3092 2893
2366 3087 3014
2365 3084 3122
2364 3077 3214
2366 3071 3296
2368 3066 3371
2373 3062 3441
2381 3056 3500
2388 3050 3554
2399 3160 840
2428 3169 1310
2440 3175 1681
2444 3178 1973
2444 3175 2217
2439 3176 2426
2438 3171 2602
2432 3168 2756
2428 3164 2891
2431 3160 3010
2433 3155 3117
2427 3148 3207
2422 3142 3290
2422 3136 3365
2425 3131 3434
2432 3125 3492
2440 3119 3546
2465 3229 861
2493 3237 1340
2504 3243 1700
2508 3246 1986
2508 3244 2226
2503 3243 2430
2502 3240 2605
2499 3234 2755
2490 3230 2888
2486 3226 3006
2486 3221 3111
2487 3214 3201
2479 3207 3283
2475 3201 3359
2477 3196 3427
2482 3189 3485
2489 3183 3538
2528 3293 885
2553 3301 1370
2564 3307 1720
2568 3309 1999
2569 3309 2236
2564 3305 2434
2559 3303 2608
2555 3296 2754
2545 3291 2885
2539 3287 3003
2537 3282 3106
2538 3275 3195
2535 3269 3277
2529 3262 3353
2528 3256 3421
2532 3248 3478
2539 3241 3531
2586 3353 934
2609 3361 1399
2622 3366 1740
2625 3368 2013
2622 3367 2244
2616 3362 2438
2610 3359 2609
2607 3353 2755
2600 3345 2882
2593 3341 2999
2590 3335 3101
2590 3328 3189
2592 3321 3271
2588 3314 3346
2585 3306 3413
2588 3299 3471
2593 3291 3524
1620 208 1
1623 350 929
1401 580 1331
1423 682 1729
1420 770 2044
1392 849 2300
1378 918 2516
1378 978 2696
1339 1036 2849
1322 1086 2980
1334 1129 3093
1336 1175 3195
1351 1216 3283
1379 1252 3359
1410 1286 3430
1442 1321 3496
1462 1355 3554
1635 972 160
1758 1043 944
1633 1035 1406
1603 1096 1768
1601 1157 2075
1598 1211 2328
1575 1258 2541
1555 1304 2717
1550 1348 2869
1556 1385 2998
1535 1417 3109
1513 1449 3210
1522 1479 3296
1550 1509 3372
1572 1539 3442
1588 1567 3508
