release/datafiles/colormanagement/luts/rec709_aces_rrt_srgb.3dl
0 128 256 384 512 639 767 895 1023
0 0 0
0 128 1032
0 354 1808
0 527 2329
0 661 2699
0 769 2973
0 864 3189
0 946 3356
0 1021 3497
0 898 0
43 1026 1103
0 1142 1860
89 1230 2370
10 1308 2735
0 1370 3003
0 1428 3213
172 1475 3379
322 1522 3517
59 1633 0
3 1704 1114
175 1769 1871
239 1814 2381
0 1846 2747
190 1875 3012
374 1901 3221
187 1930 3386
195 1956 3522
266 2141 0
206 2189 1105
143 2232 1863
398 2254 2372
556 2267 2737
209 2277 3003
180 2284 3213
440 2295 3378
544 2303 3512
425 2515 0
570 2550 1093
348 2578 1847
281 2590 2351
518 2593 2712
714 2590 2985
730 2587 3192
678 2586 3362
769 2583 3497
598 2798 0
739 2826 1078
769 2843 1832
557 2848 2329
637 2845 2685
566 2840 2959
767 2829 3167
925 2821 3339
992 2813 3471
767 3020 0
984 3046 1080
1036 3055 1818
973 3055 2306
931 3048 2661
803 3037 2933
885 3023 3140
1071 3012 3313
1013 2997 3447
815 3195 0
1028 3215 1083
1183 3221 1811
1242 3218 2288
1211 3209 2637
1177 3199 2906
1181 3182 3114
1203 3169 3286
1223 3153 3417
968 3340 0
1183 3358 1088
1341 3362 1806
1417 3359 2273
1445 3348 2616
1434 3335 2883
1386 3315 3086
1357 3298 3258
1421 3281 3390
943 0 0
788 186 1046
709 418 1820
582 590 2341
324 721 2712
408 829 2986
551 922 3201
625 1001 3368
677 1072 3508
1070 1083 0
1108 1108 1108
1055 1212 1861
922 1300 2373
903 1372 2739
884 1428 3009
852 1480 3219
870 1529 3385
956 1575 3522
1125 1742 0
1240 1773 1120
1192 1817 1866
1108 1859 2377
1077 1893 2743
1026 1921 3010
1125 1946 3220
1089 1971 3385
1092 1995 3520
1178 2214 0
1264 2243 1109
1287 2262 1856
1313 2285 2364
1246 2299 2727
1192 2309 2996
1139 2315 3205
1227 2325 3373
1294 2334 3508
1307 2566 0
1369 2594 1094
1355 2601 1839
1284 2610 2339
1403 2614 2702
1424 2612 2975
1415 2609 3184
1368 2607 3352
1387 2604 3488
1461 2833 0
1520 2856 1079
1500 2864 1828
1456 2860 2316
1482 2858 2673
1429 2852 2947
1519 2843 3156
1589 2837 3330
1594 2829 3462
1616 3047 0
1660 3067 1080
1644 3066 1812
1632 3060 2293
1583 3053 2648
1599 3046 2921
1612 3032 3128
1654 3020 3301
1702 3007 3435
1724 3213 0
1801 3230 1081
1799 3230 1807
1777 3226 2281
1751 3212 2624
1747 3202 2893
1715 3187 3100
1706 3173 3272
1756 3159 3405
1808 3356 0
1932 3371 1086
1920 3371 1803
1891 3362 2265
1875 3346 2603
1844 3333 2869
1871 3317 3073
1832 3301 3245
1875 3283 3378
1750 0 0
1534 214 1087
1503 492 1826
1469 656 2348
1420 785 2720
1411 890 2994
1378 981 3208
1402 1056 3375
1426 1130 3515
1731 1145 0
1822 1225 1140
1735 1280 1856
1699 1364 2368
1660 1429 2739
1616 1481 3009
1609 1531 3220
1617 1580 3387
1610 1623 3523
1851 1825 0
1909 1860 1139
1858 1858 1858
1825 1900 2368
1777 1935 2734
1762 1962 3004
1724 1986 3214
1721 2008 3381
1741 2031 3517
1905 2280 0
1959 2303 1117
1928 2306 1858
1878 2311 2349
1856 2327 2715
1836 2336 2985
1848 2344 3196
1838 2352 3365
1848 2360 3499
1955 2616 0
2030 2636 1094
2007 2633 1838
1969 2627 2325
1940 2630 2688
1909 2630 2961
1898 2627 3171
1917 2628 3343
1907 2624 3478
2018 2871 0
2069 2888 1078
2070 2881 1822
2060 2872 2304
2035 2868 2659
2023 2866 2936
1995 2856 3143
1979 2849 3318
1991 2843 3450
2087 3073 0
2128 3090 1081
2126 3083 1810
2113 3072 2287
2097 3059 2635
2100 3051 2907
2095 3039 3114
2073 3028 3287
2074 3015 3421
2188 3233 0
2219 3249 1081
2204 3245 1806
2175 3233 2273
2167 3214 2611
2143 3204 2879
2156 3191 3087
2156 3179 3260
2167 3165 3393
2271 3370 0
2287 3382 1086
2272 3380 1801
2250 3365 2258
2235 3348 2593
2213 3333 2857
2226 3317 3061
2235 3303 3232
2223 3285 3365
2129 0 0
2160 155 1107
2030 567 1825
2008 727 2346
1967 851 2722
1936 950 2996
1922 1034 3211
1926 1113 3379
1929 1181 3518
2197 1183 0
2286 1260 1080
2213 1336 1853
2175 1419 2360
2133 1478 2731
2102 1532 3004
2072 1581 3217
2058 1625 3383
2059 1667 3520
2326 1862 0
2361 1894 1113
2308 1896 1840
2260 1938 2354
2228 1974 2723
2186 1998 2993
2171 2022 3204
2151 2042 3375
2147 2064 3510
2384 2319 0
2426 2350 1116
2394 2354 1864
2335 2335 2335
2294 2350 2698
2262 2361 2973
2232 2368 3183
2221 2378 3356
2211 2386 3491
2411 2648 0
2446 2667 1089
2417 2663 1838
2369 2651 2319
2326 2644 2673
2312 2647 2948
2287 2644 3158
2276 2643 3329
2279 2641 3465
2464 2898 0
2490 2913 1077
2461 2906 1821
2420 2894 2302
2379 2877 2644
2346 2873 2919
2335 2868 3129
2305 2861 3304
2303 2853 3437
2493 3095 0
2532 3110 1083
2514 3100 1809
2474 3082 2280
2440 3065 2623
2405 3055 2892
2389 3044 3100
2375 3036 3274
2365 3023 3409
2538 3248 0
2563 3261 1081
2547 3258 1804
2523 3240 2266
2500 3221 2602
2472 3207 2867
2451 3194 3073
2435 3184 3247
2416 3169 3379
2581 3380 0
2600 3392 1087
2590 3389 1800
2568 3370 2252
2544 3352 2585
2526 3332 2844
2506 3316 3047
2488 3302 3218
2478 3287 3353
2466 0 0
2581 52 1032
2454 606 1823
2424 794 2338
2386 914 2715
2348 1008 2993
2323 1095 3210
2302 1164 3377
2295 1227 3516
2567 1224 0
2655 1301 1003
2619 1366 1839
2559 1468 2348
2516 1528 2720
2471 1581 2993
2441 1627 3207
2422 1668 3377
2404 1707 3514
2682 1870 0
2709 1913 1076
2671 1930 1817
2618 1966 2329
2580 2006 2705
2544 2032 2982
2505 2055 3193
2483 2075 3365
2469 2096 3502
2755 2342 0
2774 2368 1096
2718 2365 1834
2638 2342 2302
2611 2373 2682
2574 2384 2958
2543 2392 3170
2514 2399 3342
2501 2408 3478
2764 2666 0
2796 2692 1083
2763 2693 1838
2710 2678 2318
2658 2658 2658
2615 2659 2930
2589 2659 3144
2560 2659 3315
2541 2657 3451
2780 2911 0
2801 2929 1072
2769 2926 1818
2723 2911 2296
2673 2891 2635
2633 2882 2905
2612 2876 3114
2599 2872 3291
2585 2864 3424
2805 3106 0
2820 3118 1079
2794 3113 1805
2751 3096 2275
2709 3079 2619
2671 3060 2877
2643 3049 3086
2624 3041 3260
2605 3030 3395
2839 3260 0
2852 3272 1077
2830 3268 1802
2788 3250 2261
2745 3231 2597
2707 3211 2854
2672 3196 3058
2649 3185 3232
2637 3174 3366
2859 3390 0
2877 3401 1086
2862 3397 1798
2821 3376 2248
2779 3355 2577
2745 3335 2835
2714 3315 3034
2689 3301 3204
2676 3287 3339
2753 0 0
2886 73 932
2815 622 1810
2768 863 2328
2722 971 2705
2680 1068 2984
2645 1148 3201
2623 1215 3373
2600 1281 3512
2867 1254 0
2937 1323 921
2918 1373 1793
2860 1496 2325
2817 1575 2703
2773 1625 2982
2731 1670 3196
2702 1707 3367
2682 1744 3507
2958 1878 0
2978 1923 1019
2939 1939 1771
2886 1973 2294
2863 2038 2689
2814 2061 2966
2779 2085 3180
2743 2104 3351
2718 2123 3489
3017 2339 0
3032 2369 1063
2979 2372 1802
2897 2349 2270
2872 2383 2655
2837 2403 2941
2805 2413 3154
2775 2420 3329
2751 2428 3465
3064 2683 0
3073 2703 1068
3026 2701 1818
2954 2678 2289
2876 2650 2621
2858 2672 2914
2822 2671 3128
2799 2675 3302
2771 2673 3437
3048 2919 0
3065 2938 1065
3038 2941 1813
2989 2929 2291
2934 2910 2630
2891 2891 2891
2851 2884 3099
2821 2879 3275
2798 2873 3410
3052 3109 0
3063 3123 1073
3038 3123 1801
2994 3109 2271
2947 3092 2614
2897 3068 2866
2859 3052 3071
2833 3045 3245
2817 3035 3381
3071 3263 0
3077 3276 1073
3047 3273 1796
3001 3257 2254
2956 3238 2588
2912 3219 2846
2875 3198 3044
2845 3188 3218
2828 3175 3352
3090 3393 0
3088 3401 1085
3060 3396 1792
3018 3380 2242
2978 3359 2570
2938 3340 2826
2904 3316 3022
2875 3301 3191
2857 3287 3326
2997 62 0
3120 111 810
3096 536 1766
3049 896 2307
3006 1036 2690
2959 1122 2972
2920 1197 3192
2882 1268 3362
2856 1331 3504
3091 1273 0
3141 1333 833
3151 1382 1731
3111 1521 2297
3077 1620 2688
3021 1665 2967
2982 1710 3184
2942 1745 3354
2911 1780 3494
3174 1885 0
3196 1933 956
3165 1950 1729
3112 1980 2258
3085 2046 2655
3051 2088 2948
3009 2111 3164
2974 2133 3338
2940 2150 3477
3245 2340 0
3255 2371 1036
3201 2374 1770
3115 2350 2234
3078 2377 2613
3073 2422 2926
3030 2432 3138
2999 2441 3315
2966 2448 3452
3268 2673 0
3274 2695 1043
3228 2696 1791
3154 2676 2260
3073 2646 2588
3064 2678 2891
3029 2684 3111
2995 2686 3285
2970 2686 3423
3285 2927 0
3298 2947 1058
3257 2948 1801
3196 2933 2273
3124 2906 2604
3058 2880 2857
3038 2891 3082
3003 2886 3258
2977 2880 3395
3273 3113 0
3281 3129 1068
3248 3130 1794
3200 3117 2263
3153 3101 2605
3097 3078 2858
3057 3057 3057
3021 3050 3230
2994 3040 3366
3267 3262 0
3267 3275 1068
3237 3276 1789
3193 3263 2248
3147 3246 2580
3100 3227 2838
3060 3205 3035
3028 3190 3205
3006 3177 3339
3268 3387 0
3267 3398 1083
3239 3396 1786
3200 3384 2236
3155 3363 2563
3116 3345 2819
3078 3322 3015
3044 3302 3178
3014 3287 3313
3159 103 0
3271 234 704
3320 540 1714
3289 946 2287
3246 1086 2675
3194 1174 2958
3150 1250 3179
3109 1317 3351
3074 1376 3493
3265 1287 0
3320 1350 764
3338 1398 1670
3312 1535 2257
3281 1641 2658
3241 1703 2950
3194 1744 3168
3156 1784 3343
3117 1818 3482
3361 1894 0
3380 1939 906
3339 1952 1679
3288 1979 2208
3271 2048 2618
3262 2115 2931
3212 2138 3148
3173 2160 3323
3137 2177 3464
3435 2337 0
3440 2370 1005
3381 2374 1735
3292 2351 2200
3252 2373 2577
3248 2425 2897
3215 2450 3122
3174 2458 3298
3141 2466 3437
3450 2667 0
3455 2691 1022
3408 2694 1768
3333 2676 2235
3245 2642 2555
3219 2666 2852
3211 2696 3095
3171 2698 3270
3141 2697 3407
3461 2921 0
3464 2939 1040
3420 2941 1778
3355 2926 2246
3280 2898 2573
3209 2871 2825
3199 2891 3060
3169 2893 3243
3139 2887 3380
3460 3113 0
3466 3130 1063
3431 3133 1786
3376 3120 2251
3317 3101 2587
3250 3072 2833
3196 3047 3027
3179 3055 3216
3148 3046 3352
3438 3259 0
3440 3275 1063
3412 3279 1783
3370 3270 2242
3319 3252 2573
3275 3235 2831
3230 3212 3027
3192 3192 3192
3156 3179 3325
3431 3382 0
3431 3395 1082
3405 3397 1781
3367 3387 2231
3318 3368 2557
3275 3350 2811
3228 3327 3007
3189 3305 3167
3156 3288 3300
3288 228 0
3393 350 541
3466 562 1637
3461 938 2239
3443 1124 2651
3400 1229 2943
3348 1301 3164
3308 1362 3340
3271 1418 3483
3409 1302 0
3464 1370 688
3476 1411 1606
3460 1530 2197
3463 1662 2630
3431 1734 2930
3382 1781 3153
3336 1820 3327
3298 1854 3470
3520 1899 0
3535 1945 852
3493 1958 1635
3443 1982 2162
3440 2052 2584
3421 2119 2896
3390 2163 3131
3342 2183 3306
3304 2202 3447
3581 2334 0
3585 2367 952
3530 2374 1697
3443 2353 2166
3400 2370 2541
3390 2422 2861
3379 2466 3105
3333 2475 3281
3296 2482 3420
3613 2663 0
3614 2687 1001
3567 2692 1747
3490 2677 2211
3398 2641 2528
3361 2657 2815
3358 2694 3065
3334 2709 3255
3297 2709 3392
3608 2911 0
3608 2931 1025
3566 2935 1757
3501 2922 2222
3424 2894 2550
3349 2863 2795
3330 2879 3026
3324 2901 3229
3289 2895 3366
3608 3105 0
3605 3121 1049
3568 3124 1767
3513 3112 2229
3450 3093 2563
3382 3063 2805
3324 3038 3000
3311 3054 3196
3280 3050 3337
3595 3258 0
3597 3275 1057
3573 3282 1777
3526 3274 2234
3468 3255 2562
3412 3232 2814
3351 3204 3005
3301 3180 3165
3280 3180 3311
3581 3379 0
3580 3393 1079
3555 3398 1777
3509 3388 2224
3459 3371 2550
3414 3354 2803
3366 3332 3000
3324 3310 3159
3288 3288 3288
