release/datafiles/colormanagement/luts/rec709_aces_rrt_srgb.3dl
0 64 128 192 256 320 384 448 512 575 639 703 767 831 895 959 1023
0 0 0
0 31 469
0 128 1032
0 250 1465
0 354 1808
0 445 2089
0 527 2329
0 595 2527
0 661 2699
0 717 2846
0 769 2973
0 820 3089
0 864 3189
0 904 3275
0 946 3356
0 986 3431
0 1021 3497
0 394 0
8 471 523
0 583 1076
0 672 1501
0 747 1839
0 817 2118
0 882 2353
0 936 2549
0 983 2720
0 1029 2865
0 1073 2991
0 1115 3104
0 1152 3203
0 1184 3289
0 1215 3369
6 1246 3444
84 1277 3509
0 898 0
2 953 552
43 1026 1103
1 1091 1522
0 1142 1860
0 1189 2136
89 1230 2370
50 1269 2565
10 1308 2735
0 1339 2878
0 1370 3003
0 1401 3117
0 1428 3213
31 1452 3299
172 1475 3379
273 1499 3453
322 1522 3517
0 1305 0
0 1346 543
72 1396 1116
83 1442 1532
110 1479 1869
65 1512 2147
0 1541 2381
76 1568 2574
163 1595 2743
237 1615 2886
155 1638 3011
112 1661 3123
38 1679 3219
0 1696 3306
0 1713 3385
0 1733 3459
0 1749 3521
59 1633 0
14 1666 529
3 1704 1114
152 1740 1534
175 1769 1871
237 1792 2150
239 1814 2381
88 1830 2576
0 1846 2747
84 1859 2887
190 1875 3012
288 1890 3126
374 1901 3221
275 1916 3307
187 1930 3386
137 1945 3460
195 1956 3522
228 1905 0
152 1934 491
6 1963 1114
113 1991 1536
247 2016 1867
288 2034 2147
310 2051 2378
355 2061 2574
271 2074 2741
95 2080 2883
0 2089 3011
61 2100 3123
148 2106 3217
269 2113 3304
398 2121 3385
515 2129 3459
534 2137 3519
266 2141 0
333 2168 472
206 2189 1105
65 2212 1530
143 2232 1863
322 2244 2142
398 2254 2372
461 2261 2568
556 2267 2737
370 2272 2877
209 2277 3003
130 2282 3116
180 2284 3213
302 2289 3298
440 2295 3378
559 2300 3451
544 2303 3512
406 2342 0
452 2364 414
364 2383 1102
209 2400 1526
220 2416 1856
234 2427 2132
375 2433 2362
411 2438 2557
449 2442 2724
584 2441 2868
551 2443 2995
477 2445 3106
479 2445 3202
487 2446 3291
536 2448 3373
607 2451 3445
585 2452 3505
425 2515 0
532 2535 345
570 2550 1093
446 2566 1517
348 2578 1847
156 2587 2124
281 2590 2351
448 2592 2546
518 2593 2712
595 2591 2856
714 2590 2985
767 2589 3097
730 2587 3192
700 2586 3280
678 2586 3362
709 2586 3435
769 2583 3497
573 2667 0
673 2686 302
699 2698 1082
652 2711 1510
530 2720 1841
331 2726 2112
365 2728 2340
536 2727 2532
547 2726 2700
551 2723 2843
600 2722 2971
692 2718 3083
790 2714 3182
794 2711 3269
803 2709 3349
831 2707 3421
878 2703 3483
598 2798 0
681 2815 325
739 2826 1078
777 2836 1504
769 2843 1832
570 2848 2100
557 2848 2329
670 2848 2520
637 2845 2685
537 2842 2832
566 2840 2959
646 2835 3069
767 2829 3167
884 2824 3257
925 2821 3339
950 2817 3409
992 2813 3471
644 2915 0
782 2930 348
866 2941 1077
925 2949 1501
908 2954 1824
822 2959 2091
783 2958 2317
805 2958 2511
745 2953 2673
674 2948 2817
621 2945 2948
682 2939 3056
754 2934 3154
876 2928 3243
995 2922 3327
1018 2916 3397
1038 2910 3459
767 3020 0
897 3036 373
984 3046 1080
1032 3051 1495
1036 3055 1818
1034 3058 2085
973 3055 2306
934 3053 2499
931 3048 2661
859 3042 2804
803 3037 2933
817 3030 3043
885 3023 3140
959 3017 3230
1071 3012 3313
1052 3004 3383
1013 2997 3447
815 3113 0
921 3126 389
995 3135 1083
1019 3138 1492
1084 3142 1814
1116 3142 2076
1112 3140 2296
1073 3137 2486
1082 3132 2650
1052 3127 2791
992 3121 2919
998 3113 3028
1021 3106 3127
1084 3100 3217
1148 3094 3300
1130 3086 3368
1115 3078 3432
815 3195 0
917 3207 406
1028 3215 1083
1106 3218 1491
1183 3221 1811
1210 3220 2068
1242 3218 2288
1208 3215 2475
1211 3209 2637
1230 3205 2781
1177 3199 2906
1176 3190 3014
1181 3182 3114
1175 3175 3204
1203 3169 3286
1238 3161 3354
1223 3153 3417
874 3270 0
1004 3282 428
1105 3288 1085
1192 3292 1493
1277 3294 1810
1299 3293 2062
1342 3291 2281
1332 3287 2466
1333 3282 2626
1339 3277 2770
1345 3271 2895
1307 3261 3001
1278 3253 3099
1255 3245 3190
1255 3238 3272
1286 3230 3340
1324 3222 3404
968 3340 0
1087 3351 450
1183 3358 1088
1273 3362 1496
1341 3362 1806
1385 3361 2058
1417 3359 2273
1447 3355 2458
1445 3348 2616
1433 3342 2758
1434 3335 2883
1416 3324 2989
1386 3315 3086
1363 3306 3176
1357 3298 3258
1385 3289 3327
1421 3281 3390
393 0 0
312 43 476
219 152 1039
170 278 1471
110 384 1815
17 477 2096
0 554 2335
2 627 2534
21 689 2706
28 745 2854
24 798 2981
151 846 3095
219 890 3196
189 933 3282
163 974 3362
172 1011 3437
226 1045 3504
498 506 0
532 532 532
494 633 1081
407 716 1504
289 792 1843
312 859 2122
331 920 2357
220 971 2555
111 1018 2726
38 1063 2871
48 1106 2997
75 1147 3110
99 1182 3208
172 1213 3295
287 1243 3374
427 1276 3449
483 1306 3514
519 995 0
632 1019 564
590 1068 1106
438 1129 1524
537 1178 1861
432 1223 2138
316 1265 2373
358 1303 2568
426 1340 2737
397 1371 2880
335 1398 3007
266 1429 3120
308 1455 3217
388 1478 3303
464 1502 3383
505 1527 3457
542 1550 3521
449 1374 0
594 1401 548
698 1429 1116
653 1473 1532
518 1509 1869
535 1540 2147
567 1571 2380
502 1597 2575
459 1624 2744
559 1643 2887
573 1664 3012
550 1687 3125
460 1704 3220
379 1720 3307
309 1737 3387
310 1754 3461
382 1770 3523
494 1684 0
570 1715 528
618 1735 1114
722 1765 1532
737 1794 1869
653 1817 2148
623 1838 2380
570 1853 2575
539 1869 2745
533 1883 2886
545 1899 3012
616 1914 3126
691 1925 3221
686 1937 3307
635 1951 3386
593 1965 3459
635 1975 3521
600 1945 0
661 1972 490
637 1994 1115
692 2013 1532
720 2038 1864
794 2055 2144
766 2070 2374
754 2081 2572
698 2093 2739
551 2100 2881
437 2108 3009
483 2118 3121
554 2125 3216
670 2131 3303
783 2139 3383
904 2147 3458
897 2154 3518
706 2174 0
769 2199 470
720 2214 1106
654 2228 1527
746 2247 1859
820 2259 2138
884 2270 2369
854 2277 2564
866 2285 2733
763 2288 2874
676 2293 3000
624 2298 3112
658 2300 3209
734 2305 3296
813 2311 3377
916 2316 3450
896 2319 3511
808 2369 0
871 2390 402
866 2403 1102
761 2418 1525
778 2429 1851
706 2440 2128
814 2446 2357
891 2450 2552
915 2454 2718
958 2455 2864
945 2457 2991
861 2459 3102
883 2458 3198
910 2459 3287
928 2461 3370
961 2464 3442
1001 2465 3503
913 2538 0
975 2556 344
971 2570 1093
928 2582 1516
887 2589 1842
706 2597 2118
777 2601 2345
918 2602 2541
982 2603 2707
1013 2602 2851
1036 2602 2981
1094 2601 3093
1068 2599 3188
1066 2597 3276
1055 2597 3357
1060 2596 3430
1091 2594 3492
1010 2688 0
1067 2704 305
1076 2714 1081
1051 2723 1508
1036 2729 1836
887 2733 2105
884 2735 2334
984 2736 2527
974 2735 2694
952 2732 2838
993 2731 2966
1053 2728 3078
1163 2723 3176
1173 2720 3264
1170 2718 3345
1188 2716 3416
1214 2712 3479
1045 2815 0
1150 2829 324
1186 2838 1076
1177 2845 1501
1149 2853 1830
1083 2855 2094
1054 2855 2322
1110 2855 2515
1067 2852 2680
989 2848 2825
1014 2846 2953
1069 2841 3063
1128 2837 3162
1225 2832 3252
1271 2829 3334
1288 2825 3404
1320 2821 3466
1135 2929 0
1235 2944 346
1282 2952 1076
1294 2956 1499
1265 2963 1822
1271 2964 2086
1204 2962 2310
1169 2961 2504
1200 2958 2667
1117 2954 2811
1050 2951 2941
1092 2945 3050
1155 2939 3148
1221 2934 3239
1318 2929 3322
1323 2923 3393
1335 2917 3455
1219 3034 0
1316 3048 374
1369 3056 1080
1386 3059 1493
1364 3061 1815
1351 3063 2081
1315 3057 2299
1267 3055 2491
1284 3051 2654
1282 3046 2798
1214 3042 2927
1214 3034 3037
1272 3028 3134
1332 3022 3224
1386 3017 3308
1383 3010 3377
1364 3002 3441
1222 3124 0
1317 3136 388
1404 3142 1082
1461 3144 1489
1462 3145 1811
1447 3147 2072
1436 3142 2290
1387 3139 2479
1386 3134 2643
1417 3130 2786
1382 3125 2913
1378 3117 3022
1375 3109 3122
1398 3103 3210
1423 3097 3293
1455 3090 3362
1457 3082 3426
1268 3204 0
1379 3215 409
1463 3221 1082
1523 3224 1489
1555 3224 1808
1538 3224 2065
1541 3221 2283
1503 3217 2469
1499 3211 2631
1510 3207 2775
1529 3202 2901
1488 3193 3008
1456 3185 3107
1439 3177 3197
1461 3171 3279
1491 3163 3347
1522 3156 3411
1338 3279 0
1440 3289 432
1522 3295 1083
1584 3298 1491
1635 3297 1807
1625 3296 2059
1622 3294 2277
1615 3289 2460
1594 3283 2620
1577 3277 2763
1582 3272 2888
1575 3263 2995
1540 3255 3093
1511 3247 3184
1502 3240 3266
1532 3232 3333
1566 3223 3397
1403 3348 0
1500 3358 456
1580 3364 1087
1644 3367 1495
1688 3366 1804
1708 3364 2056
1696 3361 2270
1692 3354 2452
1666 3347 2609
1649 3340 2751
1645 3334 2876
1661 3325 2982
1639 3316 3080
1611 3307 3170
1601 3299 3251
1623 3290 3320
1654 3282 3384
943 0 0
817 35 526
788 186 1046
776 312 1477
709 418 1820
676 508 2102
582 590 2341
442 659 2540
324 721 2712
333 779 2859
408 829 2986
522 875 3101
551 922 3201
580 963 3287
625 1001 3368
669 1036 3442
677 1072 3508
971 591 0
1128 692 626
987 679 1086
977 762 1507
953 835 1846
871 899 2125
835 955 2361
818 1005 2558
755 1056 2729
640 1098 2874
512 1137 3000
515 1176 3114
549 1209 3212
603 1239 3299
691 1273 3379
798 1305 3453
834 1334 3517
1070 1083 0
1137 1111 591
1108 1108 1108
1094 1164 1524
1055 1212 1861
1043 1257 2139
922 1300 2373
893 1335 2569
903 1372 2739
907 1401 2883
884 1428 3009
836 1455 3123
852 1480 3219
883 1504 3305
870 1529 3385
904 1554 3459
956 1575 3522
1118 1442 0
1175 1468 561
1169 1479 1130
1142 1501 1530
1115 1536 1867
1081 1570 2145
1097 1601 2379
1058 1625 2574
1021 1651 2743
1007 1669 2886
1013 1689 3013
1020 1711 3126
940 1728 3221
891 1743 3308
851 1759 3387
820 1775 3462
878 1791 3524
1125 1742 0
1233 1766 527
1240 1773 1120
1214 1789 1530
1192 1817 1866
1146 1839 2145
1108 1859 2377
1122 1875 2574
1077 1893 2743
1013 1906 2885
1026 1921 3010
1067 1936 3124
1125 1946 3220
1139 1958 3306
1089 1971 3385
1047 1985 3459
1092 1995 3520
1136 1994 0
1219 2018 486
1257 2024 1117
1282 2035 1530
1276 2056 1859
1262 2074 2140
1199 2089 2370
1164 2099 2568
1180 2112 2736
1094 2119 2878
995 2126 3005
995 2135 3118
1046 2141 3213
1099 2148 3301
1164 2157 3382
1254 2165 3457
1248 2171 3517
1178 2214 0
1247 2236 467
1264 2243 1109
1231 2251 1528
1287 2262 1856
1313 2275 2134
1313 2285 2364
1270 2292 2558
1246 2299 2727
1257 2303 2870
1192 2309 2996
1123 2313 3108
1139 2315 3205
1190 2319 3293
1227 2325 3373
1256 2331 3446
1294 2334 3508
1238 2402 0
1300 2422 397
1307 2432 1105
1293 2439 1526
1320 2441 1846
1257 2451 2121
1317 2458 2351
1363 2463 2547
1348 2466 2713
1339 2467 2858
1343 2470 2987
1324 2472 3099
1299 2471 3195
1276 2472 3283
1259 2473 3365
1275 2476 3438
1308 2477 3499
1307 2566 0
1363 2584 342
1369 2594 1094
1360 2597 1515
1355 2601 1839
1242 2606 2112
1284 2610 2339
1342 2613 2536
1403 2614 2702
1409 2613 2846
1424 2612 2975
1424 2611 3088
1415 2609 3184
1388 2608 3271
1368 2607 3352
1365 2606 3425
1387 2604 3488
1377 2710 0
1430 2725 310
1439 2733 1083
1444 2735 1506
1413 2742 1834
1392 2741 2099
1369 2743 2328
1426 2744 2521
1408 2743 2688
1397 2740 2832
1434 2738 2960
1480 2735 3071
1512 2732 3171
1505 2729 3260
1479 2728 3341
1477 2725 3412
1494 2722 3474
1461 2833 0
1508 2848 327
1520 2856 1079
1522 2859 1502
1500 2864 1828
1514 2862 2089
1456 2860 2316
1455 2860 2508
1482 2858 2673
1426 2855 2819
1429 2852 2947
1471 2848 3057
1519 2843 3156
1569 2840 3247
1589 2837 3330
1587 2833 3400
1594 2829 3462
1541 2945 0
1582 2960 349
1599 2967 1078
1591 2971 1500
1574 2971 1819
1564 2971 2082
1538 2966 2303
1490 2965 2497
1511 2962 2660
1529 2959 2805
1450 2956 2936
1482 2950 3044
1536 2944 3142
1592 2939 3233
1633 2935 3317
1650 2929 3388
1669 2922 3449
1616 3047 0
1650 3061 375
1660 3067 1080
1653 3069 1493
1644 3066 1812
1624 3069 2078
1632 3060 2293
1575 3058 2485
1583 3053 2648
1612 3050 2792
1599 3046 2921
1589 3039 3031
1612 3032 3128
1631 3026 3218
1654 3020 3301
1683 3014 3371
1702 3007 3435
1681 3134 0
1723 3145 392
1731 3152 1081
1728 3154 1490
1726 3150 1808
1704 3152 2069
1708 3146 2286
1679 3141 2473
1671 3136 2637
1693 3132 2779
1707 3128 2907
1677 3120 3015
1642 3112 3115
1659 3105 3204
1678 3100 3286
1705 3092 3355
1733 3086 3419
1724 3213 0
1793 3224 416
1801 3230 1081
1799 3232 1490
1799 3230 1807
1781 3229 2062
1777 3226 2281
1779 3218 2463
1751 3212 2624
1738 3208 2768
1747 3202 2893
1753 3195 3001
1715 3187 3100
1689 3180 3191
1706 3173 3272
1730 3166 3341
1756 3159 3405
1767 3287 0
1852 3297 440
1868 3303 1082
1867 3305 1492
1864 3305 1807
1853 3300 2057
1837 3298 2274
1836 3289 2454
1811 3283 2613
1789 3278 2756
1788 3272 2881
1799 3264 2988
1787 3257 3086
1754 3250 3177
1739 3242 3259
1767 3233 3327
1797 3225 3391
1808 3356 0
1889 3365 464
1932 3371 1086
1931 3373 1495
1920 3371 1803
1908 3366 2052
1891 3362 2265
1886 3355 2447
1875 3346 2603
1853 3340 2744
1844 3333 2869
1856 3324 2975
1871 3317 3073
1846 3309 3164
1832 3301 3245
1848 3292 3314
1875 3283 3378
1422 0 0
1424 17 621
1168 228 1054
1184 351 1481
1172 453 1824
1128 544 2106
1102 622 2345
1093 690 2545
1017 755 2717
983 810 2864
1002 857 2990
993 908 3105
999 953 3205
1025 992 3292
1054 1028 3372
1087 1066 3447
1099 1102 3512
1395 663 0
1528 733 594
1385 734 1114
1339 807 1508
1325 874 1847
1312 936 2126
1269 989 2363
1235 1041 2560
1221 1090 2731
1221 1132 2877
1148 1168 3003
1077 1203 3117
1084 1236 3215
1145 1269 3301
1184 1302 3381
1197 1333 3455
