release/datafiles/colormanagement/luts/slog.spi1d
Version 1
From -0.125 1.125
Length 4096
Components 1
{
        -0.0248367707262
        -0.0248197031226
        -0.0248026031117
        -0.0247854706321
        -0.0247683056221
        -0.0247511080199
        -0.0247338777637
        -0.0247166147913
        -0.0246993190408
        -0.0246819904498
        -0.0246646289561
        -0.0246472344971
        -0.0246298070102
        -0.0246123464328
        -0.024594852702
        -0.0245773257548
        -0.0245597655282
        -0.024542171959
        -0.0245245449839
        -0.0245068845395
        -0.0244891905621
        -0.0244714629882
        -0.024453701754
        -0.0244359067954
        -0.0244180780486
        -0.0244002154493
        -0.0243823189333
        -0.0243643884361
        -0.0243464238933
        -0.0243284252401
        -0.0243103924119
        -0.0242923253438
        -0.0242742239706
        -0.0242560882274
        -0.0242379180487
        -0.0242197133693
        -0.0242014741237
        -0.0241832002462
        -0.024164891671
        -0.0241465483322
        -0.0241281701639
        -0.0241097571
        -0.0240913090741
        -0.0240728260199
        -0.0240543078708
        -0.0240357545603
        -0.0240171660216
        -0.0239985421877
        -0.0239798829917
        -0.0239611883664
        -0.0239424582446
        -0.0239236925588
        -0.0239048912415
        -0.0238860542251
        -0.0238671814418
        -0.0238482728236
        -0.0238293283026
        -0.0238103478105
        -0.0237913312791
        -0.0237722786399
        -0.0237531898244
        -0.0237340647639
        -0.0237149033895
        -0.0236957056323
        -0.0236764714232
        -0.0236572006931
        -0.0236378933725
        -0.023618549392
        -0.0235991686819
        -0.0235797511726
        -0.0235602967942
        -0.0235408054766
        -0.0235212771498
        -0.0235017117434
        -0.0234821091871
        -0.0234624694102
        -0.0234427923422
        -0.0234230779122
        -0.0234033260494
        -0.0233835366825
        -0.0233637097404
        -0.0233438451518
        -0.0233239428451
        -0.0233040027488
        -0.0232840247911
        -0.0232640089001
        -0.0232439550038
        -0.02322386303
        -0.0232037329064
        -0.0231835645606
        -0.02316335792
        -0.023143112912
        -0.0231228294635
        -0.0231025075018
        -0.0230821469535
        -0.0230617477455
        -0.0230413098044
        -0.0230208330566
        -0.0230003174284
        -0.0229797628461
        -0.0229591692355
        -0.0229385365227
        -0.0229178646334
        -0.0228971534932
        -0.0228764030276
        -0.0228556131619
        -0.0228347838212
        -0.0228139149308
        -0.0227930064153
        -0.0227720581997
        -0.0227510702085
        -0.0227300423662
        -0.0227089745971
        -0.0226878668254
        -0.0226667189753
        -0.0226455309705
        -0.0226243027348
        -0.0226030341918
        -0.0225817252651
        -0.0225603758778
        -0.0225389859533
        -0.0225175554145
        -0.0224960841843
        -0.0224745721855
        -0.0224530193406
        -0.0224314255721
        -0.0224097908023
        -0.0223881149533
        -0.0223663979471
        -0.0223446397056
        -0.0223228401505
        -0.0223009992033
        -0.0222791167854
        -0.0222571928182
        -0.0222352272227
        -0.0222132199198
        -0.0221911708305
        -0.0221690798752
        -0.0221469469746
        -0.022124772049
        -0.0221025550186
        -0.0220802958035
        -0.0220579943235
        -0.0220356504984
        -0.0220132642479
        -0.0219908354912
        -0.0219683641479
        -0.0219458501368
        -0.0219232933772
        -0.0219006937877
        -0.0218780512871
        -0.0218553657939
        -0.0218326372265
        -0.021809865503
        -0.0217870505416
        -0.0217641922601
        -0.0217412905762
        -0.0217183454077
        -0.0216953566718
        -0.0216723242859
        -0.0216492481671
        -0.0216261282323
        -0.0216029643984
        -0.021579756582
        -0.0215565046996
        -0.0215332086676
        -0.021509868402
        -0.0214864838189
        -0.0214630548342
        -0.0214395813635
        -0.0214160633224
        -0.0213925006263
        -0.0213688931903
        -0.0213452409296
        -0.0213215437589
        -0.0212978015931
        -0.0212740143466
        -0.021250181934
        -0.0212263042694
        -0.0212023812669
        -0.0211784128404
        -0.0211543989037
        -0.0211303393704
        -0.0211062341539
        -0.0210820831674
        -0.0210578863241
        -0.0210336435368
        -0.0210093547184
        -0.0209850197814
        -0.0209606386383
        -0.0209362112013
        -0.0209117373825
        -0.0208872170939
        -0.0208626502472
        -0.020838036754
        -0.0208133765258
        -0.0207886694739
        -0.0207639155092
        -0.0207391145427
        -0.0207142664853
        -0.0206893712474
        -0.0206644287395
        -0.0206394388719
        -0.0206144015545
        -0.0205893166974
        -0.0205641842102
        -0.0205390040025
        -0.0205137759838
        -0.0204885000631
        -0.0204631761496
        -0.0204378041522
        -0.0204123839795
        -0.0203869155401
        -0.0203613987422
        -0.0203358334942
        -0.020310219704
        -0.0202845572794
        -0.0202588461281
        -0.0202330861576
        -0.0202072772752
        -0.0201814193879
        -0.0201555124028
        -0.0201295562266
        -0.020103550766
        -0.0200774959273
        -0.0200513916168
        -0.0200252377405
        -0.0199990342044
        -0.0199727809141
        -0.0199464777752
        -0.0199201246931
        -0.0198937215728
        -0.0198672683194
        -0.0198407648378
        -0.0198142110324
        -0.0197876068078
        -0.0197609520683
        -0.0197342467179
        -0.0197074906605
        -0.0196806837998
        -0.0196538260395
        -0.0196269172827
        -0.0195999574328
        -0.0195729463927
        -0.0195458840651
        -0.0195187703528
        -0.0194916051581
        -0.0194643883834
        -0.0194371199305
        -0.0194097997015
        -0.0193824275981
        -0.0193550035216
        -0.0193275273735
        -0.0192999990549
        -0.0192724184666
        -0.0192447855096
        -0.0192171000842
        -0.019189362091
        -0.01916157143
        -0.0191337280013
        -0.0191058317047
        -0.0190778824399
        -0.0190498801061
        -0.0190218246028
        -0.0189937158288
        -0.0189655536831
        -0.0189373380644
        -0.018909068871
        -0.0188807460013
        -0.0188523693533
        -0.018823938825
        -0.018795454314
        -0.0187669157179
        -0.0187383229338
        -0.0187096758591
        -0.0186809743905
        -0.0186522184247
        -0.0186234078584
        -0.0185945425878
        -0.0185656225091
        -0.0185366475182
        -0.0185076175108
        -0.0184785323824
        -0.0184493920285
        -0.0184201963441
        -0.0183909452242
        -0.0183616385636
        -0.0183322762567
        -0.0183028581979
        -0.0182733842813
        -0.018243854401
        -0.0182142684506
        -0.0181846263236
        -0.0181549279135
        -0.0181251731132
        -0.0180953618159
        -0.0180654939141
        -0.0180355693005
        -0.0180055878672
        -0.0179755495065
        -0.0179454541103
        -0.0179153015702
        -0.0178850917777
        -0.0178548246242
        -0.0178245000008
        -0.0177941177982
        -0.0177636779072
        -0.0177331802182
        -0.0177026246216
        -0.0176720110073
        -0.0176413392651
        -0.0176106092848
        -0.0175798209557
        -0.0175489741671
        -0.0175180688079
        -0.0174871047669
        -0.0174560819327
        -0.0174250001937
        -0.017393859438
        -0.0173626595536
        -0.0173314004282
        -0.0173000819493
        -0.0172687040042
        -0.0172372664801
        -0.0172057692637
        -0.0171742122417
        -0.0171425953006
        -0.0171109183266
        -0.0170791812058
        -0.0170473838238
        -0.0170155260664
        -0.0169836078188
        -0.0169516289662
        -0.0169195893935
        -0.0168874889855
        -0.0168553276266
        -0.0168231052011
        -0.016790821593
        -0.0167584766862
        -0.0167260703643
        -0.0166936025106
        -0.0166610730084
        -0.0166284817405
        -0.0165958285897
        -0.0165631134386
        -0.0165303361693
        -0.0164974966639
        -0.0164645948043
        -0.0164316304721
        -0.0163986035486
        -0.016365513915
        -0.0163323614522
        -0.0162991460409
        -0.0162658675616
        -0.0162325258946
        -0.0161991209199
        -0.0161656525172
        -0.0161321205662
        -0.0160985249461
        -0.0160648655361
        -0.016031142215
        -0.0159973548616
        -0.0159635033542
        -0.015929587571
        -0.0158956073899
        -0.0158615626888
        -0.015827453345
        -0.0157932792359
        -0.0157590402384
        -0.0157247362294
        -0.0156903670854
        -0.0156559326828
        -0.0156214328976
        -0.0155868676057
        -0.0155522366826
        -0.0155175400039
        -0.0154827774446
        -0.0154479488797
        -0.0154130541837
        -0.0153780932312
        -0.0153430658964
        -0.0153079720532
        -0.0152728115752
        -0.0152375843361
        -0.015202290209
        -0.0151669290669
        -0.0151315007826
        -0.0150960052286
        -0.0150604422771
        -0.0150248118002
        -0.0149891136698
        -0.0149533477572
        -0.0149175139339
        -0.0148816120708
        -0.0148456420388
        -0.0148096037085
        -0.0147734969501
        -0.0147373216338
        -0.0147010776293
        -0.0146647648062
        -0.014628383034
        -0.0145919321815
        -0.0145554121178
        -0.0145188227113
        -0.0144821638305
        -0.0144454353433
        -0.0144086371176
        -0.0143717690211
        -0.014334830921
        -0.0142978226844
        -0.0142607441782
        -0.0142235952688
        -0.0141863758228
        -0.014149085706
        -0.0141117247844
        -0.0140742929234
        -0.0140367899885
        -0.0139992158445
        -0.0139615703564
        -0.0139238533887
        -0.0138860648056
        -0.0138482044711
        -0.0138102722491
        -0.013772268003
        -0.0137341915961
        -0.0136960428913
        -0.0136578217514
        -0.0136195280388
        -0.0135811616158
        -0.0135427223442
        -0.0135042100858
        -0.013465624702
        -0.0134269660539
        -0.0133882340025
        -0.0133494284083
        -0.0133105491316
        -0.0132715960327
        -0.0132325689713
        -0.013193467807
        -0.0131542923991
        -0.0131150426065
        -0.0130757182882
        -0.0130363193025
        -0.0129968455078
        -0.0129572967618
        -0.0129176729225
        -0.012877973847
        -0.0128381993927
        -0.0127983494163
        -0.0127584237746
        -0.0127184223237
        -0.0126783449198
        -0.0126381914186
        -0.0125979616757
        -0.0125576555462
        -0.0125172728852
        -0.0124768135474
        -0.0124362773871
        -0.0123956642584
        -0.0123549740153
        -0.0123142065114
        -0.0122733615998
        -0.0122324391336
        -0.0121914389657
        -0.0121503609484
        -0.0121092049339
        -0.0120679707741
        -0.0120266583206
        -0.0119852674249
        -0.0119437979379
        -0.0119022497104
        -0.0118606225929
        -0.0118189164356
        -0.0117771310885
        -0.0117352664011
        -0.0116933222229
        -0.0116512984029
        -0.0116091947898
        -0.0115670112322
        -0.0115247475783
        -0.0114824036759
        -0.0114399793728
        -0.0113974745162
        -0.0113548889532
        -0.0113122225306
        -0.0112694750948
        -0.011226646492
        -0.0111837365681
        -0.0111407451687
        -0.011097672139
        -0.0110545173242
        -0.0110112805688
        -0.0109679617173
        -0.0109245606138
        -0.0108810771022
        -0.010837511026
        -0.0107938622283
        -0.0107501305522
        -0.0107063158403
        -0.0106624179348
        -0.0106184366779
        -0.0105743719113
        -0.0105302234764
        -0.0104859912143
        -0.010441674966
        -0.0103972745718
        -0.010352789872
        -0.0103082207066
        -0.0102635669152
        -0.0102188283371
        -0.0101740048113
        -0.0101290961765
        -0.0100841022711
        -0.0100390229333
        -0.00999385800066
        -0.00994860731083
        -0.00990327070093
        -0.00985784800781
        -0.00981233906804
        -0.00976674371784
        -0.00972106179315
        -0.00967529312957
        -0.00962943756242
        -0.00958349492669
        -0.00953746505704
        -0.00949134778786
        -0.00944514295318
        -0.00939885038674
        -0.00935246992197
        -0.00930600139195
        -0.00925944462949
        -0.00921279946703
        -0.00916606573675
        -0.00911924327046
        -0.00907233189968
        -0.0090253314556
        -0.00897824176909
        -0.00893106267071
        -0.00888379399067
        -0.0088364355589
        -0.00878898720496
        -0.00874144875812
        -0.00869382004732
        -0.00864610090117
        -0.00859829114794
        -0.00855039061561
        -0.0085023991318
        -0.00845431652382
        -0.00840614261864
        -0.00835787724292
        -0.00830952022298
        -0.00826107138479
        -0.00821253055403
        -0.00816389755603
        -0.00811517221577
        -0.00806635435792
        -0.00801744380682
        -0.00796844038646
        -0.00791934392051
        -0.0078701542323
        -0.00782087114481
        -0.00777149448071
        -0.00772202406232
        -0.00767245971162
        -0.00762280125025
        -0.00757304849953
        -0.00752320128042
        -0.00747325941354
        -0.00742322271919
        -0.00737309101731
        -0.00732286412751
        -0.00727254186904
        -0.00722212406082
        -0.00717161052143
        -0.0071210010691
        -0.00707029552171
        -0.0070194936968
        -0.00696859541156
        -0.00691760048284
        -0.00686650872714
        -0.00681531996061
        -0.00676403399903
        -0.00671265065788
        -0.00666116975224
        -0.00660959109686
        -0.00655791450614
        -0.00650613979413
        -0.00645426677452
        -0.00640229526064
        -0.00635022506548
        -0.00629805600166
        -0.00624578788146
        -0.0061934205168
        -0.00614095371923
        -0.00608838729996
        -0.00603572106982
        -0.0059829548393
        -0.00593008841853
        -0.00587712161726
        -0.0058240542449
        -0.0057708861105
        -0.00571761702271
        -0.00566424678987
        -0.00561077521992
        -0.00555720212044
        -0.00550352729866
        -0.00544975056143
        -0.00539587171524
        -0.00534189056621
        -0.00528780692008
        -0.00523362058224
        -0.00517933135771
        -0.00512493905113
        -0.00507044346677
        -0.00501584440853
        -0.00496114167994
        -0.00490633508415
        -0.00485142442395
        -0.00479640950175
        -0.00474129011956
        -0.00468606607906
        -0.00463073718152
        -0.00457530322784
        -0.00451976401855
        -0.00446411935378
        -0.00440836903331
        -0.00435251285653
        -0.00429655062243
        -0.00424048212964
        -0.0041843071764
        -0.00412802556057
        -0.00407163707962
        -0.00401514153064
        -0.00395853871033
        -0.00390182841502
        -0.00384501044063
        -0.0037880845827
        -0.0037310506364
        -0.00367390839648
        -0.00361665765733
        -0.00355929821294
        -0.00350182985688
        -0.00344425238238
        -0.00338656558224
        -0.00332876924887
        -0.00327086317431
        -0.00321284715018
        -0.0031547209677
        -0.00309648441772
        -0.00303813729068
        -0.00297967937662
        -0.00292111046517
        -0.00286243034559
        -0.00280363880671
        -0.00274473563698
        -0.00268572062444
        -0.00262659355672
        -0.00256735422106
        -0.00250800240429
        -0.00244853789283
        -0.00238896047271
        -0.00232926992954
        -0.00226946604853
        -0.00220954861447
        -0.00214951741176
        -0.00208937222437
        -0.00202911283588
        -0.00196873902944
        -0.00190825058782
        -0.00184764729333
        -0.0017869289279
        -0.00172609527305
        -0.00166514610986
        -0.00160408121902
        -0.00154290038077
        -0.00148160337498
        -0.00142018998106
        -0.00135865997802
        -0.00129701314444
        -0.00123524925851
        -0.00117336809795
        -0.00111136944011
        -0.00104925306186
        -0.000987018739706
        -0.000924666249687
        -0.000862195367433
        -0.000799605868146
        -0.000736897526602
        -0.000674070117148
        -0.000611123413703
        -0.000548057189756
        -0.000484871218368
        -0.000421565272166
        -0.000358139123348
        -0.000294592543679
        -0.000230925304488
        -0.000167137176674
        -0.000103227930699
        -3.91973365867e-05
        2.49548360717e-05
        8.92288181248e-05
        0.000153624840859
        0.000218143136
        0.000282783935713
        0.000347547472605
        0.000412433979724
        0.000477443690561
        0.000542576839049
        0.000607833659566
        0.000673214386936
        0.000738719256428
        0.000804348503757
        0.000870102365087
        0.000935981077029
        0.00100198487664
        0.00106811400144
        0.00113436868939
        0.0012007491789
        0.00126725570883
        0.00133388851852
        0.00140064784772
        0.00146753393668
        0.00153454702607
        0.00160168735704
        0.0016689551712
        0.0017363507106
        0.00180387421775
        0.00187152593565
        0.00193930610773
        0.00200721497789
        0.0020752527905
        0.0021434197904
        0.00221171622287
        0.00228014233368
        0.00234869836905
        0.00241738457569
        0.00248620120074
        0.00255514849186
        0.00262422669714
        0.00269343606514
        0.00276277684493
        0.00283224928602
        0.0029018536384
        0.00297159015255
        0.00304145907939
        0.00311146067036
        0.00318159517734
        0.00325186285272
        0.00332226394935
        0.00339279872056
        0.00346346742018
        0.00353427030248
        0.00360520762227
        0.0036762796348
        0.00374748659581
        0.00381882876155
        0.00389030638874
        0.00396191973458
        0.00403366905677
        0.0041055546135
        0.00417757666344
        0.00424973546576
        0.00432203128012
        0.00439446436667
        0.00446703498606
        0.00453974339943
        0.00461258986842
        0.00468557465516
        0.00475869802228
        0.00483196023292
        0.0049053615507
        0.00497890223976
        0.00505258256472
        0.00512640279073
        0.00520036318342
        0.00527446400892
        0.0053487055339
        0.0054230880255
        0.00549761175139
        0.00557227697973
        0.00564708397921
        0.00572203301901
        0.00579712436884
        0.00587235829889
        0.00594773507991
        0.00602325498313
        0.0060989182803
        0.0061747252437
        0.00625067614611
        0.00632677126084
        0.0064030108617
        0.00647939522305
        0.00655592461975
        0.00663259932719
        0.00670941962128
        0.00678638577844
        0.00686349807565
        0.00694075679038
        0.00701816220064
        0.00709571458498
        0.00717341422246
        0.00725126139267
        0.00732925637576
        0.00740739945238
        0.00748569090372
        0.00756413101151
        0.00764272005802
        0.00772145832603
        0.0078003460989
        0.00787938366048
        0.0079585712952
        0.008037909288
        0.00811739792438
        0.00819703749037
        0.00827682827256
        0.00835677055807
        0.00843686463455
        0.00851711079024
        0.00859750931389
        0.0086780604948
        0.00875876462285
        0.00883962198843
        0.00892063288251
        0.0090017975966
        0.00908311642277
        0.00916458965364
        0.00924621758239
        0.00932800050275
        0.00940993870901
        0.00949203249603
        0.0095742821592
        0.00965668799451
        0.00973925029849
        0.00982196936823
        0.00990484550139
        0.00998787899621
        0.0100710701515
        0.0101544192665
        0.0102379266413
        0.0103215925763
        0.0104054173726
        0.0104894013318
        0.0105735447561
        0.0106578479484
        0.010742311212
        0.0108269348508
        0.0109117191693
        0.0109966644727
        0.0110817710665
        0.0111670392571
        0.0112524693513
        0.0113380616565
        0.0114238164807
        0.0115097341325
        0.011595814921
        0.0116820591561
        0.0117684671479
        0.0118550392076
        0.0119417756466
        0.0120286767771
        0.0121157429116
        0.0122029743636
        0.012290371447
        0.0123779344762
        0.0124656637663
        0.012553559633
        0.0126416223927
        0.0127298523621
        0.0128182498588
        0.0129068152009
        0.012995548707
        0.0130844506966
        0.0131735214894
        0.013262761406
        0.0133521707675
        0.0134417498958
        0.013531499113
        0.0136214187421
        0.0137115091069
        0.0138017705313
        0.0138922033403
        0.0139828078592
        0.0140735844141
        0.0141645333316
        0.014255654939
        0.0143469495642
        0.0144384175357
        0.0145300591827
        0.0146218748349
        0.0147138648228
        0.0148060294773
        0.0148983691301
        0.0149908841134
        0.0150835747603
        0.0151764414041
        0.0152694843792
        0.0153627040203
        0.0154561006628
        0.0155496746429
        0.0156434262973
        0.0157373559632
        0.0158314639788
        0.0159257506827
        0.0160202164141
        0.0161148615129
        0.0162096863199
        0.0163046911761
        0.0163998764235
        0.0164952424045
        0.0165907894623
        0.0166865179409
        0.0167824281845
        0.0168785205384
        0.0169747953484
        0.0170712529608
        0.0171678937228
        0.0172647179821
        0.0173617260872
        0.0174589183872
        0.0175562952317
        0.0176538569711
        0.0177516039567
        0.01784953654
        0.0179476550735
        0.0180459599102
        0.018144451404
        0.0182431299092
        0.0183419957809
        0.0184410493749
        0.0185402910476
        0.0186397211561
        0.0187393400583
        0.0188391481126
        0.0189391456781
        0.0190393331147
        0.0191397107829
        0.0192402790439
        0.0193410382597
        0.0194419887927
        0.0195431310062
        0.0196444652643
        0.0197459919315
        0.0198477113731
        0.0199496239553
        0.0200517300448
        0.0201540300089
        0.0202565242157
        0.0203592130342
        0.0204620968338
        0.0205651759848
        0.020668450858
        0.0207719218252
        0.0208755892585
        0.0209794535312
        0.0210835150168
        0.02118777409
        0.0212922311258
        0.0213968865002
