release/datafiles/colormanagement/luts/srgb_inv.spi1d
Version 1
From -0.00967492260062 40.4600768322
Length 65561
Components 1
{
        -0.1250000000000104
        -0.11702456997145604
        -0.10904913994290168
        -0.10107370991434733
        -0.09309827988579296
        -0.0851228498572386
        -0.07714741982868423
        -0.06917198980012987
        -0.0611965597715755
        -0.05322112974302114
        -0.045245699714466785
        -0.03727026968591242
        -0.02929483965735805
        -0.02131940962880368
        -0.013343979600249337
        -0.00536854957169497
        0.0026068804568593965
        0.010582310485413764
        0.01855774051396813
        0.026533170542522477
        0.03450860057107684
        0.04242127131742316
        0.04966122909244714
        0.056260201931676114
        0.06235220012514372
        0.0680307887431286
        0.07336426762816567
        0.07840424805962154
        0.0831908247246071
        0.08775585933030919
        0.09212515427514542
        0.09631994226697205
        0.1003579373970962
        0.1042540955170489
        0.10802117631963587
        0.11167016674868888
        0.11521060529691904
        0.11865083408806257
        0.12199819743021392
        0.12525920007695024
        0.12843963473636816
        0.13154468581259388
        0.13457901456662716
        0.13754682959869283
        0.1404519456228731
        0.14329783282055583
        0.14608765855041497
        0.14882432280999883
        0.15151048855323906
        0.15414860774510222
        0.15674094386188792
        0.1592895914108321
        0.16179649293656145
        0.1642634538978275
        0.16669215573080126
        0.1690841673612563
        0.17144095538435214
        0.17376389309525853
        0.1760542685248608
        0.17831329161094808
        0.18054210061559325
        0.1827417678830924
        0.1849133050192061
        0.1870576675610369
        0.18917575919728902
        0.19126843559056186
        0.19333650784647366
        0.19538074566858338
        0.19740188023310656
        0.19940060681316712
        0.20137758717867327
        0.2033334517947603
        0.20526880183902724
        0.20718421105544027
        0.20908022746073562
        0.21095737491737282
        0.21281615458553998
        0.2146570462653533
        0.21648050963920246
        0.21828698542314723
        0.22007689643534878
        0.22185064858870612
        0.2236086318141473
        0.22535122092038873
        0.22707877639540952
        0.22879164515438416
        0.2304901612383678
        0.2321746464676293
        0.2338454110531673
        0.2355027541696253
        0.23714696449253414
        0.23877832070255106
        0.24039709195913206
        0.2420035383458664
        0.2435979112895112
        0.2451804539545943
        0.24675140161529874
        0.24831098200620277
        0.2498594156533221
        0.25139691618678495
        0.25292369063636727
        0.25443993971101914
        0.2559458580634255
        0.2574416345405671
        0.25892745242117376
        0.26040348964089466
        0.2618699190059524
        0.26332690839599027
        0.2647746209567698
        0.26621321528333314
        0.2676428455941966
        0.26906366189710595
        0.2704758101468457
        0.2718794323955622
        0.27327466693602787
        0.27466164843824675
        0.27604050807977504
        0.27741137367010443
        0.27877436976943515
        0.2801296178021439
        0.28147723616523207
        0.28281734033202344
        0.2841500429513604
        0.28547545394253687
        0.2867936805861869
        0.2881048276113387
        0.28940899727882796
        0.2907062894612551
        0.29199680171965936
        0.29328062937707167
        0.29455786558910085
        0.29582860141169665
        0.2970929258662268
        0.29835092600199575
        0.2996026869563277
        0.30084829201232743
        0.3020878226544282
        0.3033213586218286
        0.30454897795991553
        0.305770757069765
        0.30698677075580755
        0.3081970922717406
        0.3094017933647652
        0.31060094431822166
        0.31179461399269437
        0.3129828698656508
        0.31416577806967966
        0.3153434034293866
        0.3165158094970058
        0.31768305858678003
        0.3188452118081615
        0.32000232909788306
        0.3211544692509443
        0.322301689950559
        0.3234440477971047
        0.324581598336115
        0.3257143960853536
        0.32684249456100467
        0.32796594630301673
        0.32908480289963127
        0.3301991150111289
        0.33130893239282266
        0.33241430391732807
        0.33351527759613625
        0.334611900600518
        0.3357042192817825
        0.33679227919091587
        0.33787612509762205
        0.3389558010087876
        0.3400313501863928
        0.34110281516488744
        0.3421702377680521
        0.343233659125363
        0.3442931196878771
        0.3453486592436559
        0.3464003169327436
        0.347448131261715
        0.3484921401178078
        0.34953238078265525
        0.3505688899456305
        0.3516017037168178
        0.35263085763962254
        0.3536563867030321
        0.35467832535353966
        0.3556967075067415
        0.3567115665586197
        0.35772293539651945
        0.3587308464098318
        0.3597353315003909
        0.36073642209259493
        0.3617341491432607
        0.3627285431512185
        0.3637196341666574
        0.3647074518002276
        0.36569202523190786
        0.3666733832196455
        0.3676515541077763
        0.3686265658352298
        0.36959844594352864
        0.3705672215845863
        0.37153291952831047
        0.3724955661700178
        0.37345518753766527
        0.3744118092989043
        0.37536545676796235
        0.3763161549123569
        0.37726392835944816
        0.378208801402833
        0.37915079800858703
        0.38008994182135725
        0.38102625617031105
        0.38195976407494514
        0.3828904882507577
        0.3838184511147892
        0.384743674791034
        0.38566618111572765
        0.386585991642512
        0.3875031276474834
        0.38841761013412507
        0.3893294598381286
        0.3902386972321066
        0.3911453425301997
        0.39204941569258167
        0.3929509364298629
        0.3938499242073987
        0.3947463982495016
        0.3956403775435616
        0.3965318808440777
        0.39742092667660095
        0.3983075333415934
        0.39919171891820365
        0.4000735012679621
        0.4009528980383977
        0.40182992666657763
        0.40270460438257333
        0.40357694821285295
        0.4044469749836036
        0.40531470132398467
        0.4061801436693128
        0.407043318264183
        0.40790424116552426
        0.4087629282455935
        0.4096193951949089
        0.4104736575251232
        0.41132573057184
        0.4121756294973727
        0.41302336929344924
        0.4138689647838623
        0.41471243062706786
        0.4155537813187316
        0.4163930311942263
        0.41723019443108
        0.4180652850513761
        0.41889831692410795
        0.41972930376748724
        0.4205582591512084
        0.4213851964986696
        0.4222101290891513
        0.42303307005995383
        0.4238540324084942
        0.4246730289943636
        0.42549007254134663
        0.42630517563940246
        0.42711835074660903
        0.4279296101910722
        0.4287389661727984
        0.4295464307655339
        0.43035201591857
        0.43115573345851527
        0.4319575950910362
        0.43275761240256566
        0.43355579686198076
        0.4343521598222514
        0.43514671252205805
        0.4359394660873821
        0.4367304315330669
        0.43751961976435216
        0.43830704157838046
        0.4390927076656784
        0.4398766286116108
        0.4406588148978106
        0.4414392769035834
        0.44221802490728773
        0.44299506908769193
        0.443770419525308
        0.4445440862037016
        0.44531607901078113
        0.4460864077400641
        0.44685508209192243
        0.44762211167480676
        0.4483875060064502
        0.4491512745150527
        0.4499134265404436
        0.4506739713352282
        0.4514329180659122
        0.4521902758140098
        0.4529460535771325
        0.453700260270061
        0.4544529047257984
        0.4552039956966076
        0.4559535418550314
        0.45670155179489597
        0.45744803403229856
        0.45819299700657895
        0.45893644908127657
        0.4596783985450706
        0.4604188536127069
        0.46115782242590925
        0.46189531305427695
        0.46263133349616753
        0.4633658916795668
        0.46409899546294425
        0.4648306526360962
        0.4655608709209748
        0.4662896579725057
        0.4670170213793911
        0.46774296866490334
        0.46846750728766356
        0.4691906446424103
        0.46991238806075614
        0.4706327448119319
        0.47135172210352166
        0.4720693270821847
        0.4727855668343674
        0.4735004483870056
        0.4742139787082144
        0.47492616470796983
        0.4756370132387791
        0.47634653109634145
        0.47705472502019947
        0.4777616016943807
        0.4784671677480297
        0.4791714297560316
        0.4798743942396259
        0.4805760676670114
        0.4812764564539435
        0.48197556696432126
        0.4826734055107678
        0.48336997835520096
        0.484065291709397
        0.48475935173554524
        0.4854521645467958
        0.48614373620779944
        0.4868340727352391
        0.4875231800983551
        0.4882110642194621
        0.4888977309744595
        0.48958318619333424
        0.49026743566065706
        0.4909504851160718
        0.4916323402547778
        0.4923130067280063
        0.4929924901434893
        0.49367079606592273
        0.49434793001742355
        0.4950238974779801
        0.4956987038858966
        0.49637235463823176
        0.49704485509123114
        0.4977162105607546
        0.49838642632269675
        0.49905550761340295
        0.4997234596300794
        0.5003902875311973
        0.5010559964368927
        0.5017205914293602
        0.5023840775532418
        0.5030464598160108
        0.5037077431883511
        0.5043679326045295
        0.505027032962767
        0.5056850491256006
        0.5063419859202449
        0.506997848138946
        0.5076526405393319
        0.5083063678447589
        0.5089590347446522
        0.5096106458948445
        0.5102612059179071
        0.5109107194034802
        0.5115591909085965
        0.5122066249580017
        0.5128530260444712
        0.5134983986291228
        0.5141427471417247
        0.5147860759810003
        0.5154283895149301
        0.5160696920810476
        0.5167099879867336
        0.5173492815095067
        0.5179875768973081
        0.5186248783687863
        0.5192611901135757
        0.5198965162925724
        0.5205308610382073
        0.5211642284547156
        0.5217966226184027
        0.5224280475779073
        0.5230585073544609
        0.5236880059421449
        0.5243165473081439
        0.5249441353929966
        0.5255707741108426
        0.5261964673496685
        0.5268212189715482
        0.5274450328128827
        0.5280679126846359
        0.5286898623725683
        0.5293108856374671
        0.5299309862153745
        0.5305501678178125
        0.5311684341320065
        0.5317857888211045
        0.5324022355243946
        0.5330177778575208
        0.5336324194126949
        0.5342461637589065
        0.5348590144421317
        0.5354709749855369
        0.5360820488896832
        0.5366922396327265
        0.5373015506706158
        0.5379099854372894
        0.5385175473448693
        0.5391242397838527
        0.5397300661233013
        0.5403350297110296
        0.5409391338737894
        0.5415423819174541
        0.5421447771271991
        0.542746322767682
        0.5433470220832191
        0.5439468782979613
        0.5445458946160675
        0.5451440742218757
        0.5457414202800738
        0.5463379359358657
        0.5469336243151388
        0.5475284885246273
        0.5481225316520749
        0.5487157567663956
        0.5493081669178319
        0.5498997651381134
        0.5504905544406106
        0.5510805378204898
        0.5516697182548653
        0.5522580987029493
        0.5528456821062018
        0.5534324713884765
        0.554018469456169
        0.5546036791983585
        0.5551881034869524
        0.5557717451768263
        0.5563546071059648
        0.5569366920955996
        0.5575180029503453
        0.5580985424583368
        0.5586783133913612
        0.5592573185049922
        0.5598355605387201
        0.5604130422160825
        0.5609897662447925
        0.561565735316866
        0.562140952108748
        0.5627154192814369
        0.5632891394806072
        0.5638621153367335
        0.5644343494652092
        0.5650058444664678
        0.5655766029261005
        0.5661466274149737
        0.566715920489345
        0.5672844846909781
        0.5678523225472569
        0.5684194365712973
        0.5689858292620593
        0.5695515031044571
        0.5701164605694689
        0.5706807041142443
        0.5712442361822117
        0.5718070592031845
        0.5723691755934663
        0.5729305877559545
        0.5734912980802428
        0.5740513089427245
        0.5746106227066922
        0.575169241722438
        0.5757271683273534
        0.5762844048460256
        0.5768409535903366
        0.5773968168595575
        0.577951996940445
        0.578506496107335
        0.5790603166222362
        0.5796134607349228
        0.5801659306830255
        0.5807177286921227
        0.5812688569758304
        0.581819317735891
        0.5823691131622616
        0.582918245433201
        0.5834667167153567
        0.5840145291638499
        0.5845616849223613
        0.5851081861232144
        0.5856540348874592
        0.5861992333249543
        0.5867437835344492
        0.5872876876036647
        0.5878309476093736
        0.58837356561748
        0.5889155436830975
        0.5894568838506287
        0.5899975881538406
        0.5905376586159427
        0.5910770972496617
        0.5916159060573178
        0.5921540870308984
        0.5926916421521321
        0.593228573392562
        0.593764882713618
        0.594300572066689
        0.594835643393193
        0.5953700986246492
        0.5959039396827464
        0.5964371684794132
        0.5969697869168864
        0.5975017968877789
        0.5980332002751472
        0.5985639989525576
        0.5990941947841538
        0.5996237896247212
        0.6001527853197521
        0.6006811837055114
        0.6012089866090987
        0.6017361958485129
        0.6022628132327141
        0.6027888405616868
        0.6033142796265005
        0.6038391322093718
        0.6043634000837241
        0.6048870850142484
        0.6054101887569622
        0.605932713059269
        0.6064546596600165
        0.606976030289555
        0.6074968266697943
        0.6080170505142612
        0.608536703528156
        0.6090557874084076
        0.6095743038437307
        0.6100922545146793
        0.6106096410937022
        0.6111264652451968
        0.611642728625563
        0.6121584328832559
        0.6126735796588392
        0.6131881705850368
        0.6137022072867856
        0.6142156913812858
        0.6147286244780531
        0.615241008178968
        0.6157528440783272
        0.6162641337628921
        0.6167748788119393
        0.6172850807973084
        0.6177947412834511
        0.6183038618274795
        0.6188124439792131
        0.6193204892812265
        0.6198279992688963
        0.6203349754704474
        0.6208414194069992
        0.6213473325926118
        0.6218527165343305
        0.6223575727322312
        0.6228619026794657
        0.6233657078623049
        0.6238689897601829
        0.6243717498457413
        0.6248739895848714
        0.625375710436758
        0.6258769138539211
        0.6263776012822583
        0.6268777741610867
        0.6273774339231846
        0.6278765819948319
        0.6283752197958515
        0.6288733487396501
        0.6293709702332572
        0.6298680856773662
        0.6303646964663728
        0.6308608039884153
        0.6313564096254125
        0.631851514753103
        0.6323461207410831
        0.6328402289528448
        0.6333338407458137
        0.633826957471386
        0.6343195804749658
        0.6348117110960022
        0.635303350668025
        0.635794500518682
        0.6362851619697739
        0.6367753363372903
        0.6372650249314458
        0.6377542290567135
        0.6382429500118617
        0.638731189089987
        0.6392189475785497
        0.6397062267594065
        0.6401930279088457
        0.6406793522976195
        0.6411652011909784
        0.641650575848703
        0.6421354775251377
        0.6426199074692227
        0.6431038669245264
        0.6435873571292771
        0.6440703793163952
        0.6445529347135247
        0.6450350245430638
        0.6455166500221968
        0.6459978123629245
        0.6464785127720948
        0.6469587524514324
        0.6474385325975706
        0.6479178544020793
        0.6483967190514957
        0.6488751277273537
        0.6493530816062127
        0.6498305818596873
        0.650307629654475
        0.6507842261523856
        0.6512603725103696
        0.6517360698805457
        0.6522113194102296
        0.652686122241961
        0.6531604795135315
        0.6536343923580116
        0.6541078619037786
        0.6545808892745422
        0.6550534755893728
        0.6555256219627267
        0.6559973295044734
        0.656468599319921
        0.6569394325098428
        0.6574098301705026
        0.6578797933936803
        0.6583493232666978
        0.6588184208724435
        0.6592870872893981
        0.6597553235916588
        0.660223130848964
        0.6606905101267186
        0.6611574624860173
        0.6616239889836691
        0.6620900906722215
        0.6625557685999844
        0.6630210238110531
        0.6634858573453323
        0.6639502702385592
        0.6644142635223268
        0.6648778382241065
        0.6653409953672712
        0.6658037359711182
        0.666266061050891
        0.6667279716178021
        0.6671894686790549
        0.6676505532378664
        0.6681112262934876
        0.6685714888412271
        0.6690313418724714
        0.669490786374706
        0.6699498233315381
        0.6704084537227161
        0.6708666785241519
        0.6713244987079406
        0.6717819152423823
        0.6722389290920013
        0.6726955412175679
        0.6731517525761174
        0.6736075641209708
        0.6740629768017552
        0.6745179915644224
        0.6749726093512699
        0.6754268311009598
        0.6758806577485381
        0.6763340902254544
        0.6767871294595809
        0.677239776375231
        0.6776920318931791
        0.6781438969306786
        0.6785953724014809
        0.679046459215854
        0.6794971582806004
        0.6799474704990758
        0.6803973967712075
        0.6808469379935113
        0.681296095059111
        0.6817448688577551
        0.6821932602758344
        0.6826412701964003
        0.6830888994991816
        0.6835361490606021
        0.6839830197537975
        0.684429512448633
        0.6848756280117199
        0.6853213673064323
        0.6857667311929244
        0.6862117205281468
        0.6866563361658626
        0.6871005789566649
        0.6875444497479918
        0.6879879493841439
        0.6884310787062992
        0.68887383855253
        0.6893162297578187
        0.6897582531540725
        0.6901999095701408
        0.690641199831829
        0.6910821247619159
        0.6915226851801671
        0.6919628819033519
        0.692402715745257
        0.6928421875167031
        0.693281298025559
        0.6937200480767561
        0.6941584384723043
        0.6945964700113061
        0.695034143489971
        0.6954714597016298
        0.6959084194367504
        0.6963450234829502
        0.696781272625012
        0.697217167644897
        0.6976527093217595
        0.6980878984319602
        0.6985227357490809
        0.6989572220439378
        0.6993913580845952
        0.6998251446363791
        0.7002585824618911
        0.7006916723210213
        0.7011244149709618
        0.7015568111662203
        0.7019888616586326
        0.7024205671973769
        0.7028519285289851
        0.7032829463973578
        0.7037136215437753
        0.7041439547069109
        0.7045739466228449
        0.7050035980250752
        0.7054329096445309
        0.7058618822095851
        0.7062905164460667
        0.7067188130772725
        0.7071467728239802
        0.7075743964044601
        0.708001684534487
        0.7084286379273523
        0.7088552572938766
        0.7092815433424207
        0.7097074967788977
        0.7101331183067848
        0.710558408627135
        0.7109833684385883
        0.7114079984373836
        0.7118322993173697
        0.7122562717700176
        0.7126799164844306
        0.7131032341473562
        0.7135262254431971
        0.7139488910540225
        0.7143712316595785
        0.7147932479373
        0.715214940562321
        0.7156363102074853
        0.7160573575433575
        0.7164780832382337
        0.7168984879581524
        0.7173185723669041
        0.7177383371260433
        0.7181577828948973
        0.718576910330578
        0.7189957200879913
        0.7194142128198479
        0.7198323891766729
        0.7202502498068166
        0.7206677953564643
        0.721085026469646
        0.7215019437882471
        0.721918547952017
        0.722334839598581
        0.7227508193634478
        0.7231664878800207
        0.7235818457796069
        0.7239968936914271
        0.7244116322426246
        0.7248260620582758
        0.7252401837613989
        0.7256539979729629
        0.726067505311898
        0.7264807063951044
        0.7268936018374613
        0.7273061922518361
        0.7277184782490941
        0.7281304604381066
        0.7285421394257607
        0.728953515816968
        0.7293645902146736
        0.7297753632198648
        0.7301858354315799
        0.7305960074469169
        0.7310058798610428
        0.7314154532672014
        0.7318247282567221
        0.7322337054190293
        0.7326423853416497
        0.7330507686102217
        0.7334588558085031
        0.73386664751838
        0.7342741443198749
        0.7346813467911548
        0.73508825550854
        0.7354948710465111
        0.735901193977719
        0.7363072248729909
        0.7367129643013398
        0.7371184128299723
        0.7375235710242953
        0.737928439447926
        0.7383330186626975
        0.7387373092286689
        0.7391413117041312
        0.7395450266456158
        0.7399484546079022
        0.7403515961440256
        0.7407544518052843
        0.7411570221412477
        0.7415593076997634
        0.7419613090269644
        0.7423630266672778
        0.7427644611634306
        0.7431656130564579
        0.7435664828857104
        0.7439670711888607
        0.744367378501912
        0.7447674053592039
