release/datafiles/colormanagement/luts/srgb.spi1d
Version 1
From -0.125 4.875
Length 65561
Components 1
{
        -0.00967492260062
        -0.00966901965821
        -0.00966311671581
        -0.00965721377341
        -0.009651310831
        -0.0096454078886
        -0.00963950494619
        -0.00963360200379
        -0.00962769906138
        -0.00962179611898
        -0.00961589317658
        -0.00960999023417
        -0.00960408729177
        -0.00959818434936
        -0.00959228140696
        -0.00958637846455
        -0.00958047552215
        -0.00957457257975
        -0.00956866963734
        -0.00956276669494
        -0.00955686375253
        -0.00955096081013
        -0.00954505786772
        -0.00953915492532
        -0.00953325198292
        -0.00952734904051
        -0.00952144609811
        -0.0095155431557
        -0.0095096402133
        -0.00950373727089
        -0.00949783432849
        -0.00949193138609
        -0.00948602844368
        -0.00948012550128
        -0.00947422255887
        -0.00946831961647
        -0.00946241667407
        -0.00945651373166
        -0.00945061078926
        -0.00944470784685
        -0.00943880490445
        -0.00943290196204
        -0.00942699901964
        -0.00942109607724
        -0.00941519313483
        -0.00940929019243
        -0.00940338725002
        -0.00939748430762
        -0.00939158136521
        -0.00938567842281
        -0.00937977548041
        -0.009373872538
        -0.0093679695956
        -0.00936206665319
        -0.00935616371079
        -0.00935026076838
        -0.00934435782598
        -0.00933845488358
        -0.00933255194117
        -0.00932664899877
        -0.00932074605636
        -0.00931484311396
        -0.00930894017155
        -0.00930303722915
        -0.00929713428675
        -0.00929123134434
        -0.00928532840194
        -0.00927942545953
        -0.00927352251713
        -0.00926761957472
        -0.00926171663232
        -0.00925581368992
        -0.00924991074751
        -0.00924400780511
        -0.0092381048627
        -0.0092322019203
        -0.00922629897789
        -0.00922039603549
        -0.00921449309309
        -0.00920859015068
        -0.00920268720828
        -0.00919678426587
        -0.00919088132347
        -0.00918497838106
        -0.00917907543866
        -0.00917317249626
        -0.00916726955385
        -0.00916136661145
        -0.00915546366904
        -0.00914956072664
        -0.00914365778423
        -0.00913775484183
        -0.00913185189943
        -0.00912594895702
        -0.00912004601462
        -0.00911414307221
        -0.00910824012981
        -0.0091023371874
        -0.009096434245
        -0.0090905313026
        -0.00908462836019
        -0.00907872541779
        -0.00907282247538
        -0.00906691953298
        -0.00906101659057
        -0.00905511364817
        -0.00904921070577
        -0.00904330776336
        -0.00903740482096
        -0.00903150187855
        -0.00902559893615
        -0.00901969599374
        -0.00901379305134
        -0.00900789010894
        -0.00900198716653
        -0.00899608422413
        -0.00899018128172
        -0.00898427833932
        -0.00897837539691
        -0.00897247245451
        -0.00896656951211
        -0.0089606665697
        -0.0089547636273
        -0.00894886068489
        -0.00894295774249
        -0.00893705480008
        -0.00893115185768
        -0.00892524891528
        -0.00891934597287
        -0.00891344303047
        -0.00890754008806
        -0.00890163714566
        -0.00889573420325
        -0.00888983126085
        -0.00888392831845
        -0.00887802537604
        -0.00887212243364
        -0.00886621949123
        -0.00886031654883
        -0.00885441360642
        -0.00884851066402
        -0.00884260772162
        -0.00883670477921
        -0.00883080183681
        -0.0088248988944
        -0.008818995952
        -0.00881309300959
        -0.00880719006719
        -0.00880128712479
        -0.00879538418238
        -0.00878948123998
        -0.00878357829757
        -0.00877767535517
        -0.00877177241276
        -0.00876586947036
        -0.00875996652796
        -0.00875406358555
        -0.00874816064315
        -0.00874225770074
        -0.00873635475834
        -0.00873045181593
        -0.00872454887353
        -0.00871864593113
        -0.00871274298872
        -0.00870684004632
        -0.00870093710391
        -0.00869503416151
        -0.0086891312191
        -0.0086832282767
        -0.0086773253343
        -0.00867142239189
        -0.00866551944949
        -0.00865961650708
        -0.00865371356468
        -0.00864781062227
        -0.00864190767987
        -0.00863600473747
        -0.00863010179506
        -0.00862419885266
        -0.00861829591025
        -0.00861239296785
        -0.00860649002544
        -0.00860058708304
        -0.00859468414064
        -0.00858878119823
        -0.00858287825583
        -0.00857697531342
        -0.00857107237102
        -0.00856516942861
        -0.00855926648621
        -0.00855336354381
        -0.0085474606014
        -0.008541557659
        -0.00853565471659
        -0.00852975177419
        -0.00852384883178
        -0.00851794588938
        -0.00851204294698
        -0.00850614000457
        -0.00850023706217
        -0.00849433411976
        -0.00848843117736
        -0.00848252823495
        -0.00847662529255
        -0.00847072235015
        -0.00846481940774
        -0.00845891646534
        -0.00845301352293
        -0.00844711058053
        -0.00844120763812
        -0.00843530469572
        -0.00842940175332
        -0.00842349881091
        -0.00841759586851
        -0.0084116929261
        -0.0084057899837
        -0.00839988704129
        -0.00839398409889
        -0.00838808115649
        -0.00838217821408
        -0.00837627527168
        -0.00837037232927
        -0.00836446938687
        -0.00835856644446
        -0.00835266350206
        -0.00834676055966
        -0.00834085761725
        -0.00833495467485
        -0.00832905173244
        -0.00832314879004
        -0.00831724584763
        -0.00831134290523
        -0.00830543996283
        -0.00829953702042
        -0.00829363407802
        -0.00828773113561
        -0.00828182819321
        -0.0082759252508
        -0.0082700223084
        -0.008264119366
        -0.00825821642359
        -0.00825231348119
        -0.00824641053878
        -0.00824050759638
        -0.00823460465397
        -0.00822870171157
        -0.00822279876917
        -0.00821689582676
        -0.00821099288436
        -0.00820508994195
        -0.00819918699955
        -0.00819328405714
        -0.00818738111474
        -0.00818147817234
        -0.00817557522993
        -0.00816967228753
        -0.00816376934512
        -0.00815786640272
        -0.00815196346031
        -0.00814606051791
        -0.00814015757551
        -0.0081342546331
        -0.0081283516907
        -0.00812244874829
        -0.00811654580589
        -0.00811064286348
        -0.00810473992108
        -0.00809883697868
        -0.00809293403627
        -0.00808703109387
        -0.00808112815146
        -0.00807522520906
        -0.00806932226665
        -0.00806341932425
        -0.00805751638185
        -0.00805161343944
        -0.00804571049704
        -0.00803980755463
        -0.00803390461223
        -0.00802800166982
        -0.00802209872742
        -0.00801619578502
        -0.00801029284261
        -0.00800438990021
        -0.0079984869578
        -0.0079925840154
        -0.00798668107299
        -0.00798077813059
        -0.00797487518819
        -0.00796897224578
        -0.00796306930338
        -0.00795716636097
        -0.00795126341857
        -0.00794536047616
        -0.00793945753376
        -0.00793355459136
        -0.00792765164895
        -0.00792174870655
        -0.00791584576414
        -0.00790994282174
        -0.00790403987933
        -0.00789813693693
        -0.00789223399453
        -0.00788633105212
        -0.00788042810972
        -0.00787452516731
        -0.00786862222491
        -0.0078627192825
        -0.0078568163401
        -0.0078509133977
        -0.00784501045529
        -0.00783910751289
        -0.00783320457048
        -0.00782730162808
        -0.00782139868567
        -0.00781549574327
        -0.00780959280087
        -0.00780368985846
        -0.00779778691606
        -0.00779188397365
        -0.00778598103125
        -0.00778007808884
        -0.00777417514644
        -0.00776827220404
        -0.00776236926163
        -0.00775646631923
        -0.00775056337682
        -0.00774466043442
        -0.00773875749201
        -0.00773285454961
        -0.00772695160721
        -0.0077210486648
        -0.0077151457224
        -0.00770924277999
        -0.00770333983759
        -0.00769743689518
        -0.00769153395278
        -0.00768563101038
        -0.00767972806797
        -0.00767382512557
        -0.00766792218316
        -0.00766201924076
        -0.00765611629835
        -0.00765021335595
        -0.00764431041355
        -0.00763840747114
        -0.00763250452874
        -0.00762660158633
        -0.00762069864393
        -0.00761479570152
        -0.00760889275912
        -0.00760298981672
        -0.00759708687431
        -0.00759118393191
        -0.0075852809895
        -0.0075793780471
        -0.00757347510469
        -0.00756757216229
        -0.00756166921989
        -0.00755576627748
        -0.00754986333508
        -0.00754396039267
        -0.00753805745027
        -0.00753215450786
        -0.00752625156546
        -0.00752034862306
        -0.00751444568065
        -0.00750854273825
        -0.00750263979584
        -0.00749673685344
        -0.00749083391103
        -0.00748493096863
        -0.00747902802623
        -0.00747312508382
        -0.00746722214142
        -0.00746131919901
        -0.00745541625661
        -0.0074495133142
        -0.0074436103718
        -0.0074377074294
        -0.00743180448699
        -0.00742590154459
        -0.00741999860218
        -0.00741409565978
        -0.00740819271737
        -0.00740228977497
        -0.00739638683257
        -0.00739048389016
        -0.00738458094776
        -0.00737867800535
        -0.00737277506295
        -0.00736687212054
        -0.00736096917814
        -0.00735506623574
        -0.00734916329333
        -0.00734326035093
        -0.00733735740852
        -0.00733145446612
        -0.00732555152371
        -0.00731964858131
        -0.00731374563891
        -0.0073078426965
        -0.0073019397541
        -0.00729603681169
        -0.00729013386929
        -0.00728423092688
        -0.00727832798448
        -0.00727242504208
        -0.00726652209967
        -0.00726061915727
        -0.00725471621486
        -0.00724881327246
        -0.00724291033005
        -0.00723700738765
        -0.00723110444525
        -0.00722520150284
        -0.00721929856044
        -0.00721339561803
        -0.00720749267563
        -0.00720158973322
        -0.00719568679082
        -0.00718978384842
        -0.00718388090601
        -0.00717797796361
        -0.0071720750212
        -0.0071661720788
        -0.00716026913639
        -0.00715436619399
        -0.00714846325159
        -0.00714256030918
        -0.00713665736678
        -0.00713075442437
        -0.00712485148197
        -0.00711894853956
        -0.00711304559716
        -0.00710714265476
        -0.00710123971235
        -0.00709533676995
        -0.00708943382754
        -0.00708353088514
        -0.00707762794273
        -0.00707172500033
        -0.00706582205793
        -0.00705991911552
        -0.00705401617312
        -0.00704811323071
        -0.00704221028831
        -0.0070363073459
        -0.0070304044035
        -0.0070245014611
        -0.00701859851869
        -0.00701269557629
        -0.00700679263388
        -0.00700088969148
        -0.00699498674907
        -0.00698908380667
        -0.00698318086427
        -0.00697727792186
        -0.00697137497946
        -0.00696547203705
        -0.00695956909465
        -0.00695366615224
        -0.00694776320984
        -0.00694186026744
        -0.00693595732503
        -0.00693005438263
        -0.00692415144022
        -0.00691824849782
        -0.00691234555541
        -0.00690644261301
        -0.00690053967061
        -0.0068946367282
        -0.0068887337858
        -0.00688283084339
        -0.00687692790099
        -0.00687102495858
        -0.00686512201618
        -0.00685921907378
        -0.00685331613137
        -0.00684741318897
        -0.00684151024656
        -0.00683560730416
        -0.00682970436175
        -0.00682380141935
        -0.00681789847695
        -0.00681199553454
        -0.00680609259214
        -0.00680018964973
        -0.00679428670733
        -0.00678838376493
        -0.00678248082252
        -0.00677657788012
        -0.00677067493771
        -0.00676477199531
        -0.0067588690529
        -0.0067529661105
        -0.0067470631681
        -0.00674116022569
        -0.00673525728329
        -0.00672935434088
        -0.00672345139848
        -0.00671754845607
        -0.00671164551367
        -0.00670574257127
        -0.00669983962886
        -0.00669393668646
        -0.00668803374405
        -0.00668213080165
        -0.00667622785924
        -0.00667032491684
        -0.00666442197444
        -0.00665851903203
        -0.00665261608963
        -0.00664671314722
        -0.00664081020482
        -0.00663490726241
        -0.00662900432001
        -0.00662310137761
        -0.0066171984352
        -0.0066112954928
        -0.00660539255039
        -0.00659948960799
        -0.00659358666558
        -0.00658768372318
        -0.00658178078078
        -0.00657587783837
        -0.00656997489597
        -0.00656407195356
        -0.00655816901116
        -0.00655226606875
        -0.00654636312635
        -0.00654046018395
        -0.00653455724154
        -0.00652865429914
        -0.00652275135673
        -0.00651684841433
        -0.00651094547192
        -0.00650504252952
        -0.00649913958712
        -0.00649323664471
        -0.00648733370231
        -0.0064814307599
        -0.0064755278175
        -0.00646962487509
        -0.00646372193269
        -0.00645781899029
        -0.00645191604788
        -0.00644601310548
        -0.00644011016307
        -0.00643420722067
        -0.00642830427826
        -0.00642240133586
        -0.00641649839346
        -0.00641059545105
        -0.00640469250865
        -0.00639878956624
        -0.00639288662384
        -0.00638698368143
        -0.00638108073903
        -0.00637517779663
        -0.00636927485422
        -0.00636337191182
        -0.00635746896941
        -0.00635156602701
        -0.0063456630846
        -0.0063397601422
        -0.0063338571998
        -0.00632795425739
        -0.00632205131499
        -0.00631614837258
        -0.00631024543018
        -0.00630434248777
        -0.00629843954537
        -0.00629253660297
        -0.00628663366056
        -0.00628073071816
        -0.00627482777575
        -0.00626892483335
        -0.00626302189094
        -0.00625711894854
        -0.00625121600614
        -0.00624531306373
        -0.00623941012133
        -0.00623350717892
        -0.00622760423652
        -0.00622170129411
        -0.00621579835171
        -0.00620989540931
        -0.0062039924669
        -0.0061980895245
        -0.00619218658209
        -0.00618628363969
        -0.00618038069728
        -0.00617447775488
        -0.00616857481248
        -0.00616267187007
        -0.00615676892767
        -0.00615086598526
        -0.00614496304286
        -0.00613906010045
        -0.00613315715805
        -0.00612725421565
        -0.00612135127324
        -0.00611544833084
        -0.00610954538843
        -0.00610364244603
        -0.00609773950362
        -0.00609183656122
        -0.00608593361882
        -0.00608003067641
        -0.00607412773401
        -0.0060682247916
        -0.0060623218492
        -0.00605641890679
        -0.00605051596439
        -0.00604461302199
        -0.00603871007958
        -0.00603280713718
        -0.00602690419477
        -0.00602100125237
        -0.00601509830996
        -0.00600919536756
        -0.00600329242516
        -0.00599738948275
        -0.00599148654035
        -0.00598558359794
        -0.00597968065554
        -0.00597377771313
        -0.00596787477073
        -0.00596197182833
        -0.00595606888592
        -0.00595016594352
        -0.00594426300111
        -0.00593836005871
        -0.0059324571163
        -0.0059265541739
        -0.0059206512315
        -0.00591474828909
        -0.00590884534669
        -0.00590294240428
        -0.00589703946188
        -0.00589113651947
        -0.00588523357707
        -0.00587933063467
        -0.00587342769226
        -0.00586752474986
        -0.00586162180745
        -0.00585571886505
        -0.00584981592264
        -0.00584391298024
        -0.00583801003784
        -0.00583210709543
        -0.00582620415303
        -0.00582030121062
        -0.00581439826822
        -0.00580849532581
        -0.00580259238341
        -0.00579668944101
        -0.0057907864986
        -0.0057848835562
        -0.00577898061379
        -0.00577307767139
        -0.00576717472898
        -0.00576127178658
        -0.00575536884418
        -0.00574946590177
        -0.00574356295937
        -0.00573766001696
        -0.00573175707456
        -0.00572585413215
        -0.00571995118975
        -0.00571404824735
        -0.00570814530494
        -0.00570224236254
        -0.00569633942013
        -0.00569043647773
        -0.00568453353532
        -0.00567863059292
        -0.00567272765052
        -0.00566682470811
        -0.00566092176571
        -0.0056550188233
        -0.0056491158809
        -0.00564321293849
        -0.00563730999609
        -0.00563140705369
        -0.00562550411128
        -0.00561960116888
        -0.00561369822647
        -0.00560779528407
        -0.00560189234166
        -0.00559598939926
        -0.00559008645686
        -0.00558418351445
        -0.00557828057205
        -0.00557237762964
        -0.00556647468724
        -0.00556057174483
        -0.00555466880243
        -0.00554876586003
        -0.00554286291762
        -0.00553695997522
        -0.00553105703281
        -0.00552515409041
        -0.005519251148
        -0.0055133482056
        -0.0055074452632
        -0.00550154232079
        -0.00549563937839
        -0.00548973643598
        -0.00548383349358
        -0.00547793055117
        -0.00547202760877
        -0.00546612466637
        -0.00546022172396
        -0.00545431878156
        -0.00544841583915
        -0.00544251289675
        -0.00543660995434
        -0.00543070701194
        -0.00542480406954
        -0.00541890112713
        -0.00541299818473
        -0.00540709524232
        -0.00540119229992
        -0.00539528935751
        -0.00538938641511
        -0.00538348347271
        -0.0053775805303
        -0.0053716775879
        -0.00536577464549
        -0.00535987170309
        -0.00535396876068
        -0.00534806581828
        -0.00534216287588
        -0.00533625993347
        -0.00533035699107
        -0.00532445404866
        -0.00531855110626
        -0.00531264816385
        -0.00530674522145
        -0.00530084227905
        -0.00529493933664
        -0.00528903639424
        -0.00528313345183
        -0.00527723050943
        -0.00527132756702
        -0.00526542462462
        -0.00525952168222
        -0.00525361873981
        -0.00524771579741
        -0.005241812855
        -0.0052359099126
        -0.00523000697019
        -0.00522410402779
        -0.00521820108539
        -0.00521229814298
        -0.00520639520058
        -0.00520049225817
        -0.00519458931577
        -0.00518868637336
        -0.00518278343096
        -0.00517688048856
        -0.00517097754615
        -0.00516507460375
        -0.00515917166134
        -0.00515326871894
        -0.00514736577653
        -0.00514146283413
        -0.00513555989173
        -0.00512965694932
        -0.00512375400692
        -0.00511785106451
        -0.00511194812211
        -0.0051060451797
        -0.0051001422373
        -0.0050942392949
        -0.00508833635249
        -0.00508243341009
        -0.00507653046768
        -0.00507062752528
        -0.00506472458287
        -0.00505882164047
        -0.00505291869807
        -0.00504701575566
        -0.00504111281326
        -0.00503520987085
        -0.00502930692845
        -0.00502340398604
        -0.00501750104364
        -0.00501159810124
        -0.00500569515883
        -0.00499979221643
        -0.00499388927402
        -0.00498798633162
        -0.00498208338921
        -0.00497618044681
        -0.00497027750441
        -0.004964374562
        -0.0049584716196
        -0.00495256867719
        -0.00494666573479
        -0.00494076279238
        -0.00493485984998
        -0.00492895690758
        -0.00492305396517
        -0.00491715102277
        -0.00491124808036
        -0.00490534513796
        -0.00489944219555
        -0.00489353925315
        -0.00488763631075
        -0.00488173336834
        -0.00487583042594
        -0.00486992748353
        -0.00486402454113
        -0.00485812159872
        -0.00485221865632
        -0.00484631571392
        -0.00484041277151
        -0.00483450982911
        -0.0048286068867
        -0.0048227039443
        -0.00481680100189
        -0.00481089805949
        -0.00480499511709
        -0.00479909217468
        -0.00479318923228
        -0.00478728628987
        -0.00478138334747
        -0.00477548040506
        -0.00476957746266
        -0.00476367452026
        -0.00475777157785
        -0.00475186863545
        -0.00474596569304
        -0.00474006275064
        -0.00473415980823
        -0.00472825686583
        -0.00472235392343
        -0.00471645098102
        -0.00471054803862
        -0.00470464509621
        -0.00469874215381
        -0.0046928392114
        -0.004686936269
        -0.0046810333266
        -0.00467513038419
        -0.00466922744179
        -0.00466332449938
        -0.00465742155698
        -0.00465151861457
        -0.00464561567217
        -0.00463971272977
        -0.00463380978736
        -0.00462790684496
        -0.00462200390255
        -0.00461610096015
        -0.00461019801774
        -0.00460429507534
        -0.00459839213294
        -0.00459248919053
        -0.00458658624813
        -0.00458068330572
        -0.00457478036332
        -0.00456887742091
        -0.00456297447851
        -0.00455707153611
        -0.0045511685937
        -0.0045452656513
        -0.00453936270889
        -0.00453345976649
        -0.00452755682408
        -0.00452165388168
        -0.00451575093928
        -0.00450984799687
        -0.00450394505447
        -0.00449804211206
        -0.00449213916966
        -0.00448623622725
        -0.00448033328485
        -0.00447443034245
        -0.00446852740004
        -0.00446262445764
        -0.00445672151523
        -0.00445081857283
        -0.00444491563042
        -0.00443901268802
        -0.00443310974562
        -0.00442720680321
