/* SPDX-FileCopyrightText: 2011-2022 Blender Foundation
 *
 * SPDX-License-Identifier: Apache-2.0 */

#include "stdcycles.h"

shader node_ray_portal_bsdf(color Color = 0.8,
                            vector Position = vector(0.0, 0.0, 0.0),
                            vector Direction = vector(0.0, 0.0, 0.0),
                            output closure color BSDF = 0)
{
  BSDF = Color * ray_portal_bsdf(Position, Direction);
}
