/* SPDX-FileCopyrightText: 2011-2022 Blender Foundation
 *
 * SPDX-License-Identifier: Apache-2.0 */

#include "stdcycles.h"

surface node_set_normal(normal Direction = N, output normal Normal = N)
{
  N = Direction;
  Normal = Direction;
}
