release/datafiles/colormanagement/luts/film_response/agfa_agfachrome_ct_precisa_200.spi1d
Version 1
From 0.0 1.0
Length 1024
Components 3
{
	0.0000000000 0.0000000000 0.0000000000
	0.0002699328 0.0001753761 0.0002523783
	0.0005516693 0.0003570581 0.0005202319
	0.0008440902 0.0005450998 0.0008039851
	0.0011470990 0.0007395549 0.0011026140
	0.0014597330 0.0009404911 0.0014156949
	0.0017813731 0.0011476850 0.0017421190
	0.0021126880 0.0013612730 0.0020805011
	0.0024531030 0.0015815590 0.0024294229
	0.0028031650 0.0018088090 0.0027884119
	0.0031638411 0.0020427699 0.0031579121
	0.0035372649 0.0022836919 0.0035393820
	0.0039257319 0.0025316810 0.0039346260
	0.0043312181 0.0027867940 0.0043465500
	0.0047563538 0.0030489860 0.0047766608
	0.0052017048 0.0033181130 0.0052262088
	0.0056667780 0.0035944311 0.0056956508
	0.0061506722 0.0038782239 0.0061842999
	0.0066511780 0.0041694939 0.0066920272
	0.0071674078 0.0044688610 0.0072181849
	0.0076976968 0.0047760759 0.0077622221
	0.0082411859 0.0050910199 0.0083242692
	0.0087973205 0.0054136459 0.0089058857
	0.0093660019 0.0057440512 0.0095065739
	0.0099473577 0.0060824021 0.0101279598
	0.0105416896 0.0064286222 0.0107696000
	0.0111480197 0.0067824679 0.0114314295
	0.0117668100 0.0071440842 0.0121141002
	0.0123977298 0.0075133010 0.0128158899
	0.0130404802 0.0078901956 0.0135375699
	0.0136951199 0.0082744109 0.0142785497
	0.0143617000 0.0086660404 0.0150373597
	0.0150401201 0.0090650087 0.0158140305
	0.0157300606 0.0094716744 0.0166073292
	0.0164318401 0.0098855980 0.0174160805
	0.0171449091 0.0103072198 0.0182415899
	0.0178689398 0.0107360203 0.0190821793
	0.0186050907 0.0111725898 0.0199379697
	0.0193527602 0.0116162105 0.0208086297
	0.0201126505 0.0120675396 0.0216945801
	0.0208839308 0.0125266099 0.0225958191
	0.0216670800 0.0129928002 0.0235118493
	0.0224615298 0.0134667596 0.0244435798
	0.0232677106 0.0139479404 0.0253902208
	0.0240852199 0.0144363800 0.0263507906
	0.0249137003 0.0149327302 0.0273268502
	0.0257528108 0.0154370395 0.0283182394
	0.0266024694 0.0159486309 0.0293240100
	0.0274628494 0.0164675806 0.0303431805
	0.0283344202 0.0169943292 0.0313761793
	0.0292166006 0.0175288208 0.0324220508
	0.0301091801 0.0180700701 0.0334794186
	0.0310120601 0.0186186992 0.0345463790
	0.0319244787 0.0191750694 0.0356225707
	0.0328475386 0.0197390206 0.0367073193
	0.0337808393 0.0203102101 0.0377987213
	0.0347246900 0.0208885409 0.0388945192
	0.0356788710 0.0214745607 0.0399941206
	0.0366426483 0.0220674798 0.0410979390
	0.0376164615 0.0226682406 0.0422052182
	0.0386001393 0.0232766997 0.0433141701
	0.0395945087 0.0238917898 0.0444252789
	0.0405988395 0.0245153997 0.0455389805
	0.0416126810 0.0251462702 0.0466558412
	0.0426358394 0.0257849507 0.0477751605
	0.0436693914 0.0264302809 0.0488959402
	0.0447117910 0.0270844605 0.0500185490
	0.0457648709 0.0277455002 0.0511438698
	0.0468259901 0.0284139998 0.0522733182
	0.0478970297 0.0290895496 0.0534073599
	0.0489763990 0.0297721792 0.0545452908
	0.0500655286 0.0304632597 0.0556870997
	0.0511628389 0.0311617199 0.0568346418
	0.0522699915 0.0318679288 0.0579884015
	0.0533850715 0.0325823203 0.0591484793
	0.0545096211 0.0333043113 0.0603141114
	0.0556424297 0.0340342708 0.0614848994
	0.0567837097 0.0347718298 0.0626629367
	0.0579337105 0.0355160087 0.0638478696
	0.0590906888 0.0362669006 0.0650385097
	0.0602574088 0.0370258093 0.0662359372
	0.0614334010 0.0377927385 0.0674390867
	0.0626170933 0.0385673605 0.0686485395
	0.0638106465 0.0393497609 0.0698641911
	0.0650118366 0.0401403792 0.0710861981
	0.0662213415 0.0409397595 0.0723134726
	0.0674379617 0.0417471118 0.0735469386
	0.0686631873 0.0425618887 0.0747859776
	0.0698976368 0.0433834791 0.0760307387
	0.0711404011 0.0442118682 0.0772804022
	0.0723914728 0.0450474396 0.0785348937
	0.0736518502 0.0458911397 0.0797948688
	0.0749201477 0.0467427112 0.0810601711
	0.0761969313 0.0476017408 0.0823324025
	0.0774813071 0.0484685600 0.0836096331
	0.0787731186 0.0493434109 0.0848924294
	0.0800740421 0.0502262115 0.0861801729
	0.0813831016 0.0511168912 0.0874729678
	0.0827006921 0.0520157702 0.0887702629
	0.0840270668 0.0529231317 0.0900717899
	0.0853607282 0.0538391396 0.0913778096
	0.0867023394 0.0547635406 0.0926876292
	0.0880530998 0.0556963496 0.0940016583
	0.0894121006 0.0566373095 0.0953195170
	0.0907792076 0.0575862303 0.0966407433
	0.0921551064 0.0585427284 0.0979649574
	0.0935385600 0.0595068783 0.0992923602
	0.0949299335 0.0604788885 0.1006235033
	0.0963296816 0.0614589490 0.1019582972
	0.0977364033 0.0624472797 0.1032961980
	0.0991507098 0.0634440780 0.1046369970
	0.1005733013 0.0644495711 0.1059795022
	0.1020032987 0.0654638633 0.1073246971
	0.1034407988 0.0664867088 0.1086725965
	0.1048860997 0.0675178468 0.1100225002
	0.1063387021 0.0685571134 0.1113744006
	0.1077983007 0.0696041286 0.1127282009
	0.1092654988 0.0706589893 0.1140839010
	0.1107404977 0.0717224628 0.1154410988
	0.1122227013 0.0727944970 0.1168001965
	0.1137126014 0.0738748014 0.1181621030
	0.1152106971 0.0749634504 0.1195268035
	0.1167161986 0.0760605484 0.1208942011
	0.1182283014 0.0771661699 0.1222644001
	0.1197486967 0.0782803968 0.1236374006
	0.1212769002 0.0794033334 0.1250136942
	0.1228116006 0.0805374980 0.1263937950
	0.1243539006 0.0816816911 0.1277772933
	0.1259036064 0.0828360692 0.1291648000
	0.1274601966 0.0840003714 0.1305564940
	0.1290239990 0.0851741210 0.1319530010
	0.1305951029 0.0863568485 0.1333540976
	0.1321730018 0.0875512436 0.1347596943
	0.1337587982 0.0887546614 0.1361702979
	0.1353518963 0.0899670422 0.1375872940
	0.1369515061 0.0911882967 0.1390096992
	0.1385575980 0.0924183726 0.1404386014
	0.1401696056 0.0936605185 0.1418738067
	0.1417876929 0.0949114934 0.1433147937
	0.1434136033 0.0961711928 0.1447637975
	0.1450462937 0.0974395201 0.1462194026
	0.1466850936 0.0987184718 0.1476815939
	0.1483296007 0.1000078022 0.1491505057
	0.1499803066 0.1013054997 0.1506260037
	0.1516395956 0.1026116982 0.1521109045
	0.1533043981 0.1039282009 0.1536028981
	0.1549746990 0.1052552983 0.1551018059
	0.1566507071 0.1065905988 0.1566075981
	0.1583354026 0.1079339013 0.1581221074
	0.1600269973 0.1092884988 0.1596440971
	0.1617241949 0.1106527001 0.1611728072
	0.1634269953 0.1120247021 0.1627078950
	0.1651381999 0.1134048030 0.1642509997
	0.1668564975 0.1147963032 0.1658020020
	0.1685802042 0.1161947995 0.1673590988
	0.1703090966 0.1176000983 0.1689217985
	0.1720459014 0.1190157980 0.1704941988
	0.1737886965 0.1204395965 0.1720733941
	0.1755366027 0.1218703017 0.1736585945
	0.1772904992 0.1233104020 0.1752517074
	0.1790520996 0.1247609034 0.1768528074
	0.1808187962 0.1262181997 0.1784588993
	0.1825904995 0.1276842058 0.1800702065
	0.1843689978 0.1291611046 0.1816917062
	0.1861528009 0.1306443959 0.1833177954
	0.1879408062 0.1321358979 0.1849482954
	0.1897339970 0.1336382031 0.1865873039
	0.1915318966 0.1351462007 0.1882306933
	0.1933335066 0.1366620958 0.1898781061
	0.1951407045 0.1381859928 0.1915331036
	0.1969527006 0.1397145987 0.1931923032
	0.1987676024 0.1412506998 0.1948550940
	0.2005867958 0.1427935958 0.1965250969
	0.2024096996 0.1443406940 0.1981987059
	0.2042354047 0.1458964050 0.1998753995
	0.2060655951 0.1474573016 0.2015592009
	0.2078990936 0.1490225941 0.2032458931
	0.2097346038 0.1505970955 0.2049356997
	0.2115736008 0.1521753073 0.2066316009
	0.2134155929 0.1537598073 0.2083299011
	0.2152598053 0.1553504020 0.2100317031
	0.2171059996 0.1569440067 0.2117380053
	0.2189532965 0.1585451961 0.2134467959
	0.2208018005 0.1601499021 0.2151606977
	0.2226525992 0.1617594957 0.2168776989
	0.2245036960 0.1633763015 0.2185973972
	0.2263543010 0.1649962068 0.2203236967
	0.2282046974 0.1666252017 0.2220526040
	0.2300550044 0.1682582051 0.2237869948
	0.2319052964 0.1698971987 0.2255263031
	0.2337547988 0.1715423018 0.2272689044
	0.2356023043 0.1731901020 0.2290178984
	0.2374480069 0.1748462021 0.2307692021
	0.2392929047 0.1765045971 0.2325260937
	0.2411359996 0.1781698018 0.2342863977
	0.2429780960 0.1798388958 0.2360495031
	0.2448175997 0.1815121025 0.2378188968
	0.2466558963 0.1831911057 0.2395901978
	0.2484931946 0.1848724037 0.2413679063
	0.2503274083 0.1865603030 0.2431481034
	0.2521604002 0.1882493943 0.2449326068
	0.2539891005 0.1899435967 0.2467211932
	0.2558167875 0.1916399002 0.2485122979
	0.2576422989 0.1933400929 0.2503088117
	0.2594659925 0.1950432062 0.2521066070
	0.2612882853 0.1967488974 0.2539105117
	0.2631081939 0.1984582990 0.2557164133
	0.2649275064 0.2001695931 0.2575275898
	0.2667450905 0.2018844932 0.2593415976
	0.2685621977 0.2036001980 0.2611587942
	0.2703767121 0.2053194046 0.2629804015
	0.2721900046 0.2070389986 0.2648043931
	0.2740012109 0.2087621987 0.2666332126
	0.2758114934 0.2104858011 0.2684633136
	0.2776210010 0.2122109979 0.2703008056
	0.2794296145 0.2139367014 0.2721393108
	0.2812376916 0.2156637013 0.2739846110
	0.2830449939 0.2173916996 0.2758311927
	0.2848519981 0.2191213071 0.2776845992
	0.2866581082 0.2208511978 0.2795400918
	0.2884640992 0.2225816995 0.2814018130
	0.2902691066 0.2243124992 0.2832661867
	0.2920739949 0.2260437012 0.2851360142
	0.2938778102 0.2277746946 0.2870089114
	0.2956816852 0.2295051962 0.2888864875
	0.2974855900 0.2312353998 0.2907676995
	0.2992897928 0.2329653054 0.2926534116
	0.3010956943 0.2346948981 0.2945432067
	0.3029015958 0.2364241928 0.2964377999
	0.3047079146 0.2381531000 0.2983360887
	0.3065148890 0.2398813963 0.3002381921
	0.3083240986 0.2416097969 0.3021444976
	0.3101342022 0.2433384061 0.3040550947
	0.3119468987 0.2450670004 0.3059692979
	0.3137601912 0.2467954010 0.3078877032
	0.3155752122 0.2485236973 0.3098101914
	0.3173910081 0.2502520084 0.3117381930
	0.3192102015 0.2519801855 0.3136689961
	0.3210298121 0.2537078857 0.3156045079
	0.3228524923 0.2554357052 0.3175427020
	0.3246755004 0.2571632862 0.3194876015
	0.3265027106 0.2588908970 0.3214339018
	0.3283298910 0.2606168985 0.3233856857
	0.3301618993 0.2623426914 0.3253385127
	0.3319939077 0.2640664876 0.3272993863
	0.3338311017 0.2657895982 0.3292602003
	0.3356688917 0.2675099969 0.3312292099
	0.3375113904 0.2692281902 0.3331983089
	0.3393552005 0.2709451020 0.3351751864
	0.3412027955 0.2726595998 0.3371534944
	0.3430523872 0.2743734121 0.3391371071
	0.3449051976 0.2760832906 0.3411231935
	0.3467617035 0.2777931094 0.3431136012
	0.3486200869 0.2795000076 0.3451083899
	0.3504830897 0.2812066078 0.3471060097
	0.3523468077 0.2829105854 0.3491097093
	0.3542161882 0.2846131921 0.3511143029
	0.3560855985 0.2863143981 0.3531267047
	0.3579610884 0.2880134881 0.3551391065
	0.3598372936 0.2897121012 0.3571586907
	0.3617183864 0.2914075851 0.3591794968
	0.3636018932 0.2931031883 0.3612056077
	0.3654884994 0.2947953939 0.3632349968
	0.3673790991 0.2964870930 0.3652678132
	0.3692705929 0.2981764078 0.3673068881
	0.3711664081 0.2998636067 0.3693464100
	0.3730623126 0.3015499115 0.3713943064
	0.3749629855 0.3032326996 0.3734421134
	0.3768644929 0.3049154878 0.3754970133
	0.3787690997 0.3065958023 0.3775540888
	0.3806760013 0.3082754910 0.3796147108
	0.3825837970 0.3099536002 0.3816798031
	0.3844941854 0.3116297126 0.3837456107
	0.3864046037 0.3133055866 0.3858197927
	0.3883185983 0.3149785995 0.3878938854
	0.3902328908 0.3166514933 0.3899737000
	0.3921490908 0.3183214962 0.3920556009
	0.3940671086 0.3199898005 0.3941405118
	0.3959853053 0.3216570020 0.3962311149
	0.3979054987 0.3233199120 0.3983218074
	0.3998256922 0.3249827921 0.4004194140
	0.4017480910 0.3266434073 0.4025174975
	0.4036712050 0.3283031881 0.4046190977
	0.4055953920 0.3299618959 0.4067240059
	0.4075216949 0.3316178024 0.4088292122
	0.4094479978 0.3332735896 0.4109373987
	0.4113749862 0.3349258900 0.4130455852
	0.4133020043 0.3365769982 0.4151561856
	0.4152295887 0.3382270932 0.4172683954
	0.4171578884 0.3398742974 0.4193809032
	0.4190863073 0.3415214121 0.4214954972
	0.4210152924 0.3431650996 0.4236100912
	0.4229443073 0.3448075950 0.4257256985
	0.4248732030 0.3464492857 0.4278419018
	0.4268017113 0.3480867147 0.4299578965
	0.4287301898 0.3497239947 0.4320721030
	0.4306586087 0.3513588905 0.4341863096
	0.4325869977 0.3529917896 0.4362998903
	0.4345157146 0.3546248078 0.4384129047
	0.4364447892 0.3562546968 0.4405260086
	0.4383738935 0.3578845859 0.4426352084
	0.4403015971 0.3595128059 0.4447444081
	0.4422290921 0.3611381054 0.4468516111
	0.4441559017 0.3627632856 0.4489555061
	0.4460807145 0.3643858135 0.4510594904
	0.4480054975 0.3660072088 0.4531568885
	0.4499278963 0.3676283956 0.4552522898
	0.4518488944 0.3692458868 0.4573468864
	0.4537698925 0.3708634973 0.4594365954
	0.4556883872 0.3724792004 0.4615261853
	0.4576067924 0.3740915060 0.4636127055
	0.4595240057 0.3757036924 0.4656955898
	0.4614388943 0.3773143888 0.4677784145
	0.4633539021 0.3789240122 0.4698548019
	0.4652644098 0.3805336058 0.4719296098
	0.4671730101 0.3821412027 0.4740034938
	0.4690816104 0.3837484121 0.4760693014
	0.4709844887 0.3853549957 0.4781351089
	0.4728874862 0.3869574070 0.4801965058
	0.4747886956 0.3885596991 0.4822503924
	0.4766854942 0.3901604116 0.4843043983
	0.4785822928 0.3917576969 0.4863505065
	0.4804754853 0.3933550119 0.4883921146
	0.4823656976 0.3949500024 0.4904336035
	0.4842557907 0.3965430856 0.4924621880
	0.4861414135 0.3981361091 0.4944886863
	0.4880256951 0.3997269869 0.4965141118
	0.4899098873 0.4013170898 0.4985252917
	0.4917871952 0.4029071927 0.5005366206
	0.4936642945 0.4044938982 0.5025439262
	0.4955402911 0.4060800970 0.5045402050
	0.4974110126 0.4076662064 0.5065364838
	0.4992815852 0.4092473984 0.5085269213
	0.5011492968 0.4108285904 0.5105090141
	0.5030111074 0.4124091864 0.5124911070
	0.5048729181 0.4139845073 0.5144640207
	0.5067303777 0.4155597985 0.5164294839
	0.5085831881 0.4171343148 0.5183951259
	0.5104359984 0.4187046885 0.5203496218
	0.5122830272 0.4202750921 0.5222988129
	0.5141261816 0.4218446016 0.5242480040
	0.5159693956 0.4234111905 0.5261831284
	0.5178055763 0.4249776900 0.5281137824
	0.5196387768 0.4265432060 0.5300444961
	0.5214719176 0.4281054139 0.5319601893
	0.5232948065 0.4296675026 0.5338729024
	0.5251145959 0.4312283099 0.5357854962
	0.5269343853 0.4327852130 0.5376809239
	0.5287426114 0.4343419969 0.5395737290
	0.5305480957 0.4358971119 0.5414664745
	0.5323536992 0.4374468029 0.5433425903
	0.5341475010 0.4389964044 0.5452167988
	0.5359390974 0.4405452907 0.5470908880
	0.5377306938 0.4420902133 0.5489476919
	0.5395104885 0.4436351061 0.5508022904
	0.5412878990 0.4451794922 0.5526568890
	0.5430654287 0.4467185140 0.5544949174
	0.5448313951 0.4482575059 0.5563300848
	0.5465946794 0.4497964978 0.5581651926
	0.5483580828 0.4513302147 0.5599843860
	0.5501095057 0.4528639913 0.5617994070
	0.5518571138 0.4543977976 0.5636144876
	0.5536047220 0.4559254944 0.5654160976
	0.5553417206 0.4574523866 0.5672122836
	0.5570737123 0.4589793086 0.5690084100
	0.5588057041 0.4605017900 0.5707932711
	0.5605282187 0.4620226920 0.5725706816
	0.5622438788 0.4635435939 0.5743482113
	0.5639594793 0.4650601149 0.5761160254
	0.5656672716 0.4665732086 0.5778731108
	0.5673655272 0.4680863023 0.5796301961
	0.5690636039 0.4695965946 0.5813813806
	0.5707573295 0.4711019993 0.5831196904
	0.5724400282 0.4726073146 0.5848580003
	0.5741227269 0.4741115868 0.5865939260
	0.5758035779 0.4756088853 0.5883123875
	0.5774692297 0.4771062136 0.5900310278
	0.5791348219 0.4786033928 0.5917496085
	0.5808004737 0.4800952971 0.5934519768
	0.5824471116 0.4815863073 0.5951527953
	0.5840917230 0.4830772877 0.5968536139
	0.5857362747 0.4845638871 0.5985416770
	0.5873677135 0.4860475063 0.6002234817
	0.5889924765 0.4875310957 0.6019052863
	0.5906172991 0.4890125990 0.6035785079
	0.5922335982 0.4904884994 0.6052387953
	0.5938374996 0.4919644892 0.6068990827
	0.5954412818 0.4934403896 0.6085569859
	0.5970427990 0.4949091077 0.6101952791
	0.5986260176 0.4963772893 0.6118335128
	0.6002092957 0.4978454113 0.6134716868
	0.6017925143 0.4993087053 0.6150943041
	0.6033605933 0.5007681847 0.6167126298
	0.6049249768 0.5022277236 0.6183308959
	0.6064894199 0.5036858916 0.6199414134
	0.6080433726 0.5051380992 0.6215417981
	0.6095849872 0.5065904260 0.6231423020
	0.6111266017 0.5080425739 0.6247416735
	0.6126660705 0.5094881058 0.6263244748
	0.6141831875 0.5109314919 0.6279072762
	0.6157003045 0.5123748183 0.6294900775
	0.6172174215 0.5138152242 0.6310620904
	0.6187192798 0.5152488947 0.6326283813
	0.6202139854 0.5166826248 0.6341947913
	0.6217088103 0.5181162953 0.6357573271
	0.6231973767 0.5195432901 0.6373063922
	0.6246680021 0.5209690928 0.6388555169
	0.6261385083 0.5223947763 0.6404047012
	0.6276090741 0.5238174796 0.6419379711
	0.6290594935 0.5252338052 0.6434664130
	0.6305047870 0.5266500711 0.6449947953
	0.6319500804 0.5280663967 0.6465178728
	0.6333882213 0.5294749737 0.6480270028
	0.6348105073 0.5308814049 0.6495360136
	0.6362327933 0.5322877169 0.6510450244
	0.6376551986 0.5336924195 0.6525406241
	0.6390563250 0.5350908041 0.6540316939
	0.6404522061 0.5364891887 0.6555228233
	0.6418480873 0.5378875732 0.6570094824
	0.6432371140 0.5392802954 0.6584786177
	0.6446061730 0.5406693816 0.6599478126
	0.6459752917 0.5420585871 0.6614168882
	0.6473444104 0.5434476733 0.6628721952
	0.6486949921 0.5448269844 0.6643189788
	0.6500368714 0.5462061763 0.6657658219
	0.6513789296 0.5475854874 0.6672123075
	0.6527189016 0.5489618182 0.6686396003
	0.6540355086 0.5503323078 0.6700670123
	0.6553521156 0.5517029166 0.6714943051
	0.6566687822 0.5530735254 0.6729140878
	0.6579744816 0.5544376969 0.6743212938
	0.6592665911 0.5557985902 0.6757284999
	0.6605587006 0.5571594238 0.6771355867
	0.6618508101 0.5585203171 0.6785268188
	0.6631215811 0.5598711967 0.6799110770
	0.6643863916 0.5612214804 0.6812955141
	0.6656513214 0.5625717044 0.6826797724
	0.6669138074 0.5639197826 0.6840425730
	0.6681522131 0.5652583241 0.6854054928
	0.6693906784 0.5665968060 0.6867682934
	0.6706290841 0.5679352880 0.6881262064
	0.6718584895 0.5692687035 0.6894711256
	0.6730719805 0.5705946088 0.6908161044
	0.6742855906 0.5719205737 0.6921610236
	0.6754990816 0.5732464790 0.6934955716
	0.6766976118 0.5745657086 0.6948205233
	0.6778864264 0.5758802891 0.6961454153
	0.6790751815 0.5771949291 0.6974701881
	0.6802639961 0.5785095096 0.6987801194
	0.6814342141 0.5798168182 0.7000842094
	0.6826003194 0.5811215043 0.7013882995
	0.6837664843 0.5824263096 0.7026923895
	0.6849324703 0.5837309957 0.7039760947
	0.6860750914 0.5850257874 0.7052575946
	0.6872177124 0.5863190889 0.7065389752
	0.6883602142 0.5876123905 0.7078195214
	0.6894991994 0.5889056921 0.7090789080
	0.6906188130 0.5901870728 0.7103384137
	0.6917384267 0.5914680958 0.7115979195
	0.6928580999 0.5927491188 0.7128540874
	0.6939715147 0.5940297246 0.7140920162
	0.6950684190 0.5952988863 0.7153298855
	0.6961653829 0.5965679884 0.7165678144
	0.6972624063 0.5978370905 0.7178003192
	0.6983522773 0.5991057754 0.7190150023
	0.6994295716 0.6003659964 0.7202296853
	0.7005069852 0.6016262770 0.7214444280
	0.7015843987 0.6028864980 0.7226526737
	0.7026544809 0.6041461825 0.7238447070
	0.7037143707 0.6053941250 0.7250366807
	0.7047743201 0.6066418886 0.7262287140
	0.7058342099 0.6078897119 0.7274144888
	0.7068858743 0.6091374755 0.7285851836
	0.7079268098 0.6103718877 0.7297558784
	0.7089678049 0.6116061807 0.7309266925
	0.7100088000 0.6128405929 0.7320916057
	0.7110424042 0.6140750051 0.7332413197
	0.7120658159 0.6152967215 0.7343909740
	0.7130892277 0.6165174842 0.7355408072
	0.7141125798 0.6177383065 0.7366862297
	0.7151290178 0.6189591289 0.7378168106
	0.7161335945 0.6201689839 0.7389473915
	0.7171381712 0.6213768125 0.7400779128
	0.7181428075 0.6225845218 0.7412056923
	0.7191423774 0.6237921715 0.7423154712
	0.7201297879 0.6249904037 0.7434253097
	0.7211171985 0.6261842847 0.7445352077
	0.7221046090 0.6273781061 0.7456446886
	0.7230893970 0.6285719872 0.7467349768
	0.7240619063 0.6297590733 0.7478252053
	0.7250344753 0.6309399009 0.7489154935
	0.7260071039 0.6321207285 0.7500057817
	0.7269790769 0.6333013773 0.7510781288
	0.7279344797 0.6344782710 0.7521474957
	0.7288898826 0.6356462836 0.7532169223
	0.7298454046 0.6368141770 0.7542862296
	0.7308008075 0.6379821897 0.7553424835
	0.7317430973 0.6391494274 0.7563924789
	0.7326831222 0.6403048038 0.7574424148
	0.7336230874 0.6414602995 0.7584924102
	0.7345631123 0.6426156759 0.7595331073
	0.7354928851 0.6437711120 0.7605624795
	0.7364168167 0.6449149251 0.7615919113
	0.7373406291 0.6460554004 0.7626212835
	0.7382645011 0.6471958160 0.7636470795
	0.7391830087 0.6483362913 0.7646576166
	0.7400926948 0.6494706273 0.7656682134
	0.7410023808 0.6505978703 0.7666786909
	0.7419121861 0.6517251134 0.7676892877
	0.7428205013 0.6528524160 0.7686821818
	0.7437157035 0.6539782882 0.7696729898
	0.7446109056 0.6550930738 0.7706639171
	0.7455059886 0.6562079191 0.7716547251
	0.7464011908 0.6573228240 0.7726355195
	0.7472869158 0.6584376097 0.7736086249
	0.7481697798 0.6595439911 0.7745816708
	0.7490527034 0.6606470942 0.7755547166
	0.7499356270 0.6617503166 0.7765241265
	0.7508131862 0.6628534198 0.7774782777
	0.7516831756 0.6639522910 0.7784324884
	0.7525532246 0.6650412083 0.7793866992
	0.7534232140 0.6661300063 0.7803409100
	0.7542930841 0.6672189236 0.7812796831
	0.7551512122 0.6683077216 0.7822145224
	0.7560092807 0.6693845987 0.7831493020
	0.7568672895 0.6704590917 0.7840840816
	0.7577254176 0.6715335846 0.7850121260
	0.7585778236 0.6726080775 0.7859280109
	0.7594259977 0.6736781001 0.7868438959
	0.7602741718 0.6747391224 0.7877597809
	0.7611225247 0.6758000851 0.7886756063
	0.7619696856 0.6768611073 0.7895761728
	0.7628092766 0.6779221892 0.7904745936
	0.7636489272 0.6789721251 0.7913730145
	0.7644885182 0.6800191998 0.7922713757
	0.7653279901 0.6810662746 0.7931637764
	0.7661625743 0.6821134090 0.7940455079
	0.7669938803 0.6831572056 0.7949272990
	0.7678251266 0.6841893792 0.7958090901
	0.7686563730 0.6852216721 0.7966908813
	0.7694870234 0.6862540245 0.7975584865
	0.7703074813 0.6872861981 0.7984229922
	0.7711278796 0.6883111000 0.7992874980
	0.7719483972 0.6893314123 0.8001520038
	0.7727687955 0.6903517246 0.8010128736
	0.7735849023 0.6913719773 0.8018617034
	0.7743961811 0.6923922896 0.8027104735
	0.7752075195 0.6934009790 0.8035593033
	0.7760187984 0.6944093704 0.8044080734
	0.7768300772 0.6954177022 0.8052453995
	0.7776347995 0.6964259744 0.8060749173
	0.7784383893 0.6974307895 0.8069043756
	0.7792420983 0.6984261274 0.8077338934
	0.7800456882 0.6994215250 0.8085634708
	0.7808480263 0.7004168034 0.8093764186
	0.7816452980 0.7014120817 0.8101881146
	0.7824425101 0.7024009228 0.8109998107
	0.7832397819 0.7033842802 0.8118115067
	0.7840369940 0.7043675780 0.8126195073
	0.7848305702 0.7053508759 0.8134146929
	0.7856206894 0.7063342929 0.8142098188
	0.7864106894 0.7073084712 0.8150050044
	0.7872008085 0.7082800269 0.8158001900
	0.7879908085 0.7092515826 0.8165881038
	0.7887749076 0.7102231979 0.8173683882
	0.7895570993 0.7111946940 0.8181486726
	0.7903392911 0.7121539712 0.8189290166
	0.7911216021 0.7131130099 0.8197093010
	0.7919037938 0.7140719891 0.8204782009
	0.7926781774 0.7150310278 0.8212423921
	0.7934526205 0.7159885168 0.8220065832
	0.7942268848 0.7169361115 0.8227707148
	0.7950013280 0.7178837061 0.8235349059
	0.7957745194 0.7188313007 0.8242856860
	0.7965422273 0.7197788954 0.8250346184
	0.7973099947 0.7207238078 0.8257834911
	0.7980777025 0.7216603756 0.8265324831
	0.7988454103 0.7225970030 0.8272811770
	0.7996107936 0.7235335708 0.8280162215
	0.8003711104 0.7244701982 0.8287512064
	0.8011314869 0.7254031897 0.8294863105
	0.8018918037 0.7263281941 0.8302212954
	0.8026521206 0.7272531986 0.8309546113
	0.8034093976 0.7281782031 0.8316739798
