release/datafiles/colormanagement/luts/film_response/agfa_agfacolor_vista_100.spi1d
Version 1
From 0.0 1.0
Length 1024
Components 3
{
	0.0000000000 0.0000000000 0.0000000000
	0.0090248538 0.0088125290 0.0067258808
	0.0172150191 0.0167176109 0.0131098796
	0.0243747793 0.0235208403 0.0187523402
	0.0308876392 0.0297362003 0.0239069704
	0.0369180292 0.0355890803 0.0287567694
	0.0425458290 0.0411948487 0.0333772190
	0.0478529185 0.0466255695 0.0378036089
	0.0528910905 0.0519192591 0.0420932695
	0.0576865897 0.0571291298 0.0462520085
	0.0623513199 0.0622628704 0.0503120609
	0.0669768602 0.0672920421 0.0542953908
	0.0715567619 0.0721824616 0.0582090616
	0.0760855973 0.0769187585 0.0620570593
	0.0805741325 0.0815202296 0.0658472329
	0.0850307494 0.0859836414 0.0695805177
	0.0894547775 0.0903253108 0.0732729286
	0.0938297287 0.0945612267 0.0769176036
	0.0981539637 0.0986936092 0.0805180594
	0.1024200022 0.1027287021 0.0840807334
	0.1066194996 0.1066882983 0.0876046494
	0.1107435003 0.1105668023 0.0910888687
	0.1148013026 0.1143577993 0.0945325121
	0.1187836006 0.1180787012 0.0979359895
	0.1227072999 0.1217278987 0.1012983993
	0.1265697032 0.1253149062 0.1046219021
	0.1303700954 0.1288353056 0.1078997031
	0.1340970993 0.1322914958 0.1111387014
	0.1377590001 0.1356990933 0.1143449992
	0.1413495988 0.1390592009 0.1175180003
	0.1448680013 0.1423660964 0.1206526011
	0.1483224928 0.1456252038 0.1237441003
	0.1516993940 0.1488344073 0.1267928034
	0.1550139934 0.1519985944 0.1298023015
	0.1582762003 0.1551181972 0.1327774972
	0.1614779979 0.1581996977 0.1357243061
	0.1646181941 0.1612505019 0.1386376023
	0.1676993966 0.1642563939 0.1415113956
	0.1707275957 0.1672241986 0.1443507969
	0.1737034023 0.1701561958 0.1471655965
	0.1766317040 0.1730598062 0.1499509066
	0.1795026064 0.1759244055 0.1527041048
	0.1823239028 0.1787561029 0.1554242969
	0.1850987971 0.1815645993 0.1581097990
	0.1878297031 0.1843390018 0.1607618928
	0.1905121952 0.1870823056 0.1633782983
	0.1931522936 0.1898010969 0.1659625024
	0.1957568973 0.1924955994 0.1685173064
	0.1983253062 0.1951646954 0.1710429937
	0.2008654028 0.1978061944 0.1735426039
	0.2033737004 0.2004275024 0.1760165989
	0.2058539987 0.2030244023 0.1784628034
	0.2083114982 0.2055975944 0.1808815002
	0.2107529044 0.2081506997 0.1832714975
	0.2131794989 0.2106831074 0.1856442988
	0.2155988961 0.2131962031 0.1879992038
	0.2180117071 0.2156914026 0.1903316975
	0.2204127014 0.2181655020 0.1926410943
	0.2228053063 0.2206185013 0.1949304938
	0.2251946926 0.2230494022 0.1971997023
	0.2275789976 0.2254669964 0.1994490027
	0.2299547046 0.2278635949 0.2016751021
	0.2323268950 0.2302404940 0.2038796991
	0.2346891016 0.2326005995 0.2060652971
	0.2370416969 0.2349402010 0.2082331926
	0.2393849939 0.2372657061 0.2103780955
	0.2417193949 0.2395751029 0.2125052065
	0.2440440953 0.2418743074 0.2146157026
	0.2463590056 0.2441594005 0.2167119980
	0.2486687005 0.2464269996 0.2187922001
	0.2509658039 0.2486840934 0.2208545059
	0.2532486022 0.2509253025 0.2229007035
	0.2555230856 0.2531493902 0.2249286026
	0.2577824891 0.2553615868 0.2269378006
	0.2600266933 0.2575596869 0.2289337069
	0.2622607946 0.2597441971 0.2309127003
	0.2644844949 0.2619175017 0.2328774929
	0.2667022049 0.2640810013 0.2348311990
	0.2689101100 0.2662318051 0.2367679030
	0.2711063027 0.2683725059 0.2386890054
	0.2732926905 0.2705014944 0.2405951023
	0.2754707932 0.2726207078 0.2424882054
	0.2776342928 0.2747271955 0.2443652004
	0.2797912061 0.2768242061 0.2462334931
	0.2819392085 0.2789101899 0.2480895966
	0.2840760946 0.2809852958 0.2499316037
	0.2862043977 0.2830494046 0.2517591119
	0.2883251011 0.2851034105 0.2535771132
	0.2904368043 0.2871474028 0.2553840876
	0.2925382853 0.2891792059 0.2571800053
	0.2946313024 0.2912011147 0.2589674890
	0.2967143953 0.2932142019 0.2607443035
	0.2987858057 0.2952139080 0.2625100017
	0.3008505106 0.2972015142 0.2642692924
	0.3029071987 0.2991822064 0.2660228014
	0.3049511909 0.3011547029 0.2677705884
	0.3069872856 0.3031156063 0.2695144117
	0.3090176880 0.3050638139 0.2712531090
	0.3110390007 0.3070029020 0.2729856968
	0.3130499125 0.3089343011 0.2747122049
	0.3150539994 0.3108555079 0.2764343023
	0.3170512021 0.3127650023 0.2781510949
	0.3190402091 0.3146660924 0.2798615098
	0.3210211992 0.3165611923 0.2815661132
	0.3229936957 0.3184478879 0.2832651138
	0.3249579072 0.3203234971 0.2849591076
	0.3269129992 0.3221895099 0.2866472900
	0.3288631141 0.3240458071 0.2883332074
	0.3308089077 0.3258920908 0.2900170982
	0.3327476978 0.3277291059 0.2916966081
	0.3346762955 0.3295575976 0.2933689058
	0.3365967870 0.3313786089 0.2950361967
	0.3385129869 0.3331907094 0.2967014909
	0.3404223025 0.3349941075 0.2983629107
	0.3423224092 0.3367873132 0.3000209033
	0.3442116082 0.3385719061 0.3016754985
	0.3460933864 0.3403505981 0.3033275902
	0.3479698002 0.3421216011 0.3049786985
	0.3498382866 0.3438830078 0.3066262007
	0.3516973853 0.3456346095 0.3082687855
	0.3535484076 0.3473792970 0.3099066913
	0.3553937972 0.3491171896 0.3115408123
	0.3572331965 0.3508478105 0.3131729960
	0.3590649962 0.3525711000 0.3148024082
	0.3608897924 0.3542861938 0.3164277971
	0.3627074957 0.3559936881 0.3180496991
	0.3645170927 0.3576950133 0.3196698129
	0.3663190007 0.3593909144 0.3212881088
	0.3681136072 0.3610796034 0.3229044080
	0.3699010015 0.3627603948 0.3245167136
	0.3716816008 0.3644332886 0.3261250854
	0.3734537065 0.3660990894 0.3277314901
	0.3752183020 0.3677594066 0.3293341994
	0.3769755960 0.3694128990 0.3309333026
	0.3787257969 0.3710587025 0.3325302899
	0.3804695010 0.3726957142 0.3341256976
	0.3822059929 0.3743239939 0.3357195854
	0.3839339912 0.3759444058 0.3373118043
	0.3856526017 0.3775574863 0.3389019072
	0.3873623013 0.3791646957 0.3404884040
	0.3890652955 0.3807657957 0.3420729041
	0.3907626867 0.3823603094 0.3436552882
	0.3924534023 0.3839474916 0.3452340066
	0.3941374123 0.3855277002 0.3468089998
	0.3958151042 0.3871026039 0.3483793139
	0.3974870145 0.3886739910 0.3499442935
	0.3991512060 0.3902403116 0.3515053093
	0.4008058012 0.3918004930 0.3530634046
	0.4024530053 0.3933542967 0.3546175063
	0.4040930867 0.3949011862 0.3561685979
	0.4057264924 0.3964413106 0.3577178121
	0.4073539078 0.3979749084 0.3592661023
	0.4089717865 0.3995010853 0.3608109057
	0.4105815887 0.4010227919 0.3623529971
	0.4121825993 0.4025394022 0.3638921082
	0.4137746990 0.4040510952 0.3654282987
	0.4153572917 0.4055579901 0.3669610918
	0.4169301987 0.4070582092 0.3684917986
	0.4184952080 0.4085538983 0.3700191975
	0.4200516045 0.4100449979 0.3715431988
	0.4215987027 0.4115310907 0.3730638027
	0.4231320918 0.4130091071 0.3745814860
	0.4246563911 0.4144822061 0.3760955930
	0.4261722863 0.4159503877 0.3776068985
	0.4276798964 0.4174129963 0.3791159987
	0.4291754067 0.4188691974 0.3806217909
	0.4306622148 0.4203203917 0.3821237981
	0.4321402907 0.4217669070 0.3836225867
	0.4336062968 0.4232077003 0.3851186037
	0.4350613952 0.4246425927 0.3866108060
	0.4365088940 0.4260734916 0.3881003857
	0.4379490912 0.4275006056 0.3895873129
	0.4393770993 0.4289224148 0.3910715878
	0.4407972097 0.4303407967 0.3925527930
	0.4422096014 0.4317556918 0.3940311074
	0.4436098039 0.4331642091 0.3955051005
	0.4449998140 0.4345675111 0.3969767988
	0.4463821948 0.4359666109 0.3984459937
	0.4477544129 0.4373601079 0.3999111950
	0.4491179883 0.4387483895 0.4013735950
	0.4504755139 0.4401332140 0.4028339982
	0.4518243968 0.4415132105 0.4042919874
	0.4531635940 0.4428895116 0.4057449996
	0.4544965029 0.4442631900 0.4071955085
	0.4558199048 0.4456324875 0.4086431861
	0.4571351111 0.4469971061 0.4100872874
	0.4584454000 0.4483583868 0.4115292132
	0.4597485065 0.4497137070 0.4129675031
	0.4610452950 0.4510636032 0.4144037068
	0.4623377919 0.4524100125 0.4158385098
	0.4636217058 0.4537501931 0.4172705114
	0.4649001062 0.4550873041 0.4187003970
	0.4661735892 0.4564214945 0.4201287925
	0.4674373865 0.4577501118 0.4215534031
	0.4686970115 0.4590756893 0.4229756892
	0.4699491858 0.4603962004 0.4243943989
	0.4711951911 0.4617125988 0.4258098900
	0.4724380970 0.4630267918 0.4272238910
	0.4736748040 0.4643347859 0.4286344051
	0.4749085009 0.4656395018 0.4300416112
	0.4761387110 0.4669404924 0.4314455986
	0.4773631096 0.4682346880 0.4328455925
	0.4785852134 0.4695264101 0.4342440069
	0.4798015058 0.4708124995 0.4356383979
	0.4810144007 0.4720954001 0.4370301068
	0.4822235107 0.4733743072 0.4384193122
	0.4834271073 0.4746474028 0.4398039877
	0.4846287966 0.4759184122 0.4411869943
	0.4858255088 0.4771836102 0.4425632954
	0.4870207012 0.4784463942 0.4439373910
	0.4882127941 0.4797044098 0.4453079998
	0.4894016981 0.4809592068 0.4466761053
	0.4905884862 0.4822115898 0.4480428994
	0.4917714894 0.4834589958 0.4494043887
	0.4929533005 0.4847050011 0.4507643878
	0.4941304028 0.4859468937 0.4521192908
	0.4953059852 0.4871870875 0.4534727931
	0.4964784980 0.4884232879 0.4548236132
	0.4976483881 0.4896576107 0.4561721087
	0.4988156855 0.4908897877 0.4575186968
	0.4999799132 0.4921190143 0.4588620961
	0.5011426806 0.4933466911 0.4602043927
	0.5023010969 0.4945699871 0.4615409970
	0.5034586191 0.4957925081 0.4628765881
	0.5046117902 0.4970094860 0.4642063081
	0.5057641864 0.4982253909 0.4655351043
	0.5069122910 0.4994361997 0.4668604136
	0.5080590844 0.5006449223 0.4681833088
	0.5092027783 0.5018489957 0.4695020914
	0.5103443861 0.5030499101 0.4708178043
	0.5114830136 0.5042467117 0.4721299112
	0.5126193762 0.5054402947 0.4734382927
	0.5137537122 0.5066308975 0.4747439027
	0.5148848891 0.5078179240 0.4760439992
	0.5160142183 0.5090023875 0.4773412049
	0.5171405077 0.5101822019 0.4786339104
	0.5182654262 0.5113596916 0.4799247086
	0.5193868279 0.5125321746 0.4812121093
	0.5205066800 0.5137025714 0.4824982882
	0.5216233730 0.5148683786 0.4837796092
	0.5227389932 0.5160326958 0.4850594997
	0.5238509178 0.5171926022 0.4863342941
	0.5249615908 0.5183511972 0.4876079857
	0.5260689855 0.5195046067 0.4888750911
	0.5271754265 0.5206564069 0.4901408851
	0.5282781124 0.5218034983 0.4914003909
	0.5293796062 0.5229489207 0.4926582873
	0.5304781199 0.5240889788 0.4939117134
	0.5315753818 0.5252268910 0.4951637089
	0.5326694250 0.5263600945 0.4964101911
	0.5337619185 0.5274910927 0.4976545870
	0.5348516703 0.5286170840 0.4988938868
	0.5359399915 0.5297397971 0.5001304746
	0.5370256901 0.5308594704 0.5013629794
	0.5381091237 0.5319762826 0.5025923252
	0.5391908288 0.5330902934 0.5038173795
	0.5402699709 0.5342003703 0.5050377846
	0.5413478017 0.5353085995 0.5062550902
	0.5424222946 0.5364122987 0.5074666739
	0.5434960723 0.5375146866 0.5086768866
	0.5445663929 0.5386111736 0.5098820925
	0.5456367135 0.5397076011 0.5110868812
	0.5467023253 0.5407969952 0.5122858882
	0.5477678180 0.5418863893 0.5134847760
	0.5488299727 0.5429692864 0.5146782994
	0.5498914719 0.5440509915 0.5158712268
	0.5509498715 0.5451288819 0.5170599818
	0.5520067215 0.5462048054 0.5182471871
	0.5530617237 0.5472781062 0.5194309950
	0.5541145205 0.5483480096 0.5206112266
	0.5551661849 0.5494166017 0.5217891932
	0.5562142730 0.5504804254 0.5229610801
	0.5572623014 0.5515441895 0.5241327286
	0.5583065152 0.5526019931 0.5252950191
	0.5593506098 0.5536596179 0.5264571905
	0.5603913069 0.5547125936 0.5276136994
	0.5614306927 0.5557637811 0.5287684202
	0.5624685287 0.5568122864 0.5299198031
	0.5635039210 0.5578569174 0.5310674906
	0.5645387173 0.5589007735 0.5322136879
	0.5655695796 0.5599387884 0.5333532095
	0.5666003823 0.5609768033 0.5344926119
	0.5676280856 0.5620093942 0.5356252789
	0.5686550140 0.5630406141 0.5367568731
	0.5696796775 0.5640686154 0.5378847122
	0.5707020164 0.5650928020 0.5390092134
	0.5717239976 0.5661163926 0.5401322842
	0.5727424026 0.5671336055 0.5412485003
	0.5737608075 0.5681508183 0.5423645973
	0.5747758746 0.5691627264 0.5434734821
	0.5757898092 0.5701727271 0.5445804000
	0.5768023729 0.5711808205 0.5456839204
	0.5778123736 0.5721849203 0.5467820168
	0.5788223743 0.5731890202 0.5478801131
	0.5798283219 0.5741881132 0.5489701033
	0.5808337927 0.5751867294 0.5500597954
	0.5818374753 0.5761824846 0.5511454940
	0.5828391910 0.5771750808 0.5522276759
	0.5838407278 0.5781676173 0.5533092022
	0.5848379731 0.5791544914 0.5543829203
	0.5858352184 0.5801414251 0.5554565787
	0.5868303776 0.5811259151 0.5565248132
	0.5878236890 0.5821083188 0.5575889945
	0.5888170004 0.5830906034 0.5586525202
	0.5898060203 0.5840693712 0.5597082973
	0.5907949805 0.5850481987 0.5607640147
	0.5917819738 0.5860245824 0.5618162751
	0.5927671790 0.5869988799 0.5628659725
	0.5937523842 0.5879732966 0.5639154911
	0.5947332978 0.5889440179 0.5649582148
	0.5957140923 0.5899146795 0.5660009980
	0.5966933966 0.5908836126 0.5670400858
	0.5976703763 0.5918499231 0.5680750012
	0.5986474752 0.5928161144 0.5691099763
	0.5996209979 0.5937793851 0.5701385736
	0.6005936861 0.5947421193 0.5711663961
	0.6015655994 0.5957037807 0.5721924901
	0.6025345922 0.5966621041 0.5732141137
	0.6035035849 0.5976204276 0.5742357969
	0.6044700146 0.5985764861 0.5752530098
	0.6054347157 0.5995312929 0.5762677789
	0.6063994169 0.6004859805 0.5772826076
	0.6073606014 0.6014366150 0.5782899261
	0.6083216071 0.6023870111 0.5792971849
	0.6092813015 0.6033363938 0.5803018212
	0.6102380753 0.6042832136 0.5813007951
	0.6111947894 0.6052300930 0.5822998285
	0.6121494174 0.6061744094 0.5832931995
	0.6131024957 0.6071168780 0.5842832923
	0.6140555143 0.6080595255 0.5852733850
	0.6150048971 0.6089988947 0.5862563252
	0.6159536839 0.6099380255 0.5872384906
	0.6169021130 0.6108763814 0.5882192254
	0.6178473234 0.6118112206 0.5891932249
	0.6187924743 0.6127460003 0.5901671052
	0.6197360754 0.6136794090 0.5911372900
	0.6206771135 0.6146106720 0.5921025276
	0.6216180921 0.6155419946 0.5930677056
	0.6225569844 0.6164706945 0.5940269232
	0.6234943867 0.6173977852 0.5949828029
	0.6244317889 0.6183248162 0.5959386826
	0.6253659129 0.6192492247 0.5968865156
	0.6262990832 0.6201726794 0.5978326797
	0.6272323728 0.6210963130 0.5987787843
	0.6281622052 0.6220158935 0.5997148156
	0.6290917993 0.6229352951 0.6006507277
	0.6300209761 0.6238542795 0.6015853286
	0.6309465766 0.6247702837 0.6025123000
	0.6318721175 0.6256862879 0.6034393907
	0.6327968240 0.6266012788 0.6043639183
	0.6337187886 0.6275131106 0.6052818894
	0.6346408129 0.6284248829 0.6061998010
	0.6355614066 0.6293355823 0.6071143150
	0.6364793181 0.6302440166 0.6080229282
	0.6373972297 0.6311523914 0.6089316010
	0.6383137107 0.6320592165 0.6098359823
	0.6392281055 0.6329634190 0.6107351780
	0.6401425004 0.6338676810 0.6116343737
	0.6410549879 0.6347705126 0.6125288010
	0.6419653296 0.6356713772 0.6134184003
	0.6428756118 0.6365723014 0.6143079996
	0.6437842846 0.6374711990 0.6151924133
	0.6446911097 0.6383680105 0.6160721779
	0.6455978751 0.6392648816 0.6169518828
	0.6465027928 0.6401593089 0.6178272963
	0.6474056244 0.6410511136 0.6186987758
	0.6483083963 0.6419429183 0.6195703149
	0.6492096186 0.6428322792 0.6204382777
	0.6501089931 0.6437187791 0.6213029027
	0.6510083079 0.6446053982 0.6221675277
	0.6519060135 0.6454898715 0.6230288744
	0.6528013945 0.6463716030 0.6238865852
	0.6536967158 0.6472532749 0.6247442961
	0.6545909047 0.6481332779 0.6255992055
	0.6554828286 0.6490098834 0.6264498830
	0.6563746929 0.6498864293 0.6273005009
	0.6572657228 0.6507614851 0.6281492114
	0.6581537127 0.6516315937 0.6289927959
	0.6590415835 0.6525018215 0.6298364997
	0.6599292159 0.6533712149 0.6306790113
	0.6608136892 0.6542350054 0.6315155029
	0.6616982818 0.6550989151 0.6323519945
	0.6625828743 0.6559628248 0.6331884265
	0.6634635925 0.6568207741 0.6340178251
	0.6643443108 0.6576786041 0.6348472238
	0.6652249098 0.6585363150 0.6356766224
	0.6661028862 0.6593894958 0.6365011930
	0.6669800878 0.6602413058 0.6373249888
	0.6678574085 0.6610931754 0.6381487846
	0.6687322855 0.6619417071 0.6389691234
	0.6696056724 0.6627879143 0.6397873759
	0.6704791188 0.6636340022 0.6406056881
	0.6713513136 0.6644781828 0.6414217949
	0.6722213030 0.6653187871 0.6422346234
	0.6730912924 0.6661595106 0.6430473924
	0.6739609241 0.6669995189 0.6438593864
	0.6748270988 0.6678348184 0.6446667910
	0.6756932139 0.6686701179 0.6454741955
	0.6765593886 0.6695052981 0.6462816000
	0.6774228215 0.6703364253 0.6470842957
	0.6782855988 0.6711664796 0.6478862166
	0.6791484952 0.6719965935 0.6486880779
	0.6800094247 0.6728242040 0.6494870782
	0.6808683872 0.6736493111 0.6502835751
	0.6817274094 0.6744744182 0.6510801911
	0.6825857759 0.6752986908 0.6518756151
	0.6834415793 0.6761190295 0.6526666880
	0.6842973232 0.6769393086 0.6534578204
	0.6851530075 0.6777595878 0.6542488933
	0.6860055923 0.6785761118 0.6550366282
	0.6868575811 0.6793918014 0.6558237076
	0.6877095103 0.6802073717 0.6566109061
	0.6885594130 0.6810206175 0.6573961973
	0.6894065738 0.6818302274 0.6581792831
	0.6902536750 0.6826397777 0.6589624286
	0.6911007762 0.6834495068 0.6597452760
	0.6919429898 0.6842535734 0.6605246067
	0.6927852035 0.6850578189 0.6613038182
	0.6936272979 0.6858618855 0.6620830894
	0.6944670081 0.6866629720 0.6628600955
	0.6953045130 0.6874614954 0.6636353731
	0.6961420178 0.6882600188 0.6644108295
	0.6969792247 0.6890581846 0.6651858091
	0.6978119016 0.6898517013 0.6659575105
	0.6986445785 0.6906450987 0.6667290926
	0.6994773149 0.6914386153 0.6675007939
	0.7003065944 0.6922283173 0.6682701707
	0.7011330724 0.6930149794 0.6690381765
	0.7019597292 0.6938015819 0.6698061824
	0.7027862072 0.6945881844 0.6705740094
	0.7036067843 0.6953691244 0.6713399291
	0.7044274211 0.6961500049 0.6721059084
	0.7052479982 0.6969308257 0.6728718281
	0.7060660124 0.6977090240 0.6736367941
	0.7068808079 0.6984837055 0.6744008064
	0.7076956034 0.6992583871 0.6751648188
	0.7085103989 0.7000331879 0.6759287715
	0.7093204856 0.7008035183 0.6766912937
	0.7101296782 0.7015730739 0.6774535775
	0.7109388709 0.7023426890 0.6782159209
	0.7117468715 0.7031109929 0.6789777875
	0.7125505805 0.7038751245 0.6797384024
	0.7133544087 0.7046391964 0.6804990768
	0.7141581178 0.7054032087 0.6812598109
	0.7149589062 0.7061647773 0.6820197105
	0.7157574296 0.7069243193 0.6827788949
	0.7165558934 0.7076838017 0.6835381985
	0.7173544168 0.7084434032 0.6842973828
	0.7181484103 0.7091985941 0.6850554943
	0.7189418077 0.7099533081 0.6858134866
	0.7197352052 0.7107080221 0.6865714788
	0.7205278277 0.7114617229 0.6873291731
	0.7213162780 0.7122108936 0.6880860925
	0.7221047878 0.7129601240 0.6888428926
	0.7228932977 0.7137092948 0.6895998120
	0.7236797810 0.7144563198 0.6903561950
	0.7244635820 0.7152001262 0.6911119819
	0.7252473235 0.7159438729 0.6918678880
	0.7260311246 0.7166876197 0.6926236749
	0.7268118858 0.7174283862 0.6933789849
	0.7275910974 0.7181674242 0.6941339970
	0.7283703089 0.7189065218 0.6948890090
	0.7291494012 0.7196455002 0.6956440210
	0.7299249768 0.7203806043 0.6963983774
	0.7306997180 0.7211148739 0.6971526146
	0.7314745188 0.7218492031 0.6979069114
	0.7322493196 0.7225834727 0.6986610889
	0.7330183983 0.7233123183 0.6994134188
	0.7337874770 0.7240409851 0.7001656890
	0.7345564961 0.7247697115 0.7009178996
	0.7353249788 0.7254979014 0.7016698718
	0.7360888124 0.7262215018 0.7024201751
	0.7368525863 0.7269449830 0.7031704187
	0.7376164198 0.7276685834 0.7039207220
	0.7383791208 0.7283911705 0.7046704888
	0.7391375899 0.7291100025 0.7054188251
	0.7398961186 0.7298288941 0.7061672211
	0.7406545877 0.7305477262 0.7069156170
	0.7414119244 0.7312654257 0.7076634169
	0.7421655059 0.7319800258 0.7084097862
	0.7429192066 0.7326945066 0.7091562748
	0.7436727881 0.7334091067 0.7099028230
	0.7444245815 0.7341225147 0.7106482983
	0.7451719046 0.7348331809 0.7113916874
	0.7459192276 0.7355439067 0.7121351957
	0.7466664910 0.7362545729 0.7128785849
	0.7474122047 0.7369639277 0.7136210203
	0.7481539249 0.7376697063 0.7143614292
	0.7488955855 0.7383756042 0.7151017189
	0.7496371865 0.7390813828 0.7158420086
	0.7503774762 0.7397862077 0.7165814042
	0.7511134148 0.7404878736 0.7173187733
	0.7518494129 0.7411895990 0.7180560827
	0.7525852919 0.7418913245 0.7187933922
	0.7533203959 0.7425922751 0.7195299864
	0.7540513277 0.7432901263 0.7202641964
	0.7547823191 0.7439879179 0.7209984064
	0.7555131912 0.7446855903 0.7217326164
	0.7562438250 0.7453832030 0.7224665284
	0.7569695711 0.7460777760 0.7231976986
	0.7576953769 0.7467724085 0.7239289880
	0.7584211826 0.7474669814 0.7246602178
	0.7591469884 0.7481616139 0.7253913879
	0.7598674297 0.7488520145 0.7261208892
	0.7605875134 0.7495421171 0.7268503904
	0.7613074780 0.7502321005 0.7275798917
	0.7620275021 0.7509222031 0.7283093929
	0.7627431750 0.7516098022 0.7290375829
	0.7634574771 0.7522965074 0.7297652960
	0.7641718984 0.7529832125 0.7304931283
	0.7648862004 0.7536699772 0.7312207818
	0.7655977011 0.7543541789 0.7319474816
	0.7663068771 0.7550362945 0.7326734066
	0.7670161724 0.7557184100 0.7333992720
	0.7677254081 0.7564005256 0.7341251969
	0.7684330940 0.7570810914 0.7348505259
	0.7691373229 0.7577580214 0.7355744839
	0.7698414922 0.7584350109 0.7362985015
	0.7705457211 0.7591118813 0.7370225787
	0.7712497711 0.7597886920 0.7377464771
	0.7719480991 0.7604609728 0.7384685278
	0.7726464272 0.7611331940 0.7391905189
	0.7733446956 0.7618054748 0.7399126291
	0.7740430236 0.7624776959 0.7406346202
	0.7747374177 0.7631471157 0.7413551211
	0.7754303217 0.7638152242 0.7420752048
	0.7761231065 0.7644832730 0.7427952290
	0.7768160105 0.7651513815 0.7435151935
	0.7775070071 0.7658178210 0.7442349195
	0.7781947851 0.7664811015 0.7449539900
	0.7788826227 0.7671443820 0.7456731200
	0.7795704007 0.7678076029 0.7463921905
	0.7802581787 0.7684708834 0.7471113205
	0.7809401155 0.7691282034 0.7478293777
	0.7816219926 0.7697854042 0.7485474944
	0.7823038101 0.7704424858 0.7492656112
	0.7829856873 0.7710996866 0.7499837279
	0.7836645842 0.7717540264 0.7507011294
	0.7843410969 0.7724062204 0.7514179945
	0.7850177288 0.7730582952 0.7521349788
	0.7856941819 0.7737104893 0.7528519034
	0.7863702774 0.7743622065 0.7535687089
	0.7870417833 0.7750092745 0.7542843819
	0.7877132893 0.7756564021 0.7550001144
	0.7883847952 0.7763035297 0.7557157874
	0.7890563011 0.7769505978 0.7564315200
	0.7897251844 0.7775946259 0.7571462989
	0.7903923988 0.7782363892 0.7578606009
	0.7910594940 0.7788782716 0.7585750222
	0.7917265892 0.7795200944 0.7592893243
	0.7923933864 0.7801616192 0.7600035071
	0.7930548787 0.7807983756 0.7607163787
	0.7937164903 0.7814353108 0.7614293098
	0.7943781018 0.7820721269 0.7621421814
	0.7950395942 0.7827090025 0.7628551126
	0.7956982851 0.7833436728 0.7635670900
	0.7963539958 0.7839763761 0.7642784715
	0.7970097065 0.7846090794 0.7649897933
	0.7976654172 0.7852417827 0.7657011151
	0.7983211279 0.7858744860 0.7664124966
	0.7989718914 0.7865037918 0.7671223283
	0.7996219993 0.7871326208 0.7678319812
	0.8002722263 0.7877613902 0.7685415745
	0.8009223938 0.7883902192 0.7692512870
	0.8015714288 0.7890179753 0.7699605227
	0.8022168875 0.7896423936 0.7706683874
	0.8028622866 0.7902668118 0.7713763118
	0.8035078049 0.7908911705 0.7720841765
	0.8041532040 0.7915155888 0.7727922201
	0.8047962189 0.7921379209 0.7734990120
	0.8054372072 0.7927585840 0.7742050290
	0.8060783148 0.7933791876 0.7749111056
	0.8067193031 0.7939997911 0.7756171227
	0.8073604107 0.7946205139 0.7763231993
	0.8079984188 0.7952384949 0.7770274878
	0.8086358905 0.7958559990 0.7777315974
	0.8092733026 0.7964735031 0.7784357071
	0.8099107146 0.7970910072 0.7791396976
	0.8105478287 0.7977082133 0.7798436284
	0.8111795783 0.7983207703 0.7805455923
	0.8118113279 0.7989333272 0.7812476158
	0.8124430776 0.7995458841 0.7819495797
	0.8130748868 0.8001585007 0.7826516032
	0.8137050271 0.8007699251 0.7833529115
