release/datafiles/colormanagement/luts/film_response/agfa_agfacolor_futura_ii_200.spi1d
Version 1
From 0.0 1.0
Length 1024
Components 3
{
	0.0000000000 0.0000000000 0.0000000000
	0.0175220203 0.0159201808 0.0112829898
	0.0302315596 0.0280031394 0.0208480097
	0.0407330506 0.0385310091 0.0291486792
	0.0501033999 0.0480892099 0.0366973914
	0.0587283783 0.0569948703 0.0437196717
	0.0668726563 0.0654532537 0.0503452383
	0.0746254995 0.0734657720 0.0566753708
	0.0821137205 0.0811266303 0.0627593473
	0.0893652514 0.0885340869 0.0686344281
	0.0964666009 0.0956818983 0.0743253529
	0.1034414992 0.1026156992 0.0798535123
	0.1102956012 0.1093306020 0.0852200314
	0.1170141026 0.1157635972 0.0904216021
	0.1235916987 0.1219805032 0.0954708308
	0.1299463063 0.1280032992 0.1003969014
	0.1360912025 0.1338655055 0.1052050963
	0.1420111060 0.1395675987 0.1098947003
	0.1477487981 0.1450989991 0.1144763976
	0.1533298045 0.1504811943 0.1189825982
	0.1587764025 0.1557295024 0.1233960986
	0.1640834063 0.1608278006 0.1277330071
	0.1692633927 0.1657993942 0.1319945008
	0.1743295044 0.1706517041 0.1361728013
	0.1792751998 0.1754034013 0.1402668059
	0.1841226965 0.1800453961 0.1442912966
	0.1888726950 0.1845912039 0.1482613981
	0.1935237944 0.1890432984 0.1521809995
	0.1980873048 0.1934227943 0.1560502052
	0.2025565058 0.1977252066 0.1598621011
	0.2069393992 0.2019387037 0.1636209041
	0.2112462074 0.2060763985 0.1673309952
	0.2154687047 0.2101363987 0.1709980965
	0.2196132988 0.2141312063 0.1746173948
	0.2236949950 0.2180649042 0.1781916022
	0.2277055979 0.2219256014 0.1817201972
	0.2316590995 0.2257197052 0.1852061003
	0.2355517000 0.2294515073 0.1886554062
	0.2393918931 0.2331303954 0.1920740008
	0.2431806028 0.2367579043 0.1954559982
	0.2469168007 0.2403406054 0.1987928003
	0.2505995929 0.2438685000 0.2020907998
	0.2542274892 0.2473488003 0.2053564936
	0.2578184903 0.2507809997 0.2085936964
	0.2613571882 0.2541683912 0.2117979974
	0.2648550868 0.2575106919 0.2149727941
	0.2683109939 0.2608149052 0.2181185931
	0.2717253864 0.2640857995 0.2212391943
	0.2750979960 0.2673158050 0.2243300974
	0.2784220874 0.2705042958 0.2273901999
	0.2817071974 0.2736572921 0.2304214984
	0.2849532962 0.2767716050 0.2334305048
	0.2881663144 0.2798540890 0.2364110053
	0.2913444042 0.2829042077 0.2393691987
	0.2944832146 0.2859222889 0.2423065007
	0.2975896001 0.2889142036 0.2452152967
	0.3006660938 0.2918727994 0.2480936944
	0.3037149906 0.2947992980 0.2509461045
	0.3067280948 0.2976973951 0.2537800968
	0.3097102046 0.3005683124 0.2565920949
	0.3126625121 0.3034102917 0.2593840063
	0.3155854940 0.3062278926 0.2621518970
	0.3184789121 0.3090203106 0.2648904026
	0.3213432133 0.3117856979 0.2676062882
	0.3241868913 0.3145250082 0.2703030109
	0.3270075023 0.3172332048 0.2729845047
	0.3298006058 0.3199186921 0.2756457031
	0.3325676918 0.3225826025 0.2782875001
	0.3353078067 0.3252244890 0.2809073031
	0.3380177915 0.3278487027 0.2835057080
	0.3406989872 0.3304544091 0.2860867977
	0.3433553874 0.3330389857 0.2886512876
	0.3459919989 0.3356043994 0.2911956012
	0.3486098945 0.3381497860 0.2937203944
	0.3512117863 0.3406724036 0.2962253094
	0.3537960052 0.3431720138 0.2987118959
	0.3563596904 0.3456499875 0.3011856973
	0.3589065075 0.3481073976 0.3036412895
	0.3614340127 0.3505432010 0.3060742915
	0.3639450073 0.3529601097 0.3084880114
	0.3664397895 0.3553602993 0.3108876050
	0.3689151108 0.3577440977 0.3132722974
	0.3713718057 0.3601129949 0.3156406879
	0.3738071918 0.3624683917 0.3179928064
	0.3762201071 0.3648113012 0.3203321099
	0.3786138892 0.3671433032 0.3226552010
	0.3809883893 0.3694634140 0.3249565065
	0.3833450079 0.3717713058 0.3272385001
	0.3856788874 0.3740625978 0.3295018971
	0.3879950047 0.3763391078 0.3317486942
	0.3902960122 0.3786000907 0.3339833021
	0.3925783932 0.3808402121 0.3362008929
	0.3948448002 0.3830653131 0.3384015858
	0.3970947862 0.3852767050 0.3405882120
	0.3993253112 0.3874705136 0.3427591920
	0.4015383124 0.3896510005 0.3449178934
	0.4037337899 0.3918201923 0.3470610082
	0.4059110880 0.3939774036 0.3491885066
	0.4080676138 0.3961207867 0.3513003886
	0.4102075100 0.3982515931 0.3533968031
	0.4123331010 0.4003694952 0.3554781973
	0.4144445062 0.4024741054 0.3575446904
	0.4165400863 0.4045642912 0.3595972955
	0.4186260104 0.4066396058 0.3616338074
	0.4207012057 0.4087007046 0.3636533022
	0.4227670133 0.4107474089 0.3656555116
	0.4248233140 0.4127795100 0.3676426113
	0.4268693924 0.4147967100 0.3696162105
	0.4289070964 0.4167988002 0.3715760112
	0.4309335947 0.4187847972 0.3735184968
	0.4329519868 0.4207592905 0.3754445016
	0.4349603057 0.4227212965 0.3773564994
	0.4369597137 0.4246717989 0.3792560101
	0.4389463067 0.4266099930 0.3811441064
	0.4409210086 0.4285362065 0.3830193877
	0.4428839087 0.4304524064 0.3848828077
	0.4448337853 0.4323602021 0.3867362142
	0.4467687905 0.4342601001 0.3885799944
	0.4486894906 0.4361515045 0.3904125988
	0.4505963922 0.4380353987 0.3922336102
	0.4524900913 0.4399108887 0.3940415084
	0.4543710947 0.4417791069 0.3958359063
	0.4562399089 0.4436390996 0.3976179957
	0.4580954909 0.4454919100 0.3993878961
	0.4599367976 0.4473369122 0.4011451006
	0.4617645144 0.4491747022 0.4028908908
	0.4635792077 0.4510050118 0.4046252966
	0.4653801918 0.4528281987 0.4063490927
	0.4671661854 0.4546442926 0.4080632031
	0.4689376950 0.4564531147 0.4097684920
	0.4706963003 0.4582554102 0.4114660919
	0.4724414945 0.4600501955 0.4131549895
	0.4741756022 0.4618388116 0.4148359001
	0.4758949876 0.4636174142 0.4165103137
	0.4776011109 0.4653869867 0.4181793034
	0.4792934954 0.4671463966 0.4198431969
	0.4809749126 0.4688977003 0.4215008914
	0.4826433957 0.4706400037 0.4231525958
	0.4842990041 0.4723741114 0.4247975051
	0.4859426916 0.4740991890 0.4264369905
	0.4875749052 0.4758136868 0.4280720055
	0.4891946912 0.4775179923 0.4297009110
	0.4908007979 0.4792113900 0.4313251078
	0.4923956096 0.4808942974 0.4329412878
	0.4939799905 0.4825680852 0.4345523119
	0.4955542982 0.4842331111 0.4361563027
	0.4971171916 0.4858896136 0.4377534986
	0.4986675084 0.4875380993 0.4393444955
	0.5002059937 0.4891777039 0.4409264028
	0.5017321706 0.4908088148 0.4425007105
	0.5032498837 0.4924311936 0.4440687895
	0.5047596097 0.4940446913 0.4456312060
	0.5062615871 0.4956491888 0.4471881092
	0.5077568889 0.4972448051 0.4487377107
	0.5092430115 0.4988301992 0.4502801001
	0.5107212067 0.5004084110 0.4518156946
	0.5121917129 0.5019794703 0.4533447921
	0.5136547089 0.5035430789 0.4548679888
	0.5151066184 0.5050961971 0.4563845992
	0.5165513754 0.5066397786 0.4578959048
	0.5179892778 0.5081757903 0.4594022036
	0.5194200277 0.5097053051 0.4609036148
	0.5208390951 0.5112237930 0.4623981118
	0.5222476125 0.5127363205 0.4638865888
	0.5236480236 0.5142416954 0.4653699994
	0.5250409842 0.5157390833 0.4668483138
	0.5264229774 0.5172262788 0.4683186114
	0.5277984142 0.5187063217 0.4697833955
	0.5291666985 0.5201799870 0.4712427855
	0.5305246711 0.5216469765 0.4726960957
	0.5318741798 0.5231056809 0.4741415083
	0.5332177877 0.5245596170 0.4755817056
	0.5345557928 0.5260090232 0.4770165980
	0.5358840227 0.5274482965 0.4784426987
	0.5372061729 0.5288820863 0.4798631072
	0.5385223031 0.5303105712 0.4812782109
	0.5398281813 0.5317319036 0.4826853871
	0.5411273837 0.5331465006 0.4840855002
	0.5424209237 0.5345557928 0.4854811132
	0.5437052250 0.5359572768 0.4868715107
	0.5449833870 0.5373530984 0.4882541895
	0.5462568998 0.5387449265 0.4896318913
	0.5475227237 0.5401304960 0.4910022914
	0.5487810969 0.5415118933 0.4923650026
	0.5500348210 0.5428903103 0.4937227964
	0.5512812138 0.5442638993 0.4950731993
	0.5525211096 0.5456309915 0.4964149892
	0.5537570119 0.5469937921 0.4977517128
	0.5549864769 0.5483481884 0.4990803897
	0.5562115908 0.5496984124 0.5004032850
	0.5574334264 0.5510452986 0.5017220974
	0.5586463809 0.5523828268 0.5030320883
	0.5598551035 0.5537164807 0.5043380260
	0.5610579252 0.5550454259 0.5056391954
	0.5622550249 0.5563679934 0.5069329143
	0.5634492040 0.5576872230 0.5082232952
	0.5646370053 0.5589987040 0.5095074773
	0.5658180714 0.5603044033 0.5107867122
	0.5669947863 0.5616064072 0.5120629072
	0.5681625009 0.5628957748 0.5133314133
	0.5693277121 0.5641813874 0.5145972967
	0.5704880953 0.5654600263 0.5158582926
	0.5716452003 0.5667315722 0.5171144009
	0.5728005171 0.5679996014 0.5183681846
	0.5739479065 0.5692597032 0.5196151137
	0.5750917792 0.5705173016 0.5208598971
	0.5762277842 0.5717689991 0.5221000910
	0.5773584247 0.5730172992 0.5233365297
	0.5784850717 0.5742632151 0.5245702863
	0.5796056986 0.5755022764 0.5257986784
	0.5807244778 0.5767388940 0.5270252228
	0.5818371773 0.5779654980 0.5282452703
	0.5829467773 0.5791882277 0.5294620991
	0.5840514898 0.5804045796 0.5306738019
	0.5851526856 0.5816155076 0.5318812132
	0.5862517953 0.5828229189 0.5330861211
	0.5873453021 0.5840238929 0.5342842937
	0.5884373188 0.5852233768 0.5354809761
	0.5895215273 0.5864148736 0.5366703868
	0.5906035900 0.5876041055 0.5378572941
	0.5916786194 0.5887857080 0.5390371084
	0.5927507281 0.5899624825 0.5402138233
	0.5938187242 0.5911325812 0.5413867235
	0.5948839784 0.5922974944 0.5425544977
	0.5959472060 0.5934585929 0.5437186956
	0.5970050097 0.5946133137 0.5448786020
	0.5980607271 0.5957654715 0.5460368991
	0.5991076231 0.5969123244 0.5471885204
	0.6001530290 0.5980582237 0.5483391285
	0.6011908054 0.5991981030 0.5494847894
	0.6022279263 0.6003370881 0.5506296754
	0.6032595038 0.6014683843 0.5517669916
	0.6042903066 0.6025981903 0.5529031754
	0.6053165793 0.6037194133 0.5540338755
	0.6063408852 0.6048387885 0.5551629066
	0.6073579788 0.6059514880 0.5562863946
	0.6083726883 0.6070622802 0.5574082732
	0.6093810201 0.6081678867 0.5585262775
	0.6103867292 0.6092718244 0.5596421957
	0.6113867760 0.6103717089 0.5607541203
	0.6123839021 0.6114696264 0.5618643761
	0.6133750081 0.6125634909 0.5629718900
	0.6143637896 0.6136540174 0.5640769005
	0.6153482199 0.6147373915 0.5651777983
	0.6163303256 0.6158183813 0.5662764907
	0.6173073053 0.6168941259 0.5673714280
	0.6182823181 0.6179677844 0.5684645772
	0.6192523837 0.6190360785 0.5695542097
	0.6202210188 0.6201022863 0.5706425905
	0.6211845875 0.6211615205 0.5717275143
	0.6221469045 0.6222187877 0.5728116035
	0.6231033206 0.6232674718 0.5738925934
	0.6240592003 0.6243153811 0.5749726295
	0.6250107288 0.6253551245 0.5760461092
	0.6259621978 0.6263948083 0.5771194100
	0.6269065142 0.6274272203 0.5781859756
	0.6278507113 0.6284595728 0.5792527199
	0.6287866235 0.6294867992 0.5803136826
	0.6297214031 0.6305134296 0.5813742280
	0.6306506991 0.6315355897 0.5824303031
	0.6315780878 0.6325563788 0.5834851861
	0.6325017214 0.6335713863 0.5845344067
	0.6334224939 0.6345824003 0.5855802298
	0.6343404055 0.6355903149 0.5866221189
	0.6352542043 0.6365941763 0.5876594186
	0.6361662745 0.6375966072 0.5886945724
	0.6370725036 0.6385940909 0.5897240043
	0.6379784942 0.6395912170 0.5907528996
	0.6388779283 0.6405804753 0.5917738080
	0.6397773027 0.6415697932 0.5927945971
	0.6406729221 0.6425516009 0.5938079953
	0.6415677071 0.6435316801 0.5948200226
	0.6424599886 0.6445075870 0.5958276987
	0.6433506012 0.6454802752 0.5968323946
	0.6442388892 0.6464512944 0.5978347063
	0.6451222897 0.6474183798 0.5988320112
	0.6460055113 0.6483852863 0.5998288989
	0.6468821764 0.6493440866 0.6008189917
	0.6477587819 0.6503030062 0.6018090248
	0.6486309767 0.6512538791 0.6027926207
	0.6495016217 0.6522020102 0.6037741899
	0.6503694057 0.6531463265 0.6047533154
	0.6512334943 0.6540852189 0.6057292223
	0.6520972252 0.6550235748 0.6067042947
	0.6529569030 0.6559551954 0.6076720953
	0.6538167000 0.6568868160 0.6086397767
	0.6546720862 0.6578143239 0.6096029878
	0.6555258036 0.6587402821 0.6105644703
	0.6563767791 0.6596642733 0.6115236282
	0.6572223902 0.6605846882 0.6124786735
	0.6580681205 0.6615051031 0.6134337783
	0.6589081883 0.6624196172 0.6143844128
	0.6597480774 0.6633337140 0.6153349876
	0.6605852842 0.6642439961 0.6162821054
	0.6614202261 0.6651508808 0.6172264814
	0.6622543931 0.6660568714 0.6181699038
	0.6630814075 0.6669554114 0.6191053987
	0.6639084816 0.6678538918 0.6200408936
	0.6647310257 0.6687464714 0.6209712029
	0.6655508876 0.6696357131 0.6218988895
	0.6663697958 0.6705237031 0.6228252053
	0.6671835184 0.6714056134 0.6237459183
	0.6679971218 0.6722874045 0.6246666908
	0.6688064933 0.6731655002 0.6255832911
	0.6696135998 0.6740418077 0.6264979839
	0.6704198122 0.6749172211 0.6274114847
	0.6712203026 0.6757869720 0.6283187866
	0.6720207930 0.6766569018 0.6292260289
	0.6728178263 0.6775221825 0.6301295757
	0.6736124158 0.6783844233 0.6310310960
	0.6744068861 0.6792463064 0.6319320798
	0.6751977801 0.6801002026 0.6328263879
	0.6759887934 0.6809539795 0.6337206960
	0.6767783165 0.6818047762 0.6346113086
	0.6775661707 0.6826521158 0.6354981065
	0.6783542037 0.6834993958 0.6363847852
	0.6791371703 0.6843413115 0.6372650266
	0.6799193025 0.6851823926 0.6381441951
	0.6807003021 0.6860218048 0.6390221119
	0.6814774275 0.6868560910 0.6398959160
	0.6822544932 0.6876903176 0.6407696009
	0.6830291152 0.6885216832 0.6416400075
	0.6838018894 0.6893510818 0.6425083876
	0.6845747232 0.6901804805 0.6433767080
	0.6853433847 0.6910036206 0.6442382932
	0.6861116886 0.6918261051 0.6450995803
	0.6868789792 0.6926466823 0.6459587216
	0.6876426935 0.6934604049 0.6468116045
	0.6884064078 0.6942741871 0.6476644874
	0.6891673207 0.6950843930 0.6485136151
	0.6899256110 0.6958913207 0.6493594050
	0.6906839013 0.6966981888 0.6502050757
	0.6914379001 0.6975011826 0.6510459781
	0.6921907067 0.6983032227 0.6518856883
	0.6929433942 0.6991050243 0.6527251005
	0.6936904788 0.6999025941 0.6535598040
	0.6944376230 0.7007001042 0.6543945074
	0.6951832175 0.7014958858 0.6552277207
	0.6959239244 0.7022861242 0.6560571194
	0.6966645718 0.7030763030 0.6568865180
	0.6974024773 0.7038636804 0.6577119827
	0.6981366873 0.7046473026 0.6585326791
	0.6988708973 0.7054308057 0.6593534946
	0.6996024251 0.7062115073 0.6601701975
	0.7003322840 0.7069903016 0.6609845161
	0.7010622025 0.7077690959 0.6617987752
	0.7017893791 0.7085446119 0.6626083255
	0.7025159001 0.7093191147 0.6634163260
	0.7032423019 0.7100936174 0.6642243266
	0.7039636970 0.7108619809 0.6650285125
	0.7046843171 0.7116296291 0.6658324003
	0.7054049969 0.7123970985 0.6666362286
	0.7061207294 0.7131581903 0.6674346924
	0.7068364024 0.7139192224 0.6682332158
	0.7075518966 0.7146798968 0.6690312028
	0.7082635164 0.7154349089 0.6698222160
	0.7089750171 0.7161899209 0.6706132889
	0.7096859217 0.7169442177 0.6714035273
	0.7103911042 0.7176927924 0.6721884012
	0.7110964060 0.7184414864 0.6729732752
	0.7118008137 0.7191895247 0.6737573743
	0.7125003934 0.7199338078 0.6745371819
	0.7131999731 0.7206779718 0.6753169894
	0.7138990164 0.7214214206 0.6760962009
	0.7145938277 0.7221598029 0.6768721938
	0.7152886987 0.7228981256 0.6776481867
	0.7159827948 0.7236354947 0.6784234047
	0.7166706920 0.7243661880 0.6791931987
	0.7173587084 0.7250968814 0.6799631119
	0.7180461884 0.7258272171 0.6807324290
	0.7187278867 0.7265521288 0.6814960837
	0.7194095850 0.7272771001 0.6822597980
	0.7200912833 0.7280020118 0.6830233932
	0.7207676768 0.7287219763 0.6837813854
	0.7214440703 0.7294420004 0.6845393777
	0.7221205235 0.7301620245 0.6852974296
	0.7227922082 0.7308751941 0.6860501766
	0.7234632969 0.7315877080 0.6868025064
	0.7241343856 0.7323002219 0.6875547767
	0.7248032093 0.7330073118 0.6883025169
	0.7254711986 0.7337129116 0.6890491247
	0.7261391878 0.7344185114 0.6897956729
	0.7268046141 0.7351201773 0.6905381083
	0.7274683118 0.7358196974 0.6912782192
	0.7281321287 0.7365190983 0.6920182705
	0.7287933230 0.7372158170 0.6927558780
	0.7294514775 0.7379088998 0.6934906840
	0.7301098108 0.7386021018 0.6942256093
	0.7307670712 0.7392935753 0.6949588060
	0.7314220071 0.7399803996 0.6956874728
	0.7320768237 0.7406671047 0.6964163184
	0.7327315807 0.7413536906 0.6971448064
	0.7333819270 0.7420334816 0.6978684068
	0.7340322137 0.7427132130 0.6985918880
	0.7346825004 0.7433928847 0.6993154287
	0.7353283763 0.7440670729 0.7000336051
	0.7359728813 0.7447395921 0.7007502913
	0.7366175056 0.7454121113 0.7014670968
	0.7372602820 0.7460821271 0.7021806240
	0.7379010916 0.7467494011 0.7028908730
	0.7385420203 0.7474167943 0.7036011219
	0.7391821146 0.7480832934 0.7043104172
	0.7398182154 0.7487462759 0.7050154209
	0.7404543757 0.7494093180 0.7057204247
	0.7410904765 0.7500723004 0.7064254284
	0.7417215705 0.7507299781 0.7071260214
	0.7423517108 0.7513865829 0.7078258991
	0.7429817915 0.7520431280 0.7085257769
	0.7436100841 0.7526969910 0.7092229724
	0.7442362905 0.7533478141 0.7099171877
	0.7448624969 0.7539986968 0.7106114030
	0.7454884052 0.7546491027 0.7113050222
	0.7461096048 0.7552949786 0.7119926810
	0.7467309237 0.7559409142 0.7126803994
	0.7473521233 0.7565869093 0.7133681774
	0.7479693294 0.7572283149 0.7140517831
	0.7485842705 0.7578672767 0.7147333026
	0.7491992712 0.7585062981 0.7154148817
	0.7498134971 0.7591440082 0.7160953879
	0.7504243255 0.7597767115 0.7167720199
	0.7510352135 0.7604094148 0.7174485922
	0.7516459823 0.7610421181 0.7181252241
	0.7522531152 0.7616708875 0.7187982202
	0.7528588176 0.7622982264 0.7194700241
	0.7534645200 0.7629255056 0.7201418281
	0.7540687919 0.7635515928 0.7208123207
	0.7546679974 0.7641733885 0.7214787006
	0.7552672029 0.7647953033 0.7221450806
	0.7558664083 0.7654170990 0.7228114009
	0.7564626932 0.7660366893 0.7234749794
	0.7570574880 0.7666552067 0.7241373062
	0.7576522827 0.7672737241 0.7247995734
	0.7582467794 0.7678917050 0.7254614234
	0.7588381767 0.7685058117 0.7261199951
	0.7594295740 0.7691199183 0.7267785072
	0.7600209713 0.7697339058 0.7274370193
	0.7606108189 0.7703450918 0.7280923128
	0.7611988783 0.7709534764 0.7287446260
	0.7617871165 0.7715619802 0.7293969989
	0.7623751760 0.7721704245 0.7300493121
	0.7629606128 0.7727757096 0.7306963205
	0.7635456920 0.7733805180 0.7313426733
	0.7641307116 0.7739853263 0.7319890857
	0.7647150159 0.7745891213 0.7326344252
	0.7652966976 0.7751892805 0.7332763076
	0.7658783793 0.7757894993 0.7339181900
	0.7664601207 0.7763897181 0.7345600724
	0.7670400143 0.7769867778 0.7352002859
	0.7676184773 0.7775810957 0.7358390093
	0.7681970000 0.7781754732 0.7364776731
	0.7687754035 0.7787699103 0.7371163964
	0.7693514228 0.7793611288 0.7377526164
	0.7699269056 0.7799516916 0.7383884192
	0.7705023289 0.7805421948 0.7390242219
	0.7710775137 0.7811324000 0.7396594882
	0.7716495991 0.7817180753 0.7402899265
	0.7722216845 0.7823038101 0.7409204245
	0.7727938294 0.7828894854 0.7415509224
	0.7733650208 0.7834734917 0.7421798110
	0.7739340067 0.7840530872 0.7428051829
	0.7745028734 0.7846328020 0.7434306741
	0.7750719190 0.7852125168 0.7440561056
	0.7756394148 0.7857902050 0.7446792126
	0.7762054205 0.7863658071 0.7452998757
	0.7767714262 0.7869415283 0.7459207177
	0.7773373127 0.7875170708 0.7465413809
	0.7779011726 0.7880907059 0.7471587062
	0.7784639001 0.7886632085 0.7477741838
	0.7790266275 0.7892357111 0.7483897805
	0.7795892954 0.7898082137 0.7490053177
	0.7801496983 0.7903760076 0.7496179938
	0.7807093263 0.7909423709 0.7502297759
	0.7812688947 0.7915087938 0.7508416176
	0.7818285227 0.7920752168 0.7514533997
	0.7823855877 0.7926365137 0.7520614862
	0.7829421759 0.7931969762 0.7526692152
	0.7834988832 0.7937574983 0.7532768846
	0.7840554714 0.7943180203 0.7538844943
	0.7846093178 0.7948756218 0.7544875145
	0.7851626873 0.7954329848 0.7550902963
	0.7857161760 0.7959904075 0.7556930184
	0.7862696052 0.7965477705 0.7562956810
	0.7868201733 0.7971013784 0.7568932176
	0.7873706222 0.7976546884 0.7574905753
	0.7879210114 0.7982081175 0.7580878735
	0.7884714007 0.7987614870 0.7586852908
	0.7890191078 0.7993094921 0.7592788935
	0.7895665765 0.7998571992 0.7598723769
	0.7901141047 0.8004049063 0.7604658008
	0.7906615734 0.8009526134 0.7610592842
	0.7912061810 0.8014960885 0.7616505027
	0.7917506099 0.8020390272 0.7622414231
	0.7922949195 0.8025820255 0.7628324032
	0.7928392887 0.8031250238 0.7634233832
	0.7933812141 0.8036649227 0.7640110850
	0.7939224839 0.8042042255 0.7645980716
	0.7944638729 0.8047435880 0.7651851177
	0.7950052023 0.8052828908 0.7657721043
	0.7955445051 0.8058183789 0.7663552165
	0.7960829735 0.8063523769 0.7669368982
	0.7966215014 0.8068864942 0.7675185800
	0.7971600294 0.8074206114 0.7681002021
	0.7976967096 0.8079521060 0.7686796188
	0.7982320786 0.8084818125 0.7692573071
	0.7987675071 0.8090115786 0.7698349953
	0.7993028760 0.8095412850 0.7704126835
	0.7998371124 0.8100696802 0.7709888816
	0.8003696203 0.8105961084 0.7715629935
	0.8009020090 0.8111224771 0.7721372247
	0.8014343977 0.8116489053 0.7727112770
	0.8019663095 0.8121743798 0.7732846141
	0.8024960160 0.8126959801 0.7738549113
	0.8030256033 0.8132175803 0.7744253278
	0.8035553098 0.8137391806 0.7749956250
	0.8040848970 0.8142607212 0.7755659819
	0.8046116829 0.8147786260 0.7761322856
	0.8051382899 0.8152961731 0.7766984105
	0.8056647778 0.8158138990 0.7772645950
	0.8061913848 0.8163315058 0.7778307796
	0.8067160845 0.8168472052 0.7783944011
	0.8072397709 0.8173617721 0.7789568901
	0.8077635169 0.8178765178 0.7795193195
	0.8082872033 0.8183912039 0.7800818086
	0.8088098764 0.8189039230 0.7806432843
	0.8093308210 0.8194131255 0.7812033892
	0.8098517060 0.8199223280 0.7817634940
	0.8103727102 0.8204315901 0.7823235989
	0.8108935952 0.8209407926 0.7828835845
	0.8114115000 0.8214446902 0.7834416032
	0.8119295239 0.8219487071 0.7839996219
	0.8124474287 0.8224527240 0.7845575809
	0.8129652739 0.8229566813 0.7851157188
	0.8134815097 0.8234592080 0.7856711745
	0.8139966130 0.8239607215 0.7862251997
	0.8145117164 0.8244621158 0.7867792845
	0.8150267005 0.8249636292 0.7873333097
	0.8155413270 0.8254641294 0.7878866196
	0.8160536885 0.8259606957 0.7884370089
	0.8165659904 0.8264572024 0.7889872789
	0.8170784116 0.8269537091 0.7895377278
	0.8175907731 0.8274502158 0.7900881171
	0.8181009889 0.8279432058 0.7906360030
	0.8186104298 0.8284350038 0.7911829948
	0.8191198111 0.8289268017 0.7917301059
	0.8196291924 0.8294185996 0.7922770977
	0.8201377988 0.8299099207 0.7928233147
	0.8206434250 0.8303995728 0.7933669090
	0.8211489916 0.8308892846 0.7939103842
	0.8216546178 0.8313789964 0.7944539785
	0.8221603036 0.8318687081 0.7949975133
	0.8226630092 0.8323553205 0.7955383062
	0.8231644034 0.8328405023 0.7960780263
	0.8236657977 0.8333258033 0.7966176867
	0.8241671920 0.8338109851 0.7971572876
	0.8246682286 0.8342955709 0.7976964116
	0.8251668215 0.8347756267 0.7982317209
	0.8256654739 0.8352555037 0.7987669706
	0.8261641264 0.8357354999 0.7993022203
	0.8266627192 0.8362154961 0.7998375297
	0.8271595240 0.8366938233 0.8003703952
	0.8276544809 0.8371704817 0.8009009957
	0.8281494975 0.8376471996 0.8014315963
	0.8286445141 0.8381239176 0.8019623160
	0.8291395903 0.8386006951 0.8024929166
	0.8296310902 0.8390740752 0.8030207157
	0.8301221132 0.8395469785 0.8035480976
	0.8306130767 0.8400198221 0.8040754199
	0.8311039805 0.8404927254 0.8046028018
	0.8315945864 0.8409647942 0.8051295280
	0.8320829272 0.8414331079 0.8056535125
	0.8325713277 0.8419014215 0.8061774969
	0.8330597281 0.8423696160 0.8067014217
	0.8335480094 0.8428379297 0.8072254062
	0.8340349197 0.8433049917 0.8077479005
	0.8345198035 0.8437706828 0.8082687855
	0.8350048065 0.8442363143 0.8087896109
	0.8354896903 0.8447020054 0.8093103766
	0.8359745741 0.8451675773 0.8098313212
	0.8364562988 0.8456311226 0.8103501797
	0.8369364142 0.8460934758 0.8108682036
	0.8374165297 0.8465558887 0.8113862276
	0.8378965259 0.8470183015 0.8119041920
	0.8383765817 0.8474807143 0.8124222159
	0.8388531804 0.8479387760 0.8129376173
