release/datafiles/colormanagement/luts/film_response/agfa_agfachrome_rsx2_200.spi1d
Version 1
From 0.0 1.0
Length 1024
Components 3
{
	0.0000000000 0.0000000000 0.0000000000
	0.0002336452 0.0003066142 0.0001923408
	0.0004746285 0.0006284252 0.0003908366
	0.0007228691 0.0009574692 0.0005960183
	0.0009798091 0.0012926980 0.0008084249
	0.0012458910 0.0016348250 0.0010286780
	0.0015215250 0.0019854531 0.0012572890
	0.0018074480 0.0023458831 0.0014948760
	0.0021044740 0.0027179900 0.0017418840
	0.0024123720 0.0031044651 0.0019987100
	0.0027316429 0.0035080169 0.0022662929
	0.0030628759 0.0039312281 0.0025448580
	0.0034068460 0.0043767700 0.0028348130
	0.0037631821 0.0048452052 0.0031369999
	0.0041319309 0.0053377128 0.0034519250
	0.0045133741 0.0058530779 0.0037802891
	0.0049079140 0.0063888212 0.0041218149
	0.0053149262 0.0069422242 0.0044763028
	0.0057351599 0.0075108381 0.0048436122
	0.0061681862 0.0080922469 0.0052233832
	0.0066139381 0.0086847479 0.0056158421
	0.0070730280 0.0092877084 0.0060206670
	0.0075457580 0.0099003958 0.0064372532
	0.0080318721 0.0105231302 0.0068652900
	0.0085307229 0.0111563997 0.0073052440
	0.0090426058 0.0118005900 0.0077564488
	0.0095678763 0.0124572096 0.0082195234
	0.0101060299 0.0131261898 0.0086938078
	0.0106565999 0.0138081899 0.0091797709
	0.0112196403 0.0145026296 0.0096775433
	0.0117950998 0.0152096897 0.0101859104
	0.0123830596 0.0159296691 0.0107057104
	0.0129827997 0.0166616905 0.0112374704
	0.0135938600 0.0174061507 0.0117801595
	0.0142163001 0.0181632899 0.0123338196
	0.0148505196 0.0189326294 0.0128991101
	0.0154959997 0.0197145808 0.0134759704
	0.0161525905 0.0205079298 0.0140651399
	0.0168197099 0.0213135108 0.0146654900
	0.0174975600 0.0221296605 0.0152769703
	0.0181858800 0.0229572095 0.0159003101
	0.0188853294 0.0237958394 0.0165352002
	0.0195957199 0.0246469099 0.0171822291
	0.0203166995 0.0255084708 0.0178419799
	0.0210479405 0.0263805594 0.0185129102
	0.0217893906 0.0272626597 0.0191952903
	0.0225410797 0.0281556007 0.0198900104
	0.0233031102 0.0290594995 0.0205974299
	0.0240752809 0.0299743302 0.0213165600
	0.0248574503 0.0308989193 0.0220477208
	0.0256489795 0.0318339504 0.0227914508
	0.0264505297 0.0327800512 0.0235488601
	0.0272613708 0.0337377489 0.0243192408
	0.0280819293 0.0347075686 0.0251018200
	0.0289116092 0.0356889293 0.0258964691
	0.0297506806 0.0366821997 0.0267038904
	0.0305987895 0.0376874991 0.0275248494
	0.0314561911 0.0387053117 0.0283588003
	0.0323230512 0.0397350118 0.0292057395
	0.0331984907 0.0407753289 0.0300664101
	0.0340828784 0.0418274291 0.0309393499
	0.0349764302 0.0428918488 0.0318249315
	0.0358787291 0.0439687595 0.0327227190
	0.0367900617 0.0450573303 0.0336325206
	0.0377106704 0.0461591706 0.0345553607
	0.0386387706 0.0472715795 0.0354900099
	0.0395760499 0.0483947694 0.0364381485
	0.0405212790 0.0495291613 0.0373984985
	0.0414749682 0.0506746694 0.0383732207
	0.0424371511 0.0518323407 0.0393615104
	0.0434069186 0.0530007891 0.0403636508
	0.0443847999 0.0541807003 0.0413801111
	0.0453707203 0.0553707816 0.0424091816
	0.0463633984 0.0565719493 0.0434532799
	0.0473654494 0.0577826984 0.0445101783
	0.0483737215 0.0590048917 0.0455798395
	0.0493897311 0.0602366105 0.0466651618
	0.0504129082 0.0614794008 0.0477640294
	0.0514423698 0.0627331585 0.0488768108
	0.0524802990 0.0639974698 0.0500062406
	0.0535254516 0.0652740896 0.0511502102
	0.0545772910 0.0665622428 0.0523082986
	0.0556361787 0.0678606406 0.0534805804
	0.0567024983 0.0691716820 0.0546686798
	0.0577750802 0.0704934299 0.0558703691
	0.0588535815 0.0718252510 0.0570854694
	0.0599400401 0.0731683001 0.0583138093
	0.0610331818 0.0745219514 0.0595557392
	0.0621325709 0.0758863464 0.0608114190
	0.0632396191 0.0772613883 0.0620787703
	0.0643534884 0.0786459073 0.0633573383
	0.0654745772 0.0800427720 0.0646468624
	0.0666032135 0.0814517811 0.0659470782
	0.0677386299 0.0828704983 0.0672577098
	0.0688809007 0.0843003020 0.0685787722
	0.0700303987 0.0857396796 0.0699099898
	0.0711864233 0.0871883109 0.0712488964
	0.0723488331 0.0886481106 0.0725946799
	0.0735196322 0.0901157334 0.0739471167
	0.0746975020 0.0915923566 0.0753060281
	0.0758822709 0.0930788666 0.0766710714
	0.0770741701 0.0945737883 0.0780422911
	0.0782730505 0.0960773528 0.0794199184
	0.0794789493 0.0975896269 0.0808036402
	0.0806913823 0.0991091728 0.0821929798
	0.0819104165 0.1006359980 0.0835875571
	0.0831365734 0.1021701992 0.0849873573
	0.0843702182 0.1037115976 0.0863918066
	0.0856113136 0.1052597985 0.0878000185
	0.0868599117 0.1068146974 0.0892115831
	0.0881158933 0.1083773971 0.0906265825
	0.0893787891 0.1099461019 0.0920447111
	0.0906486213 0.1115209982 0.0934653208
	0.0919253081 0.1131021008 0.0948884189
	0.0932083800 0.1146880984 0.0963144898
	0.0944980532 0.1162792966 0.0977434963
	0.0957952365 0.1178762987 0.0991748795
	0.0970996320 0.1194792986 0.1006093025
	0.0984100029 0.1210874990 0.1020475999
	0.0997272208 0.1226997972 0.1034903973
	0.1010518000 0.1243164986 0.1049363986
	0.1023814976 0.1259384006 0.1063854992
	0.1037181988 0.1275652051 0.1078381985
	0.1050620005 0.1291960031 0.1092941016
	0.1064110026 0.1308314055 0.1107527018
	0.1077655032 0.1324710995 0.1122142971
	0.1091263965 0.1341142952 0.1136794984
	0.1104935035 0.1357623935 0.1151480004
	0.1118659005 0.1374143958 0.1166194007
	0.1132436991 0.1390711069 0.1180943996
	0.1146290004 0.1407306939 0.1195726022
	0.1160207018 0.1423933059 0.1210533977
	0.1174174026 0.1440594047 0.1225365996
	0.1188201010 0.1457290053 0.1240229011
	0.1202287003 0.1474035978 0.1255117059
	0.1216425970 0.1490814984 0.1270032972
	0.1230617985 0.1507631987 0.1284980029
	0.1244878024 0.1524486989 0.1299961060
	0.1259191930 0.1541378051 0.1314983070
	0.1273557991 0.1558293998 0.1330049038
	0.1287976056 0.1575267017 0.1345154941
	0.1302458048 0.1592278928 0.1360293031
	0.1317003965 0.1609317958 0.1375454962
	0.1331606060 0.1626382023 0.1390648037
	0.1346260011 0.1643474996 0.1405864060
	0.1360958070 0.1660612971 0.1421104968
	0.1375721991 0.1677768975 0.1436379999
	0.1390544027 0.1694948971 0.1451703012
	0.1405413002 0.1712158024 0.1467055976
	0.1420325041 0.1729404032 0.1482436061
	0.1435298026 0.1746671945 0.1497846991
	0.1450331062 0.1763962060 0.1513286978
	0.1465408057 0.1781273931 0.1528747976
	0.1480524987 0.1798599064 0.1544229984
	0.1495707035 0.1815944016 0.1559745967
	0.1510937959 0.1833305955 0.1575296074
	0.1526214033 0.1850683987 0.1590874940
	0.1541541964 0.1868094057 0.1606484950
	0.1556929052 0.1885517985 0.1622128040
	0.1572359949 0.1902959049 0.1637787968
	0.1587835997 0.1920423061 0.1653465927
	0.1603381932 0.1937911958 0.1669193059
	0.1618963927 0.1955417991 0.1684942991
	0.1634581983 0.1972939074 0.1700717062
	0.1650260985 0.1990482062 0.1716526002
	0.1665998995 0.2008040994 0.1732358932
	0.1681773067 0.2025613040 0.1748213023
	0.1697590947 0.2043205053 0.1764107943
	0.1713462025 0.2060810030 0.1780031025
	0.1729367971 0.2078423053 0.1795973927
	0.1745319068 0.2096049935 0.1811943948
	0.1761319935 0.2113689035 0.1827940941
	0.1777352989 0.2131334990 0.1843959987
	0.1793437004 0.2148993015 0.1860031039
	0.1809576005 0.2166654021 0.1876126975
	0.1825744063 0.2184319943 0.1892254949
	0.1841952056 0.2201997042 0.1908413023
	0.1858201027 0.2219685018 0.1924591959
	0.1874478012 0.2237378955 0.1940806955
	0.1890821010 0.2255074978 0.1957052946
	0.1907189935 0.2272779942 0.1973316073
	0.1923578978 0.2290489972 0.1989613026
	0.1940028965 0.2308211029 0.2005929053
	0.1956506073 0.2325938940 0.2022265941
	0.1973026991 0.2343678027 0.2038643956
	0.1989585012 0.2361426055 0.2055034935
	0.2006161064 0.2379177958 0.2071447968
	0.2022790015 0.2396938056 0.2087884992
	0.2039445937 0.2414696068 0.2104344964
	0.2056134939 0.2432450950 0.2120838016
	0.2072867006 0.2450218946 0.2137342989
	0.2089617997 0.2467985004 0.2153877020
	0.2106418014 0.2485740930 0.2170425951
	0.2123246044 0.2503491044 0.2186993957
	0.2140112072 0.2521235943 0.2203588933
	0.2157005966 0.2538985014 0.2220194936
	0.2173911929 0.2556734085 0.2236841023
	0.2190874964 0.2574481070 0.2253499031
	0.2207852006 0.2592217922 0.2270195931
	0.2224867046 0.2609946132 0.2286913991
	0.2241905034 0.2627679110 0.2303657979
	0.2258961946 0.2645412982 0.2320432961
	0.2276054025 0.2663162053 0.2337222993
	0.2293156981 0.2680906057 0.2354062945
	0.2310317010 0.2698636949 0.2370913029
	0.2327484041 0.2716363966 0.2387810051
	0.2344674021 0.2734088004 0.2404720038
	0.2361883968 0.2751807868 0.2421665043
	0.2379122972 0.2769527137 0.2438628972
	0.2396381944 0.2787235081 0.2455617040
	0.2413652986 0.2804942131 0.2472631931
	0.2430955023 0.2822644114 0.2489665002
	0.2448267043 0.2840346992 0.2506738007
	0.2465613037 0.2858053148 0.2523826063
	0.2482964993 0.2875756919 0.2540957928
	0.2500359118 0.2893457115 0.2558099031
	0.2517758012 0.2911148965 0.2575285137
	0.2535183132 0.2928834856 0.2592475116
	0.2552621961 0.2946512997 0.2609696984
	0.2570098937 0.2964186966 0.2626922131
	0.2587589920 0.2981835902 0.2644180059
	0.2605102956 0.2999480069 0.2661443055
	0.2622630894 0.3017111123 0.2678734958
	0.2640174031 0.3034740984 0.2696034908
	0.2657730877 0.3052338064 0.2713379860
	0.2675299048 0.3069935143 0.2730731964
	0.2692880034 0.3087523878 0.2748118937
	0.2710470855 0.3105109930 0.2765515149
	0.2728081942 0.3122670054 0.2782951891
	0.2745707035 0.3140225112 0.2800396085
	0.2763350904 0.3157748878 0.2817870975
	0.2781007886 0.3175269067 0.2835353911
	0.2798672915 0.3192762136 0.2852882147
	0.2816343009 0.3210250139 0.2870416045
	0.2834017873 0.3227711022 0.2887994945
	0.2851698101 0.3245170116 0.2905577123
	0.2869389057 0.3262611926 0.2923206985
	0.2887091935 0.3280051947 0.2940837145
	0.2904804051 0.3297472894 0.2958520949
	0.2922525108 0.3314892948 0.2976205945
	0.2940253913 0.3332268000 0.2993935049
	0.2957994938 0.3349643052 0.3011670113
	0.2975736856 0.3366967142 0.3029440939
	0.2993479967 0.3384287953 0.3047224879
	0.3011221886 0.3401573896 0.3065038025
	0.3028964102 0.3418853879 0.3082869947
	0.3046706915 0.3436118066 0.3100728095
	0.3064466119 0.3453375995 0.3118613958
	0.3082225025 0.3470619917 0.3136520088
	0.3099983037 0.3487856984 0.3154470026
	0.3117741942 0.3505071998 0.3172427118
	0.3135501146 0.3522264063 0.3190433085
	0.3153258860 0.3539440036 0.3208439052
	0.3171015978 0.3556582034 0.3226490021
	0.3188770115 0.3573715091 0.3244544864
	0.3206518888 0.3590804040 0.3262634873
	0.3224261105 0.3607892990 0.3280740976
	0.3241997957 0.3624913990 0.3298870027
	0.3259718120 0.3641934097 0.3317027092
	0.3277438879 0.3658939898 0.3335191905
	0.3295131028 0.3675940931 0.3353388011
	0.3312822878 0.3692927063 0.3371585011
	0.3330504000 0.3709900975 0.3389824033
	0.3348180056 0.3726865053 0.3408068120
	0.3365843892 0.3743805885 0.3426336944
	0.3383488953 0.3760747015 0.3444621861
	0.3401131928 0.3777655959 0.3462921977
	0.3418753147 0.3794564903 0.3481256962
	0.3436372876 0.3811435997 0.3499591947
	0.3453963101 0.3828293979 0.3517968059
	0.3471544981 0.3845128119 0.3536345959
	0.3489103913 0.3861933053 0.3554756045
	0.3506639004 0.3878732026 0.3573186994
	0.3524166942 0.3895485103 0.3591623902
	0.3541651070 0.3912237883 0.3610084951
	0.3559136093 0.3928934932 0.3628545105
	0.3576560915 0.3945614994 0.3647046089
	0.3593969047 0.3962261975 0.3665556014
	0.3611347079 0.3978857994 0.3684079945
	0.3628677130 0.3995453119 0.3702622950
	0.3646006882 0.4011983871 0.3721165955
	0.3663268089 0.4028514922 0.3739753067
	0.3680528998 0.4045008123 0.3758341074
	0.3697755039 0.4061478078 0.3776954114
	0.3714954853 0.4077934027 0.3795588911
	0.3732145131 0.4094338119 0.3814226985
	0.3749260008 0.4110741019 0.3832913041
	0.3766376078 0.4127109051 0.3851599097
	0.3783437908 0.4143466055 0.3870306909
	0.3800471127 0.4159803092 0.3889032900
	0.3817487061 0.4176093936 0.3907761872
	0.3834415078 0.4192385077 0.3926539123
	0.3851343989 0.4208612144 0.3945316970
	0.3868206143 0.4224824905 0.3964118063
	0.3885033131 0.4241017103 0.3982942104
	0.3901846111 0.4257161915 0.4001766145
	0.3918552995 0.4273307025 0.4020617008
	0.3935258985 0.4289397895 0.4039469957
	0.3951900005 0.4305475056 0.4058333039
	0.3968490958 0.4321533144 0.4077214003
	0.3985081911 0.4337531030 0.4096095860
	0.4001541138 0.4353528917 0.4114991128
	0.4017998874 0.4369482994 0.4133890867
	0.4034416974 0.4385415018 0.4152793884
	0.4050774872 0.4401341975 0.4171707928
	0.4067131877 0.4417211115 0.4190622866
	0.4083409905 0.4433079958 0.4209538102
	0.4099667072 0.4448912144 0.4228455126
	0.4115909040 0.4464702904 0.4247371852
	0.4132077098 0.4480494857 0.4266293049
	0.4148243964 0.4496214092 0.4285216033
	0.4164358974 0.4511919916 0.4304136932
	0.4180422127 0.4527612031 0.4323050082
	0.4196484983 0.4543245137 0.4341962934
	0.4212470949 0.4558877945 0.4360859990
	0.4228439927 0.4574449062 0.4379737973
	0.4244396091 0.4589962959 0.4398615062
	0.4260253906 0.4605476856 0.4417462945
	0.4276112020 0.4620890021 0.4436298907
	0.4291928113 0.4636281133 0.4455133975
	0.4307680130 0.4651657939 0.4473905861
	0.4323433042 0.4666922987 0.4492675066
	0.4339112937 0.4682187140 0.4511435032
	0.4354755878 0.4697411060 0.4530152977
	0.4370399117 0.4712564051 0.4548870921
	0.4385950863 0.4727717042 0.4567565024
	0.4401490986 0.4742799997 0.4586217105
	0.4417021871 0.4757837057 0.4604870081
	0.4432457983 0.4772874117 0.4623486996
	0.4447894096 0.4787816107 0.4642075896
	0.4463303983 0.4802734852 0.4660665095
	0.4478640854 0.4817655087 0.4679197073
	0.4493978918 0.4832465053 0.4697704017
	0.4509268105 0.4847275019 0.4716210961
	0.4524492919 0.4862065911 0.4734647870
	0.4539718032 0.4876767099 0.4753069878
	0.4554879069 0.4891467094 0.4771490991
	0.4569990933 0.4906134903 0.4789814949
	0.4585103989 0.4920732081 0.4808132052
	0.4600146115 0.4935329854 0.4826447070
	0.4615156949 0.4949879050 0.4844656885
	0.4630168080 0.4964365065 0.4862866998
	0.4645102024 0.4978851080 0.4881069064
	0.4660013914 0.4993262887 0.4899150133
	0.4674926102 0.5007606745 0.4917230010
	0.4689762890 0.5021951795 0.4935297966
	0.4704585075 0.5036209226 0.4953246117
	0.4719407856 0.5050408244 0.4971193969
	0.4734140933 0.5064607263 0.4989126027
	0.4748862982 0.5078724027 0.5006924868
	0.4763585031 0.5092796087 0.5024725199
	0.4778222144 0.5106868744 0.5042511225
	0.4792849123 0.5120872855 0.5060155988
	0.4807476103 0.5134844184 0.5077801943
	0.4822027981 0.5148816109 0.5095440149
	0.4836570024 0.5162711740 0.5112923980
	0.4851112962 0.5176569819 0.5130407214
	0.4865578115 0.5190427899 0.5147891045
	0.4880031049 0.5204212070 0.5165216923
	0.4894483984 0.5217952728 0.5182538033
	0.4908877909 0.5231695175 0.5199859738
	0.4923256934 0.5245352983 0.5217025876
	0.4937636852 0.5258951783 0.5234171748
	0.4951958060 0.5272551179 0.5251318216
	0.4966256022 0.5286077261 0.5268319845
	0.4980554879 0.5299531221 0.5285276771
	0.4994794130 0.5312983990 0.5302234888
	0.5008996129 0.5326380134 0.5319082141
	0.5023198128 0.5339689255 0.5335860848
	0.5037351847 0.5352998972 0.5352638960
	0.5051453114 0.5366278887 0.5369331837
	0.5065554976 0.5379484296 0.5385919213
	0.5079630017 0.5392689109 0.5402505994
	0.5093650222 0.5405880809 0.5419046879
	0.5107669234 0.5418984890 0.5435451269
	0.5121678710 0.5432088971 0.5451855063
	0.5135623813 0.5445193052 0.5468252897
	0.5149568915 0.5458185077 0.5484473109
	0.5163514018 0.5471168756 0.5500692725
	0.5177388787 0.5484153032 0.5516912937
	0.5191257000 0.5497050881 0.5532999039
	0.5205125213 0.5509917140 0.5549045801
	0.5218951702 0.5522782803 0.5565093756
	0.5232759118 0.5535587072 0.5581051707
	0.5246565938 0.5548328757 0.5596920252
	0.5260347128 0.5561071038 0.5612788200
	0.5274087787 0.5573784113 0.5628618002
	0.5287830234 0.5586404800 0.5644289255
	0.5301563144 0.5599024892 0.5659958720
	0.5315235257 0.5611644983 0.5675628781
	0.5328906178 0.5624132752 0.5691115856
	0.5342578292 0.5636613965 0.5706571937
	0.5356180072 0.5649095178 0.5722029209
	0.5369765162 0.5661481023 0.5737379193
	0.5383349061 0.5673810840 0.5752621889
	0.5396882296 0.5686141849 0.5767865181
	0.5410351157 0.5698431134 0.5783087015
	0.5423818827 0.5710616112 0.5798140168
	0.5437278748 0.5722801089 0.5813193917
	0.5450633168 0.5734986067 0.5828247070
	0.5463985801 0.5747051239 0.5843166113
	0.5477339029 0.5759106278 0.5858026743
	0.5490639210 0.5771160126 0.5872887969
	0.5503911972 0.5783153772 0.5887703896
	0.5517184138 0.5795091987 0.5902382731
	0.5530437827 0.5807030201 0.5917062759
	0.5543630123 0.5818957090 0.5931742191
	0.5556821823 0.5830773115 0.5946282744
	0.5570014119 0.5842589140 0.5960785151
	0.5583145022 0.5854403973 0.5975285769
	0.5596256852 0.5866149068 0.5989735723
	0.5609369278 0.5877853036 0.6004049778
	0.5622456074 0.5889558196 0.6018365026
	0.5635476112 0.5901247263 0.6032679081
	0.5648496151 0.5912854075 0.6046854854
	0.5661516786 0.5924460888 0.6060982943
	0.5674464703 0.5936068296 0.6075112224
	0.5687389970 0.5947598219 0.6089211702
	0.5700315237 0.5959085226 0.6103187799
	0.5713216066 0.5970572233 0.6117163897
	0.5726023912 0.5982046723 0.6131139994
	0.5738831758 0.5993419886 0.6145017743
	0.5751640201 0.6004794240 0.6158828735
	0.5764371753 0.6016166806 0.6172639728
	0.5777059793 0.6027488708 0.6186450720
	0.5789747834 0.6038765907 0.6200103164
	0.5802434087 0.6050041914 0.6213750243
	0.5815005898 0.6061319113 0.6227397919
	0.5827577710 0.6072487235 0.6240993142
	0.5840150714 0.6083645821 0.6254476905
	0.5852677822 0.6094806194 0.6267961860
	0.5865132213 0.6105933189 0.6281446218
	0.5877586007 0.6116985083 0.6294825077
	0.5890039802 0.6128035784 0.6308146119
	0.5902428031 0.6139087081 0.6321465969
	0.5914788842 0.6150081754 0.6334787011
	0.5927150249 0.6161044836 0.6347957253
	0.5939509869 0.6172006726 0.6361116171
	0.5951772928 0.6182969809 0.6374276280
	0.5964037180 0.6193832159 0.6387404799
	0.5976300240 0.6204687953 0.6400408745
	0.5988535881 0.6215543151 0.6413413882
	0.6000704169 0.6226378083 0.6426417828
	0.6012871861 0.6237139106 0.6439359188
	0.6025038958 0.6247900128 0.6452212930
	0.6037154794 0.6258659959 0.6465067267
	0.6049222946 0.6269382238 0.6477921009
	0.6061292291 0.6280059218 0.6490674019
	0.6073359847 0.6290736794 0.6503365040
	0.6085358262 0.6301413774 0.6516057253
	0.6097332239 0.6311997175 0.6528748274
	0.6109305024 0.6322535872 0.6541312933
	0.6121277809 0.6333073974 0.6553844810
	0.6133171916 0.6343613267 0.6566376090
	0.6145057082 0.6354042292 0.6578906775
	0.6156942844 0.6364452839 0.6591296792
	0.6168823242 0.6374865174 0.6603674293
	0.6180605888 0.6385275126 0.6616051793
	0.6192389727 0.6395580769 0.6628425717
	0.6204174161 0.6405887008 0.6640645266
	0.6215937734 0.6416193247 0.6652863026
	0.6227611899 0.6426482201 0.6665081978
	0.6239284873 0.6436666846 0.6677287817
	0.6250959039 0.6446852088 0.6689363122
	0.6262605190 0.6457036138 0.6701437831
	0.6274175048 0.6467195749 0.6713513136
	0.6285744905 0.6477273107 0.6725571752
	0.6297314763 0.6487351060 0.6737517118
	0.6308856010 0.6497427821 0.6749461889
	0.6320332289 0.6507480741 0.6761407256
	0.6331807971 0.6517474055 0.6773335934
	0.6343284249 0.6527466774 0.6785153151
	0.6354721785 0.6537461281 0.6796969175
	0.6366078854 0.6547424197 0.6808785796
	0.6377437115 0.6557319760 0.6820589900
	0.6388794184 0.6567215919 0.6832273006
	0.6400116086 0.6577112079 0.6843956113
	0.6411356926 0.6586982012 0.6855639219
	0.6422597766 0.6596792936 0.6867318153
	0.6433839202 0.6606603861 0.6878877878
	0.6445053220 0.6616414785 0.6890437007
	0.6456189752 0.6626203060 0.6901996732
	0.6467326283 0.6635925174 0.6913555861
	0.6478462815 0.6645647883 0.6925013065
	0.6489577889 0.6655369997 0.6936463118
	0.6500586867 0.6665074825 0.6947911978
	0.6511597037 0.6674702168 0.6959362030
	0.6522606015 0.6684328914 0.6970707774
	0.6533609033 0.6693956256 0.6982029080
	0.6544495821 0.6703575850 0.6993349791
	0.6555382013 0.6713106036 0.7004671097
	0.6566268206 0.6722635031 0.7015910149
	0.6577154994 0.6732165217 0.7027103901
	0.6587942839 0.6741694212 0.7038298249
	0.6598721147 0.6751123071 0.7049492002
	0.6609498858 0.6760544181 0.7060629129
	0.6620277166 0.6769965291 0.7071694732
	0.6630986929 0.6779385805 0.7082760930
	0.6641669869 0.6788738966 0.7093827128
	0.6652354002 0.6798070073 0.7104861736
	0.6663036942 0.6807401180 0.7115777731
	0.6673663259 0.6816732287 0.7126693726
	0.6684231162 0.6826019287 0.7137609124
	0.6694800258 0.6835269928 0.7148525119
	0.6705368161 0.6844519973 0.7159308791
	0.6715909839 0.6853770018 0.7170084119
	0.6726369262 0.6862993240 0.7180858254
	0.6736826897 0.6872149706 0.7191632986
	0.6747285724 0.6881306171 0.7202311158
	0.6757745147 0.6890463233 0.7212930918
	0.6768103838 0.6899619102 0.7223551869
	0.6778457165 0.6908699870 0.7234172225
	0.6788811088 0.6917781234 0.7244750261
	0.6799163818 0.6926862001 0.7255222797
	0.6809443235 0.6935942769 0.7265697122
	0.6819676161 0.6944952011 0.7276170254
	0.6829909086 0.6953927279 0.7286642790
	0.6840142012 0.6962900758 0.7296993136
	0.6850343943 0.6971876025 0.7307329774
	0.6860457063 0.6980822086 0.7317667007
	0.6870568991 0.6989707947 0.7328004241
	0.6880680919 0.6998593807 0.7338271141
	0.6890792847 0.7007479072 0.7348465919
	0.6900807023 0.7016364932 0.7358661294
	0.6910803914 0.7025167942 0.7368856072
	0.6920800805 0.7033964992 0.7379044890
	0.6930798888 0.7042762041 0.7389112711
	0.6940743923 0.7051559091 0.7399181128
	0.6950619221 0.7060313225 0.7409247756
	0.6960492730 0.7069025040 0.7419316173
	0.6970368028 0.7077736855 0.7429320216
	0.6980242133 0.7086449862 0.7439273000
	0.6990013719 0.7095158100 0.7449225783
	0.6999779940 0.7103791833 0.7459179163
	0.7009546757 0.7112424970 0.7469127774
	0.7019312978 0.7121058106 0.7478963733
	0.7029024959 0.7129691243 0.7488800287
	0.7038668990 0.7138271928 0.7498636246
	0.7048313022 0.7146809101 0.7508472204
	0.7057957053 0.7155346870 0.7518255115
	0.7067601085 0.7163884044 0.7527979016
	0.7077146769 0.7172421217 0.7537702918
	0.7086681128 0.7180885077 0.7547428012
	0.7096214890 0.7189350128 0.7557151914
	0.7105749846 0.7197813988 0.7566773891
	0.7115257978 0.7206279039 0.7576380968
	0.7124705911 0.7214711905 0.7585988045
	0.7134153843 0.7223104835 0.7595595121
	0.7143602967 0.7231497169 0.7605171204
	0.7153050900 0.7239890099 0.7614648938
	0.7162432075 0.7248281837 0.7624126077
	0.7171782255 0.7256616950 0.7633603811
	0.7181131840 0.7264938951 0.7643082142
	0.7190482020 0.7273260951 0.7652475238
	0.7199829817 0.7281581759 0.7661802173
	0.7209094167 0.7289890051 0.7671129107
	0.7218356729 0.7298128009 0.7680456042
	0.7227619886 0.7306365967 0.7689781785
	0.7236883044 0.7314602733 0.7698999047
	0.7246115804 0.7322841287 0.7708194852
	0.7255285978 0.7331035137 0.7717391849
	0.7264454961 0.7339180708 0.7726588249
	0.7273623943 0.7347326875 0.7735773921
	0.7282792926 0.7355474234 0.7744857073
	0.7291893959 0.7363619804 0.7753940225
	0.7300944924 0.7371708155 0.7763022780
	0.7309995890 0.7379775047 0.7772104740
	0.7319046855 0.7387843132 0.7781155109
	0.7328097820 0.7395910025 0.7790126801
	0.7337058783 0.7403978109 0.7799099088
	0.7345998287 0.7411972284 0.7808070779
	0.7354937196 0.7419964075 0.7817043066
	0.7363876104 0.7427955866 0.7825965285
	0.7372813821 0.7435948253 0.7834830880
	0.7381641269 0.7443925738 0.7843697071
	0.7390465736 0.7451831102 0.7852563262
	0.7399291992 0.7459737062 0.7861428261
	0.7408117056 0.7467643023 0.7870228291
	0.7416930199 0.7475548983 0.7878980041
	0.7425662875 0.7483425736 0.7887732983
	0.7434394956 0.7491239905 0.7896485925
	0.7443128228 0.7499054074 0.7905238867
	0.7451859713 0.7506868243 0.7913916707
	0.7460573912 0.7514681220 0.7922559977
