release/datafiles/colormanagement/luts/film_response/agfa_agfacolor_futura_400.spi1d
Version 1
From 0.0 1.0
Length 1024
Components 3
{
	0.0000000000 0.0000000000 0.0000000000
	0.0189804304 0.0202203300 0.0141742602
	0.0334178284 0.0351021588 0.0260934699
	0.0454768315 0.0478549302 0.0364666395
	0.0562601797 0.0592830218 0.0458958298
	0.0662030578 0.0697968081 0.0546298996
	0.0755658001 0.0796677694 0.0628222525
	0.0844966397 0.0889748707 0.0705531687
	0.0930858031 0.0978165492 0.0779282674
	0.1014240980 0.1062681973 0.0849699080
	0.1095660999 0.1143971011 0.0916869491
	0.1175450981 0.1221864969 0.0981442481
	0.1253249943 0.1296440959 0.1043419018
	0.1328340024 0.1367834061 0.1102854982
	0.1399984062 0.1436239928 0.1160039008
	0.1468109936 0.1502085030 0.1215291023
	0.1533181965 0.1565480977 0.1268731952
	0.1595371962 0.1626639962 0.1320544034
	0.1655108929 0.1685764045 0.1370812953
	0.1712646037 0.1742939055 0.1419793069
	0.1768248975 0.1798332930 0.1467563957
	0.1822118014 0.1852239966 0.1514313072
	0.1874231994 0.1904760003 0.1559925973
	0.1924864948 0.1955907047 0.1604602933
	0.1974117011 0.2005726993 0.1648356020
	0.2021995932 0.2054260969 0.1691132933
	0.2068601996 0.2101702988 0.1733085066
	0.2114142030 0.2148002982 0.1774341017
	0.2158668935 0.2193187028 0.1814931035
	0.2202159017 0.2237484008 0.1854856014
	0.2244572043 0.2280993015 0.1894098967
	0.2285912931 0.2323631048 0.1932736933
	0.2326336950 0.2365342975 0.1970842034
	0.2366016954 0.2406188995 0.2008334994
	0.2405177951 0.2446300983 0.2045322061
	0.2443760037 0.2485861927 0.2081629038
	0.2481773049 0.2524932921 0.2117401063
	0.2519231141 0.2563455105 0.2152681053
	0.2556205094 0.2601292133 0.2187464982
	0.2592709064 0.2638446987 0.2221813947
	0.2628698945 0.2674998045 0.2255706042
	0.2664135993 0.2711037993 0.2289170027
	0.2698990107 0.2746542096 0.2322203964
	0.2733238041 0.2781482935 0.2354855984
	0.2766858041 0.2815822065 0.2387184948
	0.2799929976 0.2849547863 0.2419216931
	0.2832500935 0.2882680893 0.2450876981
	0.2864542007 0.2915301919 0.2482271940
	0.2896077931 0.2947526872 0.2513332069
	0.2927064896 0.2979423106 0.2543987930
	0.2957524955 0.3010992110 0.2574329972
	0.2987526953 0.3042244911 0.2604371011
	0.3017115891 0.3073199987 0.2634117007
	0.3046318889 0.3103852868 0.2663584054
	0.3075189888 0.3134222031 0.2692733109
	0.3103761971 0.3164314032 0.2721604109
	0.3132067025 0.3194135129 0.2750195861
	0.3160125911 0.3223691881 0.2778514028
	0.3187975883 0.3252983987 0.2806541920
	0.3215644956 0.3282026947 0.2834334970
	0.3243156970 0.3310827017 0.2861855924
	0.3270539045 0.3339388072 0.2889156938
	0.3297814131 0.3367714882 0.2916230857
	0.3325003982 0.3395748138 0.2943058908
	0.3352132142 0.3423477113 0.2969624102
	0.3379161954 0.3450841904 0.2995971143
	0.3405976892 0.3477846980 0.3022120893
	0.3432567120 0.3504517972 0.3048096895
	0.3458822072 0.3530882001 0.3073847890
	0.3484756052 0.3556962013 0.3099358082
	0.3510380089 0.3582764864 0.3124623895
	0.3535713851 0.3608322144 0.3149712980
	0.3560791910 0.3633658886 0.3174606860
	0.3585632145 0.3658784032 0.3199287057
	0.3610230982 0.3683710098 0.3223791122
	0.3634631932 0.3708465993 0.3248122036
	0.3658835888 0.3732995093 0.3272255063
	0.3682858050 0.3757315874 0.3296200931
	0.3706724048 0.3781447113 0.3319934905
	0.3730427027 0.3805387020 0.3343470097
	0.3754003942 0.3829126954 0.3366861939
	0.3777439892 0.3852662146 0.3390057981
	0.3800773025 0.3876036108 0.3413096070
	0.3823992014 0.3899244070 0.3435958922
	0.3847126067 0.3922333121 0.3458688855
	0.3870173991 0.3945314884 0.3481296897
	0.3893153071 0.3968203068 0.3503778875
	0.3916071951 0.3991019130 0.3526121080
	0.3938935995 0.4013710022 0.3548285067
	0.3961760998 0.4036257863 0.3570280075
	0.3984551132 0.4058659971 0.3592115045
	0.4007292092 0.4080862999 0.3613776863
	0.4029959142 0.4102860093 0.3635272980
	0.4052543938 0.4124661088 0.3656620979
	0.4075042903 0.4146254957 0.3677802980
	0.4097425938 0.4167692065 0.3698835075
	0.4119692147 0.4188987911 0.3719711006
	0.4141839147 0.4210126996 0.3740384877
	0.4163868129 0.4231149852 0.3760899901
	0.4185790122 0.4252065122 0.3781270981
	0.4207611978 0.4272862077 0.3801490963
	0.4229308069 0.4293535054 0.3821552098
	0.4250904024 0.4314081967 0.3841435015
	0.4272392094 0.4334529042 0.3861171901
	0.4293777943 0.4354852140 0.3880780041
	0.4315068126 0.4375067949 0.3900259137
	0.4336226881 0.4395155013 0.3919605017
	0.4357245862 0.4415121973 0.3938809931
	0.4378120899 0.4434967041 0.3957869112
	0.4398863018 0.4454723895 0.3976789117
	0.4419437051 0.4474394917 0.3995566964
	0.4439849854 0.4493967891 0.4014219940
	0.4460108876 0.4513399899 0.4032762945
	0.4480217993 0.4532704055 0.4051195979
	0.4500184953 0.4551894069 0.4069514871
	0.4520016015 0.4570955932 0.4087724090
	0.4539715946 0.4589887857 0.4105815887
	0.4559291005 0.4608702958 0.4123832881
	0.4578745961 0.4627414048 0.4141762853
	0.4598087966 0.4646035135 0.4159627855
	0.4617320895 0.4664578140 0.4177407026
	0.4636450112 0.4683054090 0.4195122123
	0.4655455053 0.4701451063 0.4212754071
	0.4674327075 0.4719766080 0.4230324030
	0.4693084955 0.4737985134 0.4247812033
	0.4711722136 0.4756115079 0.4265238941
	0.4730255902 0.4774144888 0.4282588065
	0.4748682976 0.4792071879 0.4299876094
	0.4766997099 0.4809884131 0.4317089021
	0.4785183072 0.4827584922 0.4334239960
	0.4803259969 0.4845187962 0.4351322055
	0.4821228087 0.4862686992 0.4368340969
	0.4839096963 0.4880078137 0.4385294914
	0.4856866896 0.4897367954 0.4402182996
	0.4874519110 0.4914573133 0.4419007897
	0.4892069101 0.4931693077 0.4435743093
	0.4909515083 0.4948728085 0.4452398121
	0.4926868081 0.4965651035 0.4468953907
	0.4944101870 0.4982514977 0.4485433102
	0.4961231947 0.4999290109 0.4501810968
	0.4978268147 0.5015965104 0.4518086910
	0.4995205998 0.5032545924 0.4534263909
	0.5012040734 0.5049039721 0.4550347030
	0.5028777719 0.5065457225 0.4566338062
	0.5045427084 0.5081775188 0.4582231045
	0.5061982274 0.5097963214 0.4598028064
	0.5078454018 0.5114061832 0.4613744020
	0.5094835758 0.5130059123 0.4629381895
	0.5111126900 0.5145952106 0.4644944072
	0.5127326846 0.5161756873 0.4660434127
	0.5143399239 0.5177451968 0.4675836861
	0.5159363747 0.5193077922 0.4691169858
	0.5175241828 0.5208638906 0.4706437886
	0.5191026926 0.5224146247 0.4721643925
	0.5206707716 0.5239610076 0.4736790955
	0.5222259164 0.5254994035 0.4751864076
	0.5237668157 0.5270283818 0.4766879082
	0.5252965093 0.5285490751 0.4781832099
	0.5268157721 0.5300623775 0.4796718955
	0.5283229947 0.5315675139 0.4811522961
	0.5298194885 0.5330659151 0.4826253057
	0.5313063860 0.5345565081 0.4840922058
	0.5327833891 0.5360388160 0.4855529070
	0.5342487097 0.5375118852 0.4870058000
	0.5357007980 0.5389770865 0.4884487092
	0.5371450782 0.5404356718 0.4898858070
	0.5385817885 0.5418878198 0.4913172126
	0.5400090218 0.5433310866 0.4927395880
	0.5414276123 0.5447692871 0.4941565096
	0.5428383946 0.5462031960 0.4955680966
	0.5442407131 0.5476328731 0.4969739914
	0.5456290841 0.5490533710 0.4983738065
	0.5470101833 0.5504671931 0.4997689128
	0.5483844876 0.5518745184 0.5011597872
	0.5497499108 0.5532733202 0.5025461912
	0.5511074066 0.5546665788 0.5039262772
	0.5524582863 0.5560551286 0.5053020120
	0.5538002253 0.5574359298 0.5066723824
	0.5551335216 0.5588095188 0.5080367923
	0.5564607978 0.5601773858 0.5093978047
	0.5577800274 0.5615364909 0.5107548833
	0.5590916276 0.5628885031 0.5121051073
	0.5603979826 0.5642359853 0.5134513974
	0.5616976023 0.5655778050 0.5147926211
	0.5629879832 0.5669124126 0.5161284208
	0.5642735958 0.5682426095 0.5174611807
	0.5655525923 0.5695660710 0.5187898874
	0.5668237805 0.5708814859 0.5201147199
	0.5680909753 0.5721923113 0.5214365721
	0.5693522096 0.5734962225 0.5227527022
	0.5706079006 0.5747932792 0.5240650773
	0.5718598962 0.5760861039 0.5253748298
	0.5731037259 0.5773720741 0.5266771913
	0.5743418932 0.5786536932 0.5279759169
	0.5755749941 0.5799306035 0.5292711258
	0.5768011808 0.5811964869 0.5305575132
	0.5780242085 0.5824581981 0.5318406820
	0.5792413950 0.5837122202 0.5331183076
	0.5804504156 0.5849606991 0.5343890190
	0.5816553235 0.5862060785 0.5356559753
	0.5828509927 0.5874449015 0.5369136930
	0.5840438008 0.5886800289 0.5381681919
	0.5852320194 0.5899084210 0.5394172072
	0.5864148736 0.5911297202 0.5406591892
	0.5875951052 0.5923475027 0.5418981910
	0.5887641907 0.5935558081 0.5431274176
	0.5899302959 0.5947611928 0.5443540215
	0.5910912156 0.5959597826 0.5455750823
	0.5922474265 0.5971537828 0.5467911959
	0.5934010148 0.5983446836 0.5480040908
	0.5945463777 0.5995286107 0.5492113233
	0.5956892967 0.6007102132 0.5504168272
	0.5968241096 0.6018840075 0.5516167283
	0.5979555845 0.6030550003 0.5528140068
	0.5990828276 0.6042217016 0.5540074110
	0.6002063751 0.6053854227 0.5551959872
	0.6013283134 0.6065471768 0.5563817024
	0.6024429202 0.6077020764 0.5575634837
	0.6035555005 0.6088551879 0.5587441921
	0.6046581268 0.6099976897 0.5599179268
	0.6057583094 0.6111379862 0.5610895753
	0.6068522930 0.6122714281 0.5622550845
	0.6079434156 0.6134017706 0.5634173751
	0.6090310216 0.6145281196 0.5645756125
	0.6101149917 0.6156514287 0.5657300949
	0.6111965775 0.6167725921 0.5668820143
	0.6122707725 0.6178879738 0.5680285096
	0.6133425236 0.6190009117 0.5691730976
	0.6144058704 0.6201071143 0.5703091025
	0.6154682040 0.6212120056 0.5714436173
	0.6165214777 0.6223102212 0.5725712180
	0.6175739169 0.6234076023 0.5736979842
	0.6186174750 0.6244966984 0.5748155117
	0.6196597815 0.6255844831 0.5759319067
	0.6206961274 0.6266639233 0.5770416856
	0.6217305064 0.6277418733 0.5781496763
	0.6227589250 0.6288138032 0.5792517066
	0.6237844825 0.6298843026 0.5803521276
	0.6248034835 0.6309509873 0.5814481974
	0.6258192062 0.6320158839 0.5825421214
	0.6268281937 0.6330764294 0.5836308002
	0.6278346777 0.6341344714 0.5847169161
	0.6288362145 0.6351872087 0.5857974887
	0.6298360229 0.6362372041 0.5868756175
	0.6308323741 0.6372811794 0.5879486203
	0.6318262815 0.6383233070 0.5890188813
	0.6328150034 0.6393606067 0.5900835991
	0.6338009238 0.6403964162 0.5911462903
	0.6347796917 0.6414275765 0.5922037959
	0.6357566714 0.6424568295 0.5932598710
	0.6367279887 0.6434782147 0.5943114161
	0.6376978755 0.6444982290 0.5953620076
	0.6386622190 0.6455100775 0.5964084864
	0.6396257281 0.6465215087 0.5974544287
	0.6405826807 0.6475260854 0.5984926224
	0.6415395737 0.6485307217 0.5995308161
	0.6424885988 0.6495286226 0.6005603075
	0.6434376836 0.6505261064 0.6015896797
	0.6443789005 0.6515172720 0.6026117206
	0.6453189850 0.6525071859 0.6036325097
	0.6462522745 0.6534914970 0.6046487093
	0.6471831799 0.6544733047 0.6056631207
	0.6481100917 0.6554508209 0.6066738963
	0.6490340829 0.6564248204 0.6076821089
	0.6499556899 0.6573960781 0.6086879969
	0.6508737803 0.6583626866 0.6096904278
	0.6517899036 0.6593278050 0.6106911898
	0.6526989937 0.6602864265 0.6116858125
	0.6536079049 0.6612449884 0.6126803160
	0.6545088291 0.6621980071 0.6136667728
	0.6554095745 0.6631507874 0.6146532297
	0.6563045979 0.6640974879 0.6156343222
	0.6571980119 0.6650422812 0.6166138053
	0.6580873132 0.6659818292 0.6175904274
	0.6589732170 0.6669161916 0.6185643077
	0.6598567963 0.6678487062 0.6195365787
	0.6607350707 0.6687750220 0.6205043793
	0.6616132259 0.6697012782 0.6214722991
	0.6624845862 0.6706203818 0.6224306226
	0.6633558869 0.6715393066 0.6233887076
	0.6642240882 0.6724529266 0.6243417859
	0.6650909781 0.6733639836 0.6252925992
	0.6659563780 0.6742721200 0.6262406707
	0.6668195128 0.6751747727 0.6271843910
	0.6676822901 0.6760774255 0.6281278729
	0.6685385704 0.6769707799 0.6290643811
	0.6693950295 0.6778641939 0.6300008297
	0.6702473760 0.6787514091 0.6309322119
	0.6710978150 0.6796351075 0.6318609715
	0.6719467044 0.6805168986 0.6327874064
	0.6727918983 0.6813933253 0.6337075233
	0.6736372113 0.6822696924 0.6346276999
	0.6744775772 0.6831405163 0.6355414987
	0.6753175259 0.6840105057 0.6364545226
	0.6761547923 0.6848769188 0.6373646855
	0.6769893765 0.6857391000 0.6382718086
	0.6778236032 0.6866012216 0.6391788125
	0.6786518097 0.6874572039 0.6400815248
	0.6794800162 0.6883131862 0.6409841180
	0.6803044081 0.6891654730 0.6418827176
	0.6811261177 0.6900150180 0.6427782774
	0.6819474101 0.6908640862 0.6436731815
	0.6827651858 0.6917092800 0.6445615292
	0.6835830212 0.6925545931 0.6454498768
	0.6843972206 0.6933962703 0.6463342905
	0.6852092743 0.6942355037 0.6472160816
	0.6860206127 0.6950742006 0.6480973959
	0.6868252754 0.6959053874 0.6489725709
	0.6876299977 0.6967365742 0.6498478055
	0.6884319782 0.6975647807 0.6507201195
	0.6892318130 0.6983901858 0.6515899897
	0.6900315285 0.6992155910 0.6524599791
	0.6908273101 0.7000362873 0.6533246040
	0.6916229725 0.7008566856 0.6541891098
	0.6924160719 0.7016751170 0.6550511122
	0.6932054162 0.7024903297 0.6559094191
	0.6939945817 0.7033056021 0.6567676067
	0.6947793961 0.7041168213 0.6576201916
	0.6955630183 0.7049267292 0.6584712863
	0.6963458061 0.7057358027 0.6593216062
	0.6971247196 0.7065396905 0.6601678133
	0.6979035139 0.7073435187 0.6610140204
	0.6986786723 0.7081443071 0.6618571877
	0.6994504929 0.7089418769 0.6626976728
	0.7002223134 0.7097393870 0.6635380983
	0.7009885907 0.7105317712 0.6643719077
	0.7017540932 0.7113230824 0.6652045250
	0.7025185823 0.7121133804 0.6660360098
	0.7032787204 0.7128974795 0.6668620110
	0.7040386796 0.7136815786 0.6676880717
	0.7047963738 0.7144626975 0.6685119271
	0.7055510879 0.7152395248 0.6693329811
	0.7063059211 0.7160161734 0.6701539755
	0.7070568204 0.7167897224 0.6709715724
	0.7078062296 0.7175614834 0.6717876792
	0.7085556984 0.7183333039 0.6726037860
	0.7092993855 0.7191014290 0.6734123826
	0.7100430131 0.7198691964 0.6742205024
	0.7107855082 0.7206360102 0.6750273705
	0.7115231752 0.7213973999 0.6758279204
	0.7122610211 0.7221586704 0.6766282916
	0.7129974961 0.7229182124 0.6774265170
	0.7137318254 0.7236738801 0.6782206893
	0.7144662142 0.7244296074 0.6790148020
	0.7151979804 0.7251828909 0.6798056960
	0.7159276009 0.7259337902 0.6805936098
	0.7166572809 0.7266848087 0.6813815832
	0.7173827887 0.7274302840 0.6821650267
	0.7181063890 0.7281727791 0.6829462051
	0.7188299894 0.7289153934 0.6837273836
	0.7195504904 0.7296513915 0.6845042706
	0.7202703953 0.7303856015 0.6852802038
	0.7209903002 0.7311198115 0.6860560775
	0.7217056751 0.7318493724 0.6868286729
	0.7224205732 0.7325783968 0.6876009703
	0.7231354713 0.7333073020 0.6883733273
	0.7238441706 0.7340301275 0.6891400218
	0.7245526910 0.7347525954 0.6899065971
	0.7252612114 0.7354750037 0.6906729937
	0.7259656787 0.7361903191 0.6914319992
	0.7266703248 0.7369055152 0.6921910048
	0.7273744941 0.7376205921 0.6929497123
	0.7280738950 0.7383303046 0.6937026978
	0.7287732959 0.7390400171 0.6944558024
	0.7294721007 0.7397493720 0.6952087283
	0.7301635146 0.7404522896 0.6959573030
	0.7308549285 0.7411552072 0.6967059970
	0.7315459847 0.7418580055 0.6974545121
	0.7322310805 0.7425541878 0.6981990933
	0.7329162955 0.7432504296 0.6989436150
	0.7336012721 0.7439466119 0.6996881962
	0.7342811823 0.7446365952 0.7004261017
	0.7349609733 0.7453263998 0.7011638284
	0.7356408238 0.7460162044 0.7019016147
	0.7363131046 0.7467001081 0.7026333809
	0.7369849086 0.7473831773 0.7033646703
	0.7376567125 0.7480663061 0.7040959001
	0.7383230925 0.7487441897 0.7048221231
	0.7389885187 0.7494208217 0.7055472136
	0.7396538258 0.7500973940 0.7062721848
	0.7403153777 0.7507699132 0.7069926858
	0.7409753799 0.7514402866 0.7077111006
	0.7416353822 0.7521107197 0.7084295154
	0.7422909141 0.7527776957 0.7091451287
	0.7429429293 0.7534415126 0.7098584771
	0.7435948253 0.7541053891 0.7105718851
	0.7442438006 0.7547671199 0.7112827897
	0.7448878288 0.7554246187 0.7119894028
	0.7455319166 0.7560821176 0.7126960754
	0.7461751103 0.7567387223 0.7134013772
	0.7468137741 0.7573903203 0.7140998244
	0.7474524975 0.7580417991 0.7147980928
	0.7480912209 0.7586933970 0.7154964209
	0.7487258911 0.7593389750 0.7161883712
	0.7493603826 0.7599840760 0.7168800235
	0.7499948740 0.7606291771 0.7175716162
	0.7506251931 0.7612702250 0.7182598114
	0.7512537837 0.7619091272 0.7189463973
	0.7518823147 0.7625480294 0.7196329236
	0.7525088191 0.7631847262 0.7203181982
	0.7531324029 0.7638177872 0.7210013866
	0.7537561059 0.7644509077 0.7216845751
	0.7543792725 0.7650834918 0.7223674059
	0.7549992204 0.7657102942 0.7230455279
	0.7556189895 0.7663369775 0.7237235904
	0.7562388778 0.7669637203 0.7244017124
	0.7568544745 0.7675850987 0.7250748277
	0.7574688792 0.7682043910 0.7257462144
	0.7580832839 0.7688236833 0.7264177203
	0.7586959004 0.7694402933 0.7270871997
	0.7593057752 0.7700520158 0.7277535200
	0.7599158287 0.7706636190 0.7284198999
	0.7605257034 0.7712752819 0.7290862799
	0.7611322999 0.7718833089 0.7297480106
	0.7617387772 0.7724912167 0.7304096818
	0.7623453736 0.7730990052 0.7310714126
	0.7629489899 0.7737038136 0.7317304015
	0.7635505795 0.7743061781 0.7323871851
	0.7641521096 0.7749084830 0.7330440283
	0.7647531033 0.7755101919 0.7337000966
	0.7653506994 0.7761059999 0.7343516946
	0.7659481764 0.7767019272 0.7350031734
	0.7665457726 0.7772976756 0.7356547117
	0.7671412826 0.7778910995 0.7363024950
	0.7677358985 0.7784829140 0.7369480133
	0.7683303952 0.7790747881 0.7375935912
	0.7689242959 0.7796661258 0.7382383943
	0.7695142031 0.7802531719 0.7388777137
	0.7701042295 0.7808402181 0.7395170927
	0.7706941962 0.7814273238 0.7401564121
	0.7712818980 0.7820110917 0.7407931089
	0.7718682289 0.7825924754 0.7414278984
	0.7724546194 0.7831739187 0.7420626879
	0.7730407715 0.7837553024 0.7426972985
	0.7736244798 0.7843334079 0.7433282137
	0.7742081881 0.7849115729 0.7439591289
	0.7747918963 0.7854897976 0.7445899844
	0.7753731012 0.7860661745 0.7452182174
	0.7759513855 0.7866402864 0.7458429933
	0.7765296102 0.7872143984 0.7464678288
	0.7771078944 0.7877886295 0.7470927238
	0.7776818871 0.7883577943 0.7477130294
	0.7782551050 0.7889257073 0.7483323216
	0.7788282037 0.7894936800 0.7489516139
	0.7794010043 0.7900611162 0.7495700717
	0.7799720764 0.7906246781 0.7501844764
	0.7805430889 0.7911882997 0.7507988214
	0.7811141014 0.7917519212 0.7514132261
	0.7816827893 0.7923139930 0.7520251870
	0.7822489142 0.7928743958 0.7526345253
	0.7828149796 0.7934347987 0.7532438040
	0.7833812237 0.7939952016 0.7538530827
	0.7839428782 0.7945516706 0.7544584870
	0.7845032215 0.7951068282 0.7550626993
	0.7850636244 0.7956619859 0.7556669116
	0.7856239080 0.7962170839 0.7562711239
	0.7861807942 0.7967674732 0.7568696141
	0.7867377996 0.7973179221 0.7574681044
	0.7872946858 0.7978683114 0.7580665946
	0.7878506184 0.7984176874 0.7586637139
	0.7884032726 0.7989639044 0.7592564225
	0.7889561057 0.7995100021 0.7598490119
	0.7895088196 0.8000562191 0.7604417205
	0.7900593281 0.8006005883 0.7610327005
	0.7906069756 0.8011425138 0.7616212964
	0.7911546826 0.8016844988 0.7622098923
	0.7917025089 0.8022264242 0.7627984881
	0.7922484875 0.8027654886 0.7633846998
	0.7927935123 0.8033025861 0.7639691830
	0.7933384180 0.8038396239 0.7645537257
	0.7938833833 0.8043767214 0.7651382089
	0.7944257855 0.8049103022 0.7657201290
	0.7949671745 0.8054423928 0.7663009763
	0.7955086827 0.8059744239 0.7668818831
	0.7960500717 0.8065065145 0.7674626708
	0.7965880036 0.8070362210 0.7680410743
	0.7971251011 0.8075652122 0.7686188221
	0.7976623178 0.8080940843 0.7691965103
	0.7981994152 0.8086230755 0.7697743177
	0.7987347245 0.8091489077 0.7703492045
	0.7992696762 0.8096740842 0.7709236741
	0.7998046875 0.8101993203 0.7714982033
	0.8003398180 0.8107244968 0.7720727921
	0.8008722067 0.8112462759 0.7726444006
	0.8014042974 0.8117675781 0.7732155919
	0.8019365072 0.8122889996 0.7737869024
	0.8024685979 0.8128103018 0.7743582129
	0.8029965162 0.8133283257 0.7749258876
	0.8035238981 0.8138456941 0.7754932046
	0.8040512204 0.8143631816 0.7760605216
	0.8045786023 0.8148807287 0.7766278982
	0.8051033020 0.8153948188 0.7771916986
	0.8056275249 0.8159083128 0.7777550220
	0.8061518073 0.8164218068 0.7783182859
	0.8066759706 0.8169354200 0.7788816094
	0.8071985841 0.8174456954 0.7794430852
	0.8077207208 0.8179551959 0.7800040841
	0.8082427979 0.8184646964 0.7805652022
	0.8087648749 0.8189740777 0.7811262012
	0.8092843294 0.8194804788 0.7816848159
	0.8098024726 0.8199853897 0.7822422981
	0.8103206158 0.8204901814 0.7827997208
	0.8108388186 0.8209950924 0.7833572030
	0.8113549948 0.8214983940 0.7839121819
	0.8118696213 0.8220003843 0.7844650149
	0.8123841882 0.8225023746 0.7850177884
	0.8128988147 0.8230044842 0.7855706811
	0.8134121895 0.8235049844 0.7861223817
	0.8139237761 0.8240029812 0.7866721749
	0.8144353032 0.8245009780 0.7872220874
	0.8149467707 0.8249989152 0.7877719998
	0.8154575229 0.8254960775 0.7883214951
	0.8159641027 0.8259888887 0.7888690233
	0.8164708018 0.8264816999 0.7894164920
	0.8169775009 0.8269745111 0.7899640203
	0.8174842000 0.8274673223 0.7905114889
	0.8179872036 0.8279569149 0.7910552025
	0.8184900284 0.8284462094 0.7915986776
	0.8189927936 0.8289356232 0.7921422124
	0.8194956779 0.8294249177 0.7926856279
	0.8199970126 0.8299115896 0.7932267785
	0.8204975128 0.8303967714 0.7937667966
	0.8209980130 0.8308820128 0.7943068743
	0.8214985728 0.8313671947 0.7948468924
	0.8219977021 0.8318507075 0.7953858972
	0.8224940896 0.8323307037 0.7959229946
	0.8229905963 0.8328106999 0.7964602113
	0.8234871030 0.8332906961 0.7969973087
	0.8239834905 0.8337706923 0.7975344062
	0.8244758844 0.8342465758 0.7980670929
	0.8249682188 0.8347225189 0.7985997200
	0.8254604936 0.8351984024 0.7991324067
	0.8259528875 0.8356742859 0.7996649742
	0.8264433146 0.8361485004 0.8001952767
	0.8269324899 0.8366215229 0.8007240295
	0.8274217248 0.8370944858 0.8012526035
	0.8279109001 0.8375675082 0.8017812967
	0.8283994198 0.8380396962 0.8023093939
	0.8288854957 0.8385075927 0.8028346896
	0.8293715119 0.8389754891 0.8033601046
	0.8298575878 0.8394433856 0.8038854003
	0.8303436041 0.8399114013 0.8044108152
	0.8308259249 0.8403760791 0.8049324751
	0.8313068748 0.8408395052 0.8054528832
	0.8317878842 0.8413029909 0.8059732914
	0.8322690129 0.8417664170 0.8064936996
	0.8327487707 0.8422294855 0.8070130944
	0.8332253098 0.8426914215 0.8075290918
	0.8337017894 0.8431531787 0.8080450892
	0.8341782093 0.8436151147 0.8085610867
	0.8346546888 0.8440768719 0.8090770841
	0.8351281881 0.8445361853 0.8095903993
	0.8356006742 0.8449943066 0.8101025224
	0.8360731006 0.8454524279 0.8106147051
	0.8365455270 0.8459104896 0.8111268878
	0.8370172977 0.8463678956 0.8116385937
	0.8374856114 0.8468207121 0.8121470809
	0.8379539847 0.8472735286 0.8126556277
	0.8384222984 0.8477262855 0.8131639957
	0.8388906121 0.8481791019 0.8136724830
	0.8393570185 0.8486301899 0.8141798973
	0.8398215771 0.8490794897 0.8146862984
	0.8402863145 0.8495287895 0.8151926994
	0.8407509923 0.8499780893 0.8156991005
	0.8412157297 0.8504275084 0.8162055016
	0.8416776061 0.8508747816 0.8167092800
	0.8421391249 0.8513218760 0.8172127008
	0.8426007032 0.8517689705 0.8177161217
	0.8430622220 0.8522161245 0.8182194829
	0.8435230851 0.8526622057 0.8187221289
	0.8439813852 0.8531038761 0.8192216754
	0.8444396853 0.8535456061 0.8197212219
	0.8448979855 0.8539872766 0.8202207088
	0.8453562856 0.8544290066 0.8207201958
	0.8458127975 0.8548687100 0.8212186098
	0.8462672830 0.8553062081 0.8217157722
	0.8467218876 0.8557437062 0.8222129941
	0.8471763730 0.8561813235 0.8227102160
	0.8476309180 0.8566188216 0.8232073784
	0.8480827212 0.8570545912 0.8237022758
	0.8485333920 0.8574895859 0.8241963983
	0.8489841223 0.8579246998 0.8246904016
	0.8494347930 0.8583598137 0.8251844049
	0.8498855233 0.8587948084 0.8256785274
