release/datafiles/colormanagement/luts/film_response/agfa_advantix_400.spi1d
Version 1
From 0.0 1.0
Length 1024
Components 3
{
	0.0000000000 0.0000000000 0.0000000000
	0.0077106012 0.0070298198 0.0049559241
	0.0147110997 0.0133244200 0.0095438547
	0.0209813993 0.0190351103 0.0137957605
	0.0266668592 0.0242017098 0.0177728795
	0.0318832099 0.0289859492 0.0215300098
	0.0367198400 0.0334706604 0.0251365695
	0.0412060991 0.0377071798 0.0285660401
	0.0454186983 0.0417603701 0.0318240002
	0.0495144203 0.0456782803 0.0349723399
	0.0534897000 0.0494300202 0.0380599014
	0.0572170094 0.0530248806 0.0410333909
	0.0607506298 0.0564629287 0.0438579209
	0.0642050877 0.0597890504 0.0466150604
	0.0676248968 0.0630782619 0.0493207090
	0.0709792525 0.0663433895 0.0519826487
	0.0742666870 0.0695055276 0.0545649193
	0.0774300173 0.0725333989 0.0570865013
	0.0805151016 0.0754740685 0.0595324002
	0.0835210085 0.0783350095 0.0619145297
	0.0864818692 0.0811579376 0.0642616600
	0.0894213691 0.0839637592 0.0665879101
	0.0923196077 0.0867140666 0.0689035431
	0.0951313078 0.0894301310 0.0712108612
	0.0978739634 0.0921017230 0.0734841302
	0.1005603969 0.0947171375 0.0757039636
	0.1032031998 0.0972908884 0.0778791532
	0.1058200002 0.0998220220 0.0800394490
	0.1084190011 0.1023029983 0.0821614563
	0.1110042036 0.1047497019 0.0842550322
	0.1135606021 0.1071517989 0.0863265395
	0.1160767004 0.1095222011 0.0883673579
	0.1185398027 0.1118747965 0.0903817788
	0.1209601983 0.1141934991 0.0923686922
	0.1233263016 0.1164946035 0.0943281874
	0.1256539971 0.1187560037 0.0962788835
	0.1279318035 0.1210196018 0.0982189104
	0.1301839054 0.1232483014 0.1001423001
	0.1324169934 0.1254474968 0.1020568013
	0.1346450001 0.1275981963 0.1039576009
	0.1368439049 0.1297464967 0.1058444977
	0.1390296966 0.1318780035 0.1077136993
	0.1412141025 0.1339951009 0.1095665023
	0.1433850974 0.1361036003 0.1114090011
	0.1455492973 0.1381817013 0.1132375002
	0.1476995945 0.1402491927 0.1150472015
	0.1498260051 0.1422760040 0.1168475971
	0.1519210935 0.1442877054 0.1186361015
	0.1539843976 0.1462759972 0.1204114035
	0.1560284048 0.1482367963 0.1221595034
	0.1580577046 0.1501837969 0.1238816977
	0.1600770950 0.1520957053 0.1255871058
	0.1620800942 0.1539966017 0.1272871047
	0.1640495956 0.1559009999 0.1289671063
	0.1659898013 0.1577883065 0.1306212991
	0.1679138988 0.1596692055 0.1322596073
	0.1698164046 0.1615532041 0.1338987052
	0.1716932058 0.1634092033 0.1355329007
	0.1735651940 0.1652536988 0.1371469051
	0.1754256934 0.1670915931 0.1387543976
	0.1772599965 0.1689036936 0.1403618008
	0.1790851951 0.1707046032 0.1419776976
	0.1808962971 0.1724977046 0.1435960978
	0.1826874018 0.1742753983 0.1452053040
	0.1844758987 0.1760344952 0.1468037963
	0.1862519979 0.1777956039 0.1483945996
	0.1880110949 0.1795548946 0.1499821991
	0.1897681952 0.1812911928 0.1515644044
	0.1915334016 0.1830188930 0.1531336010
	0.1933026016 0.1847521067 0.1546926945
	0.1950711012 0.1864724010 0.1562453955
	0.1968317926 0.1881736070 0.1577879936
	0.1985855997 0.1898707002 0.1593212038
	0.2003341019 0.1915744990 0.1608411968
	0.2020726055 0.1932611018 0.1623475999
	0.2038006037 0.1949308962 0.1638498008
	0.2055211961 0.1965949982 0.1653402001
	0.2072315067 0.1982464939 0.1668276936
	0.2089259028 0.1998752952 0.1683100015
	0.2106073052 0.2014864981 0.1697766036
	0.2122824937 0.2030902952 0.1712321937
	0.2139520049 0.2046858966 0.1726851016
	0.2156112045 0.2062691003 0.1741385013
	0.2172587067 0.2078413963 0.1755896062
	0.2189002037 0.2094067931 0.1770340055
	0.2205414027 0.2109739035 0.1784697026
	0.2221654058 0.2125506997 0.1799007058
	0.2237752974 0.2141104043 0.1813267022
	0.2253734022 0.2156585008 0.1827555001
	0.2269579023 0.2172029018 0.1841821969
	0.2285311073 0.2187507004 0.1856049001
	0.2301028073 0.2203052938 0.1870242953
	0.2316679060 0.2218398005 0.1884412020
	0.2332272977 0.2233646065 0.1898476034
	0.2347781956 0.2248875052 0.1912508011
	0.2363210022 0.2264139950 0.1926520020
	0.2378583997 0.2279502004 0.1940511018
	0.2393900007 0.2294773012 0.1954436004
	0.2409213930 0.2309951931 0.1968320012
	0.2424533069 0.2325080037 0.1982160956
	0.2439856976 0.2340212017 0.1995960027
	0.2455042005 0.2355341017 0.2009744048
	0.2470149994 0.2370381951 0.2023515999
	0.2485187054 0.2385327965 0.2037250996
	0.2500135005 0.2400144935 0.2050911933
	0.2515035868 0.2414941937 0.2064488977
	0.2529886961 0.2429734021 0.2078043073
	0.2544668913 0.2444527000 0.2091580927
	0.2559421062 0.2459246963 0.2105102986
	0.2574181855 0.2473870963 0.2118566930
	0.2588958144 0.2488387972 0.2131976932
	0.2603701949 0.2502841949 0.2145289928
	0.2618409991 0.2517311871 0.2158571929
	0.2633078098 0.2531799972 0.2171828002
	0.2647666931 0.2546122968 0.2185021937
	0.2662197948 0.2560352981 0.2198203057
	0.2676647902 0.2574462891 0.2211371064
	0.2690947056 0.2588512003 0.2224553972
	0.2705186903 0.2602562904 0.2237727940
	0.2719335854 0.2616656125 0.2250885069
	0.2733449936 0.2630712092 0.2264019996
	0.2747541964 0.2644746006 0.2277133018
	0.2761535943 0.2658649981 0.2290149033
	0.2775473893 0.2672511041 0.2303117961
	0.2789311111 0.2686300874 0.2316035926
	0.2803080976 0.2700101137 0.2328924984
	0.2816820145 0.2713905871 0.2341804951
	0.2830528915 0.2727720141 0.2354660928
	0.2844218910 0.2741498053 0.2367486060
	0.2857857049 0.2755183876 0.2380257994
	0.2871482074 0.2768800855 0.2393009067
	0.2885094881 0.2782357037 0.2405748963
	0.2898694873 0.2795907855 0.2418427020
	0.2912288904 0.2809456885 0.2431090027
	0.2925894856 0.2822988927 0.2443675995
	0.2939479947 0.2836497128 0.2456243038
	0.2952952981 0.2849884033 0.2468754947
	0.2966383994 0.2863219976 0.2481230944
	0.2979727983 0.2876453102 0.2493657023
	0.2993055880 0.2889670134 0.2506079078
	0.3006362915 0.2902868092 0.2518497109
	0.3019703031 0.2916113138 0.2530942857
	0.3033066094 0.2929391861 0.2543402910
	0.3046467900 0.2942663133 0.2555767894
	0.3059892058 0.2955929935 0.2568103075
	0.3073258102 0.2969133854 0.2580339909
	0.3086602092 0.2982315123 0.2592557073
	0.3099907041 0.2995441854 0.2604722977
	0.3113198876 0.3008551896 0.2616879940
	0.3126456141 0.3021624088 0.2629038990
	0.3139702082 0.3034684956 0.2641198039
	0.3152804971 0.3047659099 0.2653389871
	0.3165856004 0.3060601950 0.2665588856
	0.3178817928 0.3073394001 0.2677814960
	0.3191738129 0.3086116910 0.2690047026
	0.3204653859 0.3098776937 0.2702280879
	0.3217566907 0.3111397028 0.2714515030
	0.3230504096 0.3124023974 0.2726680934
	0.3243465126 0.3136656880 0.2738803029
	0.3256357014 0.3149282932 0.2750887871
	0.3269129992 0.3161900043 0.2762930095
	0.3281877041 0.3174473047 0.2774964869
	0.3294523060 0.3186891079 0.2786985040
	0.3307167888 0.3199306130 0.2799009085
	0.3319742084 0.3211612105 0.2811062932
	0.3332315981 0.3223916888 0.2823117077
	0.3344798982 0.3236224949 0.2835228145
	0.3357258141 0.3248533905 0.2847346067
	0.3369632959 0.3260852993 0.2859402895
	0.3381935060 0.3273181915 0.2871426940
	0.3394210935 0.3285504878 0.2883437872
	0.3406409919 0.3297812939 0.2895427942
	0.3418608904 0.3310121894 0.2907412052
	0.3430762887 0.3322376013 0.2919301987
	0.3442913890 0.3334628046 0.2931191921
	0.3455013931 0.3346853852 0.2943033874
	0.3467079103 0.3359062970 0.2954855859
	0.3479113877 0.3371267021 0.2966673970
	0.3491044044 0.3383455873 0.2978483140
	0.3502975106 0.3395645022 0.2990292907
	0.3514811993 0.3407759070 0.3002046943
	0.3526628017 0.3419859111 0.3013797998
	0.3538405001 0.3431887925 0.3025487959
	0.3550119102 0.3443804085 0.3037114143
	0.3561832011 0.3455719948 0.3048739135
	0.3573499024 0.3467567861 0.3060263097
	0.3585161865 0.3479408920 0.3071787059
	0.3596819937 0.3491263092 0.3083275855
	0.3608472049 0.3503136933 0.3094730973
	0.3620123863 0.3515009880 0.3106186092
	0.3631744087 0.3526912928 0.3117532134
	0.3643358946 0.3538821042 0.3128874004
	0.3654957116 0.3550710082 0.3140192926
	0.3666515052 0.3562552929 0.3151476085
	0.3678072095 0.3574396968 0.3162758946
	0.3689568043 0.3586226106 0.3174037933
	0.3701032996 0.3598049879 0.3185315132
	0.3712497056 0.3609873056 0.3196595907
	0.3723874092 0.3621698916 0.3207899034
	0.3735251129 0.3633525968 0.3219203055
	0.3746606112 0.3645330071 0.3230482042
	0.3757919073 0.3657091856 0.3241730034
	0.3769231141 0.3668855131 0.3252978027
	0.3780477941 0.3680585921 0.3264195919
	0.3791683912 0.3692297041 0.3275401890
	0.3802889884 0.3704009056 0.3286607862
	0.3814114928 0.3715662062 0.3297694921
	0.3825342059 0.3727307022 0.3308778107
	0.3836567998 0.3738948107 0.3319844902
	0.3847779036 0.3750543892 0.3330835998
	0.3858990073 0.3762139976 0.3341825902
	0.3870202899 0.3773706853 0.3352803886
	0.3881419003 0.3785190880 0.3363755047
	0.3892636001 0.3796674013 0.3374705911
	0.3903855085 0.3808118105 0.3385663033
	0.3915078044 0.3819499016 0.3396627009
	0.3926301897 0.3830879927 0.3407590091
	0.3937473893 0.3842205107 0.3418577909
	0.3948588073 0.3853465915 0.3429583013
	0.3959701955 0.3864727020 0.3440589011
	0.3970786929 0.3875936866 0.3451572061
	0.3981842995 0.3887099922 0.3462541997
	0.3992899954 0.3898262978 0.3473511934
	0.4003950953 0.3909426928 0.3484469056
	0.4014996886 0.3920593858 0.3495419025
	0.4026043117 0.3931761086 0.3506368995
	0.4037061036 0.3942928016 0.3517259955
	0.4048052132 0.3954096138 0.3528110087
	0.4059042931 0.3965264857 0.3538959920
	0.4069995880 0.3976393044 0.3549771905
	0.4080899060 0.3987472057 0.3560549915
	0.4091801047 0.3998549879 0.3571327925
	0.4102692008 0.4009611905 0.3582096994
	0.4113557935 0.4020644128 0.3592854142
	0.4124422967 0.4031674862 0.3603610098
	0.4135288894 0.4042702019 0.3614374101
	0.4146164060 0.4053708017 0.3625159860
	0.4157038033 0.4064713120 0.3635945916
	0.4167912900 0.4075717926 0.3646731079
	0.4178684056 0.4086636007 0.3657506108
	0.4189451039 0.4097551107 0.3668282032
	0.4200218916 0.4108465910 0.3679057062
	0.4210911095 0.4119307995 0.3689739108
	0.4221575856 0.4130122960 0.3700402081
	0.4232240021 0.4140937924 0.3711063862
	0.4242891967 0.4151681066 0.3721705079
	0.4253528118 0.4162335992 0.3732328117
	0.4264163971 0.4172990918 0.3742950857
	0.4274801910 0.4183638096 0.3753553033
	0.4285458922 0.4194228053 0.3764078021
	0.4296115041 0.4204818010 0.3774603903
	0.4306772053 0.4215407968 0.3785130084
	0.4317356944 0.4225960970 0.3795596957
	0.4327917993 0.4236500859 0.3806053102
	0.4338479042 0.4247041941 0.3816510141
	0.4349010885 0.4257571995 0.3826957047
	0.4359481037 0.4268082976 0.3837392926
	0.4369950891 0.4278593957 0.3847829103
	0.4380421042 0.4289104939 0.3858264983
	0.4390830994 0.4299480021 0.3868727982
	0.4401232004 0.4309833944 0.3879191875
	0.4411633015 0.4320186973 0.3889656067
	0.4421998858 0.4330511987 0.3900116980
	0.4432297945 0.4340781868 0.3910571933
	0.4442596138 0.4351052940 0.3921026886
	0.4452894926 0.4361324012 0.3931482136
	0.4463081956 0.4371604025 0.3941898048
	0.4473238885 0.4381886125 0.3952310085
	0.4483394921 0.4392169118 0.3962720931
	0.4493534863 0.4402456880 0.3973116875
	0.4503594041 0.4412770867 0.3983471990
	0.4513652921 0.4423084855 0.3993827105
	0.4523712099 0.4433399141 0.4004181027
	0.4533743858 0.4443711936 0.4014500976
	0.4543752968 0.4454025030 0.4024800062
	0.4553762078 0.4464336932 0.4035097957
	0.4563770890 0.4474649131 0.4045395851
	0.4573712051 0.4484929144 0.4055626094
	0.4583637118 0.4495202899 0.4065848887
	0.4593561888 0.4505476058 0.4076071978
	0.4603483975 0.4515748024 0.4086290896
	0.4613364041 0.4525992870 0.4096485972
	0.4623242915 0.4536238015 0.4106681049
	0.4633122981 0.4546484053 0.4116876125
	0.4642986953 0.4556727111 0.4127076864
	0.4652802050 0.4566963017 0.4137291908
	0.4662617147 0.4577200115 0.4147506952
	0.4672433138 0.4587436914 0.4157721996
	0.4682214856 0.4597648084 0.4167939126
	0.4691945910 0.4607819021 0.4178156853
	0.4701677859 0.4617989957 0.4188374877
	0.4711408913 0.4628162086 0.4198592901
	0.4721117914 0.4638265073 0.4208815098
	0.4730801880 0.4648295045 0.4219039977
	0.4740486145 0.4658325016 0.4229264855
	0.4750168920 0.4668354988 0.4239490926
	0.4759812951 0.4678359032 0.4249672890
	0.4769417942 0.4688338935 0.4259825051
	0.4779022932 0.4698317945 0.4269978106
	0.4788627923 0.4708298147 0.4280130863
	0.4798217118 0.4718261063 0.4290243089
	0.4807789028 0.4728206098 0.4300324917
	0.4817360938 0.4738149941 0.4310407043
	0.4826933146 0.4748094976 0.4320487976
	0.4836510122 0.4758031070 0.4330525994
	0.4846090972 0.4767954051 0.4340521097
	0.4855673015 0.4777877033 0.4350515008
	0.4865255058 0.4787800014 0.4360510111
	0.4874827862 0.4797681868 0.4370489120
	0.4884381890 0.4807466865 0.4380441904
	0.4893935025 0.4817250967 0.4390394986
	0.4903487861 0.4827035964 0.4400348067
	0.4913035929 0.4836812913 0.4410301149
	0.4922530055 0.4846526980 0.4420258105
	0.4932022989 0.4856241941 0.4430215061
	0.4941517115 0.4865956008 0.4440171123
	0.4951010942 0.4875670969 0.4450128078
	0.4960469902 0.4885401130 0.4460073113
	0.4969922900 0.4895133078 0.4470018148
	0.4979375899 0.4904865026 0.4479962885
	0.4988828897 0.4914596975 0.4489907026
	0.4998261929 0.4924297035 0.4499832988
	0.5007678866 0.4933972061 0.4509747922
	0.5017095804 0.4943645895 0.4519664049
	0.5026512146 0.4953320920 0.4529578984
	0.5035929084 0.4962972105 0.4539453983
	0.5045344830 0.4972535968 0.4549227953
	0.5054761767 0.4982098937 0.4559001923
	0.5064178109 0.4991663098 0.4568775892
	0.5073593855 0.5001226068 0.4578549862
	0.5082985759 0.5010713935 0.4588257968
	0.5092371106 0.5020182133 0.4597955048
	0.5101755261 0.5029649734 0.4607652128
	0.5111140013 0.5039117932 0.4617348909
	0.5120512843 0.5048583150 0.4627009034
	0.5129861832 0.5058041811 0.4636611938
	0.5139210224 0.5067501068 0.4646215141
	0.5148558021 0.5076960921 0.4655818045
	0.5157907009 0.5086420178 0.4665420949
	0.5167201161 0.5095835924 0.4674983025
	0.5176479220 0.5105239153 0.4684537053
	0.5185757279 0.5114641786 0.4694091976
	0.5195034742 0.5124045014 0.4703646004
	0.5204296112 0.5133435726 0.4713194966
	0.5213472843 0.5142772794 0.4722726047
	0.5222650766 0.5152109265 0.4732257128
	0.5231828094 0.5161445141 0.4741787910
	0.5241004825 0.5170782208 0.4751318991
	0.5250151753 0.5180053115 0.4760791957
	0.5259271264 0.5189262033 0.4770225883
	0.5268388987 0.5198469758 0.4779661000
	0.5277506709 0.5207679272 0.4789094925
	0.5286625028 0.5216888189 0.4798529148
	0.5295729041 0.5226063132 0.4807907045
	0.5304828882 0.5235229135 0.4817276001
	0.5313928723 0.5244395137 0.4826645851
	0.5323029160 0.5253561139 0.4836015105
	0.5332129002 0.5262727141 0.4845381975
	0.5341181159 0.5271934867 0.4854718149
	0.5350232720 0.5281143188 0.4864053130
	0.5359284282 0.5290349722 0.4873388112
	0.5368335843 0.5299558043 0.4882723987
	0.5377376080 0.5308768749 0.4892036915
	0.5386344790 0.5318000913 0.4901269078
	0.5395315289 0.5327231884 0.4910500944
	0.5404284000 0.5336464047 0.4919733107
	0.5413252711 0.5345695019 0.4928965867
	0.5422213078 0.5354900956 0.4938173890
	0.5431140065 0.5364019871 0.4947327971
	0.5440065861 0.5373138785 0.4956482053
	0.5448992848 0.5382258296 0.4965636134
	0.5457919240 0.5391377211 0.4974789023
	0.5466845036 0.5400484800 0.4983932078
	0.5475770235 0.5409557223 0.4993050992
	0.5484694839 0.5418627858 0.5002170205
	0.5493621230 0.5427699089 0.5011289120
	0.5502545834 0.5436770916 0.5020408034
	0.5511453748 0.5445848703 0.5029529929
	0.5520284176 0.5454956889 0.5038657784
	0.5529114008 0.5464066267 0.5047786236
	0.5537943244 0.5473175049 0.5056914091
	0.5546773076 0.5482283235 0.5066043139
	0.5555598140 0.5491390228 0.5075178146
	0.5564333797 0.5500462055 0.5084359050
	0.5573070049 0.5509535074 0.5093541145
	0.5581805706 0.5518608093 0.5102722049
	0.5590541959 0.5527679920 0.5111904144
	0.5599278212 0.5536752939 0.5121085048
	0.5607947707 0.5545750260 0.5130286813
	0.5616607070 0.5554735065 0.5139490962
	0.5625265837 0.5563721061 0.5148693919
	0.5633925200 0.5572705865 0.5157896876
	0.5642585158 0.5581691265 0.5167099833
	0.5651180744 0.5590634942 0.5176302195
	0.5659735799 0.5599551201 0.5185502172
	0.5668290257 0.5608466268 0.5194702148
	0.5676844120 0.5617381930 0.5203902125
	0.5685399175 0.5626296997 0.5213103294
	0.5693951845 0.5635216832 0.5222290158
	0.5702500939 0.5644145012 0.5231453776
	0.5711050034 0.5653073788 0.5240616798
	0.5719599128 0.5662003160 0.5249779820
	0.5728148222 0.5670931935 0.5258942842
	0.5736696720 0.5679860711 0.5268107057
	0.5745213032 0.5688735843 0.5277202725
	0.5753722787 0.5697603226 0.5286294222
	0.5762233734 0.5706470013 0.5295385122
	0.5770744085 0.5715336800 0.5304474831
	0.5779255033 0.5724204183 0.5313565731
	0.5787749290 0.5733029842 0.5322644114
	0.5796216726 0.5741786957 0.5331705213
	0.5804684758 0.5750545263 0.5340765715
	0.5813153982 0.5759302974 0.5349826813
	0.5821622014 0.5768060088 0.5358887911
	0.5830090046 0.5776817799 0.5367949009
	0.5838500261 0.5785498023 0.5377020240
	0.5846896768 0.5794162750 0.5386093259
	0.5855293870 0.5802826881 0.5395165086
	0.5863690972 0.5811491013 0.5404236913
	0.5872088075 0.5820155144 0.5413309932
	0.5880478024 0.5828816295 0.5422391295
	0.5888836980 0.5837466121 0.5431495905
	0.5897195935 0.5846114755 0.5440601110
	0.5905554891 0.5854765177 0.5449705720
	0.5913913250 0.5863415003 0.5458810925
	0.5922272205 0.5872064233 0.5467916131
	0.5930604935 0.5880705118 0.5476971865
	0.5938909054 0.5889335871 0.5485988855
	0.5947213173 0.5897967815 0.5495005250
	0.5955516100 0.5906599164 0.5504022241
	0.5963820219 0.5915231109 0.5513038039
	0.5972123742 0.5923861861 0.5522055030
	0.5980378985 0.5932421088 0.5531039834
	0.5988610983 0.5940948129 0.5540016294
	0.5996842980 0.5949473977 0.5548992157
	0.6005076170 0.5958001018 0.5557969213
	0.6013308167 0.5966528058 0.5566945076
	0.6021540761 0.5975055099 0.5575920939
	0.6029741764 0.5983492136 0.5584818721
	0.6037936807 0.5991911888 0.5593709946
	0.6046133041 0.6000332236 0.5602599978
	0.6054328084 0.6008751988 0.5611490011
	0.6062523127 0.6017171144 0.5620381236
	0.6070718765 0.6025590897 0.5629271269
	0.6078854203 0.6033985019 0.5638099909
	0.6086981297 0.6042374969 0.5646926761
	0.6095107794 0.6050766110 0.5655754209
	0.6103236079 0.6059157252 0.5664582253
	0.6111363173 0.6067547202 0.5673409104
	0.6119490266 0.6075937748 0.5682235956
	0.6127572060 0.6084339023 0.5691041946
	0.6135646105 0.6092742085 0.5699847937
	0.6143720150 0.6101143956 0.5708652735
	0.6151794195 0.6109547019 0.5717458725
	0.6159867048 0.6117950082 0.5726264119
	0.6167941093 0.6126351953 0.5735070109
	0.6175978780 0.6134642959 0.5743842125
	0.6184005141 0.6142898798 0.5752606988
	0.6192030907 0.6151155829 0.5761371851
	0.6200057268 0.6159412265 0.5770136714
	0.6208083034 0.6167668104 0.5778902173
	0.6216108799 0.6175925136 0.5787667036
	0.6224128008 0.6184120178 0.5796405077
	0.6232140064 0.6192271113 0.5805128217
	0.6240152717 0.6200422049 0.5813850760
	0.6248164773 0.6208572984 0.5822573900
	0.6256178021 0.6216725111 0.5831297040
	0.6264191270 0.6224876046 0.5840020180
	0.6272190213 0.6233018041 0.5848723054
	0.6280159950 0.6241139770 0.5857393146
	0.6288130879 0.6249262094 0.5866062045
	0.6296101213 0.6257383823 0.5874732137
	0.6304070950 0.6265506148 0.5883401036
	0.6312041283 0.6273627877 0.5892071128
	0.6320011020 0.6281750202 0.5900738835
	0.6327958107 0.6289898753 0.5909329057
	0.6335904002 0.6298049092 0.5917918086
	0.6343849897 0.6306200027 0.5926507711
	0.6351795197 0.6314349771 0.5935097933
	0.6359741092 0.6322500706 0.5943686962
	0.6367686987 0.6330651045 0.5952277184
	0.6375622153 0.6338756084 0.5960803032
	0.6383545995 0.6346815228 0.5969281793
	0.6391469836 0.6354873776 0.5977761149
	0.6399394870 0.6362932920 0.5986239910
	0.6407318711 0.6370993257 0.5994718075
	0.6415243745 0.6379051805 0.6003196836
	0.6423168182 0.6387110949 0.6011673212
	0.6431099176 0.6395062804 0.6020082235
	0.6439030766 0.6403012276 0.6028491259
	0.6446962953 0.6410961151 0.6036899090
	0.6454893947 0.6418910027 0.6045308113
	0.6462826133 0.6426858902 0.6053715944
	0.6470757127 0.6434808969 0.6062124968
	0.6478682160 0.6442744732 0.6070520878
	0.6486594081 0.6450660229 0.6078900099
	0.6494506001 0.6458573937 0.6087278128
	0.6502417922 0.6466488242 0.6095656753
	0.6510329843 0.6474401951 0.6104035974
	0.6518241763 0.6482316852 0.6112414002
	0.6526154280 0.6490231156 0.6120793223
	0.6534075141 0.6498171091 0.6129179001
	0.6542003155 0.6506124735 0.6137567759
	0.6549929976 0.6514077783 0.6145955920
	0.6557856798 0.6522032022 0.6154345274
	0.6565784216 0.6529986262 0.6162734032
	0.6573712230 0.6537939906 0.6171122789
	0.6581639051 0.6545892954 0.6179510951
	0.6589608788 0.6553863287 0.6187928915
	0.6597586274 0.6561836004 0.6196351051
	0.6605563164 0.6569808125 0.6204771996
	0.6613541245 0.6577780843 0.6213192940
	0.6621518135 0.6585754156 0.6221613884
	0.6629495025 0.6593726873 0.6230034828
	0.6637473106 0.6601698995 0.6238455772
	0.6645362973 0.6609578133 0.6246849895
	0.6653249264 0.6617453098 0.6255244017
	0.6661134958 0.6625326872 0.6263638139
	0.6669020057 0.6633201241 0.6272032261
	0.6676905751 0.6641076207 0.6280425787
	0.6684792042 0.6648949981 0.6288819909
	0.6692677736 0.6656824946 0.6297214031
	0.6700507998 0.6664658785 0.6305593252
	0.6708337069 0.6672493219 0.6313971877
	0.6716166139 0.6680325866 0.6322351098
	0.6723995209 0.6688159108 0.6330729723
	0.6731824279 0.6695992947 0.6339108944
	0.6739652157 0.6703826189 0.6347488165
	0.6747481227 0.6711658835 0.6355866790
	0.6755290031 0.6719505191 0.6364173889
	0.6763095856 0.6727352142 0.6372476220
	0.6770902276 0.6735200286 0.6380779147
	0.6778709292 0.6743047237 0.6389080882
	0.6786515117 0.6750894189 0.6397383809
	0.6794320941 0.6758741140 0.6405686140
	0.6802126765 0.6766588092 0.6413989067
	0.6809899211 0.6774402261 0.6422249079
	0.6817654967 0.6782202721 0.6430497169
	0.6825411916 0.6790003181 0.6438744068
	0.6833168864 0.6797804236 0.6446992159
	0.6840925813 0.6805605292 0.6455240250
	0.6848682761 0.6813405156 0.6463487148
	0.6856439710 0.6821206212 0.6471735239
	0.6864163876 0.6828963161 0.6479974985
	0.6871845126 0.6836665869 0.6488205791
	0.6879525781 0.6844369173 0.6496437788
	0.6887208223 0.6852071881 0.6504669189
	0.6894888878 0.6859775186 0.6512901187
	0.6902570128 0.6867477894 0.6521131992
	0.6910251975 0.6875181198 0.6529363990
	0.6917930245 0.6882880926 0.6537595987
	0.6925569773 0.6890543103 0.6545832753
	0.6933209896 0.6898205280 0.6554070115
	0.6940848827 0.6905866861 0.6562306881
	0.6948488951 0.6913527846 0.6570544243
	0.6956127882 0.6921190023 0.6578781009
	0.6963768005 0.6928852201 0.6587017775
	0.6971408129 0.6936513782 0.6595255136
	0.6979042888 0.6944183111 0.6603466868
	0.6986675262 0.6951858997 0.6611664891
	0.6994307041 0.6959534287 0.6619862914
	0.7001938820 0.6967208982 0.6628060937
	0.7009570003 0.6974884272 0.6636258960
	0.7017201781 0.6982558966 0.6644456983
	0.7024834156 0.6990234852 0.6652655005
	0.7032464743 0.6997908950 0.6660854220
	0.7040007114 0.7005546093 0.6669068933
	0.7047548890 0.7013183832 0.6677284837
	0.7055091262 0.7020820975 0.6685500145
	0.7062633038 0.7028458118 0.6693716049
	0.7070174813 0.7036095262 0.6701930761
	0.7077717185 0.7043731809 0.6710147262
	0.7085258961 0.7051368952 0.6718361974
	0.7092772126 0.7058975101 0.6726554036
	0.7100226283 0.7066521049 0.6734707952
	0.7107681036 0.7074066997 0.6742863059
	0.7115135789 0.7081612945 0.6751016974
	0.7122589946 0.7089158893 0.6759172082
	0.7130045295 0.7096704841 0.6767325997
	0.7137500048 0.7104250789 0.6775481105
	0.7144954205 0.7111796737 0.6783635020
	0.7152379155 0.7119320035 0.6791734099
	0.7159780264 0.7126826048 0.6799798012
	0.7167180777 0.7134332061 0.6807861924
