release/datafiles/colormanagement/luts/film_response/agfa_agfacolor_hdc_200_plus.spi1d
Version 1
From 0.0 1.0
Length 1024
Components 3
{
	0.0000000000 0.0000000000 0.0000000000
	0.0127044199 0.0141023202 0.0096477531
	0.0238081105 0.0259745792 0.0176070407
	0.0334607586 0.0364749506 0.0246724300
	0.0421523489 0.0458938591 0.0311751105
	0.0501546115 0.0544666387 0.0372429788
	0.0576152317 0.0623432994 0.0429810397
	0.0646389574 0.0696527734 0.0484409109
	0.0713031068 0.0764547214 0.0536791012
	0.0776453391 0.0828472674 0.0587162301
	0.0837018490 0.0889110714 0.0635792091
	0.0895045772 0.0946782306 0.0683003217
	0.0950731933 0.1001901999 0.0728791431
	0.1004388034 0.1054987013 0.0773395300
	0.1056184024 0.1106514037 0.0816663206
	0.1106417999 0.1156636998 0.0858941898
	0.1155219972 0.1205495000 0.0900247619
	0.1202521995 0.1252955049 0.0940808207
	0.1248437986 0.1299131066 0.0980586410
	0.1292977929 0.1344144046 0.1019453034
	0.1336303949 0.1388116032 0.1057268977
	0.1378560066 0.1431176960 0.1094207019
	0.1419790983 0.1473421007 0.1130444035
	0.1460126042 0.1514800042 0.1166006997
	0.1499602944 0.1555261016 0.1200909987
	0.1538154036 0.1594948024 0.1235229000
	0.1575873941 0.1633805931 0.1269004941
	0.1612810045 0.1671908945 0.1302188039
	0.1648989022 0.1709319055 0.1334829926
	0.1684425026 0.1746093035 0.1366928071
	0.1719215959 0.1782346964 0.1398548931
	0.1753377020 0.1818004996 0.1429744959
	0.1787009984 0.1853079051 0.1460445970
	0.1820088029 0.1887629032 0.1490730941
	0.1852703989 0.1921591014 0.1520525962
	0.1884782016 0.1955104023 0.1549959034
	0.1916348040 0.1988154948 0.1578975022
	0.1947418004 0.2020708025 0.1607636064
	0.1978072971 0.2052816004 0.1635923982
	0.2008365989 0.2084514052 0.1663880944
	0.2038186044 0.2115817070 0.1691492051
	0.2067597061 0.2146739066 0.1718768030
	0.2096651047 0.2177291960 0.1745762974
	0.2125398964 0.2207520008 0.1772498935
	0.2153764963 0.2237412930 0.1798918992
	0.2181748003 0.2266951948 0.1825038940
	0.2209406942 0.2296195030 0.1850908995
	0.2236783057 0.2325070053 0.1876516938
	0.2263896018 0.2353623956 0.1901890934
	0.2290693074 0.2381868958 0.1927060932
	0.2317135036 0.2409814000 0.1951995045
	0.2343312949 0.2437489927 0.1976688951
	0.2369202971 0.2464884967 0.2001180947
	0.2394883931 0.2492032051 0.2025482059
	0.2420337945 0.2518971860 0.2049552947
	0.2445555031 0.2545694113 0.2073439062
	0.2470511049 0.2572140098 0.2097100019
	0.2495238036 0.2598383129 0.2120579928
	0.2519746125 0.2624385953 0.2143891007
	0.2544065118 0.2650176883 0.2167063057
	0.2568238080 0.2675766945 0.2190068066
	0.2592222989 0.2701159120 0.2212958038
	0.2615979910 0.2726357877 0.2235656977
	0.2639487982 0.2751353979 0.2258211970
	0.2662819922 0.2776151896 0.2280610055
	0.2685964108 0.2800753117 0.2302847058
	0.2708936930 0.2825163007 0.2324967980
	0.2731778920 0.2849400938 0.2346933931
	0.2754473984 0.2873477042 0.2368790060
	0.2776994109 0.2897374034 0.2390515059
	0.2799314857 0.2921099067 0.2412095070
	0.2821440101 0.2944638133 0.2433556020
	0.2843374014 0.2968018055 0.2454877943
	0.2865155935 0.2991257012 0.2476056069
	0.2886820138 0.3014312983 0.2497113049
	0.2908358872 0.3037211895 0.2518028915
	0.2929798961 0.3059999049 0.2538796961
	0.2951102853 0.3082641065 0.2559436858
	0.2972272933 0.3105159104 0.2579965889
	0.2993307114 0.3127523959 0.2600373030
	0.3014214933 0.3149785101 0.2620668113
	0.3034971058 0.3171896935 0.2640840113
	0.3055574000 0.3193879128 0.2660909891
	0.3076024950 0.3215714097 0.2680850029
	0.3096376061 0.3237439990 0.2700704932
	0.3116613030 0.3259027898 0.2720479965
	0.3136739135 0.3280479014 0.2740156054
	0.3156760931 0.3301830888 0.2759723961
	0.3176679015 0.3323085010 0.2779215872
	0.3196499944 0.3344236016 0.2798638940
	0.3216224015 0.3365249038 0.2817943096
	0.3235847950 0.3386119902 0.2837162018
	0.3255361021 0.3406879008 0.2856321931
	0.3274742067 0.3427498937 0.2875392139
	0.3294023871 0.3448010087 0.2894361913
	0.3313204050 0.3468416929 0.2913256884
	0.3332281113 0.3488731086 0.2932091951
	0.3351263106 0.3508965969 0.2950840890
	0.3370158076 0.3529112935 0.2969497144
	0.3388954103 0.3549158871 0.2988080978
	0.3407635093 0.3569113910 0.3006610870
	0.3426195979 0.3588970900 0.3025059998
	0.3444670141 0.3608722985 0.3043417931
	0.3463074863 0.3628363907 0.3061706126
	0.3481400907 0.3647880852 0.3079940081
	0.3499644995 0.3667264879 0.3098114133
	0.3517807126 0.3686558902 0.3116197884
	0.3535911143 0.3705761135 0.3134202063
	0.3553932011 0.3724865019 0.3152152002
	0.3571878970 0.3743883967 0.3170050979
	0.3589738011 0.3762854040 0.3187876940
	0.3607504964 0.3781766891 0.3205623031
	0.3625178039 0.3800612986 0.3223307133
	0.3642742932 0.3819381893 0.3240945041
	0.3660207987 0.3838064969 0.3258526027
	0.3677580953 0.3856652975 0.3276030123
	0.3694871962 0.3875137866 0.3293435872
	0.3712058961 0.3893510997 0.3310768008
	0.3729172051 0.3911783993 0.3328061104
	0.3746241927 0.3929969072 0.3345299065
	0.3763248026 0.3948045075 0.3362461030
	0.3780199885 0.3966018856 0.3379529119
	0.3797098100 0.3983893096 0.3396534920
	0.3813967109 0.4001693130 0.3413507938
	0.3830771148 0.4019418955 0.3430429995
	0.3847537041 0.4037080109 0.3447282910
	0.3864229918 0.4054659009 0.3464050889
	0.3880873919 0.4072161019 0.3480730057
	0.3897438943 0.4089570045 0.3497362137
	0.3913944960 0.4106892049 0.3513950109
	0.3930368125 0.4124135971 0.3530482054
	0.3946720064 0.4141317010 0.3546941876
	0.3962987065 0.4158441126 0.3563325107
	0.3979170918 0.4175505042 0.3579638004
	0.3995271027 0.4192501009 0.3595893085
	0.4011279941 0.4209432900 0.3612098098
	0.4027225077 0.4226306081 0.3628252149
	0.4043093026 0.4243136942 0.3644339144
	0.4058884978 0.4259892106 0.3660350144
	0.4074592888 0.4276596904 0.3676308095
	0.4090228081 0.4293231964 0.3692201078
	0.4105781019 0.4309802949 0.3708019853
	0.4121260941 0.4326306880 0.3723767102
	0.4136680067 0.4342732131 0.3739450872
	0.4152038097 0.4359092116 0.3755083978
	0.4167321920 0.4375346899 0.3770667017
	0.4182567894 0.4391531050 0.3786197007
	0.4197764993 0.4407626987 0.3801665008
	0.4212917984 0.4423646033 0.3817074895
	0.4228025973 0.4439603090 0.3832431138
	0.4243074954 0.4455477893 0.3847720027
	0.4258069098 0.4471279085 0.3862960041
	0.4273006022 0.4487006068 0.3878161013
	0.4287903011 0.4502668977 0.3893316984
	0.4302769899 0.4518280029 0.3908422887
	0.4317578077 0.4533826113 0.3923459053
	0.4332346916 0.4549309909 0.3938423991
	0.4347065091 0.4564737976 0.3953357935
	0.4361734092 0.4580112100 0.3968257904
	0.4376364946 0.4595425129 0.3983112872
	0.4390909076 0.4610661864 0.3997904956
	0.4405421913 0.4625841975 0.4012655020
	0.4419898093 0.4640966058 0.4027357101
	0.4434331954 0.4656026065 0.4042006135
	0.4448713958 0.4671005905 0.4056580067
	0.4463051856 0.4685927927 0.4071114957
	0.4477353096 0.4700792134 0.4085614085
	0.4491625130 0.4715583026 0.4100078046
	0.4505859017 0.4730297029 0.4114479125
	0.4520066977 0.4744954109 0.4128834903
	0.4534246922 0.4759553075 0.4143148959
	0.4548385143 0.4774056971 0.4157409966
	0.4562489986 0.4788500965 0.4171645045
	0.4576565921 0.4802890122 0.4185852110
	0.4590603113 0.4817211926 0.4200018048
	0.4604597092 0.4831478894 0.4214130044
	0.4618560970 0.4845702946 0.4228211045
	0.4632489979 0.4859867096 0.4242258966
	0.4646365941 0.4873968959 0.4256238043
	0.4660210013 0.4888026118 0.4270183146
	0.4674021006 0.4902028143 0.4284090996
	0.4687772095 0.4915963113 0.4297944009
	0.4701490998 0.4929861128 0.4311766922
	0.4715175033 0.4943715930 0.4325557947
	0.4728797078 0.4957531989 0.4339298010
	0.4742386043 0.4971317947 0.4353007078
	0.4755935073 0.4985060096 0.4366675913
	0.4769422114 0.4998764992 0.4380275011
	0.4782876074 0.5012443066 0.4393840134
	0.4796282947 0.5026069880 0.4407353997
	0.4809632003 0.5039666891 0.4420841932
	0.4822948873 0.5053241849 0.4434312880
	0.4836206138 0.5066757202 0.4447737932
	0.4849415123 0.5080248713 0.4461131096
	0.4862594008 0.5093721151 0.4474501014
	0.4875693917 0.5107128024 0.4487794936
	0.4888761938 0.5120517015 0.4501057863
	0.4901781976 0.5133879185 0.4514274895
	0.4914737940 0.5147191286 0.4527435899
	0.4927662909 0.5160481930 0.4540570974
	0.4940516949 0.5173733234 0.4553644061
	0.4953328967 0.5186954737 0.4566692114
	0.4966096878 0.5200139880 0.4579710960
	0.4978792965 0.5213292241 0.4592679143
	0.4991464019 0.5226427913 0.4605629146
	0.5004069805 0.5239503980 0.4618535936
	0.5016648769 0.5252562761 0.4631414115
	0.5029193163 0.5265597105 0.4644250870
	0.5041680932 0.5278586149 0.4657050073
	0.5054149032 0.5291553736 0.4669832885
	0.5066552162 0.5304455757 0.4682553113
	0.5078933835 0.5317338109 0.4695254862
	0.5091258883 0.5330157876 0.4707902074
	0.5103549957 0.5342947245 0.4720515907
	0.5115808845 0.5355700254 0.4733094871
	0.5128020048 0.5368400216 0.4745627046
	0.5140215755 0.5381075740 0.4758141935
	0.5152375102 0.5393667817 0.4770599008
	0.5164520741 0.5406240225 0.4783042073
	0.5176615715 0.5418733954 0.4795426130
	0.5188698173 0.5431200266 0.4807788134
	0.5200755000 0.5443605781 0.4820106924
	0.5212779045 0.5455970168 0.4832395017
	0.5224775076 0.5468291044 0.4844653010
	0.5236744285 0.5480558872 0.4856874049
	0.5248702168 0.5492796898 0.4869076908
	0.5260608196 0.5504972935 0.4881236851
	0.5272505283 0.5517131090 0.4893389046
	0.5284340978 0.5529218912 0.4905493855
	0.5296168923 0.5541298985 0.4917592108
	0.5307930112 0.5553305745 0.4929626882
	0.5319678783 0.5565304160 0.4941650927
	0.5331379771 0.5577239990 0.4953621030
	0.5343062282 0.5589160919 0.4965574145
	0.5354691148 0.5601027012 0.4977473915
	0.5366293192 0.5612874031 0.4989356101
	0.5377836823 0.5624672771 0.5001201034
	0.5389350057 0.5636451840 0.5013015866
	0.5400810838 0.5648186207 0.5024777055
	0.5412240028 0.5659899116 0.5036516190
	0.5423620939 0.5671570897 0.5048221946
	0.5434969068 0.5683212280 0.5059906840
	0.5446271896 0.5694798827 0.5071563125
	0.5457543135 0.5706359148 0.5083196163
	0.5468770862 0.5717874765 0.5094795227
	0.5479968786 0.5729361773 0.5106369257
	0.5491123796 0.5740798712 0.5117905140
	0.5502251983 0.5752214193 0.5129418969
	0.5513336062 0.5763586164 0.5140898228
	0.5524396896 0.5774930120 0.5152366757
	0.5535413027 0.5786203146 0.5163816810
	0.5546411872 0.5797460079 0.5175253153
	0.5557361841 0.5808660984 0.5186645985
	0.5568301082 0.5819849968 0.5198031068
	0.5579187274 0.5830960274 0.5209382176
	0.5590069294 0.5842068791 0.5220727921
	0.5600894094 0.5853117108 0.5232008100
	0.5611718893 0.5864164233 0.5243288279
	0.5622487068 0.5875138044 0.5254526734
	0.5633254051 0.5886104107 0.5265762806
	0.5643972754 0.5897029042 0.5276951194
	0.5654681921 0.5907940269 0.5288128257
	0.5665354133 0.5918807983 0.5299268961
	0.5676007867 0.5929647088 0.5310389996
	0.5686635971 0.5940455198 0.5321475863
	0.5697237849 0.5951223969 0.5332525969
	0.5707824230 0.5961973071 0.5343558788
	0.5718374848 0.5972664952 0.5354554057
	0.5728921294 0.5983355045 0.5365543962
	0.5739423037 0.5993986130 0.5376480818
	0.5749924779 0.6004617214 0.5387417078
	0.5760387182 0.6015192866 0.5398297906
	0.5770841837 0.6025757790 0.5409170985
	0.5781269073 0.6036278009 0.5420001149
	0.5791680217 0.6046767235 0.5430803895
	0.5802066922 0.6057233810 0.5441582203
	0.5812410712 0.6067652106 0.5452312827
	0.5822750926 0.6078069210 0.5463038087
	0.5833042264 0.6088423729 0.5473703146
	0.5843334198 0.6098778844 0.5484367013
	0.5853577852 0.6109092832 0.5494986176
	0.5863807797 0.6119390130 0.5505589843
	0.5874018073 0.6129667163 0.5516161919
	0.5884202123 0.6139913201 0.5526692271
	0.5894376040 0.6150155067 0.5537214875
	0.5904482007 0.6160331964 0.5547677279
	0.5914587975 0.6170510054 0.5558139086
	0.5924654007 0.6180649996 0.5568549037
	0.5934706926 0.6190776229 0.5578941703
	0.5944733024 0.6200882196 0.5589315295
	0.5954716206 0.6210951805 0.5599654913
	0.5964698195 0.6221022010 0.5609995127
	0.5974636078 0.6231055260 0.5620262027
	0.5984573960 0.6241086125 0.5630527139
	0.5994476080 0.6251075268 0.5640758872
	0.6004350781 0.6261023879 0.5650966167
	0.6014220715 0.6270968914 0.5661162734
	0.6024059057 0.6280854940 0.5671287775
	0.6033896208 0.6290740967 0.5681412816
	0.6043697000 0.6300585866 0.5691496134
	0.6053478718 0.6310405731 0.5701557994
	0.6063256264 0.6320214868 0.5711603165
	0.6073008776 0.6329963207 0.5721578002
	0.6082761288 0.6339710951 0.5731552839
	0.6092479825 0.6349408031 0.5741487741
	0.6102185249 0.6359075904 0.5751404166
	0.6111885905 0.6368734837 0.5761309266
	0.6121569276 0.6378319860 0.5771154761
	0.6131250858 0.6387906075 0.5781000853
	0.6140908003 0.6397454143 0.5790807009
	0.6150550246 0.6406973004 0.5800589919
	0.6160188913 0.6416491270 0.5810368061
	0.6169794202 0.6425917149 0.5820075274
	0.6179398894 0.6435343027 0.5829781890
	0.6188982129 0.6444740891 0.5839462876
	0.6198542714 0.6454101801 0.5849115252
	0.6208103895 0.6463462710 0.5858767033
	0.6217638850 0.6472759247 0.5868369937
	0.6227170825 0.6482042074 0.5877965093
	0.6236690283 0.6491310000 0.5887547135
	0.6246173978 0.6500520706 0.5897085071
	0.6255657077 0.6509732008 0.5906623006
	0.6265100241 0.6518902183 0.5916125774
	0.6274515986 0.6528037786 0.5925605297
	0.6283932924 0.6537175179 0.5935084224
	0.6293299794 0.6546260715 0.5944507122
	0.6302664876 0.6555340886 0.5953925848
	0.6312015057 0.6564409733 0.5963330865
	0.6321321726 0.6573432088 0.5972688794
	0.6330627799 0.6582453847 0.5982046127
	0.6339905262 0.6591445804 0.5991371274
	0.6349157095 0.6600404978 0.6000667214
	0.6358407736 0.6609362960 0.6009961963
	0.6367601752 0.6618282199 0.6019207239
	0.6376782060 0.6627187133 0.6028438210
	0.6385959983 0.6636092067 0.6037667990
	0.6395090818 0.6644952893 0.6046833992
	0.6404222250 0.6653813124 0.6056001186
	0.6413338184 0.6662659049 0.6065152884
	0.6422404051 0.6671448946 0.6074264050
	0.6431471109 0.6680238843 0.6083375216
	0.6440510750 0.6689003706 0.6092464924
	0.6449515224 0.6697732806 0.6101529002
	0.6458520293 0.6706461906 0.6110591888
	0.6467483044 0.6715160012 0.6119620800
	0.6476420164 0.6723836064 0.6128628254
	0.6485357285 0.6732510924 0.6137633920
	0.6494253278 0.6741154790 0.6146603823
	0.6503136158 0.6749786735 0.6155561805
	0.6512019038 0.6758419275 0.6164519787
	0.6520848870 0.6766991019 0.6173437238
	0.6529672742 0.6775552034 0.6182348728
	0.6538497210 0.6784113050 0.6191260815
	0.6547253728 0.6792595983 0.6200146079
	0.6556010842 0.6801074147 0.6209030151
	0.6564763784 0.6809551120 0.6217911243
	0.6573458910 0.6817964911 0.6226750016
	0.6582155228 0.6826378107 0.6235588193
	0.6590843201 0.6834787726 0.6244422793
	0.6599482298 0.6843137145 0.6253234148
	0.6608120799 0.6851487160 0.6262044907
	0.6616752744 0.6859831810 0.6270849705
	0.6625339985 0.6868135929 0.6279615164
	0.6633927822 0.6876440048 0.6288381219
	0.6642509103 0.6884738207 0.6297143102
	0.6651049852 0.6892974973 0.6305881143
	0.6659591794 0.6901211739 0.6314619184
	0.6668125987 0.6909444928 0.6323351860
	0.6676605940 0.6917623281 0.6332045794
	0.6685085893 0.6925802231 0.6340739131
	0.6693562865 0.6933978796 0.6349430084
	0.6701996922 0.6942088008 0.6358096004
	0.6710430980 0.6950196028 0.6366763115
	0.6718865037 0.6958305240 0.6375429034
	0.6727249026 0.6966357827 0.6384050846
	0.6735633016 0.6974408031 0.6392672062
	0.6744015813 0.6982458830 0.6401293874
	0.6752368808 0.6990466118 0.6409891844
	0.6760717034 0.6998466849 0.6418486238
	0.6769065857 0.7006468177 0.6427081227
	0.6777368188 0.7014424205 0.6435642242
	0.6785656810 0.7022364736 0.6444191933
	0.6793946028 0.7030305266 0.6452742815
	0.6802213192 0.7038202882 0.6461277008
	0.6810467839 0.7046071291 0.6469801068
	0.6818721890 0.7053937912 0.6478325129
	0.6826949716 0.7061775923 0.6486828923
	0.6835147142 0.7069572210 0.6495308876
	0.6843342781 0.7077367902 0.6503788829
	0.6851524115 0.7085152864 0.6512262821
	0.6859658957 0.7092896104 0.6520717144
	0.6867793798 0.7100639939 0.6529170275
	0.6875926852 0.7108383775 0.6537624002
	0.6884006262 0.7116078138 0.6546034217
	0.6892085075 0.7123771906 0.6554443836
	0.6900163293 0.7131465077 0.6562854052
	0.6908203959 0.7139121294 0.6571244001
	0.6916232705 0.7146762013 0.6579627991
	0.6924263239 0.7154402733 0.6588011980
	0.6932265162 0.7162014246 0.6596375704
	0.6940239072 0.7169584036 0.6604716778
	0.6948214173 0.7177153230 0.6613057256
	0.6956177950 0.7184715867 0.6621391177
	0.6964092851 0.7192226052 0.6629688144
	0.6972007751 0.7199735045 0.6637985706
	0.6979923844 0.7207245231 0.6646283269
	0.6987801790 0.7214716077 0.6654537916
	0.6995673180 0.7222176194 0.6662783027
	0.7003543973 0.7229636908 0.6671028733
	0.7011383772 0.7237073183 0.6679254770
	0.7019187808 0.7244477272 0.6687458754
	0.7026991248 0.7251880765 0.6695662141
	0.7034789920 0.7259283066 0.6703861952
	0.7042531967 0.7266616821 0.6712015867
	0.7050274014 0.7273951173 0.6720169187
	0.7058014870 0.7281284928 0.6728321910
	0.7065715194 0.7288578749 0.6736438274
	0.7073392868 0.7295845747 0.6744530797
	0.7081069946 0.7303113937 0.6752625108
	0.7088738084 0.7310374975 0.6760708094
	0.7096366882 0.7317596078 0.6768743992
	0.7103996277 0.7324817777 0.6776779890
	0.7111625075 0.7332040071 0.6784815192
	0.7119218111 0.7339224219 0.6792811155
	0.7126796246 0.7346392274 0.6800791025
	0.7134374976 0.7353559136 0.6808769703
	0.7141941786 0.7360715866 0.6816738248
	0.7149465084 0.7367821932 0.6824663281
	0.7156988978 0.7374927998 0.6832587719
	0.7164512873 0.7382034063 0.6840512753
	0.7172005773 0.7389100790 0.6848403215
	0.7179483175 0.7396144867 0.6856274009
	0.7186959982 0.7403188944 0.6864145994
	0.7194433212 0.7410228848 0.6872013211
	0.7201871276 0.7417224050 0.6879833937
	0.7209308743 0.7424219251 0.6887655258
	0.7216746807 0.7431213856 0.6895475984
	0.7224153876 0.7438185811 0.6903271079
	0.7231531739 0.7445130944 0.6911041737
	0.7238910198 0.7452077270 0.6918814182
	0.7246286869 0.7459022999 0.6926584840
	0.7253618240 0.7465913296 0.6934313774
	0.7260943055 0.7472792864 0.6942036748
	0.7268267870 0.7479674220 0.6949760914
	0.7275583148 0.7486543059 0.6957473755
	0.7282862067 0.7493367791 0.6965150833
	0.7290140986 0.7500193715 0.6972827911
	0.7297419906 0.7507019043 0.6980504990
	0.7304679155 0.7513812184 0.6988149285
	0.7311919928 0.7520576119 0.6995764971
	0.7319161296 0.7527340055 0.7003381252
	0.7326402068 0.7534102798 0.7010996938
	0.7333592772 0.7540827990 0.7018569708
	0.7340772748 0.7547543049 0.7026134133
	0.7347953916 0.7554258108 0.7033697963
	0.7355127931 0.7560970187 0.7041258216
	0.7362236977 0.7567629218 0.7048764825
	0.7369347215 0.7574288845 0.7056272030
	0.7376456261 0.7580947876 0.7063779235
	0.7383548021 0.7587593198 0.7071272135
	0.7390602827 0.7594197989 0.7078732252
	0.7397658229 0.7600803971 0.7086191177
	0.7404711843 0.7607408762 0.7093651295
	0.7411739230 0.7613990903 0.7101075053
	0.7418738008 0.7620543838 0.7108464241
	0.7425737977 0.7627096772 0.7115852237
	0.7432736754 0.7633650899 0.7123240829
	0.7439711094 0.7640163898 0.7130596042
	0.7446671128 0.7646651864 0.7137932181
	0.7453631163 0.7653139830 0.7145268917
	0.7460591197 0.7659627795 0.7152605057
	0.7467520237 0.7666075230 0.7159891725
	0.7474439740 0.7672507167 0.7167164087
	0.7481361032 0.7678940296 0.7174435258
	0.7488281131 0.7685372233 0.7181707025
	0.7495164871 0.7691755295 0.7188938856
	0.7502045035 0.7698127031 0.7196164727
	0.7508924007 0.7704498768 0.7203391194
	0.7515802979 0.7710872293 0.7210617065
	0.7522624731 0.7717201710 0.7217788100
	0.7529442906 0.7723528147 0.7224954963
	0.7536261082 0.7729853988 0.7232123017
	0.7543079853 0.7736179829 0.7239289880
	0.7549846768 0.7742474079 0.7246403098
	0.7556613088 0.7748765945 0.7253513932
	0.7563378811 0.7755057812 0.7260624766
	0.7570145726 0.7761349082 0.7267736197
	0.7576869130 0.7767605186 0.7274788022
	0.7583590746 0.7773857713 0.7281838059
	0.7590312958 0.7780112028 0.7288888097
	0.7597035170 0.7786365151 0.7295936942
	0.7603724003 0.7792575955 0.7302941084
	0.7610409856 0.7798781991 0.7309941053
	0.7617095709 0.7804989219 0.7316941023
	0.7623782754 0.7811195254 0.7323940992
	0.7630437016 0.7817357779 0.7330893874
	0.7637084723 0.7823513150 0.7337840199
	0.7643734217 0.7829667926 0.7344784737
	0.7650381923 0.7835822105 0.7351731062
	0.7656989098 0.7841936946 0.7358644009
	0.7663580775 0.7848036885 0.7365546227
	0.7670173049 0.7854136229 0.7372447848
	0.7676765919 0.7860234976 0.7379350066
	0.7683327794 0.7866303921 0.7386223078
	0.7689871788 0.7872350216 0.7393077016
	0.7696415782 0.7878395915 0.7399932146
	0.7702959776 0.7884442210 0.7406786084
	0.7709481716 0.7890473008 0.7413616776
	0.7715978026 0.7896479964 0.7420418262
	0.7722473741 0.7902486920 0.7427219152
	0.7728970051 0.7908495069 0.7434018850
	0.7735458016 0.7914491296 0.7440809011
	0.7741922736 0.7920445800 0.7447561026
	0.7748388052 0.7926400900 0.7454311848
	0.7754852772 0.7932356000 0.7461063862
	0.7761318088 0.7938311100 0.7467815876
	0.7767726183 0.7944201231 0.7474523187
	0.7774134874 0.7950087786 0.7481228709
	0.7780542970 0.7955976129 0.7487936020
	0.7786952257 0.7961863875 0.7494642138
	0.7793319225 0.7967715263 0.7501307726
	0.7799670100 0.7973549962 0.7507957220
	0.7806020975 0.7979385257 0.7514606714
	0.7812373042 0.7985219955 0.7521256804
	0.7818704247 0.7991034985 0.7527887821
	0.7825008035 0.7996814251 0.7534492016
	0.7831311226 0.8002592921 0.7541096807
	0.7837613821 0.8008372784 0.7547701001
	0.7843915224 0.8014150858 0.7554302812
	0.7850180268 0.8019878864 0.7560858727
	0.7856444120 0.8025606275 0.7567415237
	0.7862709165 0.8031334281 0.7573971152
	0.7868974209 0.8037062287 0.7580528259
	0.7875211835 0.8042758703 0.7587059736
	0.7881436944 0.8048439026 0.7593579888
	0.7887662053 0.8054118752 0.7600100040
	0.7893887758 0.8059799075 0.7606620193
	0.7900099158 0.8065465093 0.7613126040
	0.7906270027 0.8071078062 0.7619590163
	0.7912439704 0.8076692224 0.7626054883
	0.7918611169 0.8082305789 0.7632519007
	0.7924780846 0.8087918758 0.7638983130
	0.7930914164 0.8093485236 0.7645419240
	0.7937036753 0.8099036813 0.7651848197
	0.7943159938 0.8104587793 0.7658277154
	0.7949283123 0.8110138774 0.7664706111
	0.7955389023 0.8115677238 0.7671121955
	0.7961457968 0.8121181130 0.7677505016
	0.7967525721 0.8126683831 0.7683889270
	0.7973595262 0.8132187128 0.7690272927
	0.7979663014 0.8137689829 0.7696655989
	0.7985696793 0.8143169284 0.7703021169
	0.7991721034 0.8148639798 0.7709379196
	0.7997745275 0.8154109716 0.7715737820
	0.8003767729 0.8159580827 0.7722095847
	0.8009781241 0.8165045977 0.7728447914
	0.8015751839 0.8170487285 0.7734771967
	0.8021721840 0.8175927997 0.7741094828
	0.8027691841 0.8181368709 0.7747418880
	0.8033663034 0.8186810017 0.7753742933
	0.8039602041 0.8192222714 0.7760047913
	0.8045521975 0.8197615743 0.7766340971
	0.8051440716 0.8203008175 0.7772634029
	0.8057360053 0.8208400011 0.7778927088
	0.8063278794 0.8213791847 0.7785220146
	0.8069158792 0.8219143748 0.7791473866
	0.8075037003 0.8224493265 0.7797725201
	0.8080914021 0.8229840994 0.7803977132
	0.8086792231 0.8235189915 0.7810227871
	0.8092660904 0.8240531087 0.7816470265
	0.8098508120 0.8245849013 0.7822685838
	0.8104354739 0.8251166940 0.7828900814
	0.8110200763 0.8256484866 0.7835115790
	0.8116047978 0.8261802793 0.7841330767
	0.8121870160 0.8267101049 0.7847530246
	0.8127670884 0.8272377849 0.7853714228
	0.8133472204 0.8277655244 0.7859897017
	0.8139272928 0.8282932043 0.7866080999
	0.8145074248 0.8288208842 0.7872264981
	0.8150827289 0.8293445706 0.7878416181
	0.8156566024 0.8298670053 0.7884557247
	0.8162304759 0.8303893805 0.7890698910
	0.8168044090 0.8309118748 0.7896839976
	0.8173784018 0.8314343095 0.7902982235
