release/datafiles/colormanagement/luts/film_response/agfa_advantix_100.spi1d
Version 1
From 0.0 1.0
Length 1024
Components 3
{
	0.0000000000 0.0000000000 0.0000000000
	0.0099759204 0.0084230602 0.0063721500
	0.0195903908 0.0165482908 0.0126159703
	0.0281873904 0.0239386503 0.0183614101
	0.0359400399 0.0306491107 0.0236731302
	0.0429986902 0.0368482284 0.0286820605
	0.0495699607 0.0426228605 0.0333807915
	0.0556899793 0.0479997694 0.0378808789
	0.0614735186 0.0531351306 0.0421144105
	0.0669660494 0.0580130592 0.0461965613
	0.0722220466 0.0627681389 0.0501793101
	0.0772255808 0.0672829002 0.0540068410
	0.0820826665 0.0715929568 0.0576650202
	0.0867473707 0.0758115426 0.0612268411
	0.0911795869 0.0799473077 0.0647046193
	0.0954854265 0.0839523673 0.0681224987
	0.0996826664 0.0878431126 0.0714934394
	0.1037980989 0.0916301981 0.0747776777
	0.1078191027 0.0953292921 0.0779552832
	0.1117319018 0.0989396721 0.0810553879
	0.1155693978 0.1024464965 0.0841333270
	0.1193092018 0.1058896035 0.0871890634
	0.1229984984 0.1092770025 0.0902054086
	0.1266297996 0.1126255989 0.0931699723
	0.1301828027 0.1159031019 0.0960779637
	0.1336570978 0.1191100031 0.0989290774
	0.1370528936 0.1222644001 0.1017358005
	0.1403681934 0.1253843009 0.1045102030
	0.1436405927 0.1284482032 0.1072589979
	0.1468632966 0.1314789057 0.1099923998
	0.1500498056 0.1344655007 0.1126931980
	0.1531880051 0.1374220997 0.1153720021
	0.1562644988 0.1403357983 0.1180130020
	0.1593036950 0.1431988031 0.1206170022
	0.1623243988 0.1460403949 0.1231862009
	0.1653179973 0.1488437951 0.1257254034
	0.1682834029 0.1516059935 0.1282379031
	0.1712214053 0.1543526053 0.1307227015
	0.1741254926 0.1570729017 0.1331889033
	0.1769879013 0.1597575992 0.1356364042
	0.1798096001 0.1624283046 0.1380718946
	0.1825927943 0.1650680006 0.1404998004
	0.1853370070 0.1676719934 0.1429184973
	0.1880521029 0.1702331007 0.1453085989
	0.1907549053 0.1727772951 0.1476781964
	0.1934437007 0.1753048003 0.1500300020
	0.1961088926 0.1777949929 0.1523580998
	0.1987465024 0.1802501976 0.1546709985
	0.2013590932 0.1826943010 0.1569592059
	0.2039510012 0.1851214021 0.1592251062
	0.2065189034 0.1875294000 0.1614681929
	0.2090530992 0.1899122000 0.1636908054
	0.2115564942 0.1922917962 0.1659017056
	0.2140268981 0.1946634054 0.1680952013
	0.2164652050 0.1970131993 0.1702757031
	0.2188750952 0.1993432045 0.1724483967
	0.2212729007 0.2016437054 0.1746093035
	0.2236527056 0.2039304972 0.1767639965
	0.2260089964 0.2062091976 0.1789053977
	0.2283485979 0.2084756047 0.1810386926
	0.2306748033 0.2107181996 0.1831596941
	0.2329774946 0.2129396051 0.1852661967
	0.2352634072 0.2151475996 0.1873624027
	0.2375380993 0.2173521072 0.1894447953
	0.2398073971 0.2195435017 0.1915135980
	0.2420687973 0.2217237949 0.1935653985
	0.2443214953 0.2238844931 0.1956079006
	0.2465686053 0.2260320932 0.1976383030
	0.2488050014 0.2281741947 0.1996645033
	0.2510258853 0.2303086966 0.2016756982
	0.2532328963 0.2324285060 0.2036695927
	0.2554255128 0.2345477939 0.2056519985
	0.2576034069 0.2366596013 0.2076213062
	0.2597728968 0.2387540042 0.2095845044
	0.2619242072 0.2408431023 0.2115366012
	0.2640654147 0.2429351956 0.2134785950
	0.2661896050 0.2450205982 0.2154116929
	0.2682917118 0.2470878959 0.2173403054
	0.2703784108 0.2491298020 0.2192642987
	0.2724463940 0.2511504889 0.2211790979
	0.2745001018 0.2531620860 0.2230885029
	0.2765473127 0.2551639080 0.2249957025
	0.2785851955 0.2571550012 0.2268918008
	0.2806180120 0.2591302097 0.2287832946
	0.2826406956 0.2611007094 0.2306707054
	0.2846564949 0.2630642056 0.2325448990
	0.2866632938 0.2650120854 0.2344118059
	0.2886619866 0.2669439912 0.2362738997
	0.2906560004 0.2688710988 0.2381276935
	0.2926402986 0.2707965970 0.2399802953
	0.2946187854 0.2727138996 0.2418286055
	0.2965883017 0.2746171057 0.2436629981
	0.2985542119 0.2765100896 0.2454881072
	0.3005166948 0.2783927023 0.2473084927
	0.3024731874 0.2802628875 0.2491195947
	0.3044191897 0.2821266055 0.2509351969
	0.3063541949 0.2839806080 0.2527473867
	0.3082849979 0.2858333886 0.2545492053
	0.3102098107 0.2876932919 0.2563391030
	0.3121250868 0.2895553112 0.2581259906
	0.3140304089 0.2914139032 0.2599045038
	0.3159317076 0.2932642996 0.2616701126
	0.3178148866 0.2951014042 0.2634266019
	0.3196887970 0.2969211042 0.2651784122
	0.3215618134 0.2987315953 0.2669197023
	0.3234333992 0.3005411923 0.2686525881
	0.3252997994 0.3023456931 0.2703748941
	0.3271591067 0.3041403890 0.2720899880
	0.3290081024 0.3059214950 0.2738001049
	0.3308455050 0.3076925874 0.2755038142
	0.3326750100 0.3094542027 0.2772029042
	0.3345032036 0.3112052083 0.2788943052
	0.3363313079 0.3129465878 0.2805776000
	0.3381510079 0.3146811128 0.2822565138
	0.3399673104 0.3164061010 0.2839331031
	0.3417668045 0.3181275129 0.2856017947
	0.3435564041 0.3198527992 0.2872670889
	0.3453372121 0.3215794861 0.2889324129
	0.3471119106 0.3233039975 0.2905947864
	0.3488827050 0.3250232041 0.2922506928
	0.3506490886 0.3267351091 0.2938998938
	0.3524067998 0.3284330070 0.2955498099
	0.3541550934 0.3301151097 0.2971960902
	0.3558937907 0.3317880034 0.2988429070
	0.3576247096 0.3334558010 0.3004919887
	0.3593502939 0.3351208866 0.3021433949
	0.3610683084 0.3367798030 0.3037939072
	0.3627772033 0.3384372890 0.3054369092
	0.3644764125 0.3400928974 0.3070757985
	0.3661648929 0.3417460024 0.3087131977
	0.3678394854 0.3433952034 0.3103514910
	0.3695080876 0.3450438976 0.3119843006
	0.3711709082 0.3466848135 0.3136082888
	0.3728272021 0.3483184874 0.3152261972
	0.3744739890 0.3499465883 0.3168402910
	0.3761177063 0.3515641093 0.3184512854
	0.3777532876 0.3531782925 0.3200559020
	0.3793804944 0.3547908962 0.3216531873
	0.3810012937 0.3564052880 0.3232400119
	0.3826153874 0.3580116034 0.3248240948
	0.3842233121 0.3596132994 0.3264040053
	0.3858231008 0.3612110019 0.3279787004
	0.3874185085 0.3627916873 0.3295400143
	0.3890103102 0.3643645048 0.3310950100
	0.3905987144 0.3659299016 0.3326450884
	0.3921895027 0.3674801886 0.3341901898
	0.3937751055 0.3690252006 0.3357275128
	0.3953565061 0.3705663085 0.3372594118
	0.3969357014 0.3721058071 0.3387841880
	0.3985069990 0.3736424148 0.3403007984
	0.4000718892 0.3751770854 0.3418123126
	0.4016300142 0.3767110109 0.3433167934
	0.4031783938 0.3782438040 0.3448176086
	0.4047181010 0.3797756135 0.3463155031
	0.4062578976 0.3813019097 0.3478057981
	0.4077931046 0.3828235865 0.3492931128
	0.4093224108 0.3843406141 0.3507778943
	0.4108479917 0.3858481050 0.3522605002
	0.4123688936 0.3873529136 0.3537409008
	0.4138790071 0.3888536990 0.3552181125
	0.4153836071 0.3903481066 0.3566935062
	0.4168849885 0.3918395936 0.3581683934
	0.4183782041 0.3933278024 0.3596439064
	0.4198674858 0.3948136866 0.3611176014
	0.4213511050 0.3962967098 0.3625896871
	0.4228254855 0.3977732062 0.3640539050
	0.4242956936 0.3992463946 0.3655144870
	0.4257540107 0.4007085860 0.3669649065
	0.4272057116 0.4021649063 0.3684150875
	0.4286471903 0.4036136866 0.3698649108
	0.4300779998 0.4050632119 0.3713107109
	0.4315038025 0.4065128863 0.3727546930
	0.4329301119 0.4079527855 0.3741905987
	0.4343521893 0.4093911052 0.3756245971
	0.4357595146 0.4108251035 0.3770546913
	0.4371610880 0.4122549891 0.3784829080
	0.4385559857 0.4136810899 0.3799099028
	0.4399372935 0.4150992930 0.3813312054
	0.4413124025 0.4165146947 0.3827508986
	0.4426822960 0.4179250002 0.3841583133
	0.4440504909 0.4193333089 0.3855640888
	0.4454061091 0.4207299948 0.3869630098
	0.4467600882 0.4221264124 0.3883576989
	0.4481090903 0.4235222936 0.3897452950
	0.4494557977 0.4249134958 0.3911296129
	0.4507992864 0.4262988865 0.3925110102
	0.4521391988 0.4276803136 0.3938843906
	0.4534761906 0.4290586114 0.3952535987
	0.4548082054 0.4304304123 0.3966163993
	0.4561375976 0.4317994118 0.3979771137
	0.4574612081 0.4331589937 0.3993296921
	0.4587827027 0.4345161915 0.4006809890
	0.4600965977 0.4358676076 0.4020248055
	0.4614087045 0.4372180998 0.4033680856
	0.4627130032 0.4385639131 0.4046998918
	0.4640161991 0.4399093091 0.4060314000
	0.4653095007 0.4412535131 0.4073561132
	0.4666016996 0.4425976872 0.4086807072
	0.4678846896 0.4439316094 0.4100016057
	0.4691669047 0.4452649951 0.4113222957
	0.4704379141 0.4465923905 0.4126363993
	0.4717079103 0.4479196072 0.4139505923
	0.4729768038 0.4492313862 0.4152606130
	0.4742454886 0.4505420923 0.4165706038
	0.4755127132 0.4518438876 0.4178735912
	0.4767796993 0.4531444907 0.4191763997
	0.4780431092 0.4544411004 0.4204703867
	0.4793055058 0.4557369947 0.4217635989
	0.4805589020 0.4570290148 0.4230574071
	0.4818083942 0.4583194852 0.4243515134
	0.4830555916 0.4596050978 0.4256447852
	0.4843012094 0.4608877003 0.4269377887
	0.4855448008 0.4621653855 0.4282276034
	0.4867860973 0.4634382129 0.4295150936
	0.4880253077 0.4647068083 0.4307982028
	0.4892593920 0.4659673870 0.4320754111
	0.4904916883 0.4672257006 0.4333496094
	0.4917111993 0.4684731960 0.4346148968
	0.4929307103 0.4697206914 0.4358800054
	0.4941438138 0.4709604084 0.4371437132
	0.4953565001 0.4722000062 0.4384073019
	0.4965640903 0.4734326899 0.4396674931
	0.4977697134 0.4746631980 0.4409270883
	0.4989753962 0.4758923054 0.4421825111
	0.5001811981 0.4771201015 0.4434351921
	0.5013839006 0.4783450067 0.4446885884
	0.5025752783 0.4795615971 0.4459435046
	0.5037667155 0.4807780981 0.4471982121
	0.5049498081 0.4819892943 0.4484477043
	0.5061323047 0.4832003117 0.4496971965
	0.5073093176 0.4844068885 0.4509449005
	0.5084829926 0.4856112003 0.4521920085
	0.5096563101 0.4868122041 0.4534366131
	0.5108284950 0.4880064130 0.4546774030
	0.5120006800 0.4892007113 0.4559176862
	0.5131582022 0.4903838933 0.4571487904
	0.5143144727 0.4915668964 0.4583798945
	0.5154706240 0.4927465916 0.4596010149
	0.5166264176 0.4939242899 0.4608170986
	0.5177810192 0.4951008856 0.4620308876
	0.5189288259 0.4962731004 0.4632383883
	0.5200765729 0.4974452853 0.4644457996
	0.5212227106 0.4986133873 0.4656499028
	0.5223680139 0.4997802079 0.4668532908
	0.5235089064 0.5009468198 0.4680534899
	0.5246378779 0.5021128058 0.4692485034
	0.5257669091 0.5032787919 0.4704434872
	0.5268948078 0.5044375062 0.4716280997
	0.5280222893 0.5055947900 0.4728116095
	0.5291473866 0.5067505240 0.4739918113
	0.5302665830 0.5079032779 0.4751670957
	0.5313857794 0.5090559721 0.4763424098
	0.5325024724 0.5101991296 0.4775088131
	0.5336183906 0.5113397837 0.4786739051
	0.5347307920 0.5124807954 0.4798345864
	0.5358300209 0.5136229992 0.4809859991
	0.5369291902 0.5147653222 0.4821374118
	0.5380263925 0.5159034729 0.4832834005
	0.5391222835 0.5170397162 0.4844275117
	0.5402178764 0.5181757212 0.4855712950
	0.5412973166 0.5193089843 0.4867131114
	0.5423766971 0.5204423070 0.4878548086
	0.5434548855 0.5215684772 0.4889939129
	0.5445311069 0.5226852298 0.4901303053
	0.5456073284 0.5238018036 0.4912666976
	0.5466775894 0.5249150991 0.4923954010
	0.5477457047 0.5260273814 0.4935226142
	0.5488138199 0.5271393061 0.4946480095
	0.5498805046 0.5282471776 0.4957635105
	0.5509471893 0.5293549895 0.4968788922
	0.5520086884 0.5304607153 0.4979912043
	0.5530598164 0.5315629244 0.4990994930
	0.5541110039 0.5326650143 0.5002077222
	0.5551608205 0.5337625146 0.5013095140
	0.5562096238 0.5348572731 0.5024083853
	0.5572584271 0.5359520912 0.5035073161
	0.5583010912 0.5370396972 0.5045971274
	0.5593425035 0.5381262898 0.5056862831
	0.5603839159 0.5392122269 0.5067744851
	0.5614247918 0.5402883887 0.5078564286
	0.5624656081 0.5413644910 0.5089381933
	0.5635035038 0.5424379706 0.5100173950
	0.5645298958 0.5435034037 0.5110903978
	0.5655562878 0.5445687771 0.5121634007
	0.5665822029 0.5456321836 0.5132340789
	0.5676072836 0.5466927290 0.5143020749
	0.5686323047 0.5477532148 0.5153701901
	0.5696542859 0.5488079190 0.5164343715
	0.5706726909 0.5498570204 0.5174958110
	0.5716910958 0.5509061813 0.5185571909
	0.5727097988 0.5519514084 0.5196129084
	0.5737286210 0.5529940128 0.5206657052
	0.5747473836 0.5540364981 0.5217186213
	0.5757570863 0.5550705791 0.5227680802
	0.5767611861 0.5561003089 0.5238164067
	0.5777652264 0.5571299195 0.5248646736
	0.5787636042 0.5581539273 0.5259051919
	0.5797588229 0.5591753721 0.5269432068
	0.5807541013 0.5601968765 0.5279811025
	0.5817455053 0.5612133145 0.5290176272
	0.5827348232 0.5622273088 0.5300536156
	0.5837240219 0.5632413030 0.5310897231
	0.5847098231 0.5642498732 0.5321198106
	0.5856931806 0.5652555823 0.5331475139
	0.5866767168 0.5662612915 0.5341752768
	0.5876535177 0.5672615767 0.5351998806
	0.5886247158 0.5682581067 0.5362228155
	0.5895959735 0.5692545772 0.5372456908
	0.5905644894 0.5702462792 0.5382614732
	0.5915299058 0.5712330937 0.5392717719
	0.5924953222 0.5722199082 0.5402820110
	0.5934591889 0.5732024908 0.5412889123
	0.5944200754 0.5741782784 0.5422912836
	0.5953810215 0.5751540065 0.5432937741
	0.5963401794 0.5761274099 0.5442951918
	0.5972915292 0.5770921111 0.5452939868
	0.5982427001 0.5780568123 0.5462927222
	0.5991939902 0.5790212750 0.5472911000
	0.6001344919 0.5799819231 0.5482859015
	0.6010748744 0.5809425116 0.5492805839
	0.6020153761 0.5819031000 0.5502753258
	0.6029484272 0.5828554034 0.5512647033
	0.6038792729 0.5838056803 0.5522533059
	0.6048101783 0.5847560167 0.5532417893
	0.6057401896 0.5857036710 0.5542263985
	0.6066694856 0.5866494179 0.5552083850
	0.6075987220 0.5875951052 0.5561903119
	0.6085264087 0.5885378718 0.5571714044
	0.6094487906 0.5894731283 0.5581504703
	0.6103712916 0.5904083252 0.5591297150
	0.6112936735 0.5913434029 0.5601087213
	0.6122087836 0.5922747254 0.5610769987
	0.6131231785 0.5932055712 0.5620452762
	0.6140375733 0.5941365957 0.5630136132
	0.6149482131 0.5950686932 0.5639781952
	0.6158558130 0.5960016251 0.5649409294
	0.6167634130 0.5969344974 0.5659034848
	0.6176698804 0.5978664160 0.5668659210
	0.6185709834 0.5987945795 0.5678272843
	0.6194720864 0.5997229218 0.5687887073
	0.6203731894 0.6006512046 0.5697500706
	0.6212695241 0.6015707254 0.5707088709
	0.6221640706 0.6024879217 0.5716670752
	0.6230587959 0.6034051180 0.5726253986
	0.6239500046 0.6043199897 0.5735797882
	0.6248329878 0.6052303910 0.5745280981
	0.6257159710 0.6061406732 0.5754765272
	0.6265990138 0.6070510149 0.5764248967
	0.6274775267 0.6079521179 0.5773686171
	0.6283550262 0.6088513732 0.5783116817
	0.6292325258 0.6097506881 0.5792549253
	0.6301056147 0.6106485724 0.5801956058
	0.6309671998 0.6115432978 0.5811319947
	0.6318287253 0.6124380231 0.5820685029
	0.6326903105 0.6133326292 0.5830048919
	0.6335496902 0.6142238975 0.5839343071
	0.6344081163 0.6151139736 0.5848619938
	0.6352664828 0.6160039902 0.5857896805
	0.6361234188 0.6168932915 0.5867152214
	0.6369684935 0.6177780032 0.5876327753
	0.6378136277 0.6186627150 0.5885503292
	0.6386587024 0.6195474267 0.5894678831
	0.6395034194 0.6204267144 0.5903825164
	0.6403477788 0.6213008165 0.5912950039
	0.6411921978 0.6221749187 0.5922073722
	0.6420364976 0.6230490208 0.5931199193
	0.6428722143 0.6239190102 0.5940275788
	0.6437057257 0.6247882843 0.5949348211
	0.6445392966 0.6256574988 0.5958420038
	0.6453729868 0.6265254021 0.5967481732
	0.6462082863 0.6273844838 0.5976504087
	0.6470435858 0.6282436848 0.5985525846
	0.6478788853 0.6291028261 0.5994548202
	0.6487107873 0.6299602985 0.6003562212
	0.6495367289 0.6308152080 0.6012567878
	0.6503624916 0.6316699982 0.6021572948
	0.6511883736 0.6325249076 0.6030578017
	0.6520127058 0.6333740950 0.6039531827
	0.6528357863 0.6342192888 0.6048460007
	0.6536588073 0.6350646019 0.6057388186
	0.6544818878 0.6359099150 0.6066315174
	0.6552997231 0.6367524266 0.6075202823
	0.6561157107 0.6375942230 0.6084082127
	0.6569316983 0.6384360194 0.6092960835
	0.6577478051 0.6392776966 0.6101840734
	0.6585525870 0.6401113272 0.6110618114
	0.6593559980 0.6409441233 0.6119391918
	0.6601594090 0.6417768002 0.6128165722
	0.6609628201 0.6426095963 0.6136940122
	0.6617612243 0.6434395909 0.6145706177
	0.6625593901 0.6442695856 0.6154471040
	0.6633576155 0.6450996995 0.6163237095
	0.6641554832 0.6459290981 0.6171987057
	0.6649441123 0.6467508078 0.6180636287
	0.6657326818 0.6475725174 0.6189286113
	0.6665213108 0.6483941078 0.6197934747
	0.6673098207 0.6492155790 0.6206579804
	0.6680960059 0.6500353217 0.6215201020
	0.6688820720 0.6508548856 0.6223822236
	0.6696683168 0.6516745090 0.6232442856
	0.6704540849 0.6524934769 0.6241046190
	0.6712335944 0.6533043981 0.6249533296
	0.6720131040 0.6541153789 0.6258019209
	0.6727924943 0.6549263000 0.6266505718
	0.6735720038 0.6557372212 0.6274989247
	0.6743516922 0.6565400958 0.6283429265
	0.6751313806 0.6573429704 0.6291869879
	0.6759110093 0.6581459045 0.6300309896
	0.6766906977 0.6589487791 0.6308749914
	0.6774597764 0.6597450972 0.6317095160
	0.6782273054 0.6605407000 0.6325436831
	0.6789947748 0.6613361835 0.6333777905
	0.6797623038 0.6621317863 0.6342120171
	0.6805222034 0.6629223824 0.6350417733
	0.6812793016 0.6637114286 0.6358706951
	0.6820363998 0.6645004153 0.6366994977
	0.6827934980 0.6652892828 0.6375284195
	0.6835458279 0.6660748124 0.6383498907
	0.6842942834 0.6668576002 0.6391670704
	0.6850426793 0.6676403880 0.6399844289
	0.6857910752 0.6684231758 0.6408016086
	0.6865373254 0.6692041755 0.6416165233
	0.6872786283 0.6699815989 0.6424279809
	0.6880199909 0.6707590222 0.6432394981
	0.6887614131 0.6715363860 0.6440510154
	0.6895024776 0.6723132730 0.6448624134
	0.6902387142 0.6730847955 0.6456729770
	0.6909748912 0.6738561988 0.6464836001
	0.6917111278 0.6746276021 0.6472942829
	0.6924473047 0.6753990054 0.6481049061
	0.6931800246 0.6761628985 0.6489096880
	0.6939114928 0.6769244075 0.6497132778
	0.6946430206 0.6776859164 0.6505168080
	0.6953744888 0.6784474254 0.6513202786
	0.6961029768 0.6792098284 0.6521201730
	0.6968262792 0.6799734235 0.6529155970
	0.6975495815 0.6807370782 0.6537110806
	0.6982728839 0.6815006733 0.6545065045
	0.6989961863 0.6822643876 0.6553019285
	0.6997179985 0.6830213070 0.6560959816
	0.7004398108 0.6837782264 0.6568900943
	0.7011616230 0.6845350862 0.6576842070
	0.7018833756 0.6852920055 0.6584783792
	0.7026001811 0.6860477924 0.6592714190
	0.7033123970 0.6868026257 0.6600636244
	0.7040244937 0.6875573993 0.6608558893
	0.7047367096 0.6883121729 0.6616480947
	0.7054488063 0.6890667081 0.6624394059
	0.7061572075 0.6898154020 0.6632227898
	0.7068657279 0.6905639768 0.6640061736
	0.7075741887 0.6913126707 0.6647896171
	0.7082825899 0.6920614243 0.6655731201
	0.7089877129 0.6928064823 0.6663510203
	0.7096893191 0.6935483217 0.6671249866
	0.7103909254 0.6942901015 0.6678988934
	0.7110924125 0.6950318813 0.6686729193
	0.7117940187 0.6957737207 0.6694468260
	0.7124900222 0.6965091825 0.6702172756
	0.7131854892 0.6972442269 0.6709877253
	0.7138808966 0.6979792118 0.6717581749
	0.7145763040 0.6987141967 0.6725286841
	0.7152705789 0.6994475722 0.6732978225
	0.7159615159 0.7001774907 0.6740645170
	0.7166523933 0.7009072900 0.6748312116
	0.7173433900 0.7016372085 0.6755979061
	0.7180343270 0.7023670077 0.6763646007
	0.7187235951 0.7030938864 0.6771286130
	0.7194116116 0.7038189769 0.6778911948
	0.7200996876 0.7045441866 0.6786538959
	0.7207878232 0.7052692771 0.6794165969
	0.7214757800 0.7059944272 0.6801792979
	0.7221612930 0.7067067027 0.6809418201
	0.7228463292 0.7074177265 0.6817042828
	0.7235314250 0.7081285715 0.6824668050
	0.7242164016 0.7088394761 0.6832293868
	0.7249004245 0.7095499039 0.6839907765
	0.7255744934 0.7102571726 0.6847469211
	0.7262486219 0.7109643817 0.6855030060
	0.7269226909 0.7116715908 0.6862590909
	0.7275968194 0.7123787999 0.6870152950
	0.7282711864 0.7130823135 0.6877691150
	0.7289463878 0.7137774229 0.6885187030
	0.7296215892 0.7144724131 0.6892682910
	0.7302967906 0.7151675224 0.6900178790
	0.7309719920 0.7158625722 0.6907675266
	0.7316445112 0.7165569067 0.6915168762
	0.7323129177 0.7172502875 0.6922662854
	0.7329813838 0.7179437280 0.6930155754
	0.7336499095 0.7186371088 0.6937649846
	0.7343183160 0.7193304896 0.6945142746
	0.7349863052 0.7200188041 0.6952630281
	0.7356538177 0.7207021713 0.6960111856
	0.7363212705 0.7213857174 0.6967594028
	0.7369887829 0.7220690846 0.6975076199
	0.7376562953 0.7227525711 0.6982558966
	0.7383213043 0.7234362960 0.6990029812
	0.7389839888 0.7241200805 0.6997492909
	0.7396466136 0.7248039842 0.7004957199
	0.7403091788 0.7254878879 0.7012420297
	0.7409719229 0.7261717916 0.7019883990
	0.7416300774 0.7268511057 0.7027307153
	0.7422838807 0.7275264263 0.7034698725
	0.7429378033 0.7282016873 0.7042092085
	0.7435916066 0.7288768888 0.7049484849
	0.7442454100 0.7295522094 0.7056878209
	0.7448980212 0.7302259803 0.7064262033
	0.7455489039 0.7308980823 0.7071638703
	0.7461997867 0.7315703034 0.7079014778
	0.7468507886 0.7322424054 0.7086392045
	0.7475016713 0.7329145074 0.7093768120
	0.7481493950 0.7335844040 0.7101135850
	0.7487897873 0.7342495918 0.7108489275
	0.7494302988 0.7349148989 0.7115842104
	0.7500706911 0.7355802059 0.7123194933
	0.7507110834 0.7362453938 0.7130547762
	0.7513517141 0.7369098067 0.7137894034
	0.7519931793 0.7375693917 0.7145212889
	0.7526347041 0.7382289171 0.7152531743
	0.7532762289 0.7388885021 0.7159851789
	0.7539176941 0.7395480871 0.7167171240
	0.7545592189 0.7402076125 0.7174490094
	0.7551949024 0.7408636212 0.7181727290
	0.7558298707 0.7415192723 0.7188962102
	0.7564650178 0.7421751022 0.7196195722
	0.7570999861 0.7428308129 0.7203431129
	0.7577350736 0.7434865236 0.7210665941
	0.7583732009 0.7441366911 0.7217879295
	0.7590131760 0.7447838783 0.7225083709
	0.7596532106 0.7454311252 0.7232288122
	0.7602931261 0.7460783124 0.7239493132
	0.7609331012 0.7467254996 0.7246696949
	0.7615718842 0.7473719120 0.7253888845
	0.7622076869 0.7480165958 0.7261058092
	0.7628436089 0.7486613989 0.7268226743
	0.7634794116 0.7493060827 0.7275395989
	0.7641152740 0.7499508858 0.7282565236
	0.7647510767 0.7505956888 0.7289733887
	0.7653750777 0.7512348294 0.7296857238
	0.7659978271 0.7518734932 0.7303978801
	0.7666205168 0.7525122166 0.7311100960
	0.7672433257 0.7531508803 0.7318223119
	0.7678660154 0.7537896037 0.7325345278
	0.7684878707 0.7544282079 0.7332416177
	0.7691087723 0.7550666928 0.7339441776
	0.7697296739 0.7557051778 0.7346469164
	0.7703505754 0.7563437223 0.7353495955
	0.7709714770 0.7569822073 0.7360522151
	0.7715923786 0.7576206923 0.7367547154
	0.7722045183 0.7582557797 0.7374516726
	0.7728161812 0.7588909268 0.7381488085
	0.7734280229 0.7595258951 0.7388458848
	0.7740396857 0.7601609230 0.7395429015
	0.7746515274 0.7607960105 0.7402399778
	0.7752640843 0.7614319921 0.7409328818
	0.7758777738 0.7620692253 0.7416213751
	0.7764915824 0.7627063990 0.7423098087
	0.7771053910 0.7633436918 0.7429983020
	0.7777191997 0.7639809251 0.7436866760
	0.7783328891 0.7646180987 0.7443752289
	0.7789419293 0.7652487159 0.7450602055
	0.7795497179 0.7658780217 0.7457447052
	0.7801573873 0.7665072083 0.7464292049
	0.7807651758 0.7671365142 0.7471137047
	0.7813730240 0.7677657008 0.7477982044
	0.7819799781 0.7683938742 0.7484809160
	0.7825825810 0.7690163851 0.7491562963
	0.7831851840 0.7696390152 0.7498317957
	0.7837877870 0.7702615261 0.7505072951
	0.7843903899 0.7708839774 0.7511827946
	0.7849929929 0.7715066075 0.7518582940
	0.7855939269 0.7721267939 0.7525311708
	0.7861924767 0.7727441788 0.7532013059
	0.7867910862 0.7733615041 0.7538713813
	0.7873896956 0.7739788890 0.7545415163
	0.7879884243 0.7745962143 0.7552115917
	0.7885869741 0.7752135992 0.7558817267
	0.7891780734 0.7758283019 0.7565454841
	0.7897650003 0.7764415741 0.7572066784
	0.7903518081 0.7770550251 0.7578678131
	0.7909386158 0.7776682973 0.7585290074
	0.7915254831 0.7782816291 0.7591902018
	0.7921122909 0.7788950205 0.7598512769
	0.7926985025 0.7795063257 0.7605091929
	0.7932845950 0.7801172137 0.7611665130
