release/datafiles/colormanagement/luts/film_response/agfa_agfacolor_vista_200.spi1d
Version 1
From 0.0 1.0
Length 1024
Components 3
{
	0.0000000000 0.0000000000 0.0000000000
	0.0182101503 0.0179095902 0.0133477096
	0.0321649686 0.0326713808 0.0245428905
	0.0435327813 0.0445400514 0.0339762792
	0.0535616502 0.0549106896 0.0424365215
	0.0627619624 0.0643109381 0.0502561592
	0.0713807195 0.0730527714 0.0576005317
	0.0795889422 0.0812662989 0.0646079034
	0.0874749497 0.0890629813 0.0713189989
	0.0951398313 0.0965353027 0.0778023675
	0.1026329994 0.1037214994 0.0840878412
	0.1098783985 0.1106367037 0.0901622772
	0.1168456972 0.1172993034 0.0960228518
	0.1235098019 0.1237140000 0.1016969979
	0.1299058944 0.1299183965 0.1071913987
	0.1360470951 0.1359218955 0.1125032008
	0.1419679970 0.1417497993 0.1176472977
	0.1476961970 0.1474111974 0.1226311028
	0.1532527953 0.1529219002 0.1274778992
	0.1586499959 0.1582891047 0.1321873963
	0.1639094949 0.1635248065 0.1367731988
	0.1690364927 0.1686291993 0.1412428021
	0.1740324050 0.1736201942 0.1455994993
	0.1789164990 0.1784920990 0.1498488039
	0.1836923957 0.1832599044 0.1539963931
	0.1883690059 0.1879281998 0.1580594927
	0.1929446012 0.1924999058 0.1620312035
	0.1974374950 0.1969808936 0.1659148932
	0.2018467933 0.2013725042 0.1697210968
	0.2061869949 0.2056811005 0.1734540015
	0.2104454935 0.2099131942 0.1771208942
	0.2146379054 0.2140665054 0.1807264984
	0.2187689990 0.2181411982 0.1842699945
	0.2228457928 0.2221457958 0.1877449006
	0.2268676013 0.2260929942 0.1911672056
	0.2308367044 0.2299744040 0.1945340037
	0.2347573936 0.2337978929 0.1978531927
	0.2386282980 0.2375611067 0.2011176944
	0.2424549013 0.2412583977 0.2043330073
	0.2462375015 0.2449042946 0.2075064927
	0.2499749959 0.2485097051 0.2106339037
	0.2536737919 0.2520638108 0.2137185931
	0.2573330998 0.2555652857 0.2167686969
	0.2609579861 0.2590112984 0.2197788060
	0.2645516098 0.2624117136 0.2227548957
	0.2681075931 0.2657625973 0.2257010043
	0.2716293931 0.2690761089 0.2286102027
	0.2751240134 0.2723546028 0.2314918935
	0.2785834074 0.2755965889 0.2343432009
	0.2820093036 0.2787989080 0.2371643037
	0.2854062021 0.2819635868 0.2399580032
	0.2887754142 0.2850886881 0.2427307069
	0.2921054959 0.2881690860 0.2454746962
	0.2953915000 0.2912029028 0.2481936961
	0.2986359894 0.2941966951 0.2508893013
	0.3018450141 0.2971538901 0.2535605133
	0.3050135970 0.3000777960 0.2562063038
	0.3081485033 0.3029662073 0.2588256896
	0.3112491965 0.3058190048 0.2614240944
	0.3143157065 0.3086350858 0.2640033066
	0.3173457086 0.3114137053 0.2665627897
	0.3203401864 0.3141573966 0.2691006958
	0.3232952952 0.3168714046 0.2716197073
	0.3262135088 0.3195553124 0.2741247118
	0.3290931880 0.3222120106 0.2766116858
	0.3319376111 0.3248479962 0.2790769935
	0.3347463012 0.3274633884 0.2815260887
	0.3375192881 0.3300592899 0.2839562893
	0.3402611911 0.3326362073 0.2863681912
	0.3429714143 0.3351945877 0.2887654006
	0.3456538916 0.3377344012 0.2911457121
	0.3483096957 0.3402554095 0.2935140133
	0.3509393930 0.3427593112 0.2958686948
	0.3535420001 0.3452464938 0.2982082963
	0.3561150134 0.3477157056 0.3005363941
	0.3586607873 0.3501690924 0.3028526008
	0.3611787856 0.3526060879 0.3051568866
	0.3636738956 0.3550266922 0.3074469864
	0.3661471903 0.3574325144 0.3097249866
	0.3686017990 0.3598220050 0.3119905889
	0.3710421920 0.3621949852 0.3142440021
	0.3734661043 0.3645452857 0.3164834976
	0.3758763969 0.3668780029 0.3187099993
	0.3782708049 0.3691841960 0.3209230006
	0.3806518912 0.3714686930 0.3231270015
	0.3830181956 0.3737291098 0.3253178000
	0.3853709102 0.3759689927 0.3274958134
	0.3877105117 0.3781890869 0.3296644986
	0.3900356889 0.3803892136 0.3318220973
	0.3923485875 0.3825727105 0.3339678943
	0.3946483135 0.3847385943 0.3360984921
	0.3969348967 0.3868887126 0.3382169902
	0.3992097080 0.3890219927 0.3403255939
	0.4014719129 0.3911359906 0.3424212933
	0.4037215114 0.3932318985 0.3445019126
	0.4059596956 0.3953123093 0.3465686142
	0.4081867933 0.3973782957 0.3486247063
	0.4103969038 0.3994235098 0.3506675959
	0.4125916958 0.4014526010 0.3526985049
	0.4147717953 0.4034663141 0.3547205925
	0.4169346094 0.4054656029 0.3567343056
	0.4190779030 0.4074513912 0.3587369919
	0.4212022126 0.4094235003 0.3607279956
	0.4233098924 0.4113812149 0.3627093136
	0.4254015088 0.4133256972 0.3646796942
	0.4274776876 0.4152582884 0.3666377068
	0.4295392036 0.4171769023 0.3685849011
	0.4315859079 0.4190813899 0.3705236912
	0.4336147010 0.4209738970 0.3724532127
	0.4356271923 0.4228563905 0.3743726909
	0.4376241863 0.4247288108 0.3762832880
	0.4396047890 0.4265901148 0.3781884909
	0.4415675104 0.4284402132 0.3800868988
	0.4435133040 0.4302783012 0.3819774091
	0.4454411864 0.4321058095 0.3838588893
	0.4473508894 0.4339239895 0.3857302964
	0.4492434859 0.4357284009 0.3875930905
	0.4511201978 0.4375185072 0.3894470930
	0.4529820085 0.4392957091 0.3912915885
	0.4548301101 0.4410578907 0.3931255937
	0.4566622972 0.4428066909 0.3949485123
	0.4584765136 0.4445427954 0.3967649043
	0.4602738023 0.4462682009 0.3985747099
	0.4620555043 0.4479798973 0.4003768861
	0.4638229907 0.4496806860 0.4021708071
	0.4655745029 0.4513705969 0.4039582014
	0.4673084915 0.4530492127 0.4057385027
	0.4690262079 0.4547170997 0.4075132012
	0.4707291126 0.4563761950 0.4092822969
	0.4724188149 0.4580253959 0.4110448956
	0.4740945101 0.4596652091 0.4128004014
	0.4757550955 0.4612967968 0.4145481884
	0.4774011075 0.4629195929 0.4162878096
	0.4790340960 0.4645322859 0.4180184007
	0.4806557000 0.4661347866 0.4197404087
	0.4822664857 0.4677279890 0.4214550853
	0.4838629961 0.4693109989 0.4231620133
	0.4854427874 0.4708836973 0.4248597026
	0.4870088995 0.4724482000 0.4265482128
	0.4885635972 0.4740057886 0.4282296002
	0.4901061058 0.4755555987 0.4299038947
	0.4916355014 0.4770967066 0.4315708876
	0.4931511879 0.4786292911 0.4332301915
	0.4946528077 0.4801545143 0.4348819852
	0.4961408973 0.4816705883 0.4365274012
	0.4976170063 0.4831782877 0.4381654859
	0.4990840852 0.4846773148 0.4397968054
	0.5005418062 0.4861674011 0.4414210916
	0.5019897819 0.4876480103 0.4430381060
	0.5034281015 0.4891189933 0.4446476102
	0.5048564076 0.4905793965 0.4462502003
	0.5062754154 0.4920318127 0.4478481114
	0.5076872110 0.4934777915 0.4494414032
	0.5090919137 0.4949184060 0.4510299861
	0.5104892850 0.4963541031 0.4526137114
	0.5118765831 0.4977797866 0.4541929066
	0.5132548809 0.4991959929 0.4557681084
	0.5146262050 0.5006046891 0.4573394060
	0.5159909725 0.5020067096 0.4589067101
	0.5173475742 0.5034021735 0.4604690969
	0.5186926126 0.5047916770 0.4620254934
	0.5200299025 0.5061759949 0.4635772109
	0.5213602781 0.5075541139 0.4651241004
	0.5226839185 0.5089235902 0.4666649997
	0.5240020156 0.5102841854 0.4681988955
	0.5253158808 0.5116395950 0.4697273076
	0.5266252756 0.5129901171 0.4712502062
	0.5279287100 0.5143331885 0.4727657139
	0.5292261243 0.5156680942 0.4742735922
	0.5305185914 0.5169963837 0.4757766128
	0.5318061113 0.5183182955 0.4772751927
	0.5330879092 0.5196315050 0.4787661135
	0.5343660116 0.5209389925 0.4802523851
	0.5356402993 0.5222411752 0.4817340076
	0.5369089246 0.5235363245 0.4832083881
	0.5381723046 0.5248249173 0.4846785069
	0.5394316912 0.5261074901 0.4861451089
	0.5406854153 0.5273811817 0.4876070917
	0.5419325829 0.5286462903 0.4890637100
	0.5431752801 0.5299065113 0.4905168116
	0.5444123149 0.5311611295 0.4919654131
	0.5456442237 0.5324099064 0.4934079051
	0.5468729138 0.5336548090 0.4948467910
	0.5480973125 0.5348948240 0.4962810874
	0.5493161082 0.5361279249 0.4977090061
	0.5505313873 0.5373569727 0.4991332889
	0.5517416000 0.5385804772 0.5005524158
	0.5529457927 0.5397964120 0.5019652843
	0.5541468859 0.5410084128 0.5033745766
	0.5553439856 0.5422148705 0.5047777891
	0.5565372705 0.5434154272 0.5061753988
	0.5577278137 0.5446121097 0.5075693727
	0.5589103103 0.5458009839 0.5089558959
	0.5600882173 0.5469862819 0.5103380084
	0.5612615943 0.5481684208 0.5117158890
	0.5624287128 0.5493460298 0.5130857825
	0.5635939837 0.5505207777 0.5144522190
	0.5647562146 0.5516902208 0.5158123970
	0.5659151077 0.5528519750 0.5171663761
	0.5670722127 0.5540099740 0.5185170174
	0.5682216287 0.5551596284 0.5198565125
	0.5693680048 0.5563063025 0.5211923718
	0.5705093145 0.5574489832 0.5225226283
	0.5716463923 0.5585880280 0.5238460898
	0.5727816820 0.5597252250 0.5251665711
	0.5739135742 0.5608549118 0.5264781117
	0.5750433803 0.5619807243 0.5277863741
	0.5761687756 0.5630995035 0.5290886760
	0.5772883892 0.5642123818 0.5303848982
	0.5784044862 0.5653222799 0.5316777825
	0.5795143247 0.5664256811 0.5329598784
	0.5806226730 0.5675271749 0.5342394114
	0.5817270875 0.5686224103 0.5355114937
	0.5828294754 0.5697141886 0.5367797017
	0.5839291215 0.5708016157 0.5380430222
	0.5850237012 0.5718852878 0.5393006206
	0.5861157179 0.5729672909 0.5405554175
	0.5872008204 0.5740441084 0.5418028235
	0.5882844925 0.5751196146 0.5430486798
	0.5893629789 0.5761870146 0.5442872047
	0.5904405713 0.5772519112 0.5455237031
	0.5915157199 0.5783103704 0.5467544794
	0.5925881267 0.5793656707 0.5479820967
	0.5936570168 0.5804172754 0.5492056012
	0.5947207212 0.5814660788 0.5504246950
	0.5957809091 0.5825130939 0.5516411066
	0.5968360901 0.5835543871 0.5528522134
	0.5978894830 0.5845938921 0.5540617108
	0.5989391208 0.5856245756 0.5552654266
	0.5999881029 0.5866541862 0.5564681888
	0.6010323763 0.5876761079 0.5576648116
	0.6020759940 0.5886973739 0.5588607192
	0.6031129956 0.5897135735 0.5600510836
	0.6041488051 0.5907285810 0.5612400770
	0.6051782966 0.5917387009 0.5624223948
	0.6062065959 0.5927467942 0.5636029243
	0.6072307825 0.5937488079 0.5647776127
	0.6082534790 0.5947481990 0.5659500957
	0.6092721820 0.5957416296 0.5671173930
	0.6102892160 0.5967329144 0.5682824850
	0.6113023162 0.5977199078 0.5694428086
	0.6123135090 0.5987045169 0.5706002116
	0.6133208871 0.5996844769 0.5717515945
	0.6143262982 0.6006621718 0.5729001760
	0.6153277755 0.6016355753 0.5740433931
	0.6163274050 0.6026067138 0.5751839876
	0.6173228025 0.6035735011 0.5763192177
	0.6183164120 0.6045382023 0.5774521828
	0.6193056703 0.6054980159 0.5785800815
	0.6202933788 0.6064559221 0.5797063112
	0.6212763786 0.6074082851 0.5808271170
	0.6222583055 0.6083593965 0.5819467902
	0.6232348084 0.6093046069 0.5830612183
	0.6242107153 0.6102492809 0.5841749907
	0.6251806021 0.6111894846 0.5852832198
	0.6261504889 0.6121296883 0.5863913894
	0.6271138787 0.6130650043 0.5874921083
	0.6280770898 0.6140003204 0.5885927081
	0.6290364861 0.6149287820 0.5896871090
	0.6299952865 0.6158562899 0.5907804966
	0.6309506893 0.6167783141 0.5918691754
	0.6319050193 0.6176983714 0.5929561257
	0.6328564286 0.6186152101 0.5940394998
	0.6338058114 0.6195300221 0.5951203108
	0.6347532272 0.6204434037 0.5961987972
	0.6356977224 0.6213548779 0.5972741246
	0.6366410255 0.6222651005 0.5983482003
	0.6375805140 0.6231712103 0.5994184017
	0.6385198832 0.6240770817 0.6004886031
	0.6394541860 0.6249756217 0.6015521884
	0.6403884888 0.6258741021 0.6026158929
	0.6413171291 0.6267682910 0.6036748886
	0.6422441006 0.6276612878 0.6047325730
	0.6431670189 0.6285513043 0.6057875156
	0.6440864801 0.6294386983 0.6068398952
	0.6450045109 0.6303241253 0.6078910232
	0.6459187269 0.6312044263 0.6089388132
	0.6468328238 0.6320846081 0.6099866033
	0.6477437019 0.6329575181 0.6110302806
	0.6486546993 0.6338304281 0.6120740771
	0.6495618224 0.6346995831 0.6131126285
	0.6504672766 0.6355671883 0.6141489744
	0.6513699889 0.6364325881 0.6151828170
	0.6522679925 0.6372947097 0.6162124276
	0.6531658173 0.6381564736 0.6172416806
	0.6540582776 0.6390134096 0.6182652116
	0.6549509168 0.6398702264 0.6192886233
	0.6558411717 0.6407238245 0.6203082800
	0.6567304134 0.6415758729 0.6213262081
	0.6576179862 0.6424263716 0.6223418713
	0.6585016847 0.6432734728 0.6233528256
	0.6593855023 0.6441205740 0.6243637204
	0.6602624059 0.6449629068 0.6253690124
	0.6611385942 0.6458048224 0.6263738275
	0.6620121002 0.6466442943 0.6273748279
	0.6628826857 0.6474813819 0.6283720732
	0.6637530923 0.6483181715 0.6293689013
	0.6646183133 0.6491507292 0.6303573847
	0.6654834747 0.6499832869 0.6313458085
	0.6663444042 0.6508116722 0.6323295832
	0.6672021747 0.6516373754 0.6333100796
	0.6680591702 0.6524623036 0.6342896819
	0.6689094901 0.6532815099 0.6352627873
	0.6697599292 0.6541007161 0.6362358928
	0.6706069708 0.6549171805 0.6372048855
	0.6714519858 0.6557319760 0.6381713152
	0.6722967029 0.6565461755 0.6391372085
	0.6731383204 0.6573548913 0.6400974989
	0.6739798784 0.6581636071 0.6410579085
	0.6748195887 0.6589679122 0.6420152187
	0.6756578088 0.6597688198 0.6429703236
	0.6764960289 0.6605696082 0.6439253092
	0.6773291230 0.6613646746 0.6448736787
	0.6781619787 0.6621596813 0.6458221078
	0.6789928079 0.6629531980 0.6467680931
	0.6798204780 0.6637446284 0.6477108002
	0.6806482077 0.6645358801 0.6486533880
	0.6814717054 0.6653245091 0.6495919824
	0.6822941899 0.6661124825 0.6505295038
	0.6831157207 0.6668993831 0.6514660120
	0.6839330792 0.6676816940 0.6523975730
	0.6847504973 0.6684640050 0.6533290744
	0.6855651736 0.6692435145 0.6542578936
	0.6863775253 0.6700205207 0.6551842093
	0.6871898174 0.6707975864 0.6561105847
	0.6879963279 0.6715716720 0.6570330858
	0.6888018250 0.6723455191 0.6579551101
	0.6896061897 0.6731184125 0.6588761210
	0.6904050112 0.6738871932 0.6597927213
	0.6912037730 0.6746560931 0.6607092023
	0.6920003891 0.6754217744 0.6616228223
	0.6927945018 0.6761841178 0.6625328064
	0.6935886145 0.6769462824 0.6634427905
	0.6943795085 0.6777051091 0.6643487811
	0.6951690912 0.6784626842 0.6652531028
	0.6959587932 0.6792201996 0.6661574841
	0.6967442036 0.6799734235 0.6670572758
	0.6975293159 0.6807262897 0.6679568291
	0.6983137727 0.6814782023 0.6688550711
	0.6990944743 0.6822254062 0.6697469950
	0.6998751163 0.6829724908 0.6706389785
	0.7006543279 0.6837174892 0.6715285182
	0.7014306784 0.6844587922 0.6724137068
	0.7022070885 0.6851999760 0.6732988954
	0.7029811740 0.6859381795 0.6741808057
	0.7037534118 0.6866738200 0.6750599742
	0.7045254707 0.6874092817 0.6759392023
	0.7052934766 0.6881412268 0.6768147945
	0.7060595751 0.6888713837 0.6776887774
	0.7068256140 0.6896017194 0.6785628200
	0.7075870037 0.6903280020 0.6794317961
	0.7083472013 0.6910533905 0.6802995801
	0.7091073990 0.6917787790 0.6811674237
	0.7098640800 0.6924982071 0.6820288897
	0.7106204033 0.6932169795 0.6828898191
	0.7113767266 0.6939358115 0.6837506890
	0.7121276259 0.6946483254 0.6846057177
	0.7128784060 0.6953607798 0.6854606867
	0.7136288881 0.6960731149 0.6863154173
	0.7143725157 0.6967815161 0.6871635914
	0.7151160836 0.6974899173 0.6880118847
	0.7158594131 0.6981980801 0.6888597012
	0.7165976167 0.6989027858 0.6897020936
	0.7173358798 0.6996076107 0.6905444860
	0.7180739045 0.7003120780 0.6913864017
	0.7188072801 0.7010132074 0.6922219992
	0.7195405960 0.7017142773 0.6930575967
	0.7202737927 0.7024151087 0.6938928962
	0.7210023999 0.7031126022 0.6947227716
	0.7217310071 0.7038099766 0.6955527067
	0.7224596143 0.7045074105 0.6963825822
	0.7231836915 0.7052016854 0.6972076297
	0.7239078283 0.7058959007 0.6980326772
	0.7246319056 0.7065901160 0.6988577247
	0.7253506184 0.7072818279 0.6996777058
	0.7260687947 0.7079733014 0.7004973292
	0.7267869711 0.7086647749 0.7013168931
	0.7275004983 0.7093524933 0.7021313906
	0.7282128930 0.7100393772 0.7029448152
	0.7289254069 0.7107263207 0.7037581801
	0.7296341062 0.7114102840 0.7045679092
	0.7303411961 0.7120929956 0.7053759098
	0.7310482860 0.7127758265 0.7061840296
	0.7317516804 0.7134565115 0.7069895864
	0.7324519753 0.7141355872 0.7077932954
	0.7331522107 0.7148147225 0.7085970044
	0.7338507175 0.7154917121 0.7093988061
	0.7345461249 0.7161653042 0.7101973295
	0.7352414727 0.7168390155 0.7109956741
	0.7359364033 0.7175115943 0.7117931843
	0.7366288900 0.7181801796 0.7125861049
	0.7373213172 0.7188488245 0.7133789062
	0.7380138040 0.7195172906 0.7141718268
	0.7387021184 0.7201828957 0.7149586082
	0.7393900752 0.7208483815 0.7157452106
	0.7400780916 0.7215139270 0.7165318131
	0.7407631874 0.7221763134 0.7173146009
	0.7414469719 0.7228373885 0.7180958986
	0.7421306968 0.7234985232 0.7188770771
	0.7428128123 0.7241570950 0.7196565866
	0.7434924841 0.7248123884 0.7204334736
	0.7441722155 0.7254676819 0.7212104201
	0.7448515892 0.7261224985 0.7219868898
	0.7455275059 0.7267739773 0.7227588296
	0.7462034225 0.7274255157 0.7235307097
	0.7468793988 0.7280768752 0.7243025899
	0.7475525737 0.7287256122 0.7250691056
	0.7482250929 0.7293733954 0.7258337736
	0.7488974929 0.7300211787 0.7265986204
	0.7495679855 0.7306671739 0.7273609042
	0.7502354980 0.7313104868 0.7281196117
	0.7509030104 0.7319536805 0.7288782001
	0.7515705228 0.7325968742 0.7296367884
	0.7522333264 0.7332357764 0.7303904295
	0.7528960109 0.7338746786 0.7311440110
	0.7535588145 0.7345135808 0.7318975925
	0.7542191148 0.7351499796 0.7326478958
	0.7548775077 0.7357847095 0.7333958745
	0.7555359006 0.7364193797 0.7341439128
	0.7561935782 0.7370532751 0.7348909974
	0.7568460703 0.7376828790 0.7356327176
	0.7574986815 0.7383124828 0.7363743782
	0.7581512928 0.7389420867 0.7371160984
	0.7588003278 0.7395684719 0.7378535271
	0.7594472766 0.7401931286 0.7385885119
	0.7600942850 0.7408177853 0.7393234968
	0.7607408166 0.7414417863 0.7400577068
	0.7613841295 0.7420616746 0.7407870889
	0.7620275021 0.7426816225 0.7415165901
	0.7626708746 0.7433015108 0.7422459722
	0.7633122802 0.7439180017 0.7429726720
	0.7639523745 0.7445324063 0.7436977029
	0.7645925283 0.7451466918 0.7444226146
	0.7652325034 0.7457607985 0.7451472878
	0.7658681273 0.7463697195 0.7458673120
	0.7665035725 0.7469785810 0.7465873957
	0.7671391964 0.7475875020 0.7473074198
	0.7677729130 0.7481939793 0.7480244040
	0.7684043050 0.7487975955 0.7487375736
	0.7690356970 0.7494012117 0.7494506836
	0.7696670890 0.7500048876 0.7501639128
	0.7702953815 0.7506046295 0.7508723140
	0.7709228992 0.7512034774 0.7515797019
	0.7715504766 0.7518025041 0.7522869706
	0.7721772194 0.7524008751 0.7529935837
	0.7727996707 0.7529972196 0.7536963820
	0.7734221816 0.7535933852 0.7543991804
	0.7740446925 0.7541896105 0.7551020980
	0.7746649981 0.7547839284 0.7558023930
	0.7752826810 0.7553762794 0.7565001845
	0.7759004831 0.7559686899 0.7571979761
	0.7765182853 0.7565611005 0.7578958273
	0.7771326900 0.7571496964 0.7585895061
	0.7777460814 0.7577372789 0.7592819929
	0.7783594728 0.7583248019 0.7599744201
	0.7789728045 0.7589122057 0.7606667280
	0.7795792222 0.7594966888 0.7613533735
	0.7801855803 0.7600811720 0.7620400190
	0.7807919979 0.7606657147 0.7627267241
	0.7813968062 0.7612491846 0.7634122968
	0.7819966078 0.7618296742 0.7640944123
	0.7825964093 0.7624102235 0.7647765279
	0.7831960917 0.7629907131 0.7654587030
	0.7837939262 0.7635689974 0.7661380172
	0.7843887806 0.7641444206 0.7668138146
	0.7849838138 0.7647197843 0.7674896717
	0.7855787873 0.7652952075 0.7681655288
	0.7861704826 0.7658686042 0.7688372731
	0.7867596745 0.7664408088 0.7695063949
	0.7873489261 0.7670128942 0.7701755166
	0.7879381776 0.7675850987 0.7708445787
	0.7885246873 0.7681542039 0.7715098858
	0.7891101837 0.7687221169 0.7721735835
	0.7896956205 0.7692900896 0.7728372812
	0.7902809978 0.7698580027 0.7735010982
	0.7908638120 0.7704228759 0.7741602063
	0.7914459109 0.7709870934 0.7748184204
	0.7920280099 0.7715513706 0.7754765153
	0.7926099896 0.7721155882 0.7761346102
	0.7931870222 0.7726777196 0.7767888904
	0.7937632799 0.7732396722 0.7774425745
	0.7943394780 0.7738016248 0.7780963182
	0.7949157953 0.7743635178 0.7787501216
	0.7954884768 0.7749227285 0.7793995142
	0.7960608006 0.7754815817 0.7800486088
	0.7966331244 0.7760406137 0.7806975842
	0.7972053885 0.7765995860 0.7813466787
	0.7977746129 0.7771558762 0.7819913030
	0.7983434796 0.7777119875 0.7826355100
	0.7989124060 0.7782680988 0.7832797170
	0.7994812727 0.7788242102 0.7839238048
	0.8000450134 0.7793778181 0.7845636010
	0.8006079793 0.7799311280 0.7852026820
	0.8011708856 0.7804843187 0.7858418226
	0.8017339110 0.7810376287 0.7864809036
	0.8022924066 0.7815880775 0.7871146202
	0.8028498292 0.7821378708 0.7877470851
	0.8034073114 0.7826877236 0.7883794904
	0.8039646745 0.7832375765 0.7890118957
	0.8045186996 0.7837849855 0.7896395922
	0.8050711751 0.7843313813 0.7902652025
	0.8056237102 0.7848778963 0.7908908129
	0.8061761856 0.7854242921 0.7915164232
	0.8067255020 0.7859687805 0.7921388745
	0.8072721958 0.7865118980 0.7927588820
	0.8078188896 0.7870550156 0.7933788896
	0.8083655834 0.7875980735 0.7939988971
	0.8089101911 0.7881401777 0.7946166992
	0.8094515800 0.7886806130 0.7952311039
	0.8099929094 0.7892209888 0.7958455086
	0.8105341792 0.7897614241 0.7964599133
	0.8110746741 0.7903016806 0.7970730066
	0.8116112947 0.7908411026 0.7976801991
	0.8121479154 0.7913805842 0.7982873917
	0.8126844764 0.7919200063 0.7988945842
	0.8132210970 0.7924594879 0.7995017767
	0.8137524128 0.7929970026 0.8001034260
	0.8142833114 0.7935343981 0.8007047176
	0.8148142099 0.7940719128 0.8013060093
	0.8153451085 0.7946093082 0.8019073009
	0.8158726096 0.7951447964 0.8025054932
	0.8163983226 0.7956792712 0.8031023145
	0.8169239759 0.7962138057 0.8036990762
	0.8174496889 0.7967482209 0.8042958975
	0.8179737926 0.7972822785 0.8048911095
	0.8184949160 0.7978156209 0.8054832816
	0.8190159798 0.7983487844 0.8060755134
	0.8195371032 0.7988821268 0.8066676855
	0.8200582862 0.7994152904 0.8072599173
	0.8205738068 0.7999464273 0.8078473806
	0.8210893273 0.8004773855 0.8084350228
	0.8216049075 0.8010084033 0.8090224862
	0.8221204281 0.8015394211 0.8096100092
	0.8226320148 0.8020684123 0.8101946115
	0.8231410980 0.8025962710 0.8107774258
	0.8236501217 0.8031241298 0.8113601804
	0.8241592050 0.8036519289 0.8119429946
	0.8246672153 0.8041794896 0.8125250936
	0.8251705170 0.8047057986 0.8131045103
	0.8256738186 0.8052322268 0.8136839271
	0.8261770010 0.8057584763 0.8142634034
	0.8266803026 0.8062849045 0.8148428202
	0.8271808028 0.8068094254 0.8154187202
	0.8276802897 0.8073332906 0.8159933090
	0.8281797171 0.8078572154 0.8165680170
	0.8286792040 0.8083810806 0.8171426058
	0.8291776180 0.8089041114 0.8177158237
	0.8296723962 0.8094245791 0.8182842731
	0.8301671743 0.8099449873 0.8188527822
	0.8306620121 0.8104655147 0.8194214106
	0.8311567903 0.8109859824 0.8199899197
	0.8316488266 0.8115053177 0.8205549717
	0.8321394920 0.8120239973 0.8211187720
	0.8326302767 0.8125427961 0.8216825724
	0.8331211209 0.8130615950 0.8222463727
	0.8336114883 0.8135799170 0.8228093982
	0.8341001868 0.8140959740 0.8233684897
	0.8345888853 0.8146120906 0.8239275217
	0.8350775242 0.8151282072 0.8244866133
	0.8355662227 0.8156443238 0.8250455856
	0.8360525966 0.8161584139 0.8256021738
	0.8365371227 0.8166708946 0.8261566162
	0.8370215297 0.8171833158 0.8267109990
	0.8375059962 0.8176957965 0.8272655010
	0.8379905224 0.8182082772 0.8278198838
	0.8384705782 0.8187190294 0.8283702135
	0.8389502168 0.8192296028 0.8289201260
	0.8394296765 0.8197401166 0.8294699192
	0.8399093151 0.8202505708 0.8300197124
	0.8403881788 0.8207604885 0.8305683136
	0.8408648968 0.8212682009 0.8311123848
	0.8413414955 0.8217757940 0.8316563964
	0.8418180943 0.8222835064 0.8322004080
	0.8422946930 0.8227912188 0.8327444792
	0.8427696228 0.8232969046 0.8332856894
	0.8432425857 0.8238008022 0.8338239789
	0.8437157273 0.8243045807 0.8343623281
	0.8441886902 0.8248084784 0.8349006772
	0.8446617723 0.8253123760 0.8354390264
	0.8451316953 0.8258146048 0.8359742165
	0.8456004858 0.8263162971 0.8365082145
	0.8460692167 0.8268179893 0.8370422125
	0.8465380073 0.8273196816 0.8375762105
	0.8470066786 0.8278213739 0.8381102085
