release/datafiles/colormanagement/luts/film_response/agfa_advantix_200.spi1d
Version 1
From 0.0 1.0
Length 1024
Components 3
{
	0.0000000000 0.0000000000 0.0000000000
	0.0109453099 0.0095550315 0.0076129269
	0.0205393303 0.0180988703 0.0146826003
	0.0290690009 0.0255930703 0.0210563708
	0.0365057997 0.0324602798 0.0267342404
	0.0431397706 0.0389092602 0.0319225714
	0.0493469499 0.0448722206 0.0368033797
	0.0553121008 0.0504292287 0.0415878706
	0.0610060990 0.0556044616 0.0463291109
	0.0664596632 0.0604789183 0.0508504696
	0.0717297420 0.0651700869 0.0551753603
	0.0767887011 0.0697173625 0.0594077297
	0.0815975219 0.0740136728 0.0635364205
	0.0862075612 0.0781842917 0.0675580502
	0.0907116681 0.0822909772 0.0713816136
	0.0950955972 0.0863237828 0.0743237808
	0.0993374512 0.0902062133 0.0773941725
	0.1034374982 0.0940194428 0.0811215192
	0.1073296964 0.0977483913 0.0852948874
	0.1110906973 0.1014209017 0.0893627778
	0.1147643998 0.1050138026 0.0926783979
	0.1184094027 0.1085262001 0.0958950967
	0.1220393032 0.1120131016 0.0990428701
	0.1255874038 0.1154666021 0.1021654978
	0.1290600002 0.1188692003 0.1052715033
	0.1324646026 0.1222466975 0.1083573997
	0.1358134001 0.1256064028 0.1113879010
	0.1391503960 0.1289401054 0.1143847033
	0.1424382031 0.1322277933 0.1173340008
	0.1457035989 0.1354801953 0.1201964989
	0.1489387006 0.1386919022 0.1230240986
	0.1521472931 0.1418765932 0.1258170009
	0.1553370059 0.1450258046 0.1285797060
	0.1584853977 0.1481391937 0.1313088983
	0.1615826935 0.1512455940 0.1340118051
	0.1646398008 0.1543205976 0.1366993934
	0.1676366031 0.1573432982 0.1393682063
	0.1705628037 0.1603267044 0.1420211941
	0.1734506935 0.1632660031 0.1446440071
	0.1762887985 0.1661476046 0.1472647935
	0.1791007072 0.1689998060 0.1498612016
	0.1818982959 0.1718225926 0.1524337977
	0.1846773028 0.1746128052 0.1549834013
	0.1874344051 0.1773594022 0.1575088948
	0.1901603937 0.1800664961 0.1600168049
	0.1928523034 0.1827678978 0.1625131071
	0.1955167055 0.1854266971 0.1649871022
	0.1981182992 0.1880469024 0.1674250066
	0.2006929070 0.1906183958 0.1698420942
	0.2032330930 0.1931630969 0.1722377986
	0.2057420015 0.1956868023 0.1746356040
	0.2082346976 0.1981967986 0.1770364046
	0.2106983960 0.2006848007 0.1794321984
	0.2131627053 0.2031618059 0.1818124950
	0.2156358063 0.2056335062 0.1841809005
	0.2180998027 0.2080969065 0.1865282953
	0.2205528021 0.2105540931 0.1888633072
	0.2229813933 0.2129819989 0.1911772937
	0.2253869027 0.2154051960 0.1934747994
	0.2277887017 0.2178180069 0.1957782060
	0.2301833928 0.2201987058 0.1980752051
	0.2325472981 0.2225521058 0.2003640980
	0.2348767966 0.2248626053 0.2026430070
	0.2371928990 0.2271340042 0.2049131989
	0.2394970059 0.2293829024 0.2071806937
	0.2417781949 0.2316153049 0.2094416022
	0.2440516949 0.2338470966 0.2117109001
	0.2463241965 0.2360679954 0.2139746994
	0.2485778928 0.2382649034 0.2162466943
	0.2508257926 0.2404524982 0.2185126990
	0.2530736923 0.2426279038 0.2207739949
	0.2553015947 0.2447896004 0.2230270952
	0.2575267851 0.2469552010 0.2252774984
	0.2597568035 0.2491303980 0.2275131047
	0.2619835138 0.2513048947 0.2297354937
	0.2641938031 0.2534686029 0.2319502980
	0.2663998902 0.2556251884 0.2341517955
	0.2686052918 0.2577697039 0.2363480031
	0.2708081007 0.2599022090 0.2385403067
	0.2730022967 0.2620306909 0.2407180965
	0.2751887143 0.2641496956 0.2428912967
	0.2773590982 0.2662425041 0.2450589985
	0.2795172036 0.2683148086 0.2472172976
	0.2816726863 0.2703753114 0.2493720949
	0.2838136852 0.2724193931 0.2515229881
	0.2859255075 0.2744517922 0.2536627948
	0.2880168855 0.2764849067 0.2557986081
	0.2901124954 0.2785145044 0.2579297125
	0.2922055125 0.2805334926 0.2600534856
	0.2942928076 0.2825405896 0.2621644139
	0.2963638008 0.2845480144 0.2642523944
	0.2984221876 0.2865386903 0.2663209140
	0.3004606962 0.2885077894 0.2683751881
	0.3024761081 0.2904664874 0.2704192996
	0.3044942915 0.2924236953 0.2724545002
	0.3065181971 0.2943876982 0.2744720876
	0.3085376918 0.2963528931 0.2764638066
	0.3105514944 0.2983131111 0.2784410119
	0.3125489056 0.3002620041 0.2804194987
	0.3145506084 0.3021939993 0.2823942006
	0.3165509105 0.3041042089 0.2843523026
	0.3185442090 0.3060002923 0.2863051891
	0.3205361962 0.3078896999 0.2882539034
	0.3225252032 0.3097808063 0.2901889980
	0.3245142996 0.3116734922 0.2921113074
	0.3265058100 0.3135590851 0.2940278947
	0.3284947872 0.3154321909 0.2959429026
	0.3304775059 0.3173008859 0.2978521883
	0.3324612975 0.3191635907 0.2997469008
	0.3344404995 0.3210156858 0.3016290069
	0.3364037871 0.3228532076 0.3035013080
	0.3383480906 0.3246806860 0.3053658903
	0.3402774930 0.3265039027 0.3072257042
	0.3422003984 0.3283264935 0.3090836108
	0.3441283107 0.3301435113 0.3109402061
	0.3460584879 0.3319503963 0.3127999902
	0.3479807973 0.3337503970 0.3146592081
	0.3498908877 0.3355464935 0.3165098131
	0.3517873883 0.3373399973 0.3183467984
	0.3536739051 0.3391256034 0.3201710880
	0.3555468917 0.3408975899 0.3219870925
	0.3574047089 0.3426569104 0.3237960935
	0.3592503965 0.3444055915 0.3255974948
	0.3610936105 0.3461483121 0.3273890913
	0.3629257977 0.3478848040 0.3291662931
	0.3647486866 0.3496142030 0.3309336901
	0.3665607870 0.3513360918 0.3326914012
	0.3683531880 0.3530487120 0.3344373107
	0.3701289892 0.3547559083 0.3361791968
	0.3719004095 0.3564561903 0.3379172087
	0.3736707866 0.3581486046 0.3396506011
	0.3754306138 0.3598242104 0.3413727880
	0.3771795928 0.3614909947 0.3430913985
	0.3789179921 0.3631505966 0.3448042870
	0.3806397915 0.3648028076 0.3465045989
	0.3823508024 0.3664542139 0.3481892049
	0.3840552866 0.3680998981 0.3498643935
	0.3857525885 0.3697325885 0.3515287936
	0.3874309957 0.3713547885 0.3531869948
	0.3890962005 0.3729732037 0.3548409939
	0.3907422125 0.3745886981 0.3564892113
	0.3923803866 0.3761973083 0.3581174910
	0.3940139115 0.3778007925 0.3597348928
	0.3956401050 0.3793950975 0.3613364995
	0.3972538114 0.3809765875 0.3629319072
	0.3988597989 0.3825520873 0.3645235002
	0.4004507959 0.3841212988 0.3661076128
	0.4020316899 0.3856911063 0.3676817119
	0.4036057889 0.3872612119 0.3692494035
	0.4051836133 0.3888235986 0.3708040118
	0.4067601860 0.3903797865 0.3723560870
	0.4083349109 0.3919270039 0.3739052117
	0.4099012911 0.3934660852 0.3754433095
	0.4114632905 0.3950020969 0.3769756854
	0.4130123854 0.3965331018 0.3784922063
	0.4145576060 0.3980642855 0.3800047934
	0.4160979986 0.3995954990 0.3815135956
	0.4176265895 0.4011205137 0.3830150068
	0.4191510081 0.4026427865 0.3845132887
	0.4206664860 0.4041537941 0.3859997094
	0.4221807122 0.4056634009 0.3874785900
	0.4236926138 0.4071705043 0.3889462948
	0.4251953065 0.4086725116 0.3904061019
	0.4266924858 0.4101715982 0.3918620050
	0.4281755090 0.4116598964 0.3933145106
	0.4296549857 0.4131458998 0.3947649896
	0.4311212897 0.4146251082 0.3962041140
	0.4325863123 0.4161024094 0.3976391852
	0.4340479076 0.4175755084 0.3990663886
	0.4355044961 0.4190461934 0.4004910886
	0.4369558096 0.4205146134 0.4019137025
	0.4384000897 0.4219822884 0.4033333063
	0.4398407042 0.4234496057 0.4047515988
	0.4412648976 0.4249095023 0.4061658084
	0.4426848888 0.4263676107 0.4075790942
	0.4440922141 0.4278148115 0.4089758992
	0.4454984963 0.4292607903 0.4103710055
	0.4469017088 0.4306946993 0.4117515087
	0.4483037889 0.4321266115 0.4131309986
	0.4496976137 0.4335466921 0.4145058095
	0.4510863125 0.4349648952 0.4158783853
	0.4524526000 0.4363755882 0.4172433019
	0.4538140893 0.4377841055 0.4186027944
	0.4551594853 0.4391863942 0.4199478924
	0.4565044940 0.4405857027 0.4212876856
	0.4578481019 0.4419767857 0.4226151109
	0.4591886997 0.4433653951 0.4239403903
	0.4605211020 0.4447469115 0.4252606928
	0.4618496001 0.4461270869 0.4265792966
	0.4631653130 0.4475035965 0.4278936982
	0.4644770026 0.4488789141 0.4292060137
	0.4657723904 0.4502497017 0.4305118024
	0.4670655131 0.4516187906 0.4318155944
	0.4683431089 0.4529778957 0.4331100881
	0.4696202874 0.4543359876 0.4344033897
	0.4708895981 0.4556787014 0.4356841147
	0.4721587896 0.4570212960 0.4369646907
	0.4734266996 0.4583550096 0.4382334054
	0.4746944010 0.4596883059 0.4395017922
	0.4759570956 0.4610117078 0.4407595098
	0.4772185087 0.4623329043 0.4420154095
	0.4784702957 0.4636422098 0.4432603121
	0.4797168970 0.4649454951 0.4445005059
	0.4809587896 0.4662468135 0.4457359910
	0.4821954966 0.4675458074 0.4469672143
	0.4834313095 0.4688419104 0.4481967986
	0.4846647084 0.4701308012 0.4494228959
	0.4858981073 0.4714190066 0.4506483972
	0.4871313870 0.4726983011 0.4518673122
	0.4883646965 0.4739777148 0.4530862868
	0.4895890951 0.4752514064 0.4542964995
	0.4908111989 0.4765237868 0.4555051029
	0.4920256138 0.4777913094 0.4567083120
	0.4932329953 0.4790548086 0.4579074085
	0.4944368899 0.4803156853 0.4591037929
	0.4956291020 0.4815686941 0.4602927864
	0.4968214035 0.4828216136 0.4614818096
	0.4980075061 0.4840664864 0.4626607001
	0.4991930127 0.4853107929 0.4638391137
	0.5003730059 0.4865506887 0.4650115073
	0.5015485883 0.4877873063 0.4661796987
	0.5027217269 0.4890219867 0.4673461020
	0.5038836002 0.4902490973 0.4685058892
	0.5050454736 0.4914762080 0.4696657956
	0.5061964989 0.4927015007 0.4708235860
	0.5073444247 0.4939264953 0.4719808996
	0.5084874034 0.4951480031 0.4731355011
	0.5096216798 0.4963639975 0.4742859006
	0.5107560754 0.4975799024 0.4754363894
	0.5118848085 0.4987801015 0.4765751958
	0.5130128860 0.4999789000 0.4777132869
	0.5141406059 0.5011754036 0.4788497090
	0.5152677298 0.5023689270 0.4799841046
	0.5163947940 0.5035623908 0.4811184108
	0.5175107121 0.5047491193 0.4822545052
	0.5186256170 0.5059353709 0.4833906889
	0.5197319984 0.5071169734 0.4845212996
	0.5208250284 0.5082917213 0.4856444001
	0.5219178796 0.5094662905 0.4867675006
	0.5230032802 0.5106360912 0.4878782928
	0.5240870118 0.5118049979 0.4889872968
	0.5251713991 0.5129719973 0.4900952876
	0.5262575746 0.5141333938 0.4912008941
	0.5273438096 0.5152949095 0.4923065007
	0.5284274220 0.5164546967 0.4934087098
	0.5295094252 0.5176134706 0.4945091903
	0.5305913091 0.5187724233 0.4956094921
	0.5316656828 0.5199283957 0.4966976941
	0.5327398181 0.5210844874 0.4977858961
	0.5338104963 0.5222364068 0.4988707900
	0.5348731279 0.5233796239 0.4999495149
	0.5359356999 0.5245227814 0.5010282993
	0.5369876027 0.5256589055 0.5021041036
	0.5380324721 0.5267904997 0.5031781197
	0.5390774012 0.5279220939 0.5042521954
	0.5401139259 0.5290479064 0.5053207278
	0.5411491990 0.5301730037 0.5063884854
	0.5421838760 0.5312972069 0.5074563026
	0.5432150960 0.5324152112 0.5085229278
	0.5442463160 0.5335332751 0.5095896125
	0.5452744961 0.5346456170 0.5106530786
	0.5462962985 0.5357465148 0.5117110014
	0.5473181009 0.5368474126 0.5127688050
	0.5483338237 0.5379434228 0.5138180852
	0.5493434072 0.5390350223 0.5148600936
	0.5503531098 0.5401265025 0.5159021020
	0.5513597131 0.5412139297 0.5169410706
	0.5523648262 0.5422992110 0.5179787278
	0.5533698201 0.5433844924 0.5190163255
	0.5543758273 0.5444642901 0.5200524926
	0.5553820729 0.5455427170 0.5210883021
	0.5563883185 0.5466210246 0.5221241713
	0.5573911071 0.5476927161 0.5231577754
	0.5583932996 0.5487633944 0.5241910815
	0.5593954921 0.5498341918 0.5252243876
	0.5603914857 0.5508939028 0.5262517929
	0.5613868237 0.5519527793 0.5272789001
	0.5623821020 0.5530115962 0.5283061266
	0.5633684993 0.5540567040 0.5293180943
	0.5643541813 0.5551009178 0.5303297043
	0.5653399229 0.5561451912 0.5313413143
	0.5663121939 0.5571808219 0.5323446989
	0.5672833920 0.5582157969 0.5333477259
	0.5682544708 0.5592507124 0.5343508124
	0.5692139864 0.5602828264 0.5353485942
	0.5701718926 0.5613144040 0.5363458991
	0.5711297989 0.5623461008 0.5373433232
	0.5720816255 0.5633695126 0.5383352041
	0.5730317831 0.5643910170 0.5393260717
	0.5739821196 0.5654125810 0.5403169990
	0.5749322176 0.5664225817 0.5413028002
	0.5758821964 0.5674279928 0.5422866940
	0.5768321753 0.5684334040 0.5432707071
	0.5777807832 0.5694364905 0.5442500114
	0.5787283182 0.5704377294 0.5452260971
	0.5796757936 0.5714389086 0.5462023020
	0.5806186795 0.5724375248 0.5471749902
	0.5815541744 0.5734320879 0.5481427908
	0.5824897289 0.5744267106 0.5491107106
	0.5834230781 0.5754204988 0.5500766039
	0.5843461156 0.5764102936 0.5510352850
	0.5852690935 0.5774000883 0.5519940257
	0.5861920714 0.5783898830 0.5529527068
	0.5871120095 0.5793784857 0.5539078116
	0.5880315900 0.5803670287 0.5548627973
	0.5889511108 0.5813555121 0.5558177829
	0.5898649096 0.5823364258 0.5567662120
	0.5907754898 0.5833132267 0.5577116013
	0.5916861296 0.5842900872 0.5586568713
	0.5925920010 0.5852631927 0.5595967174
	0.5934880972 0.5862287879 0.5605269074
	0.5943841934 0.5871945024 0.5614570975
	0.5952801704 0.5881602168 0.5623872280
	0.5961638093 0.5891243815 0.5633127093
	0.5970469713 0.5900886059 0.5642381907
	0.5979301929 0.5910527110 0.5651637912
	0.5988095999 0.5920161009 0.5660883784
	0.5996860862 0.5929788947 0.5670126081
	0.6005626917 0.5939416885 0.5679367781
	0.6014385223 0.5949037075 0.5688589215
	0.6023102999 0.5958616734 0.5697726011
	0.6031820774 0.5968198180 0.5706862211
	0.6040539145 0.5977777839 0.5715999007
	0.6049264073 0.5987269282 0.5725020766
	0.6057993174 0.5996723175 0.5734000802
	0.6066721082 0.6006177068 0.5742980838
	0.6075447202 0.6015614271 0.5751948953
	0.6084157825 0.6024988294 0.5760878921
	0.6092870235 0.6034362912 0.5769808888
	0.6101580858 0.6043736935 0.5778738856
	0.6110234261 0.6053066254 0.5787655711
	0.6118857265 0.6062374115 0.5796566010
	0.6127480268 0.6071680784 0.5805476904
	0.6136096716 0.6080988050 0.5814384818
	0.6144647002 0.6090288162 0.5823276043
	0.6153196096 0.6099588275 0.5832166076
	0.6161745191 0.6108887196 0.5841056705
	0.6170253158 0.6118140221 0.5849937797
	0.6178714037 0.6127341986 0.5858809948
	0.6187174916 0.6136543751 0.5867682099
	0.6195635796 0.6145746112 0.5876554251
	0.6203994155 0.6154835820 0.5885332227
	0.6212329268 0.6163904071 0.5894092917
	0.6220663786 0.6172971725 0.5902854204
	0.6228989959 0.6182032228 0.5911598206
	0.6237251759 0.6191043854 0.5920251012
	0.6245512962 0.6200054884 0.5928903818
	0.6253774762 0.6209065914 0.5937557220
	0.6262025833 0.6218063831 0.5946201086
	0.6270262003 0.6227043867 0.5954833031
	0.6278496981 0.6236023903 0.5963464975
	0.6286731958 0.6245002747 0.5972098112
	0.6294925809 0.6253930926 0.5980716944
	0.6303092837 0.6262826920 0.5989329815
	0.6311259866 0.6271722913 0.5997943282
	0.6319425702 0.6280620098 0.6006556153
	0.6327558756 0.6289452910 0.6015126705
	0.6335682273 0.6298272014 0.6023688912
	0.6343805790 0.6307089925 0.6032251716
	0.6351928711 0.6315909028 0.6040813923
	0.6360028982 0.6324610710 0.6049261093
	0.6368128061 0.6333307028 0.6057704091
	0.6376225948 0.6342003942 0.6066148281
	0.6384323835 0.6350694895 0.6074587703
	0.6392394900 0.6359295249 0.6082984209
	0.6400464773 0.6367895007 0.6091380715
	0.6408535838 0.6376495957 0.6099777222
	0.6416608095 0.6385089159 0.6108170748
	0.6424685717 0.6393631101 0.6116548777
	0.6432763934 0.6402173042 0.6124926805
	0.6440842748 0.6410714984 0.6133304834
	0.6448920965 0.6419250965 0.6141679883
	0.6456990838 0.6427741051 0.6150038242
	0.6465060711 0.6436231136 0.6158394814
	0.6473131776 0.6444721222 0.6166753173
	0.6481201053 0.6453201771 0.6175107956
	0.6489260197 0.6461594105 0.6183446050
	0.6497318745 0.6469987035 0.6191784739
	0.6505379081 0.6478378773 0.6200122833
	0.6513438821 0.6486768723 0.6208459735
	0.6521543264 0.6495088935 0.6216778159
	0.6529647112 0.6503409147 0.6225095987
	0.6537752151 0.6511728764 0.6233413219
	0.6545855999 0.6520048976 0.6241731048
	0.6553974152 0.6528308988 0.6250030994
	0.6562091708 0.6536563039 0.6258329153
	0.6570211053 0.6544817090 0.6266627908
	0.6578329206 0.6553071141 0.6274926066
	0.6586399078 0.6561266780 0.6283208728
	0.6594451070 0.6569445133 0.6291487813
	0.6602504253 0.6577622890 0.6299766898
	0.6610556841 0.6585801244 0.6308044791
	0.6618577242 0.6593968868 0.6316313744
	0.6626570225 0.6602129936 0.6324573755
	0.6634563208 0.6610292196 0.6332834959
	0.6642554998 0.6618453264 0.6341096163
	0.6650528908 0.6626601815 0.6349341869
	0.6658458114 0.6634724140 0.6357557178
	0.6666386127 0.6642845869 0.6365773082
	0.6674314737 0.6650968194 0.6373988986
	0.6682242751 0.6659088731 0.6382200718
	0.6690135002 0.6667075753 0.6390303969
	0.6698027849 0.6675063968 0.6398407221
	0.6705920100 0.6683050990 0.6406509876
	0.6713812947 0.6691039205 0.6414613128
	0.6721655726 0.6698979139 0.6422684193
	0.6729472876 0.6706895828 0.6430739760
	0.6737290025 0.6714811921 0.6438794732
	0.6745107174 0.6722728014 0.6446850896
	0.6752899885 0.6730641127 0.6454901099
	0.6760625243 0.6738544703 0.6462938786
	0.6768351197 0.6746450067 0.6470977068
	0.6776077151 0.6754354239 0.6479014158
	0.6783801913 0.6762257814 0.6487051845
	0.6791486740 0.6770142913 0.6495074034
	0.6799163222 0.6778023839 0.6503092051
	0.6806839705 0.6785904765 0.6511111259
	0.6814516187 0.6793786287 0.6519129872
	0.6822186708 0.6801651120 0.6527122855
	0.6829848289 0.6809486747 0.6535074115
	0.6837509274 0.6817322969 0.6543024778
	0.6845170856 0.6825159192 0.6550976038
	0.6852831841 0.6832996011 0.6558926105
	0.6860461235 0.6840777993 0.6566833258
	0.6868082881 0.6848548055 0.6574732065
	0.6875705123 0.6856318712 0.6582630873
	0.6883326769 0.6864088774 0.6590530276
	0.6890928745 0.6871842146 0.6598421931
	0.6898465157 0.6879535913 0.6606296897
	0.6905999780 0.6887230277 0.6614171863
	0.6913534999 0.6894924045 0.6622046828
	0.6921070814 0.6902617812 0.6629921794
	0.6928570271 0.6910268068 0.6637781858
	0.6936045885 0.6917887926 0.6645631790
	0.6943520904 0.6925508976 0.6653482914
	0.6950995922 0.6933128834 0.6661332846
	0.6958470941 0.6940749884 0.6669183969
	0.6965919733 0.6948326826 0.6677011847
	0.6973364949 0.6955900192 0.6684839129
	0.6980810761 0.6963472962 0.6692665815
	0.6988255978 0.6971045136 0.6700494289
	0.6995682716 0.6978610754 0.6708310843
	0.7003021240 0.6986145973 0.6716089249
	0.7010359168 0.6993680000 0.6723867059
	0.7017697096 0.7001215219 0.6731644869
	0.7025035024 0.7008749247 0.6739423871
	0.7032322884 0.7016248107 0.6747155190
	0.7039532065 0.7023693919 0.6754820943
	0.7046741843 0.7031139731 0.6762487292
	0.7053951025 0.7038586140 0.6770153046
	0.7061160207 0.7046031952 0.6777818799
	0.7068319917 0.7053433061 0.6785455942
	0.7075439095 0.7060800195 0.6793071032
	0.7082558870 0.7068166137 0.6800686717
	0.7089678049 0.7075533271 0.6808302999
	0.7096797824 0.7082899213 0.6815918088
	0.7103822827 0.7090213895 0.6823518276
	0.7110798955 0.7097504139 0.6831110120
	0.7117773890 0.7104794979 0.6838701963
	0.7124750018 0.7112085223 0.6846293807
	0.7131726146 0.7119374871 0.6853885055
	0.7138615251 0.7126597166 0.6861459017
	0.7145469785 0.7133795023 0.6869027019
	0.7152324915 0.7140992880 0.6876593828
	0.7159180045 0.7148190141 0.6884161830
	0.7166035175 0.7155387998 0.6891729236
	0.7172850966 0.7162548900 0.6899223924
	0.7179651856 0.7169696093 0.6906694770
	0.7186452150 0.7176843286 0.6914165020
	0.7193253040 0.7183991075 0.6921635866
	0.7200053930 0.7191138268 0.6929106116
	0.7206829190 0.7198268175 0.6936489940
	0.7213590145 0.7205389738 0.6943836808
	0.7220352292 0.7212511897 0.6951184273
	0.7227113843 0.7219635248 0.6958531141
	0.7233875990 0.7226756811 0.6965876818
	0.7240635753 0.7233844995 0.6973186731
	0.7247393727 0.7240908146 0.6980472207
	0.7254152894 0.7247970104 0.6987757087
	0.7260912061 0.7255033255 0.6995041966
	0.7267671227 0.7262095809 0.7002326846
	0.7274426818 0.7269139290 0.7009603977
	0.7281178832 0.7276154757 0.7016872168
	0.7287930846 0.7283170223 0.7024139762
	0.7294682860 0.7290186286 0.7031407952
	0.7301434875 0.7297201157 0.7038676143
	0.7308180928 0.7304204106 0.7045934200
	0.7314903736 0.7311158776 0.7053160071
	0.7321627140 0.7318114042 0.7060384750
	0.7328349948 0.7325068116 0.7067610025
	0.7335072160 0.7332022786 0.7074834704
	0.7341794968 0.7338978052 0.7082059979
	0.7348482013 0.7345873117 0.7089205980
	0.7355166078 0.7352764010 0.7096347213
	0.7361850142 0.7359654903 0.7103487849
	0.7368534207 0.7366545796 0.7110629082
	0.7375218272 0.7373437285 0.7117769718
	0.7381889820 0.7380310297 0.7124879956
	0.7388554215 0.7387169003 0.7131969929
	0.7395219207 0.7394028902 0.7139061093
	0.7401883006 0.7400888205 0.7146151066
	0.7408546805 0.7407748103 0.7153242230
	0.7415205836 0.7414584756 0.7160325050
	0.7421839833 0.7421336770 0.7167384028
	0.7428473830 0.7428088784 0.7174441814
	0.7435107827 0.7434840798 0.7181500793
	0.7441741824 0.7441592813 0.7188559771
	0.7448375821 0.7448344827 0.7195618749
	0.7454971075 0.7455040216 0.7202640772
	0.7461552024 0.7461715937 0.7209653258
	0.7468132973 0.7468392849 0.7216665149
	0.7474713922 0.7475069761 0.7223677039
	0.7481294870 0.7481747270 0.7230688930
	0.7487857938 0.7488409877 0.7237700820
	0.7494363785 0.7495033741 0.7244712114
	0.7500869036 0.7501658797 0.7251722813
	0.7507374883 0.7508283854 0.7258734107
	0.7513880730 0.7514907718 0.7265745997
	0.7520385981 0.7521532774 0.7272757292
	0.7526834011 0.7528085709 0.7279723287
	0.7533255816 0.7534605861 0.7286670804
	0.7539677024 0.7541127205 0.7293617725
	0.7546098828 0.7547647953 0.7300565839
	0.7552520037 0.7554169297 0.7307513952
	0.7558938861 0.7560682893 0.7314453721
	0.7565317750 0.7567108870 0.7321308851
	0.7571697235 0.7573534250 0.7328165174
	0.7578076124 0.7579960227 0.7335019708
	0.7584453821 0.7586385012 0.7341874838
	0.7590832710 0.7592810988 0.7348731160
	0.7597208023 0.7599217296 0.7355561256
	0.7603574991 0.7605590820 0.7362353206
	0.7609941959 0.7611966133 0.7369145155
	0.7616308928 0.7618340254 0.7375937104
	0.7622675896 0.7624713778 0.7382730246
	0.7629042864 0.7631089091 0.7389522195
	0.7635387778 0.7637441754 0.7396275997
	0.7641718984 0.7643783092 0.7403010130
	0.7648050189 0.7650123835 0.7409744263
	0.7654381990 0.7656465173 0.7416477799
	0.7660713196 0.7662805915 0.7423211932
	0.7667044997 0.7669147253 0.7429946065
	0.7673382759 0.7675452828 0.7436637878
	0.7679721713 0.7681750059 0.7443320155
	0.7686061263 0.7688047290 0.7450003028
	0.7692400217 0.7694345117 0.7456685901
	0.7698739767 0.7700641751 0.7463368773
	0.7705078721 0.7706940174 0.7470052242
	0.7711389065 0.7713199258 0.7476691008
	0.7717695832 0.7719454765 0.7483327985
	0.7724003792 0.7725712061 0.7489963770
	0.7730311155 0.7731968164 0.7496600747
	0.7736619115 0.7738224864 0.7503237724
	0.7742925882 0.7744480968 0.7509874105
	0.7749173045 0.7750692964 0.7516471148
	0.7755420208 0.7756903768 0.7523068786
	0.7761667967 0.7763115764 0.7529665828
	0.7767915130 0.7769327760 0.7536262870
	0.7774162292 0.7775539160 0.7542861104
	0.7780408859 0.7781749964 0.7549456954
	0.7786604166 0.7787933946 0.7556020021
	0.7792798281 0.7794117928 0.7562583089
	0.7798992991 0.7800301909 0.7569146156
	0.7805187106 0.7806485891 0.7575709224
	0.7811381817 0.7812669873 0.7582271099
	0.7817575932 0.7818853855 0.7588834167
	0.7823737264 0.7824988961 0.7595390081
	0.7829896212 0.7831121087 0.7601945996
	0.7836055160 0.7837253213 0.7608501911
	0.7842214108 0.7843385935 0.7615057826
	0.7848373055 0.7849518061 0.7621613741
	0.7854532003 0.7855650187 0.7628170848
	0.7860642076 0.7861744165 0.7634735703
	0.7866740227 0.7867829204 0.7641304135
	0.7872837782 0.7873914242 0.7647870779
	0.7878935933 0.7879999876 0.7654439211
	0.7885034084 0.7886084914 0.7661007047
	0.7891132236 0.7892169952 0.7667574286
	0.7897166014 0.7898225784 0.7674102187
	0.7903156877 0.7904263735 0.7680606842
	0.7909148932 0.7910302281 0.7687112093
	0.7915139794 0.7916340232 0.7693616748
	0.7921131849 0.7922376990 0.7700121999
	0.7927122712 0.7928414941 0.7706627250
