release/datafiles/colormanagement/luts/film_response/agfa_agfachrome_rsx2_100.spi1d
Version 1
From 0.0 1.0
Length 1024
Components 3
{
	0.0000000000 0.0000000000 0.0000000000
	0.0005538157 0.0002576292 0.0005585101
	0.0012096640 0.0005333599 0.0011604551
	0.0019140980 0.0008360103 0.0018323910
	0.0026460199 0.0011740130 0.0025799151
	0.0034157911 0.0015541241 0.0033877229
	0.0042393408 0.0019793189 0.0042505912
	0.0051223529 0.0024463851 0.0051805871
	0.0060673542 0.0029475561 0.0061999368
	0.0070817620 0.0034730800 0.0073256488
	0.0081761600 0.0040138708 0.0085633332
	0.0093593132 0.0045639272 0.0099106664
	0.0106341401 0.0051191631 0.0113591403
	0.0119961500 0.0056801899 0.0129020195
	0.0134347901 0.0062479940 0.0145361200
	0.0149379000 0.0068263910 0.0162581895
	0.0164953694 0.0074195368 0.0180597696
	0.0181045309 0.0080307238 0.0199336000
	0.0197760705 0.0086633833 0.0218689796
	0.0215226207 0.0093178684 0.0238573793
	0.0233605802 0.0099947192 0.0258926600
	0.0253009591 0.0106952796 0.0279722493
	0.0273566395 0.0114182802 0.0300974604
	0.0295376405 0.0121626100 0.0322676599
	0.0318443291 0.0129287997 0.0344865993
	0.0342735499 0.0137156500 0.0367620103
	0.0368162692 0.0145225199 0.0390981287
	0.0394631997 0.0153492000 0.0414960496
	0.0422021896 0.0161942504 0.0439662300
	0.0450241007 0.0170577895 0.0465124287
	0.0479182489 0.0179391392 0.0491312891
	0.0508695506 0.0188368801 0.0518258400
	0.0538671017 0.0197515395 0.0545928814
	0.0569038987 0.0206836108 0.0574216582
	0.0599653386 0.0216330998 0.0603049994
	0.0630441532 0.0226011295 0.0632309094
	0.0661331788 0.0235872995 0.0661824495
	0.0692235529 0.0245907698 0.0691514686
	0.0723131001 0.0256121606 0.0721308514
	0.0753963515 0.0266514607 0.0751067922
	0.0784699991 0.0277084205 0.0780698285
	0.0815294310 0.0287822001 0.0810127109
	0.0845746398 0.0298725795 0.0839387029
	0.0876072496 0.0309803504 0.0868489370
	0.0906234607 0.0321053714 0.0897342712
	0.0936240926 0.0332451016 0.0925956666
	0.0966099873 0.0343989693 0.0954437479
	0.0995746925 0.0355678201 0.0982764736
	0.1025210023 0.0367507786 0.1010928974
	0.1054513976 0.0379455499 0.1038966030
	0.1083656028 0.0391518585 0.1066884995
	0.1112613007 0.0403695591 0.1094719023
	0.1141443029 0.0415982008 0.1122469977
	0.1170163006 0.0428373106 0.1150157973
	0.1198785976 0.0440876000 0.1177795008
	0.1227298006 0.0453483313 0.1205397025
	0.1255751997 0.0466196500 0.1232986972
	0.1284184009 0.0479020402 0.1260581017
	0.1312606931 0.0491929315 0.1288186014
	0.1341048926 0.0504931509 0.1315809935
	0.1369509995 0.0518033691 0.1343457997
	0.1397999972 0.0531228185 0.1371127963
	0.1426569968 0.0544515885 0.1398842931
	0.1455242038 0.0557879396 0.1426624060
	0.1484020054 0.0571304597 0.1454472989
	0.1512925029 0.0584798306 0.1482387930
	0.1541953981 0.0598362610 0.1510369033
	0.1571146995 0.0612012111 0.1538417041
	0.1600483954 0.0625731573 0.1566565037
	0.1629952043 0.0639522225 0.1594796926
	0.1659574062 0.0653370395 0.1623144001
	0.1689333022 0.0667286515 0.1651574969
	0.1719211042 0.0681272000 0.1680109054
	0.1749179959 0.0695317611 0.1708731055
	0.1779257059 0.0709433332 0.1737474054
	0.1809400022 0.0723603070 0.1766321063
	0.1839601994 0.0737829134 0.1795291007
	0.1869864017 0.0752107576 0.1824384034
	0.1900130957 0.0766445100 0.1853630990
	0.1930415034 0.0780834034 0.1883013994
	0.1960687935 0.0795266330 0.1912554055
	0.1990925074 0.0809739381 0.1942231059
	0.2021104991 0.0824264735 0.1972043961
	0.2051243931 0.0838834122 0.2002002001
	0.2081328928 0.0853442401 0.2032063007
	0.2111341059 0.0868088603 0.2062257975
	0.2141271979 0.0882768705 0.2092570961
	0.2171119004 0.0897474736 0.2122993022
	0.2200873941 0.0912210122 0.2153486013
	0.2230526060 0.0926979184 0.2184022963
	0.2260069996 0.0941769183 0.2214571983
	0.2289530039 0.0956579819 0.2245126069
	0.2318878025 0.0971412882 0.2275668979
	0.2348102033 0.0986268297 0.2306147963
	0.2377181053 0.1001135036 0.2336523980
	0.2406145036 0.1016011015 0.2366762012
	0.2435014993 0.1030898988 0.2396847010
	0.2463797927 0.1045792028 0.2426739931
	0.2492484003 0.1060694978 0.2456423044
	0.2521043122 0.1075616032 0.2485859990
	0.2549489141 0.1090551987 0.2515046895
	0.2577804029 0.1105502024 0.2543984056
	0.2605997920 0.1120468974 0.2572653890
	0.2634068131 0.1135445982 0.2601054013
	0.2662003040 0.1150436029 0.2629188001
	0.2689799964 0.1165440977 0.2657040954
	0.2717454135 0.1180453971 0.2684625983
	0.2744967043 0.1195472032 0.2711946964
	0.2772313952 0.1210499033 0.2738988996
	0.2799471915 0.1225532964 0.2765769064
	0.2826446891 0.1240585968 0.2792299092
	0.2853254974 0.1255660951 0.2818576992
	0.2879889011 0.1270741969 0.2844642103
	0.2906337082 0.1285829991 0.2870489955
	0.2932612002 0.1300923973 0.2896148860
	0.2958734035 0.1316034049 0.2921622097
	0.2984699905 0.1331169009 0.2946906090
	0.3010497093 0.1346320063 0.2972028852
	0.3036122024 0.1361477971 0.2996973991
	0.3061597049 0.1376651973 0.3021731079
	0.3086943924 0.1391835958 0.3046326041
	0.3112165928 0.1407034993 0.3070755005
	0.3137254119 0.1422256976 0.3095063865
	0.3162207901 0.1437488943 0.3119274080
	0.3187038004 0.1452739984 0.3143393993
	0.3211764991 0.1468010992 0.3167423904
	0.3236395121 0.1483293027 0.3191359937
	0.3260940909 0.1498585939 0.3215200901
	0.3285394907 0.1513891965 0.3238947988
	0.3309769928 0.1529217958 0.3262606859
	0.3334091902 0.1544554979 0.3286187053
	0.3358364105 0.1559904069 0.3309695125
	0.3382585049 0.1575258970 0.3333117962
	0.3406754136 0.1590621024 0.3356468081
	0.3430868983 0.1606000960 0.3379752934
	0.3454923034 0.1621384025 0.3402976096
	0.3478921950 0.1636777073 0.3426141143
	0.3502902091 0.1652178019 0.3449253142
	0.3526883125 0.1667584032 0.3472313881
	0.3550874889 0.1682990938 0.3495286107
	0.3574880064 0.1698389053 0.3518162966
	0.3598900139 0.1713789999 0.3540945053
	0.3622936904 0.1729196012 0.3563635945
	0.3646990955 0.1744605005 0.3586243987
	0.3671062887 0.1760009974 0.3608759940
	0.3695152998 0.1775424033 0.3631196022
	0.3719266951 0.1790847033 0.3653568029
	0.3743407130 0.1806277931 0.3675884008
	0.3767570853 0.1821713001 0.3698143959
	0.3791759014 0.1837140024 0.3720313013
	0.3815971911 0.1852564067 0.3742407858
	0.3840225041 0.1867990047 0.3764427900
	0.3864507079 0.1883427054 0.3786371052
	0.3888813853 0.1898857057 0.3808222115
	0.3913142085 0.1914276034 0.3829993010
	0.3937469125 0.1929681003 0.3851706088
	0.3961795866 0.1945082992 0.3873367906
	0.3986124098 0.1960480064 0.3894971013
	0.4010451138 0.1975871027 0.3916527927
	0.4034779072 0.1991253942 0.3938055933
	0.4059106112 0.2006641030 0.3959555924
	0.4083434045 0.2022033036 0.3980999887
	0.4107761085 0.2037439942 0.4002406001
	0.4132089019 0.2052841932 0.4023782909
	0.4156416953 0.2068233937 0.4045133889
	0.4180744886 0.2083608955 0.4066438079
	0.4205071926 0.2098989934 0.4087715149
	0.4229399860 0.2114374042 0.4108966887
	0.4253725111 0.2129762024 0.4130181968
	0.4278020859 0.2145155072 0.4151366949
	0.4302271903 0.2160546035 0.4172526896
	0.4326483905 0.2175924033 0.4193654954
	0.4350630045 0.2191300988 0.4214769900
	0.4374726117 0.2206678987 0.4235875905
	0.4398784041 0.2222069055 0.4256978929
	0.4422785044 0.2237454951 0.4278069139
	0.4446738958 0.2252838016 0.4299151003
	0.4470661879 0.2268211991 0.4320223033
	0.4494529963 0.2283589989 0.4341273010
	0.4518359900 0.2298974991 0.4362305105
	0.4542163014 0.2314366996 0.4383283854
	0.4565913081 0.2329763025 0.4404241145
	0.4589622915 0.2345169932 0.4425179958
	0.4613293111 0.2360569984 0.4446097016
	0.4636883140 0.2375967056 0.4467011988
	0.4660438001 0.2391356975 0.4487924874
	0.4683940113 0.2406754941 0.4508841932
	0.4707357883 0.2422166020 0.4529756010
	0.4730732143 0.2437583953 0.4550662041
	0.4754005075 0.2453003973 0.4571551979
	0.4777207971 0.2468425930 0.4592432082
	0.4800347984 0.2483848035 0.4613265097
	0.4823366106 0.2499269992 0.4634082913
	0.4846338928 0.2514702976 0.4654878080
	0.4869211912 0.2530143857 0.4675660133
	0.4892016053 0.2545599937 0.4696435928
	0.4914767146 0.2561056912 0.4717212021
	0.4937387109 0.2576513886 0.4737991989
	0.4959957898 0.2591978014 0.4758777916
	0.4982388020 0.2607448995 0.4779537022
	0.5004736185 0.2622939944 0.4800283015
	0.5026996136 0.2638441026 0.4820936918
	0.5049133897 0.2653951943 0.4841566086
	0.5071231127 0.2669464946 0.4862132072
	0.5093185902 0.2684977949 0.4882662892
	0.5115088224 0.2700498998 0.4903163016
	0.5136851072 0.2716039121 0.4923604131
	0.5158513188 0.2731583118 0.4944027960
	0.5180078149 0.2747133076 0.4964390099
	0.5201510191 0.2762692869 0.4984740913
	0.5222893953 0.2778258026 0.5005058050
	0.5244101286 0.2793847024 0.5025345087
	0.5265269279 0.2809442878 0.5045595765
	0.5286250114 0.2825047970 0.5065774918
	0.5307167768 0.2840653062 0.5085912943
	0.5327941179 0.2856262922 0.5105962753
	0.5348628163 0.2871873975 0.5125992894
	0.5369216204 0.2887484133 0.5145884752
	0.5389689207 0.2903096974 0.5165752769
	0.5410090089 0.2918717861 0.5185478926
	0.5430334806 0.2934342027 0.5205165744
	0.5450525880 0.2949968874 0.5224738717
	0.5470547080 0.2965593040 0.5244258046
	0.5490540862 0.2981210053 0.5263680816
	0.5510348082 0.2996825874 0.5283023715
	0.5530139804 0.3012439907 0.5302276015
	0.5549759865 0.3028059006 0.5321443081
	0.5569360852 0.3043687046 0.5340541005
	0.5588794947 0.3059312105 0.5359538794
	0.5608198047 0.3074932992 0.5378476977
	0.5627439022 0.3090555072 0.5397273898
	0.5646646023 0.3106175959 0.5416002274
	0.5665714145 0.3121803999 0.5434591770
	0.5684738755 0.3137443066 0.5453127027
	0.5703607798 0.3153086901 0.5471491814
	0.5722435713 0.3168740869 0.5489794016
	0.5741115808 0.3184395134 0.5507919192
	0.5759764910 0.3200049996 0.5525978208
	0.5778291225 0.3215703964 0.5543872118
	0.5796784163 0.3231351078 0.5561701059
	0.5815119147 0.3246999085 0.5579361916
	0.5833426714 0.3262651861 0.5596947074
	0.5851539969 0.3278304935 0.5614392757
	0.5869635940 0.3293960094 0.5631760955
	0.5887479186 0.3309614956 0.5649011731
	0.5905321836 0.3325259984 0.5666179061
	0.5922917128 0.3340902925 0.5683240891
	0.5940505266 0.3356544077 0.5700199008
	0.5957903862 0.3372184038 0.5717071891
	0.5975276232 0.3387834132 0.5733817816
	0.5992469788 0.3403491974 0.5750491023
	0.6009606719 0.3419148922 0.5766983032
	0.6026608944 0.3434804976 0.5783439875
	0.6043530107 0.3450458050 0.5799701810
	0.6060341001 0.3466094136 0.5815963149
	0.6077030897 0.3481729925 0.5831990242
	0.6093657017 0.3497354984 0.5848017931
	0.6110138893 0.3512978852 0.5863847136
	0.6126598120 0.3528620899 0.5879638195
	0.6142886281 0.3544270992 0.5895280838
	0.6159173846 0.3559925854 0.5910843015
	0.6175265908 0.3575589955 0.5926306248
	0.6191338897 0.3591251969 0.5941641927
	0.6207273006 0.3606910110 0.5956931114
	0.6223142743 0.3622567058 0.5972054005
	0.6238920093 0.3638209105 0.5987178087
	0.6254580021 0.3653847873 0.6002131104
	0.6270201802 0.3669480979 0.6017081141
	0.6285654902 0.3685106933 0.6031907797
	0.6301108003 0.3700729907 0.6046687961
	0.6316359043 0.3716341853 0.6061378717
	0.6331589222 0.3731954098 0.6075956225
	0.6346688867 0.3747552931 0.6090502143
	0.6361703277 0.3763149977 0.6104860902
	0.6376655102 0.3778744936 0.6119219065
	0.6391450763 0.3794336915 0.6133409142
	0.6406247020 0.3809930086 0.6147564054
	0.6420868039 0.3825530112 0.6161623001
	0.6435478926 0.3841128945 0.6175583005
	0.6449993253 0.3856733143 0.6189519763
	0.6464440227 0.3872339129 0.6203303933
	0.6478844881 0.3887940943 0.6217089295
	0.6493095756 0.3903535903 0.6230769157
	0.6507347226 0.3919129968 0.6244416833
	0.6521434188 0.3934705853 0.6258000135
	0.6535484791 0.3950277865 0.6271470785
	0.6549462080 0.3965846002 0.6284943223
	0.6563327909 0.3981403112 0.6298246980
	0.6577193737 0.3996961117 0.6311542988
	0.6590902805 0.4012506902 0.6324747205
	0.6604607105 0.4028050900 0.6337866187
	0.6618214250 0.4043591022 0.6350975037
	0.6631729007 0.4059123993 0.6363947988
	0.6645237207 0.4074656069 0.6376919746
	0.6658543944 0.4090178013 0.6389808059
	0.6671850085 0.4105696082 0.6402636170
	0.6685047150 0.4121212065 0.6415452957
	0.6698150039 0.4136717916 0.6428160071
	0.6711249948 0.4152224064 0.6440867186
	0.6724179983 0.4167717099 0.6453511119
	0.6737111211 0.4183202982 0.6466106772
	0.6749945283 0.4198687077 0.6478698850
	0.6762676239 0.4214153886 0.6491171122
	0.6775407195 0.4229620993 0.6503642201
	0.6787930131 0.4245072901 0.6516051292
	0.6800435781 0.4260506034 0.6528393030
	0.6812877059 0.4275940061 0.6540734768
	0.6825190187 0.4291338921 0.6552976966
	0.6837502718 0.4306730926 0.6565207243
	0.6849684715 0.4322116971 0.6577410102
	0.6861820817 0.4337471128 0.6589547992
	0.6873937249 0.4352824986 0.6601685882
	0.6885895133 0.4368155897 0.6613742113
	0.6897851825 0.4383459091 0.6625760198
	0.6909723282 0.4398762882 0.6637775898
	0.6921495199 0.4414024055 0.6649709940
	0.6933267117 0.4429270029 0.6661643982
	0.6944912076 0.4444515109 0.6673536897
	0.6956524253 0.4459707141 0.6685358882
	0.6968116164 0.4474897981 0.6697182059
	0.6979551911 0.4490073919 0.6708937287
	0.6990987062 0.4505204856 0.6720660925
	0.7002366185 0.4520334899 0.6732385159
	0.7013661265 0.4535439909 0.6744014025
	0.7024955750 0.4550516903 0.6755638719
	0.7036141753 0.4565593898 0.6767243743
	0.7047271729 0.4580627978 0.6778780818
	0.7058401704 0.4595640898 0.6790319085
	0.7069379091 0.4610654116 0.6801804900
	0.7080339789 0.4625608921 0.6813232899
	0.7091283202 0.4640552998 0.6824662089
	0.7102094293 0.4655497074 0.6836034060
	0.7112904191 0.4670377970 0.6847382784
	0.7123653293 0.4685258865 0.6858730912
	0.7134271860 0.4700129926 0.6869965792
	0.7144889832 0.4714944065 0.6881188154
	0.7155439258 0.4729757905 0.6892403960
	0.7165915966 0.4744558036 0.6903538108
	0.7176393867 0.4759314060 0.6914672256
	0.7186779976 0.4774070978 0.6925780177
	0.7197117209 0.4788806140 0.6936802268
	0.7207453847 0.4803498089 0.6947823763
	0.7217658758 0.4818190932 0.6958813071
	0.7227824926 0.4832853973 0.6969739795
	0.7237992287 0.4847474098 0.6980667114
	0.7248027921 0.4862093031 0.6991550922
	0.7258046269 0.4876680970 0.7002385855
	0.7268064022 0.4891225100 0.7013220787
	0.7277902961 0.4905770123 0.7024012804
	0.7287734151 0.4920283854 0.7034770250
	0.7297564149 0.4934760034 0.7045525908
	0.7307261825 0.4949235916 0.7056220770
	0.7316960096 0.4963681996 0.7066873908
	0.7326653004 0.4978089035 0.7077527046
	0.7336220741 0.4992494881 0.7088124752
	0.7345790267 0.5006874204 0.7098689079
	0.7355352044 0.5021209121 0.7109252810
	0.7364767194 0.5035544038 0.7119749784
	0.7374181151 0.5049852133 0.7130206823
	0.7383592725 0.5064104795 0.7140665054
	0.7392876148 0.5078356862 0.7151080966
	0.7402158976 0.5092589259 0.7161473036
	0.7411442995 0.5106753111 0.7171863914
	0.7420564294 0.5120915771 0.7182205915
	0.7429682016 0.5135068893 0.7192509770
	0.7438799143 0.5149142742 0.7202814221
	0.7447810173 0.5163217187 0.7213069797
	0.7456809878 0.5177291036 0.7223277092
	0.7465808988 0.5191293955 0.7233483791
	0.7474709153 0.5205295086 0.7243651152
	0.7483584285 0.5219296217 0.7253757119
	0.7492460012 0.5233250260 0.7263864279
	0.7501245141 0.5247194171 0.7273939848
	0.7509989738 0.5261136889 0.7283943295
	0.7518733740 0.5275031924 0.7293944955
	0.7527413964 0.5288894773 0.7303934097
	0.7536038756 0.5302758813 0.7313838005
	0.7544664145 0.5316587090 0.7323741913
	0.7553241849 0.5330361724 0.7333645821
	0.7561736703 0.5344135761 0.7343451977
	0.7570232749 0.5357897282 0.7353253961
	0.7578713298 0.5371581912 0.7363057137
	0.7587116957 0.5385265946 0.7372794151
	0.7595521212 0.5398949981 0.7382512093
	0.7603924870 0.5412554741 0.7392228842
	0.7612221837 0.5426148176 0.7401890755
	0.7620512247 0.5439741015 0.7411506772
	0.7628800869 0.5453277230 0.7421122789
	0.7637022138 0.5466768742 0.7430707216
	0.7645211220 0.5480260849 0.7440214753
	0.7653400898 0.5493733883 0.7449724078
	0.7661545873 0.5507144928 0.7459229827
	0.7669628859 0.5520555973 0.7468630075
	0.7677711844 0.5533967018 0.7478029132
	0.7685785890 0.5547322035 0.7487428784
	0.7693775296 0.5560668111 0.7496752143
	0.7701764107 0.5574014783 0.7506042719
	0.7709752917 0.5587329865 0.7515335083
	0.7717691064 0.5600612760 0.7524588108
	0.7725613713 0.5613896251 0.7533779740
	0.7733535767 0.5627173781 0.7542970777
	0.7741429806 0.5640394092 0.7552161217
	0.7749279737 0.5653614998 0.7561244965
	0.7757130265 0.5666834712 0.7570329905
	0.7764979005 0.5680016279 0.7579414248
	0.7772737145 0.5693175197 0.7588419914
	0.7780495286 0.5706332922 0.7597380877
	0.7788252831 0.5719478130 0.7606341243
	0.7795972228 0.5732557178 0.7615277767
	0.7803664207 0.5745636225 0.7624130845
	0.7811354995 0.5758715272 0.7632983923
	0.7819035053 0.5771726966 0.7641837001
	0.7826650143 0.5784705877 0.7650598884
	0.7834265232 0.5797685981 0.7659333944
	0.7841879725 0.5810651779 0.7668067813
	0.7849435806 0.5823537111 0.7676774859
	0.7856963277 0.5836421847 0.7685415745
	0.7864488959 0.5849307179 0.7694056034
	0.7872005105 0.5862150788 0.7702696919
	0.7879469991 0.5874965787 0.7711244226
	0.7886934876 0.5887780190 0.7719767094
	0.7894400954 0.5900595188 0.7728291154
	0.7901812196 0.5913344026 0.7736784220
	0.7909191251 0.5926094055 0.7745192051
	0.7916570902 0.5938844085 0.7753601074
	0.7923948169 0.5951570272 0.7762010098
	0.7931283116 0.5964260101 0.7770338058
	0.7938618064 0.5976949930 0.7778633237
	0.7945951819 0.5989639759 0.7786927223
	0.7953253984 0.6002289057 0.7795209885
	0.7960519195 0.6014925241 0.7803397775
	0.7967783809 0.6027560830 0.7811586857
	0.7975050211 0.6040192842 0.7819775939
	0.7982237935 0.6052780151 0.7827903032
	0.7989413142 0.6065366864 0.7835965753
	0.7996588945 0.6077952981 0.7844029069
	0.8003752232 0.6090512276 0.7852091789
	0.8010866046 0.6103022099 0.7860053778
	0.8017979860 0.6115530729 0.7867997289
	0.8025094271 0.6128041148 0.7875940204
	0.8032175899 0.6140497923 0.7883868217
	0.8039227128 0.6152924895 0.7891716957
	0.8046277761 0.6165351868 0.7899566293
	0.8053328991 0.6177778244 0.7907415032
	0.8060317039 0.6190140843 0.7915207148
	0.8067288995 0.6202492118 0.7922930717
	0.8074262142 0.6214843988 0.7930656075
	0.8081231117 0.6227191091 0.7938380241
	0.8088151813 0.6239476204 0.7946025133
	0.8095073104 0.6251760125 0.7953637838
	0.8101993799 0.6264044046 0.7961249948
	0.8108897805 0.6276314855 0.7968863249
	0.8115760088 0.6288539171 0.7976366878
	0.8122622967 0.6300764084 0.7983863950
	0.8129485250 0.6312987804 0.7991361022
	0.8136305213 0.6325194240 0.7998843193
	0.8143079281 0.6337367296 0.8006227016
	0.8149852753 0.6349539161 0.8013610244
	0.8156628013 0.6361712217 0.8020994067
	0.8163372278 0.6373847723 0.8028339744
	0.8170101047 0.6385943294 0.8035594225
	0.8176829219 0.6398037076 0.8042848110
	0.8183556795 0.6410130858 0.8050101995
	0.8190233111 0.6422181129 0.8057312965
	0.8196895123 0.6434193850 0.8064466119
	0.8203555942 0.6446207166 0.8071619272
	0.8210217953 0.6458219290 0.8078771830
	0.8216826916 0.6470190883 0.8085857034
	0.8223428726 0.6482132077 0.8092882037
	0.8230029941 0.6494073272 0.8099907041
	0.8236631751 0.6506013870 0.8106932044
	0.8243181705 0.6517918706 0.8113890290
	0.8249729872 0.6529797912 0.8120803833
	0.8256276846 0.6541677117 0.8127716780
	0.8262825012 0.6553556919 0.8134629726
	0.8269299865 0.6565406919 0.8141471148
	0.8275772929 0.6577234864 0.8148270845
	0.8282247186 0.6589062214 0.8155071139
	0.8288720250 0.6600890160 0.8161870837
	0.8295140862 0.6612688899 0.8168601990
	0.8301560879 0.6624459028 0.8175293803
	0.8307980895 0.6636229157 0.8181986213
	0.8314400911 0.6647999287 0.8188679218
	0.8320763707 0.6659740210 0.8195297122
	0.8327124119 0.6671438217 0.8201869130
	0.8333482742 0.6683136821 0.8208439946
	0.8339843154 0.6694836020 0.8215011954
	0.8346142769 0.6706516147 0.8221533895
	0.8352434039 0.6718149185 0.8228014708
	0.8358724713 0.6729781032 0.8234496117
	0.8365015984 0.6741414070 0.8240976930
	0.8371255994 0.6753039956 0.8247407079
	0.8377479911 0.6764618754 0.8253772855
	0.8383705020 0.6776198149 0.8260139823
	0.8389930129 0.6787776947 0.8266506195
	0.8396112919 0.6799355149 0.8272842765
	0.8402273059 0.6810882092 0.8279114962
	0.8408433199 0.6822404265 0.8285385966
	0.8414592743 0.6833925843 0.8291658163
	0.8420726061 0.6845448017 0.8297916055
	0.8426827788 0.6856936216 0.8304092884
	0.8432930112 0.6868407726 0.8310269713
	0.8439031839 0.6879879832 0.8316445947
	0.8445109129 0.6891351938 0.8322622776
	0.8451119065 0.6902797818 0.8328717947
	0.8457129002 0.6914209127 0.8334808946
	0.8463138938 0.6925619245 0.8340898752
	0.8469148278 0.6937029958 0.8346989155
	0.8475095034 0.6948431730 0.8353011012
	0.8481041789 0.6959772110 0.8359006047
	0.8486989141 0.6971111894 0.8364999890
	0.8492935896 0.6982452273 0.8370993733
	0.8498833179 0.6993792057 0.8376960158
	0.8504714966 0.7005075812 0.8382890224
	0.8510596156 0.7016344070 0.8388819098
	0.8516476750 0.7027612925 0.8394749165
	0.8522318006 0.7038881183 0.8400666118
	0.8528108001 0.7050123215 0.8406503797
	0.8533899188 0.7061328888 0.8412342072
	0.8539689779 0.7072533965 0.8418179154
	0.8545476198 0.7083739042 0.8424016833
	0.8551219106 0.7094944119 0.8429775238
	0.8556962013 0.7106081247 0.8435510993
	0.8562703729 0.7117217183 0.8441246748
	0.8568447232 0.7128353715 0.8446984291
	0.8574144244 0.7139490843 0.8452690244
	0.8579822183 0.7150586843 0.8458353281
	0.8585500717 0.7161651254 0.8464015722
	0.8591179252 0.7172715068 0.8469678760
	0.8596833944 0.7183778286 0.8475341201
	0.8602436185 0.7194836736 0.8480933905
	0.8608037233 0.7205830812 0.8486527205
	0.8613638282 0.7216826081 0.8492119908
	0.8619239926 0.7227820158 0.8497712016
	0.8624796271 0.7238814235 0.8503255248
	0.8630344272 0.7249767780 0.8508757949
	0.8635892272 0.7260689139 0.8514261246
	0.8641440272 0.7271611094 0.8519762754
	0.8646966219 0.7282531857 0.8525258899
	0.8652452826 0.7293453217 0.8530645967
	0.8657941222 0.7304283977 0.8536034226
	0.8663427830 0.7315114737 0.8541421890
	0.8668915033 0.7325944901 0.8546810150
	0.8674352169 0.7336776257 0.8552160859
	0.8679779172 0.7347571850 0.8557479978
	0.8685206771 0.7358316183 0.8562799096
	0.8690633774 0.7369059920 0.8568118811
	0.8696042895 0.7379804254 0.8573437929
	0.8701401949 0.7390547991 0.8578673005
	0.8706761003 0.7401224971 0.8583906293
	0.8712120056 0.7411879897 0.8589140177
	0.8717479110 0.7422536016 0.8594372869
	0.8722802997 0.7433190942 0.8599570990
	0.8728110194 0.7443835735 0.8604711294
	0.8733416796 0.7454379797 0.8609851003
	0.8738722801 0.7464923263 0.8614990711
	0.8744028211 0.7475466728 0.8620131016
	0.8749272823 0.7486010790 0.8625208735
	0.8754518032 0.7496516109 0.8630263805
	0.8759763241 0.7506958246 0.8635318875
	0.8765007854 0.7517400980 0.8640373945
	0.8770225048 0.7527843118 0.8645426035
	0.8775386810 0.7538285851 0.8650417924
	0.8780549765 0.7548667789 0.8655411005
	0.8785712123 0.7559013963 0.8660402894
	0.8790875077 0.7569360733 0.8665394783
	0.8796002269 0.7579708099 0.8670362830
	0.8801108003 0.7590054870 0.8675283790
	0.8806213737 0.7600315213 0.8680204153
	0.8811320066 0.7610560060 0.8685125113
	0.8816425800 0.7620804906 0.8690046072
	0.8821474910 0.7631049156 0.8694908023
	0.8826515079 0.7641292214 0.8699728847
	0.8831555247 0.7651435733 0.8704550266
	0.8836596012 0.7661579251 0.8709372282
	0.8841630220 0.7671722770 0.8714193106
	0.8846591115 0.7681866288 0.8718963265
	0.8851552010 0.7691996098 0.8723719716
	0.8856512904 0.7702046037 0.8728476167
	0.8861473799 0.7712097168 0.8733233213
	0.8866416812 0.7722147703 0.8737990260
	0.8871303201 0.7732198238 0.8742687106
	0.8876188993 0.7742217779 0.8747382164
	0.8881074786 0.7752138972 0.8752077222
