release/datafiles/colormanagement/luts/film_response/agfa_agfachrome_ct_precisa_100.spi1d
Version 1
From 0.0 1.0
Length 1024
Components 3
{
	0.0000000000 0.0000000000 0.0000000000
	0.0005381406 0.0002651573 0.0005448886
	0.0011811421 0.0005488236 0.0011236490
	0.0018776740 0.0008598516 0.0017561211
	0.0026023439 0.0012074891 0.0024572650
	0.0033602889 0.0015991570 0.0032185989
	0.0041644410 0.0020365941 0.0040284242
	0.0050217710 0.0025163409 0.0048902789
	0.0059333672 0.0030300061 0.0058214129
	0.0069048190 0.0035676421 0.0068372628
	0.0079441704 0.0041191741 0.0079477550
	0.0090618078 0.0046778312 0.0091583403
	0.0102658896 0.0052411938 0.0104663204
	0.0115583995 0.0058102822 0.0118661895
	0.0129291601 0.0063874712 0.0133533198
	0.0143661099 0.0069762110 0.0149256596
	0.0158517305 0.0075797332 0.0165787991
	0.0173796508 0.0082016559 0.0183057394
	0.0189530998 0.0088431826 0.0200976301
	0.0205809996 0.0095067294 0.0219422299
	0.0222787503 0.0101926001 0.0238327999
	0.0240615793 0.0109011699 0.0257611796
	0.0259451196 0.0116325803 0.0277215205
	0.0279377103 0.0123844100 0.0297172107
	0.0300485604 0.0131573398 0.0317482613
	0.0322753713 0.0139512103 0.0338172801
	0.0346145704 0.0147648398 0.0359307416
	0.0370622911 0.0155985896 0.0380884185
	0.0396122485 0.0164521597 0.0402955301
	0.0422580615 0.0173262991 0.0425595492
	0.0449894518 0.0182192009 0.0448740013
	0.0477931984 0.0191300903 0.0472489484
	0.0506595708 0.0200600196 0.0496853888
	0.0535767302 0.0210082103 0.0521829911
	0.0565305017 0.0219749697 0.0547407605
	0.0595083982 0.0229592193 0.0573574007
	0.0624992885 0.0239622109 0.0600296818
	0.0654954314 0.0249828305 0.0627512708
	0.0684895366 0.0260199904 0.0655123070
	0.0714772493 0.0270722192 0.0683010966
	0.0744543299 0.0281406008 0.0711084977
	0.0774153098 0.0292240307 0.0739231929
	0.0803605914 0.0303211194 0.0767356381
	0.0832905099 0.0314316712 0.0795454979
	0.0862074494 0.0325558111 0.0823479816
	0.0891113579 0.0336936004 0.0851310268
	0.0919999331 0.0348446108 0.0878951326
	0.0948731005 0.0360087790 0.0906417519
	0.0977329016 0.0371854194 0.0933719203
	0.1005818024 0.0383735187 0.0960813016
	0.1034189016 0.0395741388 0.0987711623
	0.1062425002 0.0407866500 0.1014439017
	0.1090549007 0.0420108810 0.1041020006
	0.1118552014 0.0432458110 0.1067482978
	0.1146425009 0.0444907583 0.1093854010
	0.1174186990 0.0457457118 0.1120164022
	0.1201832965 0.0470101312 0.1146423966
	0.1229387969 0.0482850000 0.1172647029
	0.1256874949 0.0495695882 0.1198822036
	0.1284302026 0.0508622415 0.1224958971
	0.1311666965 0.0521623604 0.1251043975
	0.1338986009 0.0534698404 0.1277081966
	0.1366281956 0.0547848493 0.1303080022
	0.1393581927 0.0561086796 0.1329074055
	0.1420904994 0.0574397892 0.1355095953
	0.1448286027 0.0587780997 0.1381137967
	0.1475744992 0.0601234213 0.1407177001
	0.1503286064 0.0614760891 0.1433234960
	0.1530916989 0.0628349632 0.1459300071
	0.1558624953 0.0642008483 0.1485393941
	0.1586423963 0.0655714497 0.1511545032
	0.1614302993 0.0669477507 0.1537750065
	0.1642321050 0.0683294088 0.1563979983
	0.1670460999 0.0697180778 0.1590255052
	0.1698731035 0.0711119920 0.1616581976
	0.1727122962 0.0725102201 0.1642964929
	0.1755629927 0.0739143416 0.1669408977
	0.1784220040 0.0753230676 0.1695916951
	0.1812902987 0.0767354220 0.1722505987
	0.1841648072 0.0781524777 0.1749189049
	0.1870469004 0.0795728117 0.1775977015
	0.1899344027 0.0809954405 0.1802870035
	0.1928229034 0.0824212879 0.1829870939
	0.1957139969 0.0838513300 0.1856992990
	0.1986058056 0.0852848813 0.1884211004
	0.2014966011 0.0867218077 0.1911548972
	0.2043849975 0.0881616324 0.1939021051
	0.2072687000 0.0896041170 0.1966606975
	0.2101463974 0.0910492018 0.1994311064
	0.2130181938 0.0924970210 0.2022143006
	0.2158842981 0.0939473733 0.2050091028
	0.2187419981 0.0953999087 0.2078166008
	0.2215912044 0.0968550667 0.2106339931
	0.2244296968 0.0983112976 0.2134619057
	0.2272589952 0.0997681171 0.2162988037
	0.2300810069 0.1012267023 0.2191399932
	0.2328950018 0.1026865989 0.2219882011
	0.2356988937 0.1041480973 0.2248430997
	0.2384911031 0.1056120992 0.2277006060
	0.2412708998 0.1070773974 0.2305589020
	0.2440378964 0.1085444018 0.2334149033
	0.2467941940 0.1100130007 0.2362655997
	0.2495391071 0.1114827022 0.2391107976
	0.2522701919 0.1129537970 0.2419497073
	0.2549884021 0.1144248024 0.2447791994
	0.2576946914 0.1158969998 0.2475973070
	0.2603886127 0.1173700988 0.2504028082
	0.2630693913 0.1188448966 0.2531929910
	0.2657378018 0.1203223020 0.2559669018
	0.2683930099 0.1218004972 0.2587235868
	0.2710328996 0.1232801974 0.2614609897
	0.2736578882 0.1247610003 0.2641791999
	0.2762688994 0.1262425929 0.2668775022
	0.2788653970 0.1277254969 0.2695545852
	0.2814469934 0.1292095035 0.2722114921
	0.2840158045 0.1306941062 0.2748483121
	0.2865726054 0.1321794987 0.2774635851
	0.2891159058 0.1336652040 0.2800571024
	0.2916449904 0.1351507008 0.2826282978
	0.2941609025 0.1366363019 0.2851763070
	0.2966657877 0.1381220967 0.2877005935
	0.2991599143 0.1396085024 0.2902010083
	0.3016422093 0.1410955936 0.2926791906
	0.3041135073 0.1425838023 0.2951335907
	0.3065750003 0.1440730989 0.2975631058
	0.3090234101 0.1455630064 0.2999700010
	0.3114587069 0.1470534056 0.3023560941
	0.3138816059 0.1485445052 0.3047226965
	0.3162932098 0.1500363946 0.3070712090
	0.3186948001 0.1515289992 0.3094022870
	0.3210870028 0.1530221999 0.3117175996
	0.3234694898 0.1545169055 0.3140189052
	0.3258418143 0.1560124010 0.3163051009
	0.3282003999 0.1575089991 0.3185760975
	0.3305430114 0.1590068042 0.3208332956
	0.3328739107 0.1605062932 0.3230775893
	0.3351961970 0.1620068997 0.3253093064
	0.3375113010 0.1635068059 0.3275283873
	0.3398194909 0.1650066972 0.3297384977
	0.3421204984 0.1665070057 0.3319405913
	0.3444133997 0.1680078954 0.3341340125
	0.3466998041 0.1695086062 0.3363187015
	0.3489798009 0.1710103005 0.3384949863
	0.3512539864 0.1725132018 0.3406594098
	0.3535234928 0.1740172058 0.3428128064
	0.3557898104 0.1755214930 0.3449561894
	0.3580540121 0.1770250052 0.3470906913
	0.3603161871 0.1785289049 0.3492175043
	0.3625768125 0.1800335944 0.3513374031
	0.3648355901 0.1815388054 0.3534527123
	0.3670929074 0.1830437034 0.3555639982
	0.3693490922 0.1845479012 0.3576712012
	0.3716045022 0.1860512048 0.3597705066
	0.3738591969 0.1875541955 0.3618609011
	0.3761132061 0.1890579015 0.3639445007
	0.3783670068 0.1905619055 0.3660219014
	0.3806206882 0.1920655966 0.3680920899
	0.3828743994 0.1935691983 0.3701565862
	0.3851284981 0.1950726956 0.3722172081
	0.3873830140 0.1965761930 0.3742741942
	0.3896380961 0.1980797052 0.3763268888
	0.3918941915 0.1995833069 0.3783758879
	0.3941515088 0.2010867000 0.3804208040
	0.3964098990 0.2025887072 0.3824599087
	0.3986696899 0.2040902972 0.3844920993
	0.4009316862 0.2055917978 0.3865205944
	0.4031954110 0.2070932984 0.3885455132
	0.4054606855 0.2085942030 0.3905645013
	0.4077295065 0.2100944966 0.3925797045
	0.4100005031 0.2115938962 0.3945915103
	0.4122735858 0.2130924016 0.3965987861
	0.4145509005 0.2145905048 0.3986020982
	0.4168311954 0.2160879970 0.4006024003
	0.4191139042 0.2175852060 0.4025978148
	0.4213995934 0.2190822959 0.4045889080
	0.4236867130 0.2205785960 0.4065766037
	0.4259749949 0.2220751941 0.4085580111
	0.4282661080 0.2235720009 0.4105337858
	0.4305579960 0.2250701934 0.4125058055
	0.4328506887 0.2265686989 0.4144718051
	0.4351426959 0.2280676961 0.4164347947
	0.4374347031 0.2295663953 0.4183954895
	0.4397264123 0.2310650051 0.4203527868
	0.4420182109 0.2325633019 0.4223093092
	0.4443092942 0.2340615988 0.4242646992
	0.4465988874 0.2355599999 0.4262180924
	0.4488858879 0.2370588928 0.4281705916
	0.4511714876 0.2385578007 0.4301216900
	0.4534544051 0.2400566041 0.4320701063
	0.4557343125 0.2415551990 0.4340169132
	0.4580109119 0.2430536002 0.4359580874
	0.4602797031 0.2445522994 0.4378975034
	0.4625451863 0.2460512072 0.4398345947
	0.4648033977 0.2475509942 0.4417698979
	0.4670571089 0.2490514964 0.4437046945
	0.4693068862 0.2505528927 0.4456391931
	0.4715498090 0.2520549893 0.4475742877
	0.4737902880 0.2535574138 0.4495103061
	0.4760245085 0.2550598979 0.4514476955
	0.4782535136 0.2565625906 0.4533854127
	0.4804762006 0.2580656111 0.4553222060
	0.4826883078 0.2595695853 0.4572581053
	0.4848966897 0.2610749006 0.4591920078
	0.4870918095 0.2625809908 0.4611235857
	0.4892837107 0.2640874088 0.4630536139
	0.4914664030 0.2655943036 0.4649797976
	0.4936434031 0.2671012878 0.4669052064
	0.4958145916 0.2686108947 0.4688282013
	0.4979768991 0.2701208889 0.4707511067
	0.5001357198 0.2716321051 0.4726733863
	0.5022798777 0.2731435895 0.4745965004
	0.5044208765 0.2746556997 0.4765200913
	0.5065475702 0.2761682868 0.4784458876
	0.5086696744 0.2776814103 0.4803726077
	0.5107814074 0.2791965902 0.4822996855
	0.5128856897 0.2807131112 0.4842267036
	0.5149818063 0.2822310030 0.4861502945
	0.5170682073 0.2837496102 0.4880726039
	0.5191485882 0.2852681875 0.4899899960
	0.5212162137 0.2867869139 0.4919058979
	0.5232796073 0.2883065045 0.4938189983
	0.5253279209 0.2898262143 0.4957309067
	0.5273739100 0.2913483083 0.4976414144
	0.5294030905 0.2928704917 0.4995503128
	0.5314307809 0.2943947911 0.5014581084
	0.5334423184 0.2959192097 0.5033627748
	0.5354515910 0.2974444032 0.5052657723
	0.5374450088 0.2989695966 0.5071659088
	0.5394350290 0.3004952967 0.5090647936
	0.5414085984 0.3020209074 0.5109593868
	0.5433781743 0.3035480082 0.5128529072
	0.5453327894 0.3050751090 0.5147392750
	0.5472834110 0.3066017032 0.5166242719
	0.5492209792 0.3081282973 0.5185018182
	0.5511540174 0.3096539080 0.5203778148
	0.5530723929 0.3111793995 0.5222443938
	0.5549861789 0.3127050102 0.5241091847
	0.5568844080 0.3142305911 0.5259639025
	0.5587790012 0.3157570958 0.5278167129
	0.5606595278 0.3172838092 0.5296614766
	0.5625373721 0.3188110888 0.5315043926
	0.5644009113 0.3203384876 0.5333400965
	0.5662627816 0.3218651116 0.5351735950
	0.5681079030 0.3233912885 0.5369982123
	0.5699527264 0.3249165118 0.5388190746
	0.5717802048 0.3264403939 0.5406309962
	0.5736076832 0.3279637098 0.5424374938
	0.5754187703 0.3294858932 0.5442360044
	0.5772284269 0.3310078979 0.5460273027
	0.5790212750 0.3325291872 0.5478109121
	0.5808100104 0.3340505064 0.5495834947
	0.5825855732 0.3355714083 0.5513505936
	0.5843548179 0.3370923996 0.5531036854
	0.5861145854 0.3386130035 0.5548539758
	0.5878657103 0.3401334882 0.5565863252
	0.5896102190 0.3416540027 0.5583184958
	0.5913426280 0.3431744874 0.5600315928
	0.5930718184 0.3446949124 0.5617440939
	0.5947852731 0.3462150991 0.5634422898
	0.5964987874 0.3477351069 0.5651364923
	0.5981938243 0.3492532969 0.5668197274
	0.5998880863 0.3507714868 0.5684949160
	0.6015682220 0.3522872925 0.5701624751
	0.6032432914 0.3538025916 0.5718169212
	0.6049085855 0.3553164005 0.5734683275
	0.6065642238 0.3568288088 0.5750986934
	0.6082149148 0.3583407104 0.5767289996
	0.6098505855 0.3598510027 0.5783388019
	0.6114861965 0.3613612056 0.5799455047
	0.6131017208 0.3628711998 0.5815384984
	0.6147162914 0.3643811047 0.5831218958
	0.6163176894 0.3658905029 0.5846983194
	0.6179122925 0.3673991859 0.5862581134
	0.6195003986 0.3689076900 0.5878177881
	0.6210765243 0.3704144955 0.5893548727
	0.6226522923 0.3719212115 0.5908914208
	0.6242104173 0.3734270036 0.5924147964
	0.6257684827 0.3749324977 0.5939309001
	0.6273151040 0.3764374852 0.5954414010
	0.6288558245 0.3779416084 0.5969383121
	0.6303917170 0.3794457912 0.5984352231
	0.6319159865 0.3809471130 0.5999152064
	0.6334401965 0.3824482858 0.6013936996
	0.6349474788 0.3839477897 0.6028618217
	0.6364527941 0.3854453862 0.6043204069
	0.6379473805 0.3869430125 0.6057764888
	0.6394302845 0.3884387910 0.6072123051
	0.6409124732 0.3899345100 0.6086481214
	0.6423766017 0.3914293945 0.6100676060
	0.6438407898 0.3929235041 0.6114792824
	0.6452940702 0.3944176137 0.6128858924
	0.6467397809 0.3959099948 0.6142745018
	0.6481837034 0.3974024057 0.6156631708
	0.6496129036 0.3988932073 0.6170371175
	0.6510421038 0.4003823996 0.6184059978
	0.6524606943 0.4018715918 0.6197704077
	0.6538727880 0.4033572972 0.6211217046
	0.6552829146 0.4048427939 0.6224728823
	0.6566761136 0.4063270986 0.6238120794
	0.6580693126 0.4078091085 0.6251469254
	0.6594510078 0.4092912078 0.6264786720
	0.6608237028 0.4107702971 0.6277983785
	0.6621962786 0.4122484028 0.6291180253
	0.6635506153 0.4137260914 0.6304268837
	0.6649050117 0.4152004123 0.6317300200
	0.6662514806 0.4166747928 0.6330316067
	0.6675873995 0.4181470871 0.6343147755
	0.6689231992 0.4196172953 0.6355978847
	0.6702443957 0.4210875034 0.6368724108
	0.6715623736 0.4225546122 0.6381372809
	0.6728767753 0.4240212142 0.6394020915
	0.6741765738 0.4254870117 0.6406546235
	0.6754763126 0.4269487858 0.6419048905
	0.6767659187 0.4284105897 0.6431524754
	0.6780474782 0.4298701882 0.6443892717
	0.6793289781 0.4313269854 0.6456261277
	0.6805943847 0.4327838123 0.6468564272
	0.6818578839 0.4342373013 0.6480810046
	0.6831179857 0.4356895089 0.6493057013
	0.6843643785 0.4371415973 0.6505178809
	0.6856108904 0.4385890961 0.6517279744
	0.6868489981 0.4400365055 0.6529359818
	0.6880782843 0.4414829910 0.6541314721
	0.6893076897 0.4429262877 0.6553270221
	0.6905233264 0.4443696141 0.6565173864
	0.6917344928 0.4458107948 0.6577004194
	0.6929457188 0.4472492039 0.6588833928
	0.6941388845 0.4486874938 0.6600583196
	0.6953321099 0.4501225054 0.6612290740
	0.6965216994 0.4515551925 0.6623998284
	0.6976982951 0.4529877901 0.6635617018
	0.6988748908 0.4544155896 0.6647223234
	0.7000442743 0.4558416903 0.6658821106
	0.7012037039 0.4572679102 0.6670321822
	0.7023630142 0.4586881995 0.6681821942
	0.7035111785 0.4601078033 0.6693289876
	0.7046517730 0.4615274072 0.6704663038
	0.7057924271 0.4629419148 0.6716036797
	0.7069209814 0.4643563032 0.6727368832
	0.7080454230 0.4657703936 0.6738638878
	0.7091699243 0.4671806991 0.6749910116
	0.7102797031 0.4685910046 0.6761143208
	0.7113872766 0.4700005949 0.6772344112
	0.7124949098 0.4714061916 0.6783545017
	0.7135862708 0.4728117883 0.6794689894
	0.7146772146 0.4742164910 0.6805803180
	0.7157673240 0.4756168127 0.6816917062
	0.7168418169 0.4770171046 0.6827973723
	0.7179161906 0.4784162939 0.6839008927
	0.7189890146 0.4798108041 0.6850042939
	0.7200477719 0.4812051952 0.6861020923
	0.7211065292 0.4825986028 0.6871982217
	0.7221630812 0.4839865863 0.6882944107
	0.7232058048 0.4853746891 0.6893844008
	0.7242485285 0.4867616892 0.6904730201
	0.7252889872 0.4881420135 0.6915615797
	0.7263165712 0.4895223975 0.6926428080
	0.7273442149 0.4909023046 0.6937221885
	0.7283703089 0.4922760129 0.6948016882
	0.7293847203 0.4936496913 0.6958737969
	0.7303991914 0.4950233996 0.6969439983
	0.7314124703 0.4963918030 0.6980140805
	0.7324116230 0.4977600873 0.6990771294
	0.7334107161 0.4991284013 0.7001376152
	0.7344096899 0.5004916787 0.7011982203
	0.7353922725 0.5018543005 0.7022535801
	0.7363749146 0.5032168031 0.7033064961
	0.7373574972 0.5045748949 0.7043594122
	0.7383249998 0.5059313178 0.7054070830
	0.7392910719 0.5072876811 0.7064511180
	0.7402572036 0.5086405277 0.7074950933
	0.7412112951 0.5099905133 0.7085348964
	0.7421622276 0.5113404989 0.7095698714
	0.7431129813 0.5126873255 0.7106049061
	0.7440556288 0.5140289068 0.7116366029
	0.7449935079 0.5153704286 0.7126612067
	0.7459315062 0.5167104006 0.7136859298
	0.7468624711 0.5180423856 0.7147092223
	0.7477856874 0.5193743110 0.7157247066
	0.7487087846 0.5207061768 0.7167401910
	0.7496278286 0.5220301747 0.7177556157
	0.7505353093 0.5233532786 0.7187631726
	0.7514427900 0.5246765018 0.7197703123
	0.7523496747 0.5259947777 0.7207775116
	0.7532436848 0.5273103714 0.7217786908
	0.7541376948 0.5286259055 0.7227776051
	0.7550317049 0.5299391747 0.7237765789
	0.7559167743 0.5312479138 0.7247710824
	0.7567995787 0.5325565934 0.7257605791
	0.7576823831 0.5338652730 0.7267500758
	0.7585588098 0.5351672173 0.7277382016
	0.7594292164 0.5364691019 0.7287198901
	0.7602995038 0.5377709866 0.7297015786
	0.7611671090 0.5390685201 0.7306833863
	0.7620239258 0.5403637290 0.7316588759
	0.7628808022 0.5416588783 0.7326335907
	0.7637376189 0.5429524183 0.7336083055
	0.7645832896 0.5442410111 0.7345783710
	0.7654271722 0.5455294847 0.7355446815
	0.7662711740 0.5468180776 0.7365108728
	0.7671089768 0.5481011868 0.7374755144
	0.7679408789 0.5493832231 0.7384330034
	0.7687727213 0.5506651998 0.7393903732
	0.7696030140 0.5519440174 0.7403479218
	0.7704212070 0.5532178879 0.7412980795
	0.7712393999 0.5544918776 0.7422463894
	0.7720575929 0.5557658076 0.7431948185
	0.7728673816 0.5570312142 0.7441394925
	0.7736734152 0.5582960248 0.7450783849
	0.7744793892 0.5595608950 0.7460172772
	0.7752828002 0.5608223081 0.7469562292
	0.7760779858 0.5620794296 0.7478839755
	0.7768731713 0.5633366108 0.7488111258
	0.7776684761 0.5645936728 0.7497382164
	0.7784557939 0.5658441782 0.7506607175
	0.7792407274 0.5670942068 0.7515779138
	0.7800256014 0.5683441162 0.7524952292
	0.7808077931 0.5695917010 0.7534124255
	0.7815821767 0.5708349943 0.7543212175
	0.7823565006 0.5720782280 0.7552297115
	0.7831308246 0.5733215213 0.7561380863
	0.7838966846 0.5745599866 0.7570431232
	0.7846595049 0.5757972002 0.7579433918
	0.7854222059 0.5770342946 0.7588437200
	0.7861832976 0.5782706141 0.7597439885
	0.7869359851 0.5795021057 0.7606366277
	0.7876886725 0.5807337165 0.7615280747
	0.7884414196 0.5819652081 0.7624195814
	0.7891888022 0.5831941962 0.7633082867
	0.7899320722 0.5844206810 0.7641898990
	0.7906754017 0.5856472254 0.7650715113
	0.7914186716 0.5868737102 0.7659531236
	0.7921544909 0.5880939960 0.7668281794
	0.7928900123 0.5893129706 0.7676998973
	0.7936254144 0.5905321240 0.7685714960
	0.7943581939 0.5917500257 0.7694430947
	0.7950845957 0.5929607153 0.7703047991
	0.7958109975 0.5941714048 0.7711665034
	0.7965373993 0.5953819752 0.7720282078
	0.7972583771 0.5965896845 0.7728871703
	0.7979758978 0.5977926850 0.7737402916
	0.7986934781 0.5989956856 0.7745934725
	0.7994109988 0.6001986861 0.7754465938
	0.8001213074 0.6013975143 0.7762938142
	0.8008307815 0.6025936007 0.7771372199
	0.8015401959 0.6037898064 0.7779806256
	0.8022487164 0.6049858928 0.7788239121
	0.8029516935 0.6061770916 0.7796577811
	0.8036546707 0.6073670983 0.7804902196
	0.8043577075 0.6085572243 0.7813224792
	0.8050580025 0.6097472906 0.7821539044
	0.8057534099 0.6109319925 0.7829759717
	0.8064488769 0.6121168137 0.7837980986
	0.8071444035 0.6133015156 0.7846202254
	0.8078358769 0.6144853234 0.7854393721
	0.8085243106 0.6156625152 0.7862510085
	0.8092126846 0.6168397069 0.7870625854
	0.8099011183 0.6180168986 0.7878742218
	0.8105850816 0.6191921234 0.7886819839
	0.8112673163 0.6203610897 0.7894849777
	0.8119494915 0.6215299964 0.7902880907
	0.8126317859 0.6226990223 0.7910910845
	0.8133102059 0.6238657236 0.7918882966
	0.8139879704 0.6250272989 0.7926809788
	0.8146657944 0.6261889935 0.7934737802
	0.8153436184 0.6273506284 0.7942665815
	0.8160151243 0.6285101175 0.7950521708
	0.8166863918 0.6296654940 0.7958343029
	0.8173575997 0.6308208108 0.7966163754
	0.8180288076 0.6319761872 0.7973985076
	0.8186935186 0.6331295967 0.7981728911
	0.8193582296 0.6342797279 0.7989445925
	0.8200228810 0.6354296803 0.7997162938
	0.8206874728 0.6365796924 0.8004879951
	0.8213469982 0.6377279162 0.8012521267
	0.8220065236 0.6388722062 0.8020138741
	0.8226659894 0.6400164962 0.8027758002
	0.8233252764 0.6411607862 0.8035376072
	0.8239793777 0.6423032880 0.8042908907
	0.8246334791 0.6434404850 0.8050416708
	0.8252875805 0.6445778012 0.8057923913
	0.8259416819 0.6457151175 0.8065431714
	0.8265889883 0.6468511820 0.8072862029
	0.8272364140 0.6479817033 0.8080263734
	0.8278837204 0.6491122246 0.8087667227
	0.8285310864 0.6502428055 0.8095068932
	0.8291730285 0.6513730288 0.8102409840
	0.8298146129 0.6524980068 0.8109720945
	0.8304561973 0.6536229849 0.8117030859
	0.8310977817 0.6547480226 0.8124341965
	0.8317347765 0.6558730006 0.8131592870
	0.8323708773 0.6569942236 0.8138797283
	0.8330070972 0.6581149101 0.8146002293
	0.8336431980 0.6592354774 0.8153206110
	0.8342744112 0.6603562236 0.8160365224
	0.8349034786 0.6614738107 0.8167462945
	0.8355324864 0.6625900865 0.8174561262
	0.8361616135 0.6637063026 0.8181658983
	0.8367878199 0.6648225188 0.8188729882
	0.8374114037 0.6659368873 0.8195725083
	0.8380349278 0.6670492291 0.8202719092
	0.8386585116 0.6681613922 0.8209714293
	0.8392807245 0.6692736149 0.8216704130
	0.8399001956 0.6703848839 0.8223608732
	0.8405197263 0.6714920998 0.8230513930
	0.8411391973 0.6725993156 0.8237419128
	0.8417584896 0.6737064719 0.8244323730
	0.8423752785 0.6748136878 0.8251157999
	0.8429921865 0.6759157181 0.8257976770
	0.8436089754 0.6770169139 0.8264794946
	0.8442258835 0.6781182289 0.8271613717
	0.8448395133 0.6792194843 0.8278384805
	0.8454523087 0.6803181767 0.8285114765
	0.8460649848 0.6814149022 0.8291844726
	0.8466777802 0.6825116277 0.8298574090
	0.8472878933 0.6836082935 0.8305279016
	0.8478950858 0.6847041845 0.8311896920
	0.8485022783 0.6857963204 0.8318514228
	0.8491094708 0.6868883967 0.8325132132
	0.8497161865 0.6879804730 0.8331748843
	0.8503192067 0.6890726089 0.8338286281
	0.8509222865 0.6901617050 0.8344811201
	0.8515254259 0.6912497878 0.8351336718
	0.8521285057 0.6923378110 0.8357862830
	0.8527284265 0.6934258938 0.8364341855
	0.8533272147 0.6945127249 0.8370773792
	0.8539260030 0.6955966949 0.8377205729
	0.8545249104 0.6966806054 0.8383638859
	0.8551219106 0.6977645755 0.8390063047
	0.8557152152 0.6988484859 0.8396390080
	0.8563085794 0.6999288797 0.8402717710
	0.8569018841 0.7010084987 0.8409044743
	0.8574953079 0.7020881176 0.8415372968
	0.8580844998 0.7031677961 0.8421642184
	0.8586729765 0.7042456865 0.8427875042
	0.8592615724 0.7053195238 0.8434109092
	0.8598501086 0.7063934207 0.8440341949
	0.8604366779 0.7074673176 0.8446565270
	0.8610199094 0.7085412145 0.8452715874
	0.8616030812 0.7096114159 0.8458867073
	0.8621863723 0.7106803060 0.8465017080
	0.8627696037 0.7117491961 0.8471168280
	0.8633472919 0.7128180265 0.8477255702
	0.8639240861 0.7138860226 0.8483303189
	0.8645008206 0.7149490118 0.8489350080
	0.8650774956 0.7160121202 0.8495395780
	0.8656529784 0.7170751095 0.8501440287
	0.8662251234 0.7181380987 0.8507388234
	0.8667972088 0.7191970944 0.8513334990
	0.8673692942 0.7202522755 0.8519282937
	0.8679413795 0.7213075161 0.8525230885
	0.8685104251 0.7223626971 0.8531140089
	0.8690779209 0.7234178782 0.8536998034
	0.8696454167 0.7244672775 0.8542855978
	0.8702129126 0.7255154848 0.8548712730
	0.8707802892 0.7265638113 0.8554571271
	0.8713405132 0.7276120186 0.8560361862
	0.8719006181 0.7286595702 0.8566132784
	0.8724607825 0.7297024131 0.8571904898
	0.8730208874 0.7307453156 0.8577675819
	0.8735787272 0.7317880988 0.8583437204
	0.8741317987 0.7328310013 0.8589094877
	0.8746848106 0.7338718176 0.8594753146
	0.8752378821 0.7349092960 0.8600410819
	0.8757908940 0.7359467745 0.8606069088
	0.8763406873 0.7369843125 0.8611692190
	0.8768883944 0.7380216718 0.8617258072
	0.8774359822 0.7390558720 0.8622822762
	0.8779836893 0.7400876284 0.8628388047
	0.8785312772 0.7411193848 0.8633952737
	0.8790736198 0.7421510816 0.8639466763
	0.8796147704 0.7431827784 0.8644946814
	0.8801559806 0.7442104220 0.8650428057
	0.8806971908 0.7452365756 0.8655908108
	0.8812381029 0.7462627888 0.8661388159
	0.8817703724 0.7472890019 0.8666791916
	0.8823025823 0.7483152151 0.8672177196
	0.8828349113 0.7493349910 0.8677561879
	0.8833671212 0.7503538132 0.8682947159
	0.8838980198 0.7513726950 0.8688331842
	0.8844233751 0.7523915172 0.8693615198
	0.8849487901 0.7534103990 0.8698894978
	0.8854740858 0.7544203997 0.8704175949
	0.8859995008 0.7554299831 0.8709455729
