release/datafiles/colormanagement/luts/film_response/agfa_agfacolor_hdc_100_plus.spi1d
Version 1
From 0.0 1.0
Length 1024
Components 3
{
	0.0000000000 0.0000000000 0.0000000000
	0.0071816309 0.0082409112 0.0071816309
	0.0151500301 0.0168459192 0.0151500301
	0.0224017091 0.0247517005 0.0224017091
	0.0290685501 0.0319880284 0.0290685501
	0.0352958813 0.0386751406 0.0352958813
	0.0411669388 0.0448977016 0.0411669388
	0.0467281416 0.0507521592 0.0467281416
	0.0520455502 0.0562780313 0.0520455502
	0.0571411215 0.0615147501 0.0571411215
	0.0620320588 0.0665091425 0.0620320588
	0.0667356402 0.0713089630 0.0667356402
	0.0712965578 0.0759803429 0.0712965578
	0.0757385418 0.0805422887 0.0757385418
	0.0800764337 0.0850213692 0.0800764337
	0.0843147188 0.0894245878 0.0843147188
	0.0884548426 0.0937559828 0.0884548426
	0.0925132483 0.0980221704 0.0925132483
	0.0964898691 0.1022289991 0.0964898691
	0.1003945023 0.1063620001 0.1003945023
	0.1042160019 0.1104390025 0.1042160019
	0.1079747006 0.1144633964 0.1079747006
	0.1116577014 0.1184230000 0.1116577014
	0.1152791977 0.1223274022 0.1152791977
	0.1188424006 0.1261754930 0.1188424006
	0.1223476008 0.1299650073 0.1223476008
	0.1257933974 0.1337056011 0.1257933974
	0.1291857064 0.1373963058 0.1291857064
	0.1325111985 0.1410335004 0.1325111985
	0.1357868016 0.1446186006 0.1357868016
	0.1390141994 0.1481585056 0.1390141994
	0.1421941966 0.1516450942 0.1421941966
	0.1453281939 0.1550758928 0.1453281939
	0.1484290957 0.1584609002 0.1484290957
	0.1514863074 0.1617927998 0.1514863074
	0.1545145065 0.1650730968 0.1545145065
	0.1575087011 0.1683045030 0.1575087011
	0.1604654938 0.1714911014 0.1604654938
	0.1633878052 0.1746436059 0.1633878052
	0.1662711948 0.1777534932 0.1662711948
	0.1691236049 0.1808203012 0.1691236049
	0.1719461977 0.1838431954 0.1719461977
	0.1747328043 0.1868294030 0.1747328043
	0.1774906069 0.1897847056 0.1774906069
	0.1802141964 0.1927071065 0.1802141964
	0.1829040051 0.1955924034 0.1829040051
	0.1855681986 0.1984508038 0.1855681986
	0.1881995946 0.2012735009 0.1881995946
	0.1908040047 0.2040608972 0.1908040047
	0.1933835000 0.2068151981 0.1933835000
	0.1959407926 0.2095429003 0.1959407926
	0.1984723061 0.2122360021 0.1984723061
	0.2009814978 0.2149036974 0.2009814978
	0.2034648061 0.2175482064 0.2034648061
	0.2059251070 0.2201592028 0.2059251070
	0.2083660066 0.2227438986 0.2083660066
	0.2107862979 0.2253006995 0.2107862979
	0.2131928056 0.2278293073 0.2131928056
	0.2155797929 0.2303356975 0.2155797929
	0.2179521024 0.2328161001 0.2179521024
	0.2203088999 0.2352697998 0.2203088999
	0.2226427943 0.2377053052 0.2226427943
	0.2249636948 0.2401220948 0.2249636948
	0.2272658050 0.2425125986 0.2272658050
	0.2295507044 0.2448851019 0.2295507044
	0.2318232954 0.2472407967 0.2318232954
	0.2340773046 0.2495730072 0.2340773046
	0.2363186032 0.2518830895 0.2363186032
	0.2385478020 0.2541756034 0.2385478020
	0.2407571971 0.2564486861 0.2407571971
	0.2429528981 0.2587057948 0.2429528981
	0.2451367974 0.2609438896 0.2451367974
	0.2473030984 0.2631632090 0.2473030984
	0.2494540960 0.2653681040 0.2494540960
	0.2515927851 0.2675603926 0.2515927851
	0.2537161112 0.2697342932 0.2537161112
	0.2558267117 0.2718896866 0.2558267117
	0.2579267025 0.2740308046 0.2579267025
	0.2600139081 0.2761551142 0.2600139081
	0.2620905042 0.2782635987 0.2620905042
	0.2641522884 0.2803570926 0.2641522884
	0.2661997080 0.2824395895 0.2661997080
	0.2682358921 0.2845089138 0.2682358921
	0.2702636123 0.2865653038 0.2702636123
	0.2722778916 0.2886031866 0.2722778916
	0.2742806971 0.2906292975 0.2742806971
	0.2762736082 0.2926450074 0.2762736082
	0.2782565951 0.2946475148 0.2782565951
	0.2802278996 0.2966375053 0.2802278996
	0.2821829021 0.2986125946 0.2821829021
	0.2841286063 0.3005768061 0.2841286063
	0.2860676050 0.3025309145 0.2860676050
	0.2879948914 0.3044739962 0.2879948914
	0.2899109125 0.3064059913 0.2899109125
	0.2918199003 0.3083246052 0.2918199003
	0.2937203050 0.3102298975 0.2937203050
	0.2956117988 0.3121252954 0.2956117988
	0.2974927127 0.3140129149 0.2974927127
	0.2993623018 0.3158906996 0.2993623018
	0.3012244105 0.3177559078 0.3012244105
	0.3030805886 0.3196083009 0.3030805886
	0.3049291968 0.3214524984 0.3049291968
	0.3067674041 0.3232868016 0.3067674041
	0.3085950911 0.3251119852 0.3085950911
	0.3104135990 0.3269273937 0.3104135990
	0.3122237027 0.3287312090 0.3122237027
	0.3140270114 0.3305267096 0.3140270114
	0.3158223927 0.3323149085 0.3158223927
	0.3176110089 0.3340944946 0.3176110089
	0.3193928003 0.3358643055 0.3193928003
	0.3211658001 0.3376250863 0.3211658001
	0.3229303062 0.3393788934 0.3229303062
	0.3246853054 0.3411253095 0.3246853054
	0.3264288902 0.3428628147 0.3264288902
	0.3281643093 0.3445931077 0.3281643093
	0.3298931122 0.3463181853 0.3298931122
	0.3316138089 0.3480368853 0.3316138089
	0.3333249986 0.3497483134 0.3333249986
	0.3350282013 0.3514511883 0.3350282013
	0.3367244899 0.3531453907 0.3367244899
	0.3384152055 0.3548327088 0.3384152055
	0.3401009142 0.3565143049 0.3401009142
	0.3417800069 0.3581889868 0.3417800069
	0.3434512019 0.3598566949 0.3434512019
	0.3451134861 0.3615188897 0.3451134861
	0.3467679918 0.3631770015 0.3467679918
	0.3484159112 0.3648299873 0.3484159112
	0.3500581980 0.3664768934 0.3500581980
	0.3516958952 0.3681172132 0.3516958952
	0.3533272147 0.3697521985 0.3533272147
	0.3549514115 0.3713811040 0.3549514115
	0.3565692902 0.3730033040 0.3565692902
	0.3581799865 0.3746202886 0.3581799865
	0.3597826958 0.3762314916 0.3597826958
	0.3613792062 0.3778361976 0.3613792062
	0.3629701138 0.3794350028 0.3629701138
	0.3645544946 0.3810291886 0.3645544946
	0.3661319017 0.3826195002 0.3661319017
	0.3677032888 0.3842051923 0.3677032888
	0.3692691922 0.3857854009 0.3692691922
	0.3708305955 0.3873588145 0.3708305955
	0.3723872006 0.3889274001 0.3723872006
	0.3739395142 0.3904910982 0.3739395142
	0.3754872978 0.3920491040 0.3754872978
	0.3770299852 0.3936016858 0.3770299852
	0.3785668015 0.3951497972 0.3785668015
	0.3800952137 0.3966915905 0.3800952137
	0.3816176057 0.3982270956 0.3816176057
	0.3831363916 0.3997577131 0.3831363916
	0.3846518993 0.4012834132 0.3846518993
	0.3861635923 0.4028038085 0.3861635923
	0.3876700103 0.4043180048 0.3876700103
	0.3891699910 0.4058266878 0.3891699910
	0.3906654119 0.4073303044 0.3906654119
	0.3921560049 0.4088295996 0.3921560049
	0.3936414123 0.4103249907 0.3936414123
	0.3951213062 0.4118149877 0.3951213062
	0.3965955079 0.4132992923 0.3965955079
	0.3980641961 0.4147784114 0.3980641961
	0.3995279074 0.4162524939 0.3995279074
	0.4009875953 0.4177218080 0.4009875953
	0.4024423063 0.4191871881 0.4024423063
	0.4038924873 0.4206492007 0.4038924873
	0.4053378999 0.4221076965 0.4053378999
	0.4067766070 0.4235613942 0.4067766070
	0.4082114995 0.4250093997 0.4082114995
	0.4096431136 0.4264526963 0.4096431136
	0.4110710919 0.4278913140 0.4110710919
	0.4124928117 0.4293223023 0.4124928117
	0.4139108062 0.4307503104 0.4139108062
	0.4153253138 0.4321753085 0.4153253138
	0.4167349935 0.4335967898 0.4167349935
	0.4181382954 0.4350129068 0.4181382954
	0.4195368886 0.4364252090 0.4195368886
	0.4209308028 0.4378337860 0.4209308028
	0.4223197103 0.4392373860 0.4223197103
	0.4237053990 0.4406375885 0.4237053990
	0.4250878096 0.4420346022 0.4250878096
	0.4264639914 0.4434260130 0.4264639914
	0.4278368056 0.4448128045 0.4278368056
	0.4292069972 0.4461959004 0.4292069972
	0.4305736125 0.4475724995 0.4305736125
	0.4319368899 0.4489449859 0.4319368899
	0.4332974851 0.4503144026 0.4332974851
	0.4346528947 0.4516780972 0.4346528947
	0.4360040128 0.4530383050 0.4360040128
	0.4373517036 0.4543960094 0.4373517036
	0.4386920035 0.4557482898 0.4386920035
	0.4400289059 0.4570981860 0.4400289059
	0.4413625896 0.4584460855 0.4413625896
	0.4426892102 0.4597887993 0.4426892102
	0.4440130889 0.4611299038 0.4440130889
	0.4453332126 0.4624690115 0.4453332126
	0.4466494024 0.4638045132 0.4466494024
	0.4479633868 0.4651381075 0.4479633868
	0.4492729008 0.4664680064 0.4492729008
	0.4505785108 0.4677945077 0.4505785108
	0.4518812895 0.4691188931 0.4518812895
	0.4531790912 0.4704371989 0.4531790912
	0.4544754028 0.4717530906 0.4544754028
	0.4557689130 0.4730646908 0.4557689130
	0.4570592046 0.4743711948 0.4570592046
	0.4583478868 0.4756751955 0.4583478868
	0.4596310854 0.4769738019 0.4596310854
	0.4609121978 0.4782701135 0.4609121978
	0.4621888995 0.4795624018 0.4621888995
	0.4634611011 0.4808515906 0.4634611011
	0.4647307098 0.4821392894 0.4647307098
	0.4659950137 0.4834218919 0.4659950137
	0.4672574103 0.4847030044 0.4672574103
	0.4685145915 0.4859794974 0.4685145915
	0.4697686136 0.4872528017 0.4697686136
	0.4710184932 0.4885227978 0.4710184932
	0.4722628891 0.4897891879 0.4722628891
	0.4735049009 0.4910542071 0.4735049009
	0.4747408926 0.4923141003 0.4747408926
	0.4759756923 0.4935730100 0.4759756923
	0.4772061110 0.4948287904 0.4772061110
	0.4784345031 0.4960829020 0.4784345031
	0.4796591997 0.4973343015 0.4796591997
	0.4808802903 0.4985828102 0.4808802903
	0.4820986092 0.4998292029 0.4820986092
	0.4833118021 0.5010713935 0.4833118021
	0.4845229983 0.5023121834 0.4845229983
	0.4857310057 0.5035473704 0.4857310057
	0.4869383872 0.5047817826 0.4869383872
	0.4881415069 0.5060117245 0.4881415069
	0.4893437922 0.5072407722 0.4893437922
	0.4905417860 0.5084657073 0.4905417860
	0.4917384088 0.5096889138 0.4917384088
	0.4929305911 0.5109081864 0.4929305911
	0.4941214025 0.5121250749 0.4941214025
	0.4953092933 0.5133383274 0.4953092933
	0.4964950979 0.5145484209 0.4964950979
	0.4976781011 0.5157549977 0.4976781011
	0.4988583922 0.5169578195 0.4988583922
	0.5000360012 0.5181573033 0.5000360012
	0.5012102127 0.5193536878 0.5012102127
	0.5023818016 0.5205478072 0.5023818016
	0.5035495758 0.5217382908 0.5035495758
	0.5047146082 0.5229266286 0.5047146082
	0.5058754086 0.5241109133 0.5058754086
	0.5070334077 0.5252929926 0.5070334077
	0.5081868768 0.5264708996 0.5081868768
	0.5093373060 0.5276464224 0.5093373060
	0.5104840994 0.5288175941 0.5104840994
	0.5116283298 0.5299862027 0.5116283298
	0.5127689242 0.5311505795 0.5127689242
	0.5139064193 0.5323119164 0.5139064193
	0.5150403976 0.5334690809 0.5150403976
	0.5161709189 0.5346227884 0.5161709189
	0.5172979832 0.5357729197 0.5172979832
	0.5184208751 0.5369185805 0.5184208751
	0.5195422769 0.5380612016 0.5195422769
	0.5206609964 0.5391985774 0.5206609964
	0.5217785239 0.5403342843 0.5217785239
	0.5228924751 0.5414649844 0.5228924751
	0.5240058899 0.5425949097 0.5240058899
	0.5251148939 0.5437206030 0.5251148939
	0.5262238979 0.5448461771 0.5262238979
	0.5273274183 0.5459663868 0.5273274183
	0.5284308791 0.5470865965 0.5284308791
	0.5295295119 0.5482017994 0.5295295119
	0.5306270719 0.5493162274 0.5306270719
	0.5317205191 0.5504277945 0.5317205191
	0.5328117013 0.5515381098 0.5328117013
	0.5339006782 0.5526462197 0.5339006782
	0.5349869728 0.5537520051 0.5349869728
	0.5360723734 0.5548564792 0.5360723734
	0.5371550918 0.5559577942 0.5371550918
	0.5382375717 0.5570588112 0.5382375717
	0.5393161774 0.5581569076 0.5393161774
	0.5403949022 0.5592550039 0.5403949022
	0.5414698720 0.5603502989 0.5414698720
	0.5425440073 0.5614449978 0.5425440073
	0.5436155200 0.5625376105 0.5436155200
	0.5446845889 0.5636284947 0.5446845889
	0.5457528830 0.5647183061 0.5457528830
	0.5468186140 0.5658050179 0.5468186140
	0.5478842854 0.5668917894 0.5478842854
	0.5489463806 0.5679742098 0.5489463806
	0.5500082970 0.5690563917 0.5500082970
	0.5510675907 0.5701354742 0.5510675907
	0.5521252751 0.5712130070 0.5521252751
	0.5531818271 0.5722888112 0.5531818271
	0.5542349815 0.5733609796 0.5542349815
	0.5552883148 0.5744333267 0.5552883148
	0.5563371181 0.5755001903 0.5563371181
	0.5573856235 0.5765669942 0.5573856235
	0.5584312081 0.5776314139 0.5584312081
	0.5594745278 0.5786941051 0.5594745278
	0.5605170131 0.5797560811 0.5605170131
	0.5615549088 0.5808146000 0.5615549088
	0.5625928044 0.5818731189 0.5625928044
	0.5636265278 0.5829282999 0.5636265278
	0.5646585822 0.5839822888 0.5646585822
	0.5656889081 0.5850347877 0.5656889081
	0.5667148829 0.5860841274 0.5667148829
	0.5677409768 0.5871334076 0.5677409768
	0.5687615871 0.5881785154 0.5687615871
	0.5697811842 0.5892227888 0.5697811842
	0.5707985163 0.5902652144 0.5707985163
	0.5718113780 0.5913044214 0.5718113780
	0.5728244185 0.5923436284 0.5728244185
	0.5738328099 0.5933796167 0.5738328099
	0.5748404264 0.5944151878 0.5748404264
	0.5758461952 0.5954493880 0.5758461952
	0.5768483877 0.5964813232 0.5768483877
	0.5778505206 0.5975130796 0.5778505206
	0.5788481236 0.5985416770 0.5788481236
	0.5798444748 0.5995696187 0.5798444748
	0.5808395147 0.6005964875 0.5808395147
	0.5818299055 0.6016203165 0.5818299055
	0.5828202963 0.6026440859 0.5828202963
	0.5838078260 0.6036651134 0.5838078260
	0.5847936869 0.6046845913 0.5847936869
	0.5857794881 0.6057038903 0.5857794881
	0.5867608190 0.6067190170 0.5867608190
	0.5877420902 0.6077340841 0.5877420902
	0.5887213945 0.6087473035 0.5887213945
	0.5896978974 0.6097577810 0.5896978974
	0.5906744003 0.6107683182 0.5906744003
	0.5916472077 0.6117751002 0.5916472077
	0.5926188231 0.6127809286 0.5926188231
	0.5935899019 0.6137859821 0.5935899019
	0.5945563912 0.6147853136 0.5945563912
	0.5955228806 0.6157847047 0.5955228806
	0.5964874029 0.6167812943 0.5964874029
	0.5974487066 0.6177741289 0.5974487066
	0.5984100103 0.6187667847 0.5984100103
	0.5993676782 0.6197549105 0.5993676782
	0.6003236771 0.6207411289 0.6003236771
	0.6012796760 0.6217272878 0.6012796760
	0.6022304893 0.6227068901 0.6022304893
	0.6031810045 0.6236863136 0.6031810045
	0.6041305065 0.6246638894 0.6041305065
	0.6050754786 0.6256346703 0.6050754786
	0.6060203910 0.6266055107 0.6060203910
	0.6069629788 0.6275725961 0.6069629788
	0.6079022884 0.6285349131 0.6079022884
	0.6088414788 0.6294971108 0.6088414788
	0.6097772717 0.6304540038 0.6097772717
	0.6107106805 0.6314077973 0.6107106805
	0.6116440892 0.6323614717 0.6116440892
	0.6125729084 0.6333085895 0.6125729084
	0.6135004163 0.6342539191 0.6135004163
	0.6144278049 0.6351991892 0.6144278049
	0.6153497100 0.6361367702 0.6153497100
	0.6162710786 0.6370738149 0.6162710786
	0.6171923280 0.6380103230 0.6171923280
	0.6181074977 0.6389390826 0.6181074977
	0.6190227270 0.6398677826 0.6190227270
	0.6199370027 0.6407952905 0.6199370027
	0.6208459139 0.6417160034 0.6208459139
	0.6217548251 0.6426365972 0.6217548251
	0.6226627231 0.6435554028 0.6226627231
	0.6235666871 0.6444680095 0.6235666871
	0.6244707108 0.6453806162 0.6244707108
	0.6253734231 0.6462908983 0.6253734231
	0.6262723804 0.6471955180 0.6262723804
	0.6271713972 0.6481000781 0.6271713972
	0.6280689836 0.6490027905 0.6280689836
	0.6289629936 0.6499009728 0.6289629936
	0.6298570037 0.6507992148 0.6298570037
	0.6307495236 0.6516954899 0.6307495236
	0.6316384077 0.6525874138 0.6316384077
	0.6325272918 0.6534792781 0.6325272918
	0.6334148049 0.6543694139 0.6334148049
	0.6342985034 0.6552550793 0.6342985034
	0.6351823211 0.6561406851 0.6351823211
	0.6360648274 0.6570249200 0.6360648274
	0.6369432807 0.6579043865 0.6369432807
	0.6378217936 0.6587839127 0.6378217936
	0.6386997104 0.6596624255 0.6386997104
	0.6395745873 0.6605358124 0.6395745873
	0.6404494047 0.6614091992 0.6404494047
	0.6413241029 0.6622822285 0.6413241029
	0.6421937943 0.6631495953 0.6421937943
	0.6430636048 0.6640170217 0.6430636048
	0.6439334154 0.6648843884 0.6439334154
	0.6447985768 0.6657463908 0.6447985768
	0.6456633806 0.6666080952 0.6456633806
	0.6465281844 0.6674697995 0.6465281844
	0.6473892927 0.6683270931 0.6473892927
	0.6482492089 0.6691833138 0.6482492089
	0.6491091251 0.6700394750 0.6491091251
	0.6499661207 0.6708925962 0.6499661207
	0.6508212090 0.6717435718 0.6508212090
	0.6516762972 0.6725946069 0.6516762972
	0.6525288820 0.6734434962 0.6525288820
	0.6533777118 0.6742895246 0.6533777118
	0.6542264819 0.6751354933 0.6542264819
	0.6550742984 0.6759806871 0.6550742984
	0.6559169888 0.6768220067 0.6559169888
	0.6567596793 0.6776633263 0.6567596793
	0.6576023102 0.6785045862 0.6576023102
	0.6584395766 0.6793416739 0.6584395766
	0.6592763066 0.6801785231 0.6592763066
	0.6601129770 0.6810153127 0.6601129770
	0.6609460711 0.6818485260 0.6609460711
	0.6617770791 0.6826794744 0.6617770791
	0.6626080275 0.6835106015 0.6626080275
	0.6634371877 0.6843398213 0.6634371877
	0.6642624736 0.6851654053 0.6642624736
	0.6650878787 0.6859909892 0.6650878787
	0.6659132242 0.6868165731 0.6659132242
	0.6667333245 0.6876372099 0.6667333245
	0.6675531864 0.6884577274 0.6675531864
	0.6683731079 0.6892783046 0.6683731079
	0.6691898704 0.6900957823 0.6691898704
	0.6700046062 0.6909114718 0.6700046062
	0.6708192825 0.6917272210 0.6708192825
	0.6716328859 0.6925418973 0.6716328859
	0.6724424958 0.6933531761 0.6724424958
	0.6732522249 0.6941645145 0.6732522249
	0.6740617752 0.6949757934 0.6740617752
	0.6748675704 0.6957837939 0.6748675704
	0.6756724119 0.6965909004 0.6756724119
	0.6764771938 0.6973981261 0.6764771938
	0.6772803068 0.6982039213 0.6772803068
	0.6780803800 0.6990072131 0.6780803800
	0.6788805127 0.6998106241 0.6788805127
	0.6796805263 0.7006139159 0.6796805263
	0.6804767251 0.7014129758 0.6804767251
	0.6812722087 0.7022113800 0.6812722087
	0.6820678115 0.7030097842 0.6820678115
	0.6828618050 0.7038065195 0.6828618050
	0.6836528778 0.7046002746 0.6836528778
	0.6844441295 0.7053942084 0.6844441295
	0.6852353215 0.7061880827 0.6852353215
	0.6860229969 0.7069783807 0.6860229969
	0.6868100166 0.7077680826 0.6868100166
	0.6875969768 0.7085577846 0.6875969768
	0.6883826256 0.7093464136 0.6883826256
	0.6891641021 0.7101323009 0.6891641021
	0.6899456978 0.7109181881 0.6899456978
	0.6907271743 0.7117040753 0.6907271743
	0.6915053725 0.7124866843 0.6915053725
	0.6922817230 0.7132676244 0.6922817230
	0.6930580139 0.7140485048 0.6930580139
	0.6938341856 0.7148293257 0.6938341856
	0.6946055293 0.7156057954 0.6946055293
	0.6953768134 0.7163822055 0.6953768134
	0.6961480975 0.7171586752 0.6961480975
	0.6969177127 0.7179335952 0.6969177127
	0.6976842284 0.7187060714 0.6976842284
	0.6984508038 0.7194784880 0.6984508038
	0.6992173195 0.7202510238 0.6992173195
	0.6999806762 0.7210199833 0.6999806762
	0.7007427216 0.7217875719 0.7007427216
	0.7015047073 0.7225551009 0.7015047073
	0.7022666931 0.7233226895 0.7022666931
	0.7030245066 0.7240859270 0.7030245066
	0.7037820816 0.7248489857 0.7037820816
	0.7045397162 0.7256121039 0.7045397162
	0.7052962184 0.7263739109 0.7052962184
	0.7060483098 0.7271317244 0.7060483098
	0.7068005204 0.7278894186 0.7068005204
	0.7075526118 0.7286471128 0.7075526118
	0.7083024979 0.7294024825 0.7083024979
	0.7090494037 0.7301552892 0.7090494037
	0.7097964287 0.7309080958 0.7097964287
	0.7105432749 0.7316607833 0.7105432749
	0.7112872005 0.7324107289 0.7112872005
	0.7120292187 0.7331590056 0.7120292187
	0.7127712965 0.7339072227 0.7127712965
	0.7135133147 0.7346554995 0.7135133147
	0.7142516971 0.7354004979 0.7142516971
	0.7149891853 0.7361447215 0.7149891853
	0.7157266140 0.7368888855 0.7157266140
	0.7164639831 0.7376331091 0.7164639831
	0.7171975970 0.7383713126 0.7171975970
	0.7179307938 0.7391089201 0.7179307938
	0.7186638713 0.7398465872 0.7186638713
	0.7193971276 0.7405840755 0.7193971276
	0.7201262116 0.7413142920 0.7201262116
	0.7208554149 0.7420445085 0.7208554149
	0.7215844989 0.7427747846 0.7215844989
	0.7223134041 0.7435045242 0.7223134041
	0.7230387926 0.7442278266 0.7230387926
	0.7237643003 0.7449511290 0.7237643003
	0.7244896889 0.7456744909 0.7244896889
	0.7252147198 0.7463970780 0.7252147198
	0.7259353995 0.7471140027 0.7259353995
	0.7266560793 0.7478309870 0.7266560793
	0.7273768187 0.7485479116 0.7273768187
	0.7280970812 0.7492641807 0.7280970812
	0.7288134098 0.7499753237 0.7288134098
	0.7295296788 0.7506862879 0.7295296788
	0.7302460074 0.7513973117 0.7302460074
	0.7309620976 0.7521079779 0.7309620976
	0.7316743135 0.7528135777 0.7316743135
	0.7323865294 0.7535192966 0.7323865294
	0.7330986857 0.7542248964 0.7330986857
	0.7338109016 0.7549306154 0.7338109016
	0.7345194817 0.7556313276 0.7345194817
	0.7352281213 0.7563319802 0.7352281213
	0.7359365821 0.7570326924 0.7359365821
	0.7366451025 0.7577335238 0.7366451025
	0.7373495102 0.7584289908 0.7373495102
	0.7380533218 0.7591239214 0.7380533218
	0.7387570739 0.7598189116 0.7387570739
	0.7394608855 0.7605137825 0.7394608855
	0.7401614785 0.7612038255 0.7401614785
	0.7408609986 0.7618921995 0.7408609986
	0.7415605187 0.7625805736 0.7415605187
	0.7422599792 0.7632690072 0.7422599792
	0.7429572940 0.7639539838 0.7429572940
	0.7436528802 0.7646365166 0.7436528802
	0.7443485260 0.7653189898 0.7443485260
	0.7450441122 0.7660015225 0.7450441122
	0.7457385063 0.7666820288 0.7457385063
	0.7464305758 0.7673591971 0.7464305758
	0.7471227050 0.7680364251 0.7471227050
	0.7478148937 0.7687135935 0.7478148937
	0.7485067248 0.7693902850 0.7485067248
	0.7491956949 0.7700628042 0.7491956949
	0.7498847842 0.7707353830 0.7498847842
	0.7505738735 0.7714080215 0.7505738735
	0.7512630224 0.7720804811 0.7512630224
	0.7519487739 0.7727484703 0.7519487739
	0.7526339889 0.7734156251 0.7526339889
	0.7533192039 0.7740827203 0.7533192039
	0.7540044188 0.7747498751 0.7540044188
	0.7546877861 0.7754138112 0.7546877861
	0.7553694844 0.7760748863 0.7553694844
	0.7560511827 0.7767360806 0.7560511827
	0.7567330003 0.7773972154 0.7567330003
	0.7574139237 0.7780573964 0.7574139237
	0.7580912709 0.7787132263 0.7580912709
	0.7587686777 0.7793691158 0.7587686777
	0.7594460845 0.7800250053 0.7594460845
	0.7601234913 0.7806808949 0.7601234913
	0.7607979178 0.7813320756 0.7607979178
	0.7614712715 0.7819821835 0.7614712715
	0.7621448040 0.7826321721 0.7621448040
	0.7628182769 0.7832822800 0.7628182769
	0.7634900212 0.7839304209 0.7634900212
	0.7641587257 0.7845754027 0.7641587257
	0.7648273110 0.7852203250 0.7648273110
	0.7654958963 0.7858651876 0.7654958963
	0.7661646008 0.7865102291 0.7661646008
	0.7668293118 0.7871509790 0.7668293118
	0.7674936056 0.7877914906 0.7674936056
	0.7681578994 0.7884320021 0.7681578994
	0.7688220739 0.7890725136 0.7688220739
	0.7694842815 0.7897108197 0.7694842815
	0.7701433897 0.7903463244 0.7701433897
	0.7708023787 0.7909818292 0.7708023787
	0.7714614868 0.7916172743 0.7714614868
	0.7721205950 0.7922527194 0.7721205950
	0.7727754116 0.7928832173 0.7727754116
	0.7734296918 0.7935130000 0.7734296918
	0.7740839720 0.7941429019 0.7740839720
	0.7747381926 0.7947726846 0.7747381926
	0.7753911018 0.7954009771 0.7753911018
	0.7760409713 0.7960259914 0.7760409713
	0.7766909003 0.7966510057 0.7766909003
	0.7773407102 0.7972760201 0.7773407102
	0.7779905796 0.7979009748 0.7779905796
	0.7786368132 0.7985221744 0.7786368132
	0.7792813778 0.7991417050 0.7792813778
	0.7799261212 0.7997612953 0.7799261212
	0.7805706859 0.8003808856 0.7805706859
	0.7812150717 0.8010001779 0.7812150717
	0.7818549275 0.8016149998 0.7818549275
	0.7824947834 0.8022298813 0.7824947834
	0.7831345797 0.8028448224 0.7831345797
	0.7837744951 0.8034597039 0.7837744951
	0.7844126821 0.8040724993 0.7844126821
	0.7850481868 0.8046821952 0.7850481868
	0.7856836915 0.8052918911 0.7856836915
	0.7863191962 0.8059015274 0.7863191962
	0.7869547009 0.8065112233 0.7869547009
	0.7875875831 0.8071171045 0.7875875831
	0.7882192135 0.8077210188 0.7882192135
	0.7888507247 0.8083249927 0.7888507247
	0.7894822955 0.8089289069 0.7894822955
	0.7901139259 0.8095328808 0.7901139259
	0.7907413244 0.8101323843 0.7907413244
	0.7913681269 0.8107314110 0.7913681269
	0.7919949889 0.8113303781 0.7919949889
	0.7926219106 0.8119294047 0.7926219106
	0.7932484150 0.8125280738 0.7932484150
