release/datafiles/colormanagement/luts/film_response/agfa_agfacolor_optima_ii_200.spi1d
Version 1
From 0.0 1.0
Length 1024
Components 3
{
	0.0000000000 0.0000000000 0.0000000000
	0.0111121098 0.0121509498 0.0121509498
	0.0217311792 0.0234846398 0.0234846398
	0.0310309306 0.0335913785 0.0335913785
	0.0394427888 0.0427072011 0.0427072011
	0.0472172312 0.0510250889 0.0510250889
	0.0544895791 0.0587030984 0.0587030984
	0.0613539182 0.0658273399 0.0658273399
	0.0678610802 0.0724957809 0.0724957809
	0.0740588829 0.0787753463 0.0787753463
	0.0799922720 0.0847034305 0.0847034305
	0.0856926665 0.0903405622 0.0903405622
	0.0911944881 0.0957725719 0.0957725719
	0.0965085030 0.1010297015 0.1010297015
	0.1016504988 0.1061294973 0.1061294973
	0.1066408977 0.1110759974 0.1110759974
	0.1114827022 0.1158965006 0.1158965006
	0.1161810011 0.1205943003 0.1205943003
	0.1207583994 0.1251748055 0.1251748055
	0.1252014935 0.1296516955 0.1296516955
	0.1295239031 0.1340274960 0.1340274960
	0.1337441057 0.1383039951 0.1383039951
	0.1378667057 0.1424947977 0.1424947977
	0.1418835968 0.1466037929 0.1466037929
	0.1458135992 0.1506410986 0.1506410986
	0.1496558040 0.1545946002 0.1545946002
	0.1534211040 0.1584779024 0.1584779024
	0.1571090072 0.1622924954 0.1622924954
	0.1607228965 0.1660465002 0.1660465002
	0.1642647982 0.1697326005 0.1697326005
	0.1677455008 0.1733641028 0.1733641028
	0.1711609066 0.1769354939 0.1769354939
	0.1745131016 0.1804486960 0.1804486960
	0.1778111011 0.1839037985 0.1839037985
	0.1810566932 0.1873078942 0.1873078942
	0.1842480004 0.1906577051 0.1906577051
	0.1873922944 0.1939612031 0.1939612031
	0.1904910952 0.1972206980 0.1972206980
	0.1935475022 0.2004390955 0.2004390955
	0.1965657026 0.2036167979 0.2036167979
	0.1995460987 0.2067523003 0.2067523003
	0.2024825066 0.2098508030 0.2098508030
	0.2053820044 0.2129165977 0.2129165977
	0.2082439959 0.2159480006 0.2159480006
	0.2110687941 0.2189517021 0.2189517021
	0.2138601989 0.2219190001 0.2219190001
	0.2166164964 0.2248522043 0.2248522043
	0.2193437964 0.2277560979 0.2277560979
	0.2220394015 0.2306237966 0.2306237966
	0.2247070074 0.2334605008 0.2334605008
	0.2273449004 0.2362726033 0.2362726033
	0.2299581021 0.2390560061 0.2390560061
	0.2325424999 0.2418099940 0.2418099940
	0.2350990027 0.2445425987 0.2445425987
	0.2376336008 0.2472528070 0.2472528070
	0.2401454002 0.2499340028 0.2499340028
	0.2426387966 0.2525874972 0.2525874972
	0.2451128960 0.2552196980 0.2552196980
	0.2475619018 0.2578315139 0.2578315139
	0.2499863058 0.2604233027 0.2604233027
	0.2523908913 0.2629944980 0.2629944980
	0.2547743022 0.2655487061 0.2655487061
	0.2571432889 0.2680800855 0.2680800855
	0.2594946027 0.2705903947 0.2705903947
	0.2618246973 0.2730821967 0.2730821967
	0.2641352117 0.2755582929 0.2755582929
	0.2664259076 0.2780191004 0.2780191004
	0.2686997056 0.2804580927 0.2804580927
	0.2709574103 0.2828805149 0.2828805149
	0.2731972933 0.2852869034 0.2852869034
	0.2754215896 0.2876777947 0.2876777947
	0.2776325047 0.2900503874 0.2900503874
	0.2798275948 0.2924054861 0.2924054861
	0.2820053995 0.2947433889 0.2947433889
	0.2841629088 0.2970634997 0.2970634997
	0.2863053083 0.2993713021 0.2993713021
	0.2884348929 0.3016661108 0.3016661108
	0.2905501127 0.3039461970 0.3039461970
	0.2926583886 0.3062120080 0.3062120080
	0.2947568893 0.3084635139 0.3084635139
	0.2968437076 0.3106997013 0.3106997013
	0.2989166081 0.3129228055 0.3129228055
	0.3009737134 0.3151350021 0.3151350021
	0.3030146956 0.3173327148 0.3173327148
	0.3050420880 0.3195173144 0.3195173144
	0.3070568144 0.3216913044 0.3216913044
	0.3090623915 0.3238545060 0.3238545060
	0.3110578060 0.3260023892 0.3260023892
	0.3130468130 0.3281404078 0.3281404078
	0.3150278926 0.3302693069 0.3302693069
	0.3169982135 0.3323845863 0.3323845863
	0.3189576864 0.3344885111 0.3344885111
	0.3209047019 0.3365832865 0.3365832865
	0.3228406012 0.3386682868 0.3386682868
	0.3247657120 0.3407419920 0.3407419920
	0.3266789913 0.3428055942 0.3428055942
	0.3285810053 0.3448581100 0.3448581100
	0.3304736018 0.3468984962 0.3468984962
	0.3323583901 0.3489289880 0.3489289880
	0.3342367113 0.3509478867 0.3509478867
	0.3361082971 0.3529567122 0.3529567122
	0.3379718065 0.3549566865 0.3549566865
	0.3398267031 0.3569482863 0.3569482863
	0.3416717947 0.3589293957 0.3589293957
	0.3435060084 0.3609009981 0.3609009981
	0.3453314900 0.3628633916 0.3628633916
	0.3471463919 0.3648136854 0.3648136854
	0.3489513993 0.3667523861 0.3667523861
	0.3507472873 0.3686820865 0.3686820865
	0.3525382876 0.3706041873 0.3706041873
	0.3543233871 0.3725175858 0.3725175858
	0.3561016917 0.3744210899 0.3744210899
	0.3578726053 0.3763135970 0.3763135970
	0.3596351147 0.3781942129 0.3781942129
	0.3613910973 0.3800665140 0.3800665140
	0.3631403148 0.3819315135 0.3819315135
	0.3648819029 0.3837873042 0.3837873042
	0.3666147888 0.3856337070 0.3856337070
	0.3683386147 0.3874723017 0.3874723017
	0.3700559139 0.3893026114 0.3893026114
	0.3717651963 0.3911237121 0.3911237121
	0.3734667003 0.3929347992 0.3929347992
	0.3751592040 0.3947354853 0.3947354853
	0.3768459857 0.3965282142 0.3965282142
	0.3785249889 0.3983115852 0.3983115852
	0.3801974952 0.4000878930 0.4000878930
	0.3818610907 0.4018566012 0.4018566012
	0.3835192919 0.4036169052 0.4036169052
	0.3851707876 0.4053680897 0.4053680897
	0.3868159950 0.4071125984 0.4071125984
	0.3884536028 0.4088492990 0.4088492990
	0.3900853097 0.4105800986 0.4105800986
	0.3917112947 0.4123049974 0.4123049974
	0.3933308125 0.4140234888 0.4140234888
	0.3949447870 0.4157348871 0.4157348871
	0.3965539038 0.4174388051 0.4174388051
	0.3981573880 0.4191350937 0.4191350937
	0.3997552991 0.4208256006 0.4208256006
	0.4013460875 0.4225083888 0.4225083888
	0.4029329121 0.4241839945 0.4241839945
	0.4045143127 0.4258517921 0.4258517921
	0.4060910046 0.4275138080 0.4275138080
	0.4076623023 0.4291698933 0.4291698933
	0.4092277884 0.4308196008 0.4308196008
	0.4107879102 0.4324634969 0.4324634969
	0.4123404026 0.4340988100 0.4340988100
	0.4138863087 0.4357272089 0.4357272089
	0.4154250026 0.4373478889 0.4373478889
	0.4169568121 0.4389612079 0.4389612079
	0.4184818864 0.4405669868 0.4405669868
	0.4199990034 0.4421640933 0.4421640933
	0.4215070009 0.4437515140 0.4437515140
	0.4230087101 0.4453321993 0.4453321993
	0.4245057106 0.4469063878 0.4469063878
	0.4259983897 0.4484742880 0.4484742880
	0.4274863899 0.4500342011 0.4500342011
	0.4289681017 0.4515857995 0.4515857995
	0.4304446876 0.4531300068 0.4531300068
	0.4319162071 0.4546670914 0.4546670914
	0.4333826005 0.4561972916 0.4561972916
	0.4348441064 0.4577195942 0.4577195942
	0.4363026917 0.4592362046 0.4592362046
	0.4377590120 0.4607473016 0.4607473016
	0.4392131865 0.4622528851 0.4622528851
	0.4406625032 0.4637500048 0.4637500048
	0.4421091080 0.4652411938 0.4652411938
	0.4435526133 0.4667268991 0.4667268991
	0.4449920058 0.4682061076 0.4682061076
	0.4464268088 0.4696769118 0.4696769118
	0.4478574991 0.4711419940 0.4711419940
	0.4492841959 0.4726015031 0.4726015031
	0.4507060051 0.4740524888 0.4740524888
	0.4521220922 0.4754965901 0.4754965901
	0.4535340965 0.4769350886 0.4769350886
	0.4549413919 0.4783662856 0.4783662856
	0.4563410878 0.4797913134 0.4797913134
	0.4577364922 0.4812119901 0.4812119901
	0.4591276050 0.4826276898 0.4826276898
	0.4605121911 0.4840362966 0.4840362966
	0.4618934989 0.4854404926 0.4854404926
	0.4632714987 0.4868401885 0.4868401885
	0.4646422863 0.4882321954 0.4882321954
	0.4660094976 0.4896200001 0.4896200001
	0.4673734009 0.4910030961 0.4910030961
	0.4687319994 0.4923816025 0.4923816025
	0.4700880945 0.4937570095 0.4937570095
	0.4714413881 0.4951288104 0.4951288104
	0.4727892876 0.4964961112 0.4964961112
	0.4741345942 0.4978606999 0.4978606999
	0.4754764140 0.4992212057 0.4992212057
	0.4768131077 0.5005778074 0.5005778074
	0.4781472087 0.5019320250 0.5019320250
	0.4794766903 0.5032812953 0.5032812953
	0.4808017015 0.5046275854 0.5046275854
	0.4821242094 0.5059717894 0.5059717894
	0.4834404886 0.5073099732 0.5073099732
	0.4847536087 0.5086460710 0.5086460710
	0.4860630035 0.5099794865 0.5099794865
	0.4873664975 0.5113078952 0.5113078952
	0.4886673987 0.5126342773 0.5126342773
	0.4899624884 0.5139567852 0.5139567852
	0.4912536144 0.5152760744 0.5152760744
	0.4925413132 0.5165923238 0.5165923238
	0.4938223064 0.5179045796 0.5179045796
	0.4951008856 0.5192151070 0.5192151070
	0.4963732958 0.5205205083 0.5205205083
	0.4976417124 0.5218238235 0.5218238235
	0.4989061058 0.5231245160 0.5231245160
	0.5001640916 0.5244206190 0.5244206190
	0.5014199018 0.5257151127 0.5257151127
	0.5026680231 0.5270051956 0.5270051956
	0.5039132833 0.5282933712 0.5282933712
	0.5051530004 0.5295773745 0.5295773745
	0.5063877106 0.5308588743 0.5308588743
	0.5076187253 0.5321382880 0.5321382880
	0.5088446736 0.5334129930 0.5334129930
	0.5100693107 0.5346865058 0.5346865058
	0.5112869740 0.5359553099 0.5359553099
	0.5125030875 0.5372229815 0.5372229815
	0.5137143135 0.5384858847 0.5384858847
	0.5149223804 0.5397471189 0.5397471189
	0.5161263943 0.5410054922 0.5410054922
	0.5173262954 0.5422605872 0.5422605872
	0.5185235143 0.5435131192 0.5435131192
	0.5197150707 0.5447623730 0.5447623730
	0.5209047794 0.5460104942 0.5460104942
	0.5220907927 0.5472519994 0.5472519994
	0.5232760906 0.5484923720 0.5484923720
	0.5244560838 0.5497261286 0.5497261286
	0.5256354809 0.5509589911 0.5509589911
	0.5268111825 0.5521854162 0.5521854162
	0.5279856920 0.5534102917 0.5534102917
	0.5291559100 0.5546302199 0.5546302199
	0.5303248167 0.5558478832 0.5558478832
	0.5314909220 0.5570605993 0.5570605993
	0.5326548815 0.5582709908 0.5582709908
	0.5338155031 0.5594773889 0.5594773889
	0.5349742770 0.5606803298 0.5606803298
	0.5361307859 0.5618779063 0.5618779063
	0.5372846723 0.5630717278 0.5630717278
	0.5384358168 0.5642607808 0.5642607808
	0.5395848155 0.5654460788 0.5654460788
	0.5407317877 0.5666270256 0.5666270256
	0.5418760777 0.5678040981 0.5678040981
	0.5430176854 0.5689768791 0.5689768791
	0.5441573858 0.5701463819 0.5701463819
	0.5452948809 0.5713114142 0.5713114142
	0.5464299917 0.5724735260 0.5724735260
	0.5475621819 0.5736311078 0.5736311078
	0.5486928225 0.5747861266 0.5747861266
	0.5498210192 0.5759364963 0.5759364963
	0.5509474277 0.5770848989 0.5770848989
	0.5520703197 0.5782284141 0.5782284141
	0.5531921983 0.5793704987 0.5793704987
	0.5543109775 0.5805072188 0.5805072188
	0.5554292202 0.5816432238 0.5816432238
	0.5565428138 0.5827717781 0.5827717781
	0.5576562881 0.5839003921 0.5839003921
	0.5587658882 0.5850207806 0.5850207806
	0.5598756075 0.5861409903 0.5861409903
	0.5609806180 0.5872548819 0.5872548819
	0.5620849729 0.5883675814 0.5883675814
	0.5631865859 0.5894749165 0.5894749165
	0.5642871261 0.5905798078 0.5905798078
	0.5653848052 0.5916802287 0.5916802287
	0.5664801002 0.5927764773 0.5927764773
	0.5675740242 0.5938696861 0.5938696861
	0.5686653852 0.5949565172 0.5949565172
	0.5697557926 0.5960423946 0.5960423946
	0.5708405972 0.5971215963 0.5971215963
	0.5719254017 0.5982007980 0.5982007980
	0.5730047226 0.5992723107 0.5992723107
	0.5740836263 0.6003429890 0.6003429890
	0.5751580000 0.6014091969 0.6014091969
	0.5762305260 0.6024730802 0.6024730802
	0.5773004889 0.6035333276 0.6035333276
	0.5783671737 0.6045879722 0.6045879722
	0.5794330835 0.6056417823 0.6056417823
	0.5804936290 0.6066883802 0.6066883802
	0.5815541148 0.6077349782 0.6077349782
	0.5826098919 0.6087749004 0.6087749004
	0.5836648941 0.6098132730 0.6098132730
	0.5847159028 0.6108481884 0.6108481884
	0.5857632160 0.6118795872 0.6118795872
	0.5868092775 0.6129097939 0.6129097939
	0.5878490806 0.6139339209 0.6139339209
	0.5888888836 0.6149579883 0.6149579883
	0.5899229050 0.6159774065 0.6159774065
	0.5909554958 0.6169953942 0.6169953942
	0.5919851065 0.6180102229 0.6180102229
	0.5930107236 0.6190204024 0.6190204024
	0.5940359831 0.6200305223 0.6200305223
	0.5950549245 0.6210334897 0.6210334897
	0.5960736871 0.6220365167 0.6220365167
	0.5970885158 0.6230354905 0.6230354905
	0.5981007814 0.6240319014 0.6240319014
	0.5991119742 0.6250271201 0.6250271201
	0.6001179814 0.6260160208 0.6260160208
	0.6011241078 0.6270048022 0.6270048022
	0.6021257043 0.6279885173 0.6279885173
	0.6031255722 0.6289699078 0.6289699078
	0.6041241288 0.6299499273 0.6299499273
	0.6051182151 0.6309251785 0.6309251785
	0.6061123013 0.6319004297 0.6319004297
	0.6071022153 0.6328712106 0.6328712106
	0.6080906987 0.6338403821 0.6338403821
	0.6090779901 0.6348081827 0.6348081827
	0.6100609899 0.6357709169 0.6357709169
	0.6110439897 0.6367335916 0.6367335916
	0.6120234728 0.6376916766 0.6376916766
	0.6130014062 0.6386474967 0.6386474967
	0.6139786243 0.6396028996 0.6396028996
	0.6149513721 0.6405537724 0.6405537724
	0.6159241796 0.6415047050 0.6415047050
	0.6168935895 0.6424521804 0.6424521804
	0.6178600788 0.6433963180 0.6433963180
	0.6188266873 0.6443403959 0.6443403959
	0.6197869778 0.6452776790 0.6452776790
	0.6207470298 0.6462143064 0.6462143064
	0.6217051744 0.6471490860 0.6471490860
	0.6226593852 0.6480789185 0.6480789185
	0.6236134768 0.6490086913 0.6490086913
	0.6245638132 0.6499348283 0.6499348283
	0.6255118847 0.6508585811 0.6508585811
	0.6264600754 0.6517825127 0.6517825127
	0.6274017096 0.6527013183 0.6527013183
	0.6283431053 0.6536198854 0.6536198854
	0.6292824149 0.6545372009 0.6545372009
	0.6302164793 0.6554512978 0.6554512978
	0.6311504841 0.6563653946 0.6563653946
	0.6320812106 0.6572765708 0.6572765708
	0.6330093145 0.6581853032 0.6581853032
	0.6339374781 0.6590940952 0.6590940952
	0.6348599792 0.6599957943 0.6599957943
	0.6357815266 0.6608958244 0.6608958244
	0.6367025971 0.6617954969 0.6617954969
	0.6376188993 0.6626883149 0.6626883149
	0.6385352015 0.6635810733 0.6635810733
	0.6394497752 0.6644719243 0.6644719243
	0.6403601766 0.6653575897 0.6653575897
	0.6412705779 0.6662433147 0.6662433147
	0.6421788931 0.6671264172 0.6671264172
	0.6430848837 0.6680064797 0.6680064797
	0.6439908147 0.6688866019 0.6688866019
	0.6448925138 0.6697621942 0.6697621942
	0.6457918882 0.6706354022 0.6706354022
	0.6466913819 0.6715084910 0.6715084910
	0.6475862861 0.6723757982 0.6723757982
	0.6484801769 0.6732414961 0.6732414961
	0.6493741274 0.6741071939 0.6741071939
	0.6502627134 0.6749665737 0.6749665737
	0.6511508822 0.6758252978 0.6758252978
	0.6520388722 0.6766840219 0.6766840219
	0.6529223919 0.6775373220 0.6775373220
	0.6538059115 0.6783906221 0.6783906221
	0.6546888947 0.6792433858 0.6792433858
	0.6555675864 0.6800916791 0.6800916791
	0.6564462185 0.6809399128 0.6809399128
	0.6573243141 0.6817873716 0.6817873716
	0.6581990719 0.6826301217 0.6826301217
	0.6590738893 0.6834728122 0.6834728122
	0.6599478126 0.6843147278 0.6843147278
	0.6608172059 0.6851527095 0.6851527095
	0.6616867185 0.6859906912 0.6859906912
	0.6625552177 0.6868278980 0.6868278980
	0.6634197831 0.6876606941 0.6876606941
	0.6642844081 0.6884933710 0.6884933710
	0.6651483178 0.6893252730 0.6893252730
	0.6660085917 0.6901518106 0.6901518106
	0.6668688059 0.6909784079 0.6909784079
	0.6677287221 0.6918041706 0.6918041706
	0.6685851216 0.6926234961 0.6926234961
	0.6694415808 0.6934428215 0.6934428215
	0.6702979207 0.6942619085 0.6942619085
	0.6711509824 0.6950753927 0.6950753927
	0.6720041037 0.6958888769 0.6958888769
	0.6728572845 0.6967023015 0.6967023015
	0.6737046838 0.6975108981 0.6975108981
	0.6745517850 0.6983190179 0.6983190179
	0.6753988862 0.6991270781 0.6991270781
	0.6762413979 0.6999309063 0.6999309063
	0.6770828962 0.7007337213 0.7007337213
	0.6779245138 0.7015364766 0.7015364766
	0.6787626743 0.7023348808 0.7023348808
	0.6795991063 0.7031309009 0.7031309009
	0.6804355979 0.7039269209 0.7039269209
	0.6812698841 0.7047196031 0.7047196031
	0.6821017861 0.7055087090 0.7055087090
	0.6829338074 0.7062976956 0.7062976956
	0.6837641001 0.7070850730 0.7070850730
	0.6845905781 0.7078680992 0.7078680992
	0.6854171157 0.7086511850 0.7086511850
	0.6862432957 0.7094339728 0.7094339728
	0.6870644093 0.7102119923 0.7102119923
	0.6878855824 0.7109900117 0.7109900117
	0.6887066960 0.7117680907 0.7117680907
	0.6895229220 0.7125418782 0.7125418782
	0.6903378963 0.7133144736 0.7133144736
	0.6911528707 0.7140871286 0.7140871286
	0.6919643283 0.7148566246 0.7148566246
	0.6927723289 0.7156230807 0.7156230807
	0.6935803890 0.7163894773 0.7163894773
	0.6943870187 0.7171549797 0.7171549797
	0.6951882243 0.7179164886 0.7179164886
	0.6959893703 0.7186779976 0.7186779976
	0.6967905760 0.7194393873 0.7194393873
	0.6975867748 0.7201958895 0.7201958895
	0.6983821988 0.7209516168 0.7209516168
	0.6991776228 0.7217072248 0.7217072248
	0.6999700069 0.7224600911 0.7224600911
	0.7007597089 0.7232102752 0.7232102752
	0.7015494108 0.7239603996 0.7239603996
	0.7023385167 0.7247099280 0.7247099280
	0.7031233907 0.7254531980 0.7254531980
	0.7039083838 0.7261965275 0.7261965275
	0.7046933770 0.7269399166 0.7269399166
	0.7054750919 0.7276784778 0.7276784778
	0.7062553763 0.7284148932 0.7284148932
	0.7070357203 0.7291513085 0.7291513085
	0.7078148127 0.7298862934 0.7298862934
	0.7085903287 0.7306169271 0.7306169271
	0.7093657255 0.7313475013 0.7313475013
	0.7101411223 0.7320780158 0.7320780158
	0.7109115124 0.7328050733 0.7328050733
	0.7116804719 0.7335309982 0.7335309982
	0.7124493718 0.7342568040 0.7342568040
	0.7132170200 0.7349814773 0.7349814773
	0.7139806747 0.7357025146 0.7357025146
	0.7147443891 0.7364236116 0.7364236116
	0.7155081034 0.7371445894 0.7371445894
	0.7162681222 0.7378603816 0.7378603816
	0.7170267105 0.7385740280 0.7385740280
	0.7177852988 0.7392876148 0.7392876148
	0.7185432911 0.7400004268 0.7400004268
	0.7192980051 0.7407081723 0.7407081723
	0.7200527191 0.7414160967 0.7414160967
	0.7208074927 0.7421239018 0.7421239018
	0.7215601206 0.7428290248 0.7428290248
	0.7223110795 0.7435317039 0.7435317039
	0.7230620980 0.7442343831 0.7442343831
	0.7238131166 0.7449371815 0.7449371815
	0.7245600820 0.7456340194 0.7456340194
	0.7253068089 0.7463302016 0.7463302016
	0.7260534763 0.7470265031 0.7470265031
	0.7267987728 0.7477208972 0.7477208972
	0.7275406122 0.7484099865 0.7484099865
	0.7282822728 0.7490991950 0.7490991950
	0.7290241122 0.7497884035 0.7497884035
	0.7297623158 0.7504742146 0.7504742146
	0.7304981947 0.7511575818 0.7511575818
	0.7312340140 0.7518410087 0.7518410087
	0.7319697738 0.7525243759 0.7525243759
	0.7327011228 0.7532038093 0.7532038093
	0.7334318161 0.7538825870 0.7538825870
	0.7341625094 0.7545614839 0.7545614839
	0.7348924279 0.7552397847 0.7552397847
	0.7356168032 0.7559139729 0.7559139729
	0.7363412976 0.7565882802 0.7565882802
	0.7370656729 0.7572625279 0.7572625279
	0.7377883792 0.7579351068 0.7579351068
	0.7385078073 0.7586042881 0.7586042881
	0.7392271757 0.7592735291 0.7592735291
	0.7399466038 0.7599428296 0.7599428296
	0.7406626940 0.7606090903 0.7606090903
	0.7413759828 0.7612727880 0.7612727880
	0.7420892715 0.7619364262 0.7619364262
	0.7428025007 0.7626001239 0.7626001239
	0.7435113192 0.7632591724 0.7632591724
	0.7442179918 0.7639161944 0.7639161944
	0.7449247241 0.7645732164 0.7645732164
	0.7456315160 0.7652301788 0.7652301788
	0.7463331223 0.7658814788 0.7658814788
	0.7470337152 0.7665314078 0.7665314078
	0.7477343082 0.7671812773 0.7671812773
	0.7484349012 0.7678310871 0.7678310871
	0.7491310239 0.7684757710 0.7684757710
	0.7498267293 0.7691197991 0.7691197991
	0.7505223751 0.7697638273 0.7697638273
	0.7512180805 0.7704077959 0.7704077959
	0.7519093156 0.7710475922 0.7710475922
	0.7526003718 0.7716872096 0.7716872096
	0.7532914877 0.7723268270 0.7723268270
	0.7539826035 0.7729663849 0.7729663849
	0.7546687722 0.7736009955 0.7736009955
	0.7553548813 0.7742356062 0.7742356062
	0.7560411096 0.7748702168 0.7748702168
	0.7567272782 0.7755048275 0.7755048275
	0.7574092150 0.7761334777 0.7761334777
	0.7580910921 0.7767620087 0.7767620087
	0.7587730885 0.7773905993 0.7773905993
	0.7594550252 0.7780190706 0.7780190706
	0.7601323724 0.7786415219 0.7786415219
	0.7608097196 0.7792634964 0.7792634964
	0.7614868879 0.7798855901 0.7798855901
	0.7621641159 0.7805076241 0.7805076241
	0.7628363967 0.7811251283 0.7811251283
	0.7635082006 0.7817419171 0.7817419171
	0.7641798854 0.7823588252 0.7823588252
	0.7648516297 0.7829756141 0.7829756141
	0.7655196786 0.7835885286 0.7835885286
	0.7661867738 0.7842003107 0.7842003107
	0.7668539286 0.7848120928 0.7848120928
	0.7675210238 0.7854238749 0.7854238749
	0.7681856155 0.7860323191 0.7860323191
	0.7688488960 0.7866386771 0.7866386771
	0.7695121765 0.7872452140 0.7872452140
	0.7701753974 0.7878515720 0.7878515720
	0.7708364725 0.7884562016 0.7884562016
	0.7714951038 0.7890586853 0.7890586853
	0.7721537948 0.7896612287 0.7896612287
	0.7728124261 0.7902637124 0.7902637124
	0.7734698057 0.7908648252 0.7908648252
	0.7741237879 0.7914618850 0.7914618850
	0.7747778296 0.7920590043 0.7920590043
	0.7754318118 0.7926561832 0.7926561832
	0.7760856748 0.7932531834 0.7932531834
	0.7767338753 0.7938435078 0.7938435078
	0.7773820758 0.7944338918 0.7944338918
	0.7780303955 0.7950242162 0.7950242162
	0.7786785960 0.7956146002 0.7956146002
	0.7793235779 0.7962008715 0.7962008715
	0.7799674273 0.7967858911 0.7967858911
	0.7806112766 0.7973707914 0.7973707914
	0.7812551260 0.7979558110 0.7979558110
	0.7818971872 0.7985386252 0.7985386252
	0.7825371027 0.7991185188 0.7991185188
	0.7831770182 0.7996984124 0.7996984124
	0.7838168740 0.8002783060 0.8002783060
	0.7844563127 0.8008577824 0.8008577824
	0.7850909233 0.8014323711 0.8014323711
	0.7857254744 0.8020070791 0.8020070791
	0.7863600850 0.8025817871 0.8025817871
	0.7869946957 0.8031563759 0.8031563759
	0.7876250744 0.8037273288 0.8037273288
	0.7882537842 0.8042966127 0.8042966127
	0.7888823748 0.8048657775 0.8048657775
	0.7895110250 0.8054350019 0.8054350019
	0.7901381850 0.8060027957 0.8060027957
	0.7907618284 0.8065670133 0.8065670133
	0.7913854122 0.8071311116 0.8071311116
	0.7920088768 0.8076952100 0.8076952100
	0.7926325202 0.8082594275 0.8082594275
	0.7932527065 0.8088204861 0.8088204861
	0.7938721776 0.8093808889 0.8093808889
	0.7944917083 0.8099412918 0.8099412918
	0.7951111794 0.8105016947 0.8105016947
	0.7957289815 0.8110610247 0.8110610247
	0.7963436842 0.8116179109 0.8116179109
	0.7969583869 0.8121749163 0.8121749163
	0.7975730896 0.8127318025 0.8127318025
	0.7981876731 0.8132886887 0.8132886887
	0.7987986803 0.8138427734 0.8138427734
	0.7994089127 0.8143960834 0.8143960834
	0.8000190258 0.8149495125 0.8149495125
	0.8006290793 0.8155028224 0.8155028224
	0.8012378812 0.8160552979 0.8160552979
	0.8018423915 0.8166047931 0.8166047931
	0.8024469018 0.8171542883 0.8171542883
	0.8030514717 0.8177037835 0.8177037835
	0.8036559820 0.8182532787 0.8182532787
	0.8042569160 0.8187999725 0.8187999725
	0.8048557043 0.8193448782 0.8193448782
	0.8054544926 0.8198897839 0.8198897839
	0.8060532808 0.8204346895 0.8204346895
	0.8066521287 0.8209795952 0.8209795952
	0.8072462082 0.8215199113 0.8215199113
	0.8078402877 0.8220599890 0.8220599890
	0.8084343076 0.8226001859 0.8226001859
	0.8090283275 0.8231403232 0.8231403232
	0.8096209168 0.8236796260 0.8236796260
	0.8102098703 0.8242164254 0.8242164254
	0.8107990026 0.8247532248 0.8247532248
	0.8113880157 0.8252900839 0.8252900839
	0.8119770885 0.8258268833 0.8258268833
	0.8125630021 0.8263612986 0.8263612986
	0.8131465912 0.8268936872 0.8268936872
	0.8137301803 0.8274261951 0.8274261951
	0.8143138885 0.8279585838 0.8279585838
	0.8148974776 0.8284909725 0.8284909725
	0.8154776096 0.8290188909 0.8290188909
	0.8160567880 0.8295456767 0.8295456767
	0.8166360855 0.8300724030 0.8300724030
	0.8172153234 0.8305991888 0.8305991888
	0.8177946210 0.8311259151 0.8311259151
