release/datafiles/colormanagement/luts/film_response/agfa_agfacolor_optima_ii_100.spi1d
Version 1
From 0.0 1.0
Length 1024
Components 3
{
	0.0000000000 0.0000000000 0.0000000000
	0.0076661762 0.0083268499 0.0068440801
	0.0158262700 0.0170417801 0.0131509099
	0.0232411809 0.0250322502 0.0190004501
	0.0300489496 0.0323281400 0.0244449992
	0.0363852791 0.0390635394 0.0295583308
	0.0423460715 0.0453425013 0.0343772098
	0.0479932986 0.0512349084 0.0389431007
	0.0533834286 0.0567868613 0.0432897806
	0.0585362613 0.0620452613 0.0474547893
	0.0634827465 0.0670664310 0.0514379889
	0.0682476535 0.0719086230 0.0552622713
	0.0728643686 0.0766109228 0.0590022616
	0.0773498490 0.0812185779 0.0626629591
	0.0817248896 0.0857366771 0.0662265718
	0.0860022604 0.0901816636 0.0696830973
	0.0901876912 0.0945459083 0.0730567127
	0.0942838192 0.0988429263 0.0763788819
	0.0983011201 0.1030735970 0.0796598792
	0.1022287980 0.1072389036 0.0828902796
	0.1060905010 0.1113395020 0.0860634297
	0.1098807007 0.1153889000 0.0891731530
	0.1136023998 0.1193716973 0.0922177732
	0.1172552034 0.1232964024 0.0952064171
	0.1208416000 0.1271591038 0.0981551483
	0.1243667975 0.1309625953 0.1010731980
	0.1278326958 0.1347209960 0.1039592028
	0.1312370002 0.1384246945 0.1068119034
	0.1345919073 0.1420657933 0.1096345037
	0.1378999949 0.1456594020 0.1124313995
	0.1411581933 0.1492089927 0.1151997000
	0.1443776041 0.1527009010 0.1179367006
	0.1475483030 0.1561467052 0.1206402034
	0.1506752074 0.1595402956 0.1233116984
	0.1537552029 0.1628801972 0.1259557009
	0.1567965001 0.1661709994 0.1285720021
	0.1598031074 0.1694162935 0.1311601996
	0.1627652049 0.1726270020 0.1337202936
	0.1656907946 0.1757915020 0.1362521052
	0.1685829014 0.1789050996 0.1387566030
	0.1714359969 0.1819735020 0.1412398964
	0.1742600948 0.1850046962 0.1437025964
	0.1770537049 0.1879996955 0.1461455971
	0.1798166037 0.1909551024 0.1485693008
	0.1825578958 0.1938706934 0.1509743035
	0.1852674037 0.1967559010 0.1533614993
	0.1879525036 0.1996030957 0.1557313949
	0.1906042993 0.2024182975 0.1580837965
	0.1932311952 0.2052014023 0.1604201049
	0.1958318949 0.2079581022 0.1627393067
	0.1984055936 0.2106810957 0.1650432050
	0.2009532005 0.2133824974 0.1673322022
	0.2034747005 0.2160581946 0.1696034074
	0.2059706002 0.2187004983 0.1718567014
	0.2084430009 0.2213200927 0.1740909964
	0.2108965069 0.2239086032 0.1763089001
	0.2133263052 0.2264758050 0.1785116047
	0.2157393992 0.2290169001 0.1806990951
	0.2181292027 0.2315327972 0.1828715056
	0.2205027044 0.2340238988 0.1850311011
	0.2228585035 0.2364936024 0.1871781945
	0.2251935005 0.2389385998 0.1893118024
	0.2275121957 0.2413554937 0.1914346963
	0.2298126966 0.2437552065 0.1935469061
	0.2320972979 0.2461318970 0.1956477016
	0.2343686968 0.2484831065 0.1977396011
	0.2366248071 0.2508153021 0.1998216063
	0.2388661057 0.2531288862 0.2018945962
	0.2410929054 0.2554250956 0.2039602995
	0.2433024943 0.2577019930 0.2060160935
	0.2454963028 0.2599579096 0.2080630958
	0.2476740032 0.2621991932 0.2100999057
	0.2498372942 0.2644275129 0.2121268064
	0.2519871891 0.2666364014 0.2141437978
	0.2541207969 0.2688263953 0.2161484957
	0.2562352121 0.2710013986 0.2181435972
	0.2583388984 0.2731583118 0.2201271951
	0.2604309916 0.2752990127 0.2221024036
	0.2625060081 0.2774248123 0.2240664065
	0.2645739019 0.2795382142 0.2260230929
	0.2666332126 0.2816390097 0.2279690057
	0.2686808109 0.2837243974 0.2299083024
	0.2707110047 0.2857916951 0.2318374068
	0.2727304995 0.2878476977 0.2337605953
	0.2747409046 0.2898918092 0.2356743068
	0.2767409086 0.2919228971 0.2375825942
	0.2787257135 0.2939389050 0.2394821942
	0.2807008028 0.2959417999 0.2413766980
	0.2826663852 0.2979333103 0.2432633042
	0.2846207917 0.2999132872 0.2451453060
	0.2865644097 0.3018836081 0.2470199019
	0.2884986103 0.3038400114 0.2488902956
	0.2904250026 0.3057815135 0.2507540882
	0.2923448086 0.3077118099 0.2526113987
	0.2942551076 0.3096336126 0.2544620037
	0.2961547077 0.3115448952 0.2563053966
	0.2980456948 0.3134449124 0.2581430972
	0.2999280095 0.3153319061 0.2599739134
	0.3018029034 0.3172087073 0.2617988884
	0.3036679029 0.3190751076 0.2636143863
	0.3055250049 0.3209312856 0.2654233873
	0.3073746860 0.3227779865 0.2672255039
	0.3092148006 0.3246138990 0.2690199912
	0.3110457957 0.3264397979 0.2708095908
	0.3128677905 0.3282575011 0.2725906968
	0.3146800101 0.3300665915 0.2743658125
	0.3164839149 0.3318657875 0.2761324048
	0.3182795942 0.3336552978 0.2778904140
	0.3200652003 0.3354372978 0.2796432972
	0.3218409121 0.3372116983 0.2813872993
	0.3236100078 0.3389771879 0.2831256986
	0.3253748119 0.3407320082 0.2848586142
	0.3271335959 0.3424785137 0.2865825891
	0.3288846016 0.3442190886 0.2883006930
	0.3306263983 0.3459519148 0.2900108993
	0.3323577940 0.3476763070 0.2917132080
	0.3340801001 0.3493919075 0.2934105098
	0.3357945085 0.3511008918 0.2951011062
	0.3375023901 0.3528040051 0.2967849970
	0.3392041922 0.3545002043 0.2984645963
	0.3408981860 0.3561894000 0.3001382947
	0.3425840139 0.3578724861 0.3018057048
	0.3442628086 0.3595485985 0.3034670949
	0.3459351063 0.3612180948 0.3051221967
	0.3476001024 0.3628816009 0.3067719936
	0.3492591083 0.3645390868 0.3084169924
	0.3509126008 0.3661913872 0.3100563884
	0.3525592089 0.3678377867 0.3116889000
	0.3541980982 0.3694776893 0.3133162856
	0.3558301926 0.3711101115 0.3149392903
	0.3574565947 0.3727348149 0.3165563047
	0.3590759039 0.3743531108 0.3181675971
	0.3606899083 0.3759661019 0.3197731972
	0.3622973859 0.3775736094 0.3213737905
	0.3638975024 0.3791748881 0.3229694963
	0.3654907048 0.3807713985 0.3245606124
	0.3670778871 0.3823625147 0.3261463046
	0.3686599135 0.3839488924 0.3277261853
	0.3702372015 0.3855310977 0.3293007910
	0.3718093038 0.3871083856 0.3308694959
	0.3733766973 0.3886804879 0.3324309886
	0.3749383092 0.3902452886 0.3339884877
	0.3764936924 0.3918035924 0.3355414867
	0.3780421019 0.3933547139 0.3370898068
	0.3795835972 0.3948993087 0.3386338055
	0.3811194897 0.3964386880 0.3401749134
	0.3826521933 0.3979738951 0.3417122960
	0.3841798007 0.3995029926 0.3432452977
	0.3857024908 0.4010264874 0.3447737098
	0.3872196972 0.4025439918 0.3462958038
	0.3887315094 0.4040569961 0.3478113115
	0.3902386129 0.4055672884 0.3493227065
	0.3917382061 0.4070734084 0.3508295119
	0.3932329118 0.4085750878 0.3523303866
	0.3947235942 0.4100722969 0.3538272977
	0.3962103128 0.4115647078 0.3553214967
	0.3976925015 0.4130522907 0.3568125963
	0.3991701007 0.4145320952 0.3582983017
	0.4006435871 0.4160074890 0.3597793877
	0.4021126926 0.4174784124 0.3612557054
	0.4035769105 0.4189445972 0.3627254069
	0.4050329924 0.4204039872 0.3641889989
	0.4064843059 0.4218592048 0.3656494021
	0.4079307020 0.4233103096 0.3671061099
	0.4093720019 0.4247572124 0.3685575128
	0.4108068049 0.4261992872 0.3700045943
	0.4122380912 0.4276376069 0.3714494109
	0.4136658907 0.4290730059 0.3728919923
	0.4150888920 0.4305058122 0.3743301034
	0.4165056050 0.4319339991 0.3757638931
	0.4179174900 0.4333589077 0.3771938980
	0.4193247855 0.4347805977 0.3786191940
	0.4207271934 0.4361965060 0.3800374866
	0.4221262932 0.4376091063 0.3814533055
	0.4235219955 0.4390187860 0.3828668892
	0.4249120951 0.4404245913 0.3842754960
	0.4262982905 0.4418255091 0.3856791854
	0.4276815057 0.4432229102 0.3870786130
	0.4290600121 0.4446159899 0.3884716928
	0.4304330051 0.4460026920 0.3898597956
	0.4318026900 0.4473862946 0.3912445009
	0.4331685901 0.4487664998 0.3926242888
	0.4345290065 0.4501408041 0.3940002024
	0.4358857870 0.4515124857 0.3953734040
	0.4372372925 0.4528811872 0.3967424929
	0.4385837018 0.4542450011 0.3981088102
	0.4399270117 0.4556061029 0.3994731903
	0.4412651956 0.4569629133 0.4008344114
	0.4425975978 0.4583143890 0.4021924138
	0.4439268112 0.4596636891 0.4035479128
	0.4452503920 0.4610106945 0.4048978090
	0.4465709925 0.4623551965 0.4062455893
	0.4478893876 0.4636982977 0.4075908959
	0.4492019117 0.4650372863 0.4089311063
	0.4505116045 0.4663740098 0.4102692008
	0.4518170953 0.4677081108 0.4116033912
	0.4531182945 0.4690375030 0.4129329026
	0.4544177055 0.4703648090 0.4142597914
	0.4557136893 0.4716871977 0.4155794978
	0.4570071995 0.4730058014 0.4168972969
	0.4582982063 0.4743215144 0.4182122946
	0.4595845044 0.4756304026 0.4195236862
	0.4608688056 0.4769366980 0.4208334088
	0.4621477127 0.4782372117 0.4221383929
	0.4634240866 0.4795337915 0.4234414995
	0.4646978974 0.4808278084 0.4247420132
	0.4659669995 0.4821158051 0.4260379970
	0.4672344029 0.4834016860 0.4273321033
	0.4684959054 0.4846813977 0.4286206067
	0.4697546959 0.4859575927 0.4299075007
	0.4710089862 0.4872294962 0.4311901927
	0.4722594917 0.4884983897 0.4324694872
	0.4735080004 0.4897660017 0.4337458909
	0.4747509062 0.4910294116 0.4350179136
	0.4759922028 0.4922915101 0.4362885952
	0.4772273898 0.4935492873 0.4375523031
	0.4784607887 0.4948048890 0.4388141930
	0.4796907008 0.4960573018 0.4400705993
	0.4809170961 0.4973073006 0.4413250089
	0.4821406901 0.4985556006 0.4425770938
	0.4833607972 0.4998002946 0.4438262880
	0.4845795929 0.5010439754 0.4450738132
	0.4857935905 0.5022826791 0.4463163912
	0.4870069027 0.5035204291 0.4475578070
	0.4882164896 0.5047531128 0.4487918913
	0.4894252121 0.5059841275 0.4500248134
	0.4906300902 0.5072104931 0.4512509108
	0.4918332100 0.5084347725 0.4524757862
	0.4930329919 0.5096561909 0.4536970854
	0.4942300022 0.5108749270 0.4549165070
	0.4954235852 0.5120911002 0.4561327994
	0.4966148138 0.5133035183 0.4573467076
	0.4978038967 0.5145136714 0.4585579038
	0.4989897013 0.5157194734 0.4597668052
	0.5001736879 0.5169236064 0.4609735906
	0.5013538003 0.5181236863 0.4621770084
	0.5025321245 0.5193228126 0.4633781016
	0.5037057996 0.5205178857 0.4645760059
	0.5048779845 0.5217121840 0.4657720923
	0.5060449243 0.5229014754 0.4669648111
	0.5072103143 0.5240899920 0.4681558907
	0.5083714128 0.5252736807 0.4693433940
	0.5095313787 0.5264567137 0.4705292881
	0.5106868744 0.5276340246 0.4717121124
	0.5118411779 0.5288106203 0.4728935957
	0.5129907131 0.5299817920 0.4740710855
	0.5141386986 0.5311521292 0.4752467871
	0.5152817965 0.5323163867 0.4764178097
	0.5164232850 0.5334795713 0.4775865078
	0.5175597072 0.5346372724 0.4787499011
	0.5186939240 0.5357934833 0.4799101949
	0.5198233724 0.5369442105 0.4810669124
	0.5209500790 0.5380924940 0.4822207987
	0.5220733881 0.5392372012 0.4833728075
	0.5231938958 0.5403798223 0.4845224917
	0.5243116021 0.5415189862 0.4856700897
	0.5254257917 0.5426552296 0.4868142903
	0.5265377760 0.5437887907 0.4879572093
	0.5276451111 0.5449187160 0.4890958965
	0.5287510753 0.5460466743 0.4902341068
	0.5298516154 0.5471696258 0.4913682044
	0.5309517980 0.5482918024 0.4925023019
	0.5320447087 0.5494078994 0.4936308861
	0.5331376195 0.5505239964 0.4947592020
	0.5342239141 0.5516330004 0.4958822131
	0.5353093743 0.5527415872 0.4970037043
	0.5363904834 0.5538460016 0.4981215894
	0.5374696255 0.5549491048 0.4992372096
	0.5385463834 0.5560489893 0.5003510118
	0.5396206975 0.5571463108 0.5014619827
	0.5406937003 0.5582417250 0.5025722980
	0.5417628884 0.5593330860 0.5036795735
	0.5428320169 0.5604240894 0.5047869086
	0.5438956022 0.5615094900 0.5058897138
	0.5449593067 0.5625947714 0.5069922209
	0.5460199714 0.5636752248 0.5080906749
	0.5470796227 0.5647544265 0.5091872215
	0.5481380224 0.5658313036 0.5102818012
	0.5491948128 0.5669060946 0.5113732815
	0.5502511859 0.5679798722 0.5124642849
	0.5513052940 0.5690498948 0.5135501027
	0.5523592830 0.5701199174 0.5146359205
	0.5534104109 0.5711855888 0.5157186985
	0.5544610023 0.5722507834 0.5168005228
	0.5555099249 0.5733129978 0.5178806782
	0.5565569997 0.5743728876 0.5189586282
	0.5576034784 0.5754317045 0.5200362802
	0.5586465001 0.5764862895 0.5211094022
	0.5596894026 0.5775408745 0.5221825242
	0.5607293248 0.5785906911 0.5232514739
	0.5617681146 0.5796394944 0.5243185163
	0.5628052950 0.5806865096 0.5253840089
	0.5638393164 0.5817313194 0.5264452100
	0.5648733974 0.5827760100 0.5275064707
	0.5659030080 0.5838158727 0.5285636187
	0.5669323206 0.5848557949 0.5296201110
	0.5679587722 0.5858927965 0.5306740999
	0.5689827204 0.5869277716 0.5317248702
	0.5700063109 0.5879620910 0.5327755809
	0.5710247755 0.5889919996 0.5338218212
	0.5720431805 0.5900217891 0.5348678231
	0.5730581880 0.5910484195 0.5359107256
	0.5740705729 0.5920730829 0.5369504094
	0.5750827193 0.5930969715 0.5379900932
	0.5760906935 0.5941162705 0.5390231013
	0.5770987868 0.5951356888 0.5400561094
	0.5781041980 0.5961515903 0.5410866141
	0.5791074038 0.5971654058 0.5421143770
	0.5801107287 0.5981786847 0.5431421995
	0.5811091065 0.5991874933 0.5441660285
	0.5821076035 0.6001963019 0.5451896191
	0.5831037164 0.6012020707 0.5462111831
	0.5840969086 0.6022052765 0.5472295880
	0.5850901008 0.6032084823 0.5482478738
	0.5860803127 0.6042070985 0.5492616296
	0.5870699286 0.6052052975 0.5502738953
	0.5880584717 0.6062015891 0.5512850285
	0.5890443921 0.6071943045 0.5522903204
	0.5900301933 0.6081869006 0.5532956719
	0.5910136104 0.6091759801 0.5542973876
	0.5919954777 0.6101636887 0.5552961826
	0.5929774046 0.6111510992 0.5562950969
	0.5939552784 0.6121332049 0.5572906733
	0.5949330926 0.6131153107 0.5582858920
	0.5959095955 0.6140955091 0.5592799187
	0.5968831778 0.6150727272 0.5602700710
	0.5978568196 0.6160498857 0.5612602830
	0.5988277197 0.6170232296 0.5622476935
	0.5997968912 0.6179949045 0.5632326007
	0.6007661223 0.6189665794 0.5642176270
	0.6017311215 0.6199334264 0.5651969910
	0.6026958227 0.6209002137 0.5661752820
	0.6036596894 0.6218655705 0.5671530962
	0.6046196222 0.6228268743 0.5681259036
	0.6055796146 0.6237881780 0.5690985918
	0.6065375805 0.6247472167 0.5700702071
	0.6074926853 0.6257035732 0.5710396171
	0.6084479094 0.6266599894 0.5720090270
	0.6093999147 0.6276127100 0.5729761720
	0.6103500724 0.6285637021 0.5739415884
	0.6113001704 0.6295146942 0.5749070048
	0.6122449040 0.6304615140 0.5758687854
	0.6131883860 0.6314076781 0.5768293738
	0.6141319871 0.6323534846 0.5777900219
	0.6150689125 0.6332944036 0.5787457228
	0.6160058975 0.6342352033 0.5797008276
	0.6169418097 0.6351751089 0.5806555748
	0.6178718805 0.6361111999 0.5816044807
	0.6188020110 0.6370472908 0.5825533867
	0.6197304130 0.6379815936 0.5835011005
	0.6206536889 0.6389123797 0.5844430923
	0.6215770841 0.6398432255 0.5853852034
	0.6224973202 0.6407719851 0.5863258839
	0.6234118938 0.6416980028 0.5872634053
	0.6243265271 0.6426240802 0.5882009268
	0.6252374053 0.6435475945 0.5891368985
	0.6261436939 0.6444684267 0.5900704265
	0.6270499825 0.6453893185 0.5910037756
	0.6279519796 0.6463075876 0.5919355154
	0.6288496852 0.6472237706 0.5928648710
	0.6297472715 0.6481400132 0.5937942266
	0.6306408048 0.6490532160 0.5947210789
	0.6315302253 0.6499642134 0.5956451297
	0.6324197054 0.6508752108 0.5965691209
	0.6333047748 0.6517835855 0.5974907279
	0.6341857910 0.6526899934 0.5984091759
	0.6350668073 0.6535964012 0.5993278027
	0.6359438896 0.6545000076 0.6002436280
	0.6368169188 0.6554012895 0.6011555791
	0.6376898289 0.6563025713 0.6020675898
	0.6385591030 0.6572015882 0.6029770970
	0.6394237876 0.6580982804 0.6038823724
	0.6402884722 0.6589950919 0.6047877073
	0.6411507130 0.6598895788 0.6056910157
	0.6420087814 0.6607813239 0.6065897942
	0.6428670287 0.6616728902 0.6074885130
	0.6437233090 0.6625624895 0.6083862782
	0.6445748210 0.6634479761 0.6092801094
	0.6454262733 0.6643334031 0.6101740003
	0.6462768912 0.6652175188 0.6110675931
	0.6471220255 0.6660966277 0.6119573116
	0.6479671001 0.6669756770 0.6128469110
	0.6488121748 0.6678544283 0.6137366295
	0.6496508718 0.6687275171 0.6146218181
	0.6504895091 0.6696006060 0.6155067086
	0.6513282061 0.6704736948 0.6163915992
	0.6521630287 0.6713413000 0.6172724962
	0.6529970765 0.6722081900 0.6181520224
	0.6538311243 0.6730750799 0.6190316081
	0.6546623707 0.6739377975 0.6199085712
	0.6554920077 0.6747987270 0.6207835078
	0.6563215852 0.6756594777 0.6216583848
	0.6571496129 0.6765179038 0.6225318909
	0.6579748988 0.6773731709 0.6234022975
	0.6588003039 0.6782284975 0.6242725849
	0.6596251130 0.6790826917 0.6251426935
	0.6604462862 0.6799324751 0.6260074973
	0.6612675786 0.6807821989 0.6268723011
	0.6620888114 0.6816319823 0.6277372241
	0.6629067063 0.6824771762 0.6286000013
	0.6637240052 0.6833220124 0.6294621825
	0.6645414233 0.6841667295 0.6303244233
	0.6653565764 0.6850084066 0.6311848760
	0.6661701798 0.6858481765 0.6320434213
	0.6669837236 0.6866878867 0.6329019070
	0.6677964926 0.6875264049 0.6337599754
	0.6686064005 0.6883615851 0.6346150041
	0.6694163084 0.6891968250 0.6354699135
	0.6702262163 0.6900320053 0.6363248825
	0.6710332036 0.6908645034 0.6371762753
	0.6718395948 0.6916965842 0.6380265951
	0.6726461053 0.6925287247 0.6388769746
	0.6734504104 0.6933588982 0.6397256255
	0.6742519736 0.6941872239 0.6405714750
	0.6750535965 0.6950153708 0.6414173245
	0.6758551002 0.6958433986 0.6422631145
	0.6766521931 0.6966664791 0.6431037188
	0.6774494052 0.6974896193 0.6439439058
	0.6782464981 0.6983126998 0.6447842121
	0.6790412068 0.6991328001 0.6456223726
	0.6798340082 0.6999511123 0.6464583874
	0.6806266904 0.7007693052 0.6472944021
	0.6814191937 0.7015869021 0.6481302977
	0.6822078824 0.7024006248 0.6489617229
	0.6829966903 0.7032142878 0.6497930884
	0.6837854981 0.7040280104 0.6506243944
	0.6845712066 0.7048389912 0.6514533162
	0.6853544712 0.7056484222 0.6522796154
	0.6861379147 0.7064577937 0.6531059742
	0.6869211197 0.7072668076 0.6539323926
	0.6876996756 0.7080708742 0.6547545791
	0.6884782910 0.7088748813 0.6555765867
	0.6892567873 0.7096790075 0.6563987136
	0.6900330782 0.7104793787 0.6572191119
	0.6908069253 0.7112764716 0.6580371261
	0.6915807128 0.7120736241 0.6588550806
	0.6923545003 0.7128707170 0.6596730947
	0.6931245923 0.7136620879 0.6604871154
	0.6938942075 0.7144529819 0.6613001823
	0.6946637034 0.7152439952 0.6621131897
	0.6954323053 0.7160329819 0.6629254222
	0.6961976886 0.7168176174 0.6637337804
	0.6969630122 0.7176023126 0.6645420790
	0.6977283955 0.7183870077 0.6653504968
	0.6984916925 0.7191671133 0.6661558747
	0.6992534995 0.7199447751 0.6669585705
	0.7000153065 0.7207224965 0.6677613854
	0.7007771134 0.7215002179 0.6685642004
	0.7015355825 0.7222713232 0.6693624258
	0.7022938132 0.7230420709 0.6701598167
	0.7030519843 0.7238129973 0.6709572077
	0.7038096786 0.7245823145 0.6717540026
	0.7045649290 0.7253469229 0.6725463867
	0.7053201199 0.7261115909 0.6733387113
	0.7060751915 0.7268761992 0.6741309762
	0.7068290710 0.7276378274 0.6749218106
	0.7075812817 0.7283964157 0.6757097840
	0.7083334923 0.7291548848 0.6764978766
	0.7090857029 0.7299134731 0.6772860289
	0.7098354101 0.7306681275 0.6780707836
	0.7105838060 0.7314211130 0.6788532734
	0.7113320827 0.7321742177 0.6796358824
	0.7120804787 0.7329273224 0.6804183722
	0.7128257751 0.7336754799 0.6811972857
	0.7135705948 0.7344232798 0.6819751263
	0.7143152952 0.7351710200 0.6827530265
	0.7150601149 0.7359182835 0.6835308075
	0.7158017159 0.7366598248 0.6843031049
	0.7165433168 0.7374011874 0.6850749850
	0.7172849178 0.7381426096 0.6858468056
	0.7180262208 0.7388827205 0.6866185069
	0.7187647820 0.7396168113 0.6873862147
	0.7195035219 0.7403510213 0.6881539822
	0.7202422023 0.7410851717 0.6889218092
	0.7209799886 0.7418174744 0.6896888018
	0.7217146754 0.7425451279 0.6904516816
	0.7224494219 0.7432727218 0.6912146211
	0.7231841087 0.7440003157 0.6919776201
	0.7239174843 0.7447258234 0.6927394867
	0.7246472836 0.7454472184 0.6934980154
	0.7253772020 0.7461684942 0.6942564845
	0.7261071205 0.7468898892 0.6950148940
	0.7268354893 0.7476091981 0.6957721114
	0.7275608182 0.7483249903 0.6965253949
	0.7282860279 0.7490409017 0.6972786784
	0.7290111780 0.7497566938 0.6980319023
	0.7297351956 0.7504705787 0.6987839937
	0.7304564118 0.7511811852 0.6995325089
	0.7311775088 0.7518917918 0.7002809048
	0.7318987250 0.7526022792 0.7010293007
	0.7326188087 0.7533113956 0.7017766237
	0.7333359718 0.7540174723 0.7025194764
	0.7340533137 0.7547234893 0.7032623887
	0.7347705960 0.7554296255 0.7040053010
	0.7354866862 0.7561342120 0.7047476172
	0.7361978889 0.7568343878 0.7054864168
	0.7369092107 0.7575346828 0.7062252164
	0.7376204133 0.7582349181 0.7069640160
	0.7383310795 0.7589343190 0.7077025771
	0.7390366197 0.7596284151 0.7084372044
	0.7397419810 0.7603225112 0.7091717720
	0.7404474020 0.7610166073 0.7099062800
	0.7411528230 0.7617105842 0.7106409073
	0.7418531179 0.7623990178 0.7113716006
	0.7425531745 0.7630872726 0.7121018767
	0.7432532907 0.7637757063 0.7128322124
	0.7439532876 0.7644640207 0.7135624886
	0.7446492910 0.7651482821 0.7142896056
	0.7453442216 0.7658317089 0.7150154114
	0.7460390925 0.7665150762 0.7157412767
	0.7467340231 0.7671986222 0.7164672017
	0.7474262714 0.7678791881 0.7171908021
	0.7481164932 0.7685580850 0.7179121971
	0.7488067150 0.7692371011 0.7186335921
	0.7494968772 0.7699159980 0.7193549871
	0.7501856089 0.7705929279 0.7200750709
	0.7508713007 0.7712666988 0.7207918763
	0.7515569925 0.7719404101 0.7215088010
	0.7522428036 0.7726141810 0.7222256064
	0.7529281974 0.7732872963 0.7229424119
	0.7536085248 0.7739552259 0.7236546278
	0.7542889118 0.7746230960 0.7243667245
	0.7549691796 0.7752910256 0.7250788808
	0.7556495070 0.7759588957 0.7257910967
	0.7563261986 0.7766230106 0.7264999747
	0.7570015788 0.7772859931 0.7272074223
	0.7576768994 0.7779489756 0.7279146910
	0.7583522797 0.7786120772 0.7286220789
	0.7590258718 0.7792726755 0.7293279171
	0.7596967220 0.7799301147 0.7300304770
	0.7603675127 0.7805876136 0.7307329774
	0.7610384226 0.7812449932 0.7314354777
	0.7617092133 0.7819021940 0.7321380973
	0.7623745203 0.7825548053 0.7328367829
	0.7630398870 0.7832074165 0.7335352898
	0.7637053132 0.7838600278 0.7342339158
	0.7643706203 0.7845125198 0.7349324226
	0.7650331855 0.7851625085 0.7356290221
	0.7656937242 0.7858108282 0.7363240123
	0.7663542032 0.7864592075 0.7370188832
	0.7670148015 0.7871075869 0.7377138734
	0.7676746845 0.7877553105 0.7384086251
	0.7683306932 0.7884001732 0.7390993834
	0.7689867020 0.7890449762 0.7397902012
	0.7696425915 0.7896898985 0.7404810786
	0.7702986002 0.7903347015 0.7411718965
	0.7709521055 0.7909758091 0.7418606281
	0.7716041803 0.7916151285 0.7425476909
	0.7722561955 0.7922543287 0.7432348728
	0.7729082108 0.7928935289 0.7439219952
	0.7735598087 0.7935318947 0.7446089983
	0.7742068172 0.7941648960 0.7452918887
	0.7748538256 0.7947977781 0.7459747791
	0.7755008936 0.7954307795 0.7466577291
	0.7761479020 0.7960637808 0.7473406196
	0.7767928243 0.7966936827 0.7480217814
	0.7774356008 0.7973213196 0.7487009168
	0.7780783772 0.7979490161 0.7493799925
	0.7787212729 0.7985765934 0.7500591278
	0.7793641090 0.7992041707 0.7507382035
	0.7800034285 0.7998272181 0.7514144778
	0.7806422710 0.8004500270 0.7520902753
	0.7812811732 0.8010727763 0.7527660728
	0.7819200754 0.8016955256 0.7534418702
	0.7825579047 0.8023167253 0.7541171908
	0.7831923962 0.8029342890 0.7547907233
	0.7838268876 0.8035517931 0.7554641962
	0.7844614983 0.8041694164 0.7561377287
	0.7850959897 0.8047869205 0.7568112016
	0.7857282162 0.8054007888 0.7574830055
	0.7863587141 0.8060125113 0.7581532001
	0.7869892716 0.8066241741 0.7588235140
	0.7876198292 0.8072358966 0.7594937086
	0.7882503867 0.8078476191 0.7601639032
	0.7888780832 0.8084548712 0.7608323097
	0.7895054221 0.8090618253 0.7615002990
	0.7901325822 0.8096686006 0.7621682286
	0.7907598019 0.8102754951 0.7628362179
	0.7913867235 0.8108816743 0.7635040283
	0.7920100093 0.8114830852 0.7641686797
	0.7926331758 0.8120846152 0.7648333907
	0.7932564020 0.8126860857 0.7654981017
	0.7938796282 0.8132876158 0.7661628127
	0.7945017815 0.8138875961 0.7668269873
