release/datafiles/colormanagement/luts/film_response/agfa_agfacolor_vista_400.spi1d
Version 1
From 0.0 1.0
Length 1024
Components 3
{
	0.0000000000 0.0000000000 0.0000000000
	0.0176717807 0.0159793403 0.0112875197
	0.0304853506 0.0281650797 0.0208594296
	0.0410733782 0.0387531407 0.0291500594
	0.0505116396 0.0483908802 0.0366822407
	0.0592069514 0.0573300086 0.0436884314
	0.0673851594 0.0657815933 0.0503007919
	0.0751756504 0.0738594905 0.0565973185
	0.0826697499 0.0815291628 0.0626588985
	0.0899700671 0.0889572278 0.0685112923
	0.0971127078 0.0961195603 0.0741866305
	0.1040614992 0.1030588970 0.0796945021
	0.1108867973 0.1097960994 0.0850348696
	0.1175592989 0.1162500009 0.0902234167
	0.1240769997 0.1224389970 0.0952606276
	0.1304063946 0.1284389049 0.1001622975
	0.1365357041 0.1342712045 0.1049377993
	0.1425068974 0.1399544030 0.1096132994
	0.1483051926 0.1454842985 0.1141887009
	0.1539328992 0.1508464068 0.1186479032
	0.1594130993 0.1560681015 0.1230128035
	0.1647385061 0.1611503065 0.1272864938
	0.1699229032 0.1660998017 0.1315000951
	0.1749854982 0.1709350944 0.1356704980
	0.1799377054 0.1756564975 0.1397946030
	0.1847759038 0.1802780032 0.1438630074
	0.1895146966 0.1848101020 0.1478590965
	0.1941531003 0.1892485023 0.1517767012
	0.1987002045 0.1936012954 0.1556075960
	0.2031593025 0.1978708953 0.1593558043
	0.2075425982 0.2020536959 0.1630499065
	0.2118435949 0.2061593980 0.1667018980
	0.2160740942 0.2101961970 0.1703169942
	0.2202394009 0.2141588926 0.1739034057
	0.2243397981 0.2180612981 0.1774580032
	0.2283758074 0.2218959928 0.1809788048
	0.2323485017 0.2256778032 0.1844571978
	0.2362571955 0.2294041961 0.1878990978
	0.2401061058 0.2330839932 0.1913042963
	0.2438924015 0.2367096990 0.1946662962
	0.2476287931 0.2402735949 0.1979884058
	0.2513082922 0.2437945008 0.2012688965
	0.2549471855 0.2472652048 0.2045135945
	0.2585380971 0.2506807148 0.2077264041
	0.2620711029 0.2540544868 0.2109075934
	0.2655648887 0.2573910058 0.2140623927
	0.2690165043 0.2606757879 0.2171906978
	0.2724193931 0.2639169097 0.2202925980
	0.2757751048 0.2671265006 0.2233645022
	0.2791010141 0.2702954113 0.2264122963
	0.2823888063 0.2734270096 0.2294276059
	0.2856281996 0.2765175104 0.2324116975
	0.2888259888 0.2795749009 0.2353696972
	0.2919923067 0.2826111019 0.2383048981
	0.2951227129 0.2856203914 0.2412146926
	0.2982215881 0.2885940969 0.2441015989
	0.3012860119 0.2915267050 0.2469657958
	0.3043090105 0.2944279015 0.2498013973
	0.3073101938 0.2973093092 0.2526110113
	0.3102934957 0.3001666963 0.2553977966
	0.3132512867 0.3029935062 0.2581652105
	0.3161765933 0.3057951033 0.2609097958
	0.3190675080 0.3085728884 0.2636330128
	0.3219313025 0.3113223910 0.2663359046
	0.3247652054 0.3140394092 0.2690128982
	0.3275650144 0.3167183995 0.2716695964
	0.3303397894 0.3193723857 0.2743076086
	0.3330946863 0.3220146000 0.2769277096
	0.3358342946 0.3246417940 0.2795312107
	0.3385555148 0.3272505105 0.2821188867
	0.3412531912 0.3298355937 0.2846879959
	0.3439249098 0.3323946893 0.2872357965
	0.3465682864 0.3349305987 0.2897650003
	0.3491815031 0.3374486864 0.2922779918
	0.3517724872 0.3399476111 0.2947722971
	0.3543426991 0.3424271047 0.2972482145
	0.3568890095 0.3448829055 0.2997061908
	0.3594169915 0.3473187089 0.3021450043
	0.3619238138 0.3497349918 0.3045690060
	0.3644065857 0.3521293998 0.3069755137
	0.3668681085 0.3545056880 0.3093619943
	0.3693178892 0.3568738103 0.3117316961
	0.3717587888 0.3592340052 0.3140853941
	0.3741885126 0.3615838885 0.3164219856
	0.3766059875 0.3639225960 0.3187406957
	0.3790099025 0.3662486970 0.3210408986
	0.3813976049 0.3685598075 0.3233255148
	0.3837701082 0.3708567023 0.3255949020
	0.3861232102 0.3731352985 0.3278453052
	0.3884578049 0.3753966093 0.3300752938
	0.3907732964 0.3776400983 0.3322862089
	0.3930662870 0.3798610866 0.3344799876
	0.3953461945 0.3820647001 0.3366613984
	0.3976148069 0.3842560053 0.3388288021
	0.3998697102 0.3864341080 0.3409801126
	0.4021120965 0.3886001110 0.3431150019
	0.4043419063 0.3907540143 0.3452382982
	0.4065585136 0.3928948939 0.3473502100
	0.4087597132 0.3950211108 0.3494505882
	0.4109471142 0.3971337974 0.3515371084
	0.4131202102 0.3992326856 0.3536098003
	0.4152786136 0.4013175070 0.3556677103
	0.4174210131 0.4033867121 0.3577109873
	0.4195466042 0.4054397941 0.3597368896
	0.4216561913 0.4074774981 0.3617466092
	0.4237481952 0.4094994962 0.3637399971
	0.4258198142 0.4115054905 0.3657152951
	0.4278750122 0.4134953022 0.3676727116
	0.4299133122 0.4154728055 0.3696179092
	0.4319362044 0.4174365997 0.3715522885
	0.4339421093 0.4193887115 0.3734749854
	0.4359337986 0.4213280082 0.3753845096
	0.4379098117 0.4232569933 0.3772805035
	0.4398722053 0.4251773953 0.3791654110
	0.4418199062 0.4270893037 0.3810392916
	0.4437533915 0.4289928973 0.3829011917
	0.4456734061 0.4308882058 0.3847497106
	0.4475804865 0.4327754080 0.3865840137
	0.4494752884 0.4346545041 0.3884027004
	0.4513584077 0.4365256131 0.3902072906
	0.4532304108 0.4383887947 0.3919999897
	0.4550901055 0.4402442873 0.3937804997
	0.4569362104 0.4420920908 0.3955484033
	0.4587698877 0.4439322948 0.3973042071
	0.4605911970 0.4457649887 0.3990490139
	0.4624013007 0.4475904107 0.4007813931
	0.4641987979 0.4494084120 0.4025042057
	0.4659827948 0.4512192011 0.4042207897
	0.4677540958 0.4530228972 0.4059314132
	0.4695135057 0.4548195899 0.4076353014
	0.4712609053 0.4566093981 0.4093317986
	0.4729954898 0.4583922923 0.4110203981
	0.4747171104 0.4601685107 0.4127005041
	0.4764277041 0.4619381130 0.4143716097
	0.4781259000 0.4637005925 0.4160360992
	0.4798142016 0.4654561877 0.4176951051
	0.4814904928 0.4672054946 0.4193486869
	0.4831553996 0.4689483941 0.4209963977
	0.4848085046 0.4706839025 0.4226379097
	0.4864495993 0.4724108875 0.4242731035
	0.4880791903 0.4741292000 0.4259015024
	0.4896988869 0.4758399129 0.4275228083
	0.4913074970 0.4775409997 0.4291365147
	0.4929072857 0.4792341888 0.4307413101
	0.4944972992 0.4809193015 0.4323380888
	0.4960778058 0.4825971127 0.4339267015
	0.4976491034 0.4842678010 0.4355069101
	0.4992105067 0.4859308898 0.4370785952
	0.5007578135 0.4875870049 0.4386403859
	0.5022947788 0.4892325103 0.4401915073
	0.5038217902 0.4908691049 0.4417355955
	0.5053405166 0.4924972057 0.4432739019
	0.5068516731 0.4941171110 0.4448068142
	0.5083519220 0.4957279861 0.4463337958
	0.5098429918 0.4973297119 0.4478540123
	0.5113254189 0.4989241958 0.4493685067
	0.5127993822 0.5005111098 0.4508773983
	0.5142660141 0.5020899177 0.4523806870
	0.5157235265 0.5036565065 0.4538762867
	0.5171709061 0.5052154064 0.4553655088
	0.5186092257 0.5067667961 0.4568488002
	0.5200390816 0.5083103776 0.4583263099
	0.5214567780 0.5098450780 0.4597958028
	0.5228651762 0.5113719106 0.4612582922
	0.5242664218 0.5128924847 0.4627147019
	0.5256614089 0.5144073963 0.4641650915
	0.5270467997 0.5159106255 0.4656063020
	0.5284280181 0.5174064040 0.4670408070
	0.5298041105 0.5188953876 0.4684692025
	0.5311722159 0.5203765035 0.4698903859
	0.5325285792 0.5218489766 0.4713025093
	0.5338789225 0.5233148932 0.4727083147
	0.5352239013 0.5247743726 0.4741083086
	0.5365588069 0.5262218714 0.4755015075
	0.5378903151 0.5276635885 0.4768893123
	0.5392178297 0.5290997028 0.4782724977
	0.5405359268 0.5305265784 0.4796496034
	0.5418452024 0.5319476128 0.4810225964
	0.5431485176 0.5333635211 0.4823926091
	0.5444443226 0.5347704887 0.4837583005
	0.5457333922 0.5361695886 0.4851197004
	0.5470187068 0.5375636816 0.4864782095
	0.5482994914 0.5389505029 0.4878326058
	0.5495707989 0.5403308272 0.4891827106
	0.5508363843 0.5417066813 0.4905301034
	0.5520933270 0.5430750251 0.4918732047
	0.5533440113 0.5444362164 0.4932124019
	0.5545908809 0.5457931161 0.4945487976
	0.5558316112 0.5471432805 0.4958792031
	0.5570693016 0.5484884977 0.4972046018
	0.5583047271 0.5498301983 0.4985263944
	0.5595293045 0.5511658192 0.4998416901
	0.5607494712 0.5524978042 0.5011532903
	0.5619639754 0.5538250208 0.5024604797
	0.5631700754 0.5551431775 0.5037620068
	0.5643717051 0.5564572215 0.5050604939
	0.5655639768 0.5577635169 0.5063533187
	0.5667486787 0.5590627193 0.5076419711
	0.5679283738 0.5603570938 0.5089282990
	0.5691004992 0.5616438985 0.5102069974
	0.5702697039 0.5629271865 0.5114836097
	0.5714333057 0.5642039180 0.5127562284
	0.5725921988 0.5654767156 0.5140225887
	0.5737485886 0.5667474866 0.5152860284
	0.5748950243 0.5680088997 0.5165405869
	0.5760377049 0.5692681074 0.5177925825
	0.5771713853 0.5705221891 0.5190386772
	0.5783004761 0.5717713237 0.5202798247
	0.5794264078 0.5730165839 0.5215175748
	0.5805451870 0.5742524266 0.5227484703
	0.5816622972 0.5754857063 0.5239772797
	0.5827761292 0.5767114758 0.5251995921
	0.5838869214 0.5779340267 0.5264189839
	0.5849927068 0.5791509748 0.5276340246
	0.5860930085 0.5803642869 0.5288445950
	0.5871897936 0.5815749764 0.5300526023
	0.5882819295 0.5827775002 0.5312535167
	0.5893725753 0.5839778781 0.5324525833
	0.5904521942 0.5851687789 0.5336431861
	0.5915297270 0.5863571763 0.5348318219
	0.5925999880 0.5875378251 0.5360146761
	0.5936675072 0.5887145996 0.5371940136
	0.5947307944 0.5898860097 0.5383685827
	0.5957894921 0.5910528898 0.5395389199
	0.5968446136 0.5922164917 0.5407065153
	0.5978962779 0.5933740139 0.5418683290
	0.5989465714 0.5945292115 0.5430281758
	0.5999879837 0.5956771970 0.5441824794
	0.6010277867 0.5968238711 0.5453361273
	0.6020594835 0.5979635715 0.5464810133
	0.6030905247 0.5991023779 0.5476251245
	0.6041157842 0.6002333760 0.5487617254
	0.6051399112 0.6013631821 0.5498968959
	0.6061576009 0.6024864912 0.5510259271
	0.6071736217 0.6036077142 0.5521529913
	0.6081838012 0.6047217250 0.5532745719
	0.6091915965 0.6058334112 0.5543937087
	0.6101928949 0.6069393754 0.5555071235
	0.6111915708 0.6080427766 0.5566176176
	0.6121845841 0.6091406941 0.5577220917
	0.6131750941 0.6102350950 0.5588241220
	0.6141607165 0.6113222241 0.5599215031
	0.6151443720 0.6124070883 0.5610160828
	0.6161242723 0.6134874821 0.5621057153
	0.6171023250 0.6145648956 0.5631932020
	0.6180763841 0.6156355739 0.5642765760
	0.6190484166 0.6167044044 0.5653579831
	0.6200155020 0.6177682281 0.5664346814
	0.6209805012 0.6188302040 0.5675101280
	0.6219391823 0.6198859811 0.5685818195
	0.6228963733 0.6209400296 0.5696520209
	0.6238467097 0.6219862103 0.5707165003
	0.6247966886 0.6230316758 0.5717800856
	0.6257433295 0.6240708828 0.5728380084
	0.6266897917 0.6251100898 0.5738958120
	0.6276292801 0.6261410713 0.5749465227
	0.6285687089 0.6271719933 0.5759971142
	0.6294990182 0.6281968951 0.5770409107
	0.6304280162 0.6292210221 0.5780838728
	0.6313526034 0.6302379966 0.5791224837
	0.6322757006 0.6312527061 0.5801597238
	0.6331943870 0.6322625875 0.5811929703
	0.6341099739 0.6332694292 0.5822238922
	0.6350240111 0.6342734098 0.5832517147
	0.6359356046 0.6352738142 0.5842757225
	0.6368461251 0.6362721920 0.5852975249
	0.6377531290 0.6372647285 0.5863136053
	0.6386598945 0.6382569075 0.5873292089
	0.6395592093 0.6392408013 0.5883370042
	0.6404585242 0.6402246952 0.5893447995
	0.6413550973 0.6412026286 0.5903472900
	0.6422510147 0.6421790719 0.5913487077
	0.6431431770 0.6431517005 0.5923461914
	0.6440324783 0.6441212296 0.5933409929
	0.6449189186 0.6450884938 0.5943337083
	0.6457985044 0.6460511088 0.5953221917
	0.6466779113 0.6470134854 0.5963103771
	0.6475521922 0.6479676962 0.5972914100
	0.6484264135 0.6489219069 0.5982723832
	0.6492943764 0.6498695016 0.5992498994
	0.6501600742 0.6508147120 0.6002262235
	0.6510232091 0.6517578959 0.6011999249
	0.6518825889 0.6526980996 0.6021702886
	0.6527417898 0.6536375880 0.6031401157
	0.6535974145 0.6545693278 0.6041048169
	0.6544529200 0.6555008888 0.6050693989
	0.6553012729 0.6564255953 0.6060274839
	0.6561468244 0.6573476791 0.6069834232
	0.6569896936 0.6582674980 0.6079360247
	0.6578274965 0.6591829062 0.6088829041
	0.6586652994 0.6600983739 0.6098297834
	0.6594979167 0.6610056758 0.6107699275
	0.6603302956 0.6619125009 0.6117097735
	0.6611601710 0.6628168225 0.6126456857
	0.6619879007 0.6637189984 0.6135783195
	0.6628152728 0.6646203995 0.6145102978
	0.6636397243 0.6655144095 0.6154376268
	0.6644641161 0.6664084196 0.6163650155
	0.6652842164 0.6672983170 0.6172876954
	0.6661018729 0.6681858897 0.6182081103
	0.6669185758 0.6690726876 0.6191273928
	0.6677302122 0.6699557900 0.6200417876
	0.6685419083 0.6708388925 0.6209561825
	0.6693503857 0.6717147827 0.6218646765
	0.6701574922 0.6725872159 0.6227704883
	0.6709632874 0.6734582186 0.6236749887
	0.6717622876 0.6743215919 0.6245731711
	0.6725612283 0.6751849055 0.6254714131
	0.6733565927 0.6760439873 0.6263654232
	0.6741496921 0.6769003272 0.6272568703
	0.6749426126 0.6777564287 0.6281480193
	0.6757320762 0.6786072850 0.6290338039
	0.6765215993 0.6794583201 0.6299195290
	0.6773090959 0.6803076863 0.6308029294
	0.6780942082 0.6811552048 0.6316838264
	0.6788793206 0.6820027232 0.6325647235
	0.6796609163 0.6828439832 0.6334397793
	0.6804419756 0.6836842895 0.6343142986
	0.6812220216 0.6845229864 0.6351867914
	0.6819983721 0.6853569150 0.6360538006
	0.6827747822 0.6861907244 0.6369209290
	0.6835479140 0.6870210767 0.6377838254
	0.6843187809 0.6878491044 0.6386439800
	0.6850897074 0.6886770129 0.6395043135
	0.6858559847 0.6894986033 0.6403582096
	0.6866217852 0.6903195977 0.6412116885
	0.6873862743 0.6911389828 0.6420640945
	0.6881462932 0.6919528246 0.6429128051
	0.6889063120 0.6927667260 0.6437615156
	0.6896629930 0.6935775876 0.6446070075
	0.6904165149 0.6943858266 0.6454496980
	0.6911699772 0.6951940060 0.6462923288
	0.6919187903 0.6959962845 0.6471291780
	0.6926661134 0.6967967749 0.6479645967
	0.6934133768 0.6975972056 0.6487997770
	0.6941565275 0.6983886957 0.6496288180
	0.6948996186 0.6991801262 0.6504579186
	0.6956412792 0.6999704242 0.6512849927
	0.6963785291 0.7007569075 0.6521068215
	0.6971156001 0.7015432715 0.6529284716
	0.6978498101 0.7023270130 0.6537482738
	0.6985800862 0.7031068802 0.6545658112
	0.6993104219 0.7038868070 0.6553832293
	0.7000390291 0.7046630979 0.6561965942
	0.7007665038 0.7054370046 0.6570075750
	0.7014939785 0.7062109113 0.6578186154
	0.7022175789 0.7069805264 0.6586261988
	0.7029399872 0.7077487707 0.6594328284
	0.7036622763 0.7085170746 0.6602393985
	0.7043780088 0.7092791796 0.6610412002
	0.7050929070 0.7100403905 0.6618425250
	0.7058076859 0.7108017206 0.6626436710
	0.7065191269 0.7115598917 0.6634386182
	0.7072305083 0.7123181224 0.6642333865
	0.7079415917 0.7130758762 0.6650279164
	0.7086470723 0.7138280869 0.6658183932
	0.7093526721 0.7145804167 0.6666089296
	0.7100573778 0.7153319120 0.6673982143
	0.7107548714 0.7160776854 0.6681799293
	0.7114523053 0.7168235183 0.6689617038
	0.7121492028 0.7175688744 0.6697422266
	0.7128425837 0.7183113098 0.6705163717
	0.7135359049 0.7190536857 0.6712905765
	0.7142282724 0.7197949886 0.6720638275
	0.7149152756 0.7205299139 0.6728317142
	0.7156022191 0.7212648988 0.6735996008
	0.7162883878 0.7219992280 0.6743667722
	0.7169690132 0.7227286100 0.6751294732
	0.7176495790 0.7234581113 0.6758921742
	0.7183300257 0.7241873145 0.6766545177
	0.7190073729 0.7249132991 0.6774132252
	0.7196847796 0.7256392837 0.6781718731
	0.7203623056 0.7263653278 0.6789305210
	0.7210342288 0.7270826101 0.6796817780
	0.7217060924 0.7277998924 0.6804329753
	0.7223780155 0.7285171747 0.6811842918
	0.7230476737 0.7292283773 0.6819289923
	0.7237172127 0.7299389243 0.6826732159
	0.7243866920 0.7306494117 0.6834173203
	0.7250542045 0.7313563228 0.6841576099
	0.7257212996 0.7320619822 0.6848968267
	0.7263882756 0.7327678204 0.6856359839
	0.7270516157 0.7334702015 0.6863722205
	0.7277126908 0.7341706157 0.6871067882
	0.7283738256 0.7348709702 0.6878414154
	0.7290335298 0.7355691195 0.6885737777
	0.7296916246 0.7362642884 0.6893038154
	0.7303497791 0.7369595170 0.6900337934
	0.7310072184 0.7376533151 0.6907622814
	0.7316623926 0.7383428216 0.6914864779
	0.7323176265 0.7390323281 0.6922107935
	0.7329726815 0.7397217155 0.6929348111
	0.7336215973 0.7404049039 0.6936529279
	0.7342703938 0.7410882115 0.6943709254
	0.7349191904 0.7417714000 0.6950889826
	0.7355654240 0.7424499989 0.6958044767
	0.7362108827 0.7431272268 0.6965193748
	0.7368562818 0.7438042760 0.6972342730
	0.7375000715 0.7444782853 0.6979461908
	0.7381421924 0.7451488972 0.6986551881
	0.7387843132 0.7458193898 0.6993641257
	0.7394251823 0.7464888096 0.7000715137
	0.7400605083 0.7471522093 0.7007719278
	0.7406957746 0.7478156090 0.7014722228
	0.7413311005 0.7484790087 0.7021725774
	0.7419633269 0.7491366267 0.7028682828
	0.7425947785 0.7497931123 0.7035630941
	0.7432262897 0.7504494786 0.7042579055
	0.7438560724 0.7511044741 0.7049499154
	0.7444838881 0.7517579198 0.7056387067
	0.7451115847 0.7524113059 0.7063274980
	0.7457391024 0.7530642748 0.7070159912
	0.7463619113 0.7537124157 0.7077018023
	0.7469847202 0.7543604970 0.7083876133
	0.7476075292 0.7550085783 0.7090734243
	0.7482284904 0.7556517720 0.7097554207
	0.7488484979 0.7562924027 0.7104355097
	0.7494685054 0.7569329739 0.7111154795
	0.7500876784 0.7575728297 0.7117941976
	0.7507038116 0.7582098246 0.7124679089
	0.7513198256 0.7588467002 0.7131415009
	0.7519357800 0.7594835758 0.7138150930
	0.7525480986 0.7601163983 0.7144855857
	0.7531589270 0.7607474923 0.7151550055
	0.7537698150 0.7613785863 0.7158244252
	0.7543799877 0.7620080113 0.7164921761
	0.7549877763 0.7626309991 0.7171549201
	0.7555956244 0.7632541060 0.7178174853
	0.7562034130 0.7638770938 0.7184802294
	0.7568084002 0.7644972801 0.7191396952
	0.7574118972 0.7651162148 0.7197976708
	0.7580155134 0.7657349706 0.7204558253
	0.7586185932 0.7663530707 0.7211132050
	0.7592173815 0.7669656277 0.7217658758
	0.7598162889 0.7675780058 0.7224187255
	0.7604150772 0.7681905031 0.7230715156
	0.7610118985 0.7688006759 0.7237222195
	0.7616066933 0.7694088817 0.7243710160
	0.7622014880 0.7700170875 0.7250198722
	0.7627962828 0.7706251740 0.7256687284
	0.7633875012 0.7712314725 0.7263153195
	0.7639781237 0.7718374133 0.7269614935
	0.7645688057 0.7724434137 0.7276077867
	0.7651584148 0.7730479240 0.7282524109
	0.7657443881 0.7736473083 0.7288914919
	0.7663304806 0.7742465734 0.7295305729
	0.7669165730 0.7748460174 0.7301695943
	0.7675005794 0.7754428983 0.7308055162
	0.7680826783 0.7760378122 0.7314386964
	0.7686648965 0.7766327262 0.7320718765
	0.7692471147 0.7772275209 0.7327051759
	0.7698258758 0.7778202891 0.7333346009
	0.7704041004 0.7784126997 0.7339633703
	0.7709822059 0.7790051103 0.7345920801
	0.7715600729 0.7795969248 0.7352203727
	0.7721338272 0.7801824808 0.7358438969
	0.7727075219 0.7807679772 0.7364673018
	0.7732812762 0.7813535929 0.7370908260
	0.7738538980 0.7819374800 0.7377125025
	0.7744238973 0.7825171947 0.7383304834
	0.7749938965 0.7830970287 0.7389485836
	0.7755638957 0.7836768031 0.7395666242
	0.7761321068 0.7842543721 0.7401825190
	0.7766981125 0.7848296165 0.7407962084
	0.7772641778 0.7854048014 0.7414098978
	0.7778303027 0.7859801054 0.7420237064
	0.7783936262 0.7865508795 0.7426350117
	0.7789554000 0.7871193290 0.7432450056
	0.7795171738 0.7876875997 0.7438551188
	0.7800790071 0.7882559896 0.7444651127
	0.7806380987 0.7888197899 0.7450724840
	0.7811962962 0.7893822789 0.7456791997
	0.7817544937 0.7899448276 0.7462859154
	0.7823126912 0.7905073166 0.7468925714
	0.7828676105 0.7910656929 0.7474957108
	0.7834218740 0.7916235924 0.7480981946
	0.7839761972 0.7921813726 0.7487007976
	0.7845305204 0.7927392125 0.7493032813
	0.7850810289 0.7932925820 0.7499018908
	0.7856311202 0.7938457131 0.7505000830
	0.7861812711 0.7943987250 0.7510983944
	0.7867314219 0.7949517965 0.7516967058
	0.7872781754 0.7955003977 0.7522919178
	0.7878248096 0.7960488200 0.7528868914
	0.7883713841 0.7965971828 0.7534819841
	0.7889180183 0.7971456051 0.7540770769
	0.7894610167 0.7976896763 0.7546678185
	0.7900037169 0.7982336283 0.7552582026
	0.7905464172 0.7987774014 0.7558485866
	0.7910891175 0.7993212938 0.7564390898
	0.7916281223 0.7998626232 0.7570242286
	0.7921667099 0.8004035950 0.7576088905
	0.7927052975 0.8009446263 0.7581936121
	0.7932438850 0.8014857173 0.7587782741
	0.7937796116 0.8020228744 0.7593606710
	0.7943146825 0.8025593758 0.7599425912
	0.7948498130 0.8030958772 0.7605245113
	0.7953848839 0.8036323190 0.7611063719
	0.7959170938 0.8041642904 0.7616853714
	0.7964482903 0.8046945930 0.7622634172
	0.7969794869 0.8052248955 0.7628415227
	0.7975106239 0.8057551980 0.7634195089
	0.7980393767 0.8062841296 0.7639942765
	0.7985665202 0.8068119287 0.7645670176
	0.7990936041 0.8073397875 0.7651396990
	0.7996206284 0.8078677058 0.7657123804
	0.8001462817 0.8083937764 0.7662832737
	0.8006699085 0.8089175224 0.7668517828
	0.8011934161 0.8094412088 0.7674202919
	0.8017169833 0.8099648952 0.7679886818
	0.8022397757 0.8104875088 0.7685561776
	0.8027595282 0.8110054135 0.7691202760
	0.8032791018 0.8115233779 0.7696843743
	0.8037986755 0.8120412827 0.7702484727
	0.8043184280 0.8125593066 0.7708125114
	0.8048341870 0.8130753040 0.7713751793
	0.8053497076 0.8135911822 0.7719377279
	0.8058652878 0.8141071200 0.7725002766
	0.8063809276 0.8146229982 0.7730628848
	0.8068935871 0.8151363730 0.7736229897
	0.8074046969 0.8156484962 0.7741820216
	0.8079158068 0.8161606789 0.7747409940
	0.8084269762 0.8166728020 0.7753000259
	0.8089368939 0.8171827197 0.7758569121
	0.8094444871 0.8176885247 0.7764102221
	0.8099520802 0.8181943893 0.7769634724
	0.8104596734 0.8187001944 0.7775169015
	0.8109673858 0.8192059994 0.7780702114
	0.8114724159 0.8197085261 0.7786207199
	0.8119773865 0.8202108741 0.7791712880
	0.8124824762 0.8207132816 0.7797217965
	0.8129875064 0.8212158084 0.7802724242
	0.8134900928 0.8217161894 0.7808198929
	0.8139910102 0.8222153783 0.7813655734
	0.8144919276 0.8227146268 0.7819113135
	0.8149927855 0.8232136965 0.7824569941
	0.8154932261 0.8237118125 0.7830020189
	0.8159909248 0.8242052197 0.7835443020
	0.8164886236 0.8246986270 0.7840867043
	0.8169863820 0.8251919150 0.7846289873
	0.8174840808 0.8256853223 0.7851713896
	0.8179801702 0.8261765242 0.7857123017
	0.8184756041 0.8266668916 0.7862526774
	0.8189710975 0.8271573782 0.7867931128
	0.8194664717 0.8276478052 0.7873336077
	0.8199610710 0.8281375170 0.7878730297
	0.8204528093 0.8286252022 0.7884094715
	0.8209444284 0.8291128278 0.7889459729
	0.8214361072 0.8296005130 0.7894824743
	0.8219277859 0.8300880790 0.7900189757
	0.8224173784 0.8305714130 0.7905547023
	0.8229061961 0.8310527205 0.7910900116
	0.8233950138 0.8315340281 0.7916253805
	0.8238837719 0.8320153952 0.7921606898
	0.8243722916 0.8324962258 0.7926955819
	0.8248590827 0.8329733014 0.7932277918
	0.8253458738 0.8334503770 0.7937598825
	0.8258327246 0.8339275122 0.7942920923
	0.8263195157 0.8344045877 0.7948243022
	0.8268045187 0.8348805904 0.7953537107
	0.8272879124 0.8353555799 0.7958806753
	0.8277711868 0.8358306289 0.7964078188
	0.8282545209 0.8363054991 0.7969347835
	0.8287379146 0.8367804885 0.7974618077
	0.8292189837 0.8372507095 0.7979866862
	0.8296996951 0.8377199769 0.7985112071
	0.8301805258 0.8381894231 0.7990357876
	0.8306612968 0.8386586905 0.7995604277
	0.8311417103 0.8391273022 0.8000841737
	0.8316208124 0.8395920992 0.8006044030
	0.8320997953 0.8400568962 0.8011245728
	0.8325788975 0.8405218124 0.8016448021
	0.8330578804 0.8409866095 0.8021649718
	0.8335351944 0.8414500952 0.8026837707
	0.8340101242 0.8419117928 0.8032010794
	0.8344849944 0.8423734903 0.8037183285
	0.8349598050 0.8428351879 0.8042355180
	0.8354346752 0.8432968855 0.8047528267
	0.8359069824 0.8437553048 0.8052688837
	0.8363779783 0.8442121744 0.8057845831
	0.8368489742 0.8446689844 0.8063002229
	0.8373200297 0.8451257944 0.8068159223
	0.8377910256 0.8455827236 0.8073315024
	0.8382608294 0.8460361958 0.8078433275
