release/datafiles/colormanagement/luts/film_response/agfa_agfacolor_futura_ii_100.spi1d
Version 1
From 0.0 1.0
Length 1024
Components 3
{
	0.0000000000 0.0000000000 0.0000000000
	0.0089918738 0.0088112270 0.0067409412
	0.0171655007 0.0167162009 0.0131348101
	0.0242981501 0.0235243607 0.0187877901
	0.0308058802 0.0297358502 0.0239518695
	0.0368227884 0.0355986990 0.0288143605
	0.0424588397 0.0412245393 0.0334390104
	0.0477601402 0.0466648601 0.0378785282
	0.0527938083 0.0519550890 0.0421676189
	0.0575832911 0.0571624711 0.0463436693
	0.0622247718 0.0623087510 0.0504317991
	0.0668161213 0.0673468485 0.0544279404
	0.0713887885 0.0722417235 0.0583436601
	0.0759282932 0.0769878626 0.0621980987
	0.0804320127 0.0816073194 0.0659957901
	0.0848805234 0.0860867798 0.0697494522
	0.0892914683 0.0904396772 0.0734607279
	0.0936586633 0.0946798995 0.0771252811
	0.0979755297 0.0988209695 0.0807478875
	0.1022336036 0.1028660983 0.0843302682
	0.1064319983 0.1068392023 0.0878701210
	0.1105559021 0.1107354984 0.0913715884
	0.1146129966 0.1145422980 0.0948381424
	0.1185963973 0.1182733998 0.0982583165
	0.1225240976 0.1219324991 0.1016350016
	0.1263933927 0.1255291998 0.1049719974
	0.1301935017 0.1290597022 0.1082687974
	0.1339209974 0.1325256974 0.1115282029
	0.1375810951 0.1359412074 0.1147558987
	0.1411647946 0.1393028945 0.1179407015
	0.1446768939 0.1426129043 0.1210891977
	0.1481269002 0.1458766013 0.1242009997
	0.1515025944 0.1490920037 0.1272723973
	0.1548155993 0.1522623003 0.1303056926
	0.1580781043 0.1553830951 0.1333058029
	0.1612831950 0.1584683955 0.1362698972
	0.1644275039 0.1615206003 0.1391921043
	0.1675149053 0.1645296961 0.1420771927
	0.1705511063 0.1675007045 0.1449283957
	0.1735346019 0.1704356074 0.1477468014
	0.1764681935 0.1733424962 0.1505275071
	0.1793411970 0.1762108952 0.1532687992
	0.1821642965 0.1790487021 0.1559778005
	0.1849396974 0.1818661988 0.1586564928
	0.1876723021 0.1846542954 0.1613045037
	0.1903574020 0.1874137968 0.1639243066
	0.1929987073 0.1901445985 0.1665160060
	0.1956039965 0.1928485036 0.1690804064
	0.1981741041 0.1955288947 0.1716223955
	0.2007140964 0.1981831044 0.1741400957
	0.2032240033 0.2008188963 0.1766290963
	0.2057044953 0.2034270018 0.1790864021
	0.2081623971 0.2060122043 0.1815200001
	0.2106028944 0.2085773945 0.1839299053
	0.2130292058 0.2111182064 0.1863144040
	0.2154411972 0.2136391997 0.1886768937
	0.2178471982 0.2161431015 0.1910151988
	0.2202418000 0.2186270058 0.1933256984
	0.2226282060 0.2210904956 0.1956081986
	0.2250116020 0.2235327959 0.1978694052
	0.2273910940 0.2259615064 0.2001121938
	0.2297631949 0.2283712029 0.2023327053
	0.2321317047 0.2307610959 0.2045315057
	0.2344924062 0.2331354022 0.2067105025
	0.2368433028 0.2354861945 0.2088731974
	0.2391863018 0.2378192991 0.2110181004
	0.2415205985 0.2401355058 0.2131436020
	0.2438464016 0.2424366027 0.2152539939
	0.2461618036 0.2447226048 0.2173456997
	0.2484730929 0.2469923943 0.2194202989
	0.2507739067 0.2492519021 0.2214788944
	0.2530598044 0.2514967918 0.2235199958
	0.2553376853 0.2537238002 0.2255467027
	0.2576029897 0.2559401989 0.2275560051
	0.2598524094 0.2581427991 0.2295472026
	0.2620919049 0.2603318095 0.2315239012
	0.2643215060 0.2625105977 0.2334856987
	0.2665401995 0.2646790147 0.2354328036
	0.2687489986 0.2668366134 0.2373681068
	0.2709451020 0.2689833045 0.2392894030
	0.2731316984 0.2711197138 0.2411931008
	0.2753098011 0.2732459903 0.2430835962
	0.2774744034 0.2753610909 0.2449620068
	0.2796306908 0.2774659097 0.2468270957
	0.2817795873 0.2795613110 0.2486820072
	0.2839165926 0.2816452086 0.2505275905
	0.2860453129 0.2837195992 0.2523604929
	0.2881659865 0.2857829928 0.2541792989
	0.2902776897 0.2878372073 0.2559899092
	0.2923803031 0.2898777127 0.2577917874
	0.2944732904 0.2919048965 0.2595866024
	0.2965568006 0.2939237952 0.2613756955
	0.2986293137 0.2959322035 0.2631560862
	0.3006938994 0.2979266047 0.2649283111
	0.3027508855 0.2999104857 0.2666937113
	0.3047966063 0.3018867075 0.2684526145
	0.3068324924 0.3038511872 0.2702021897
	0.3088631034 0.3058032095 0.2719438076
	0.3108848929 0.3077456951 0.2736783028
	0.3128944933 0.3096817136 0.2754063010
	0.3148933947 0.3116078973 0.2771281898
	0.3168857992 0.3135224879 0.2788479924
	0.3188689053 0.3154281080 0.2805649042
	0.3208411932 0.3173280954 0.2822758853
	0.3228051066 0.3192209005 0.2839803994
	0.3247616887 0.3211036026 0.2856811881
	0.3267089128 0.3229758143 0.2873789072
	0.3286511004 0.3248389959 0.2890717983
	0.3305900991 0.3266923130 0.2907603085
	0.3325229883 0.3285365999 0.2924445868
	0.3344469070 0.3303725123 0.2941254079
	0.3363626897 0.3322010040 0.2958011925
	0.3382742107 0.3340212107 0.2974714935
	0.3401803970 0.3358336091 0.2991386950
	0.3420785964 0.3376361132 0.3008036017
	0.3439661860 0.3394295871 0.3024663031
	0.3458459079 0.3412173986 0.3041245043
	0.3477211893 0.3429979980 0.3057765961
	0.3495895863 0.3447695971 0.3074248135
	0.3514491022 0.3465310931 0.3090695143
	0.3533000052 0.3482857049 0.3107109964
	0.3551431000 0.3500339985 0.3123489022
	0.3569791913 0.3517752886 0.3139818907
	0.3588086069 0.3535098135 0.3156122863
	0.3606314957 0.3552359939 0.3172419071
	0.3624485135 0.3569523096 0.3188686073
	0.3642578125 0.3586593866 0.3204928041
	0.3660599887 0.3603613079 0.3221142888
	0.3678553998 0.3620558083 0.3237330914
	0.3696443141 0.3637424111 0.3253495991
	0.3714273870 0.3654215038 0.3269616067
	0.3732031882 0.3670935929 0.3285692930
	0.3749721944 0.3687596917 0.3301742971
	0.3767344952 0.3704194129 0.3317768872
	0.3784905076 0.3720717132 0.3333773017
	0.3802404106 0.3737153113 0.3349755108
	0.3819842935 0.3753502071 0.3365707099
	0.3837207854 0.3769770861 0.3381618857
	0.3854480982 0.3785960078 0.3397505879
	0.3871636093 0.3802081048 0.3413363993
	0.3888713121 0.3818149865 0.3429175913
	0.3905732930 0.3834156990 0.3444958925
	0.3922694027 0.3850092888 0.3460716903
	0.3939583898 0.3865957856 0.3476448953
	0.3956395090 0.3881759942 0.3492155969
	0.3973124027 0.3897528052 0.3507837951
	0.3989773989 0.3913241029 0.3523463905
	0.4006344974 0.3928903043 0.3539063931
	0.4022842050 0.3944503963 0.3554647863
	0.4039269090 0.3960036933 0.3570212126
	0.4055627882 0.3975501060 0.3585749865
	0.4071914852 0.3990882933 0.3601273000
	0.4088127911 0.4006206095 0.3616780043
	0.4104264975 0.4021480083 0.3632257879
	0.4120318890 0.4036706090 0.3647710979
	0.4136281908 0.4051879048 0.3663145900
	0.4152132869 0.4066968858 0.3678534031
	0.4167909920 0.4081991017 0.3693884909
	0.4183610082 0.4096961021 0.3709208965
	0.4199230969 0.4111889005 0.3724510074
	0.4214732051 0.4126752913 0.3739764094
	0.4230127037 0.4141556919 0.3754990995
	0.4245432913 0.4156309962 0.3770196140
	0.4260652065 0.4171015918 0.3785375953
	0.4275765121 0.4185652137 0.3800503016
	0.4290784895 0.4200240970 0.3815599978
	0.4305722117 0.4214783013 0.3830671012
	0.4320571125 0.4229275882 0.3845714033
	0.4335275888 0.4243701994 0.3860712945
	0.4349885881 0.4258084893 0.3875694871
	0.4364405870 0.4272427857 0.3890654147
	0.4378808141 0.4286721051 0.3905574977
	0.4393113852 0.4300973117 0.3920451999
	0.4407345057 0.4315193892 0.3935315013
	0.4421485960 0.4329378009 0.3950169981
	0.4435501993 0.4343496859 0.3964990079
	0.4449434876 0.4357573986 0.3979789019
	0.4463286996 0.4371610880 0.3994567990
	0.4477010071 0.4385577142 0.4009310007
	0.4490672052 0.4399507046 0.4024015069
	0.4504272938 0.4413402975 0.4038689137
	0.4517762065 0.4427213967 0.4053323865
	0.4531182945 0.4440990090 0.4067929983
	0.4544540942 0.4454734921 0.4082511961
	0.4557775855 0.4468427896 0.4097048938
	0.4570952952 0.4482089877 0.4111567140
	0.4584074914 0.4495720863 0.4126070142
	0.4597108960 0.4509283006 0.4140538871
	0.4610100091 0.4522809982 0.4154989123
	0.4623034894 0.4536291957 0.4169419110
	0.4635887146 0.4549719095 0.4183813035
	0.4648694992 0.4563120902 0.4198183119
	0.4661431015 0.4576481879 0.4212512076
	0.4674094021 0.4589804113 0.4226809144
	0.4686715007 0.4603103101 0.4241088927
	0.4699237943 0.4616335034 0.4255332053
	0.4711718857 0.4629541039 0.4269537926
	0.4724155962 0.4642721117 0.4283713996
	0.4736534059 0.4655844867 0.4297845066
	0.4748887122 0.4668945074 0.4311957955
	0.4761190116 0.4681994021 0.4326032996
	0.4773451984 0.4694997966 0.4340074062
	0.4785684049 0.4707967937 0.4354093969
	0.4797854125 0.4720880985 0.4368061125
	0.4810002148 0.4733774066 0.4382002950
	0.4822092950 0.4746614993 0.4395891130
	0.4834147990 0.4759416878 0.4409742951
	0.4846169055 0.4772185087 0.4423570931
	0.4858146906 0.4784907103 0.4437364042
	0.4870111048 0.4797612131 0.4451141953
	0.4882034063 0.4810256064 0.4464867115
	0.4893937111 0.4822880924 0.4478574991
	0.4905807078 0.4835473895 0.4492256939
	0.4917649031 0.4848031998 0.4505923092
	0.4929473102 0.4860568047 0.4519579113
	0.4941253960 0.4873049855 0.4533194900
	0.4953022897 0.4885519147 0.4546799958
	0.4964750111 0.4897922873 0.4560363889
	0.4976463020 0.4910312891 0.4573906064
	0.4988138080 0.4922665060 0.4587404132
	0.4999791980 0.4934988022 0.4600867033
	0.5011422038 0.4947274923 0.4614296854
	0.5023019910 0.4959532917 0.4627693892
	0.5034598708 0.4971773922 0.4641076028
	0.5046142936 0.4983972907 0.4654398859
	0.5057677031 0.4996159971 0.4667710960
	0.5069164038 0.5008293986 0.4680955112
	0.5080643892 0.5020418763 0.4694189131
	0.5092083812 0.5032485127 0.4707360864
	0.5103514194 0.5044537783 0.4720517099
	0.5114902854 0.5056533813 0.4733619988
	0.5126280189 0.5068514943 0.4746705890
	0.5137624741 0.5080453753 0.4759756923
	0.5148952007 0.5092371702 0.4772787094
	0.5160247087 0.5104253888 0.4785786867
	0.5171523094 0.5116108060 0.4798755050
	0.5182775259 0.5127922893 0.4811685979
	0.5194002986 0.5139706731 0.4824582040
	0.5205205083 0.5151454806 0.4837445021
	0.5216385126 0.5163174272 0.4850262105
	0.5227543712 0.5174863935 0.4863041043
	0.5238677263 0.5186526775 0.4875771999
	0.5249785781 0.5198165774 0.4888466895
	0.5260874033 0.5209770203 0.4901134968
	0.5271940231 0.5221341848 0.4913783967
	0.5282983184 0.5232884884 0.4926396906
	0.5294001102 0.5244398713 0.4938982129
	0.5304998755 0.5255879164 0.4951525033
	0.5315973759 0.5267319083 0.4964028895
	0.5326929092 0.5278732777 0.4976496994
	0.5337855816 0.5290107727 0.4988923073
	0.5348768830 0.5301455259 0.5001319051
	0.5359653831 0.5312750936 0.5013670921
	0.5370525718 0.5324026942 0.5025998950
	0.5381363034 0.5335251093 0.5038275123
	0.5392193198 0.5346459746 0.5050536990
	0.5402988195 0.5357596874 0.5062742829
	0.5413780808 0.5368732214 0.5074942708
	0.5424528718 0.5379806757 0.5087080002
	0.5435277224 0.5390880704 0.5099217296
	0.5445986986 0.5401890874 0.5111290216
	0.5456693172 0.5412895083 0.5123360753
	0.5467364192 0.5423848033 0.5135380030
	0.5478023291 0.5434783101 0.5147387981
	0.5488657951 0.5445675254 0.5159347057
	0.5499275923 0.5456534028 0.5171278119
	0.5509874821 0.5467371941 0.5183176994
	0.5520446897 0.5478175282 0.5195037723
	0.5531010032 0.5488967896 0.5206878185
	0.5541540980 0.5499712825 0.5218651891
	0.5552070737 0.5510457754 0.5230425000
	0.5562556982 0.5521146059 0.5242115855
	0.5573040843 0.5531831980 0.5253806710
	0.5583497286 0.5542473793 0.5265437961
	0.5593940020 0.5553098917 0.5277050734
	0.5604363084 0.5563696027 0.5288618803
	0.5614761114 0.5574259162 0.5300140977
	0.5625151992 0.5584810972 0.5311648846
	0.5635510087 0.5595309734 0.5323101282
	0.5645866990 0.5605809093 0.5334553123
	0.5656185150 0.5616251826 0.5345945954
	0.5666496754 0.5626686215 0.5357334018
	0.5676786900 0.5637084246 0.5368676782
	0.5687059760 0.5647451878 0.5379989743
	0.5697323084 0.5657805800 0.5391280055
	0.5707550049 0.5668106079 0.5402505994
	0.5717777014 0.5678406954 0.5413731933
	0.5727970004 0.5688648820 0.5424870849
	0.5738158226 0.5698879957 0.5435999036
	0.5748323798 0.5709078908 0.5447078943
	0.5758466721 0.5719239712 0.5458114147
	0.5768607259 0.5729396939 0.5469142199
	0.5778710842 0.5739501119 0.5480110049
	0.5788813829 0.5749605894 0.5491077900
	0.5798888803 0.5759674907 0.5501992106
	0.5808948278 0.5769727230 0.5512881875
	0.5818998814 0.5779765844 0.5523753166
	0.5829018950 0.5789757967 0.5534570813
	0.5839039087 0.5799751282 0.5545389056
	0.5849025846 0.5809702873 0.5556156039
	0.5859003067 0.5819640756 0.5566909909
	0.5868967772 0.5829563141 0.5577639937
	0.5878906250 0.5839440823 0.5588322282
	0.5888844132 0.5849320292 0.5599002838
	0.5898746848 0.5859153867 0.5609617233
	0.5908641219 0.5868976116 0.5620216727
	0.5918524861 0.5878787041 0.5630789995
	0.5928381085 0.5888563991 0.5641300082
	0.5938236713 0.5898339748 0.5651810169
	0.5948061943 0.5908092260 0.5662257075
	0.5957874060 0.5917832851 0.5672683120
	0.5967680812 0.5927566886 0.5683094859
	0.5977455974 0.5937262774 0.5693448782
	0.5987229943 0.5946959257 0.5703802705
	0.5996980071 0.5956636071 0.5714107752
	0.6006711721 0.5966296196 0.5724381804
	0.6016442776 0.5975956917 0.5734654069
	0.6026139259 0.5985574722 0.5744841099
	0.6035832763 0.5995190740 0.5755028725
	0.6045511961 0.6004796028 0.5765179992
	0.6055163741 0.6014376879 0.5775272250
	0.6064814925 0.6023957729 0.5785365105
	0.6074441075 0.6033508778 0.5795394778
	0.6084054708 0.6043046117 0.5805402994
	0.6093667746 0.6052582264 0.5815405846
	0.6103240252 0.6062085032 0.5825338960
	0.6112812161 0.6071587205 0.5835272074
	0.6122370958 0.6081075072 0.5845175982
	0.6131905913 0.6090533137 0.5855029821
	0.6141440868 0.6099991798 0.5864884853
	0.6150950193 0.6109429002 0.5874683857
	0.6160442829 0.6118853092 0.5884453058
	0.6169936061 0.6128277183 0.5894222260
	0.6179397106 0.6137663126 0.5903909206
	0.6188852787 0.6147043109 0.5913589001
	0.6198304892 0.6156420112 0.5923253894
	0.6207720041 0.6165766120 0.5932837725
	0.6217133999 0.6175112128 0.5942422152
	0.6226537228 0.6184443831 0.5951976180
	0.6235914826 0.6193746924 0.5961477160
	0.6245294213 0.6203050017 0.5970978737
	0.6254649758 0.6212335825 0.5980439782
	0.6263986826 0.6221604943 0.5989869237
	0.6273323894 0.6230874062 0.5999299288
	0.6282635927 0.6240113974 0.6008661985
	0.6291937232 0.6249340177 0.6018002033
	0.6301239133 0.6258566976 0.6027342081
	0.6310505271 0.6267765164 0.6036599874
	0.6319764853 0.6276957989 0.6045848131
	0.6329025030 0.6286150813 0.6055094004
	0.6338251233 0.6295301914 0.6064245105
	0.6347475052 0.6304453015 0.6073396206
	0.6356697083 0.6313601136 0.6082538962
	0.6365880966 0.6322718263 0.6091607809
	0.6375064254 0.6331834793 0.6100676060
	0.6384242773 0.6340945959 0.6109727025
	0.6393392086 0.6350020766 0.6118695140
	0.6402540207 0.6359096169 0.6127663255
	0.6411681175 0.6368162036 0.6136608124
	0.6420788765 0.6377186179 0.6145474911
	0.6429896951 0.6386210918 0.6154342294
	0.6438996792 0.6395224929 0.6163187027
	0.6448069811 0.6404194832 0.6171966195
	0.6457142830 0.6413165927 0.6180744767
	0.6466206908 0.6422126889 0.6189501882
	0.6475239992 0.6431049109 0.6198194027
	0.6484273076 0.6439971924 0.6206886172
	0.6493299007 0.6448885202 0.6215558052
	0.6502298117 0.6457754970 0.6224160790
	0.6511296034 0.6466624737 0.6232764721
	0.6520287991 0.6475486159 0.6241351962
	0.6529247165 0.6484292150 0.6249868274
	0.6538205147 0.6493096948 0.6258383989
	0.6547160745 0.6501898170 0.6266890764
	0.6556084752 0.6510639787 0.6275333762
	0.6565008759 0.6519382000 0.6283777952
	0.6573932767 0.6528124213 0.6292219758
	0.6582819223 0.6536806226 0.6300593019
	0.6591703296 0.6545485854 0.6308966279
	0.6600587964 0.6554166079 0.6317338943
	0.6609442830 0.6562796235 0.6325649023
	0.6618294120 0.6571416855 0.6333950758
	0.6627144217 0.6580038071 0.6342253089
	0.6635968089 0.6588618159 0.6350504160
	0.6644778848 0.6597180963 0.6358736753
	0.6653590202 0.6605743766 0.6366969943
	0.6662384272 0.6614277959 0.6375163794
	0.6671161056 0.6622784734 0.6383327842
	0.6679939032 0.6631292105 0.6391491294
	0.6688703895 0.6639782190 0.6399635077
	0.6697443128 0.6648234725 0.6407744288
	0.6706181765 0.6656687856 0.6415852904
	0.6714916825 0.6665136218 0.6423954964
	0.6723623276 0.6673536897 0.6432008743
	0.6732327938 0.6681938171 0.6440063715
	0.6741033196 0.6690338850 0.6448118091
	0.6749706268 0.6698697209 0.6456125975
	0.6758372784 0.6707047820 0.6464126706
	0.6767038703 0.6715397835 0.6472128034
	0.6775687933 0.6723722219 0.6480097771
	0.6784321070 0.6732022762 0.6488046050
	0.6792954803 0.6740325093 0.6495993733
	0.6801578999 0.6748616099 0.6503927112
	0.6810173988 0.6756870151 0.6511822939
	0.6818770170 0.6765124798 0.6519718170
	0.6827365160 0.6773380041 0.6527613997
	0.6835916042 0.6781579256 0.6535460949
	0.6844462752 0.6789773107 0.6543303728
	0.6853010058 0.6797965765 0.6551148295
	0.6861529946 0.6806129813 0.6558970809
	0.6870027184 0.6814268231 0.6566780210
	0.6878523827 0.6822406054 0.6574587822
	0.6887013912 0.6830536127 0.6582391262
	0.6895464063 0.6838616729 0.6590166092
	0.6903914213 0.6846699119 0.6597940922
	0.6912363768 0.6854779720 0.6605716944
	0.6920778751 0.6862823963 0.6613466740
	0.6929180026 0.6870855093 0.6621211171
	0.6937581897 0.6878886223 0.6628953815
	0.6945971251 0.6886901855 0.6636688113
	0.6954327226 0.6894879937 0.6644400954
	0.6962683201 0.6902858019 0.6652113795
	0.6971039176 0.6910836101 0.6659826040
	0.6979358196 0.6918777227 0.6667515039
	0.6987668276 0.6926708817 0.6675199270
	0.6995977163 0.6934641004 0.6682882905
	0.7004268765 0.6942554712 0.6690558195
	0.7012518048 0.6950421929 0.6698213816
	0.7020766735 0.6958289742 0.6705870032
	0.7029017210 0.6966156960 0.6713526845
	0.7037221789 0.6973984838 0.6721162796
	0.7045413256 0.6981800199 0.6728792787
	0.7053604126 0.6989613771 0.6736422777
	0.7061784267 0.6997417808 0.6744047999
	0.7069919109 0.7005174756 0.6751654148
	0.7078052759 0.7012931108 0.6759259105
	0.7086187005 0.7020686865 0.6766865253
	0.7094289064 0.7028416991 0.6774455905
	0.7102369070 0.7036126852 0.6782038808
	0.7110447884 0.7043836713 0.6789621115
	0.7118527889 0.7051547170 0.6797204018
	0.7126556039 0.7059206963 0.6804764867
	0.7134582996 0.7066864967 0.6812325716
	0.7142608762 0.7074524164 0.6819887161
	0.7150620222 0.7082164884 0.6827440858
	0.7158594728 0.7089766860 0.6834982038
	0.7166571021 0.7097368836 0.6842523217
	0.7174546123 0.7104970813 0.6850063801
	0.7182490826 0.7112538218 0.6857591867
	0.7190417051 0.7120084167 0.6865115166
	0.7198343277 0.7127628922 0.6872637272
	0.7206268907 0.7135174870 0.6880158782
	0.7214152217 0.7142676115 0.6887664795
	0.7222030163 0.7150173187 0.6895170808
	0.7229908109 0.7157669067 0.6902676225
	0.7237780094 0.7165157795 0.6910178065
	0.7245612144 0.7172604799 0.6917667985
	0.7253444791 0.7180052996 0.6925156713
	0.7261276841 0.7187500000 0.6932647228
	0.7269088030 0.7194930911 0.6940131187
	0.7276861072 0.7202336192 0.6947606206
	0.7284634709 0.7209740877 0.6955081820
	0.7292407751 0.7217146754 0.6962556839
	0.7300150990 0.7224528193 0.6970024705
	0.7307869792 0.7231891155 0.6977487803
	0.7315589190 0.7239254117 0.6984950900
	0.7323307991 0.7246617079 0.6992413998
	0.7330988050 0.7253944278 0.6999868155
	0.7338652015 0.7261255980 0.7007319927
	0.7346317172 0.7268568277 0.7014772296
	0.7353981137 0.7275879979 0.7022224069
	0.7361603975 0.7283154130 0.7029678822
	0.7369217873 0.7290419936 0.7037134767
	0.7376831770 0.7297685742 0.7044590712
	0.7384446859 0.7304952145 0.7052047849
	0.7392014265 0.7312179208 0.7059507966
	0.7399578094 0.7319403291 0.7066968083
	0.7407141924 0.7326626778 0.7074428201
	0.7414705753 0.7333850861 0.7081888914
	0.7422224879 0.7341023088 0.7089354992
	0.7429742813 0.7348194718 0.7096819878
	0.7437260747 0.7355365753 0.7104285955
	0.7444778085 0.7362536788 0.7111750841
	0.7452235222 0.7369664907 0.7119207978
	0.7459692955 0.7376793027 0.7126665115
	0.7467150092 0.7383921146 0.7134122252
	0.7474606037 0.7391046882 0.7141578197
	0.7482010126 0.7398132086 0.7149025798
	0.7489414215 0.7405217290 0.7156472802
	0.7496817708 0.7412303090 0.7163920999
	0.7504222989 0.7419388294 0.7171369195
	0.7511572838 0.7426438928 0.7178807259
	0.7518922091 0.7433488965 0.7186245918
	0.7526270747 0.7440540195 0.7193683982
	0.7533621192 0.7447590828 0.7201123238
	0.7540926933 0.7454611063 0.7208564281
	0.7548229098 0.7461627722 0.7216005921
	0.7555531859 0.7468644977 0.7223448157
	0.7562834024 0.7475662231 0.7230889201
	0.7570096850 0.7482659221 0.7238321900
	0.7577350736 0.7489652038 0.7245752811
	0.7584605217 0.7496644258 0.7253183722
	0.7591857910 0.7503635883 0.7260615230
	0.7599074841 0.7510594130 0.7268037796
	0.7606273293 0.7517535090 0.7275456786
	0.7613471150 0.7524476051 0.7282875776
	0.7620670199 0.7531417012 0.7290294766
	0.7627841234 0.7538337111 0.7297707796
	0.7634984851 0.7545235753 0.7305114269
	0.7642129064 0.7552134991 0.7312520742
	0.7649273872 0.7559034228 0.7319927216
	0.7656403184 0.7565919757 0.7327328920
	0.7663499117 0.7572777867 0.7334721088
	0.7670595050 0.7579635978 0.7342113853
	0.7677689791 0.7586494088 0.7349506021
	0.7684782743 0.7593349814 0.7356896996
	0.7691832185 0.7600160837 0.7364274859
	0.7698879838 0.7606971860 0.7371652126
	0.7705928087 0.7613782883 0.7379028797
	0.7712976933 0.7620593905 0.7386407256
	0.7719981074 0.7627363801 0.7393770814
	0.7726973295 0.7634121776 0.7401133180
	0.7733964920 0.7640879750 0.7408493757
	0.7740957141 0.7647637129 0.7415854931
	0.7747924924 0.7654371262 0.7423207760
	0.7754864097 0.7661076188 0.7430552840
	0.7761803865 0.7667781115 0.7437896729
	0.7768744230 0.7674486041 0.7445241213
	0.7775678039 0.7681186199 0.7452582717
	0.7782570124 0.7687847018 0.7459908724
	0.7789462805 0.7694507241 0.7467234731
	0.7796354890 0.7701168060 0.7474560738
	0.7803246975 0.7707828879 0.7481886744
	0.7810096741 0.7714446783 0.7489197850
	0.7816932201 0.7721049190 0.7496504784
	0.7823767066 0.7727652192 0.7503811717
	0.7830601931 0.7734254003 0.7511119246
	0.7837420702 0.7740842104 0.7518419027
	0.7844206095 0.7747399211 0.7525705099
	0.7850990891 0.7753955722 0.7532991171
	0.7857775092 0.7760512829 0.7540277839
	0.7864559889 0.7767069936 0.7547563910
	0.7871304154 0.7773585916 0.7554832101
	0.7878041267 0.7780095935 0.7562096715
	0.7884777784 0.7786604762 0.7569361925
	0.7891514897 0.7793114185 0.7576625943
	0.7898237109 0.7799605727 0.7583882809
	0.7904931903 0.7806066871 0.7591124773
	0.7911627889 0.7812528014 0.7598366737
	0.7918323874 0.7818987966 0.7605609298
	0.7925019264 0.7825449109 0.7612851858
	0.7931671143 0.7831870914 0.7620074153
	0.7938314080 0.7838284969 0.7627292275
	0.7944955826 0.7844697833 0.7634510994
	0.7951598167 0.7851111889 0.7641729116
	0.7958226800 0.7857515812 0.7648941278
	0.7964813113 0.7863892913 0.7656133771
	0.7971398830 0.7870268822 0.7663328052
	0.7977985740 0.7876644731 0.7670521140
	0.7984572053 0.7883021832 0.7677714825
	0.7991123796 0.7889375091 0.7684891224
	0.7997658253 0.7895715833 0.7692058086
	0.8004190922 0.7902057171 0.7699226141
	0.8010724783 0.7908397913 0.7706393003
	0.8017258048 0.7914739251 0.7713559866
	0.8023747206 0.7921038866 0.7720699906
	0.8030235171 0.7927339077 0.7727841139
	0.8036723733 0.7933639288 0.7734981179
	0.8043212295 0.7939940095 0.7742121220
	0.8049684167 0.7946221232 0.7749251127
	0.8056119084 0.7952463031 0.7756363153
	0.8062555194 0.7958704829 0.7763475180
	0.8068990111 0.7964947224 0.7770587206
	0.8075426221 0.7971189022 0.7777698040
	0.8081833124 0.7977399826 0.7784792185
	0.8088219762 0.7983589172 0.7791873813
	0.8094608188 0.7989779115 0.7798956037
	0.8100996017 0.7995969057 0.7806038260
	0.8107383251 0.8002158999 0.7813121080
	0.8113725185 0.8008310199 0.7820175886
	0.8120058179 0.8014454246 0.7827227712
	0.8126389980 0.8020598292 0.7834278941
	0.8132722974 0.8026741743 0.7841330767
	0.8139054179 0.8032884002 0.7848380208
