release/datafiles/colormanagement/luts/film_response/agfa_agfacolor_vista_800.spi1d
Version 1
From 0.0 1.0
Length 1024
Components 3
{
	0.0000000000 0.0000000000 0.0000000000
	0.0185100008 0.0164319202 0.0126006696
	0.0311950799 0.0276685897 0.0221115705
	0.0417797714 0.0372233018 0.0303079691
	0.0512531996 0.0458445400 0.0377487317
	0.0600418709 0.0538478307 0.0446756296
	0.0683360174 0.0614236407 0.0512225516
	0.0762501881 0.0686839372 0.0574930906
	0.0838661790 0.0756844804 0.0635228232
	0.0913166925 0.0824975967 0.0693578273
	0.0986084193 0.0892031565 0.0750138834
	0.1057450026 0.0958264992 0.0805220678
	0.1127896011 0.1024202034 0.0859134421
	0.1197260022 0.1089596003 0.0911877826
	0.1265023947 0.1154130027 0.0963427573
	0.1330948025 0.1217321977 0.1013797969
	0.1394809932 0.1279036999 0.1063025966
	0.1456708014 0.1339247972 0.1111140996
	0.1516747028 0.1397916973 0.1158170998
	0.1575195938 0.1455152035 0.1204319000
	0.1632243991 0.1510861963 0.1249561980
	0.1688113064 0.1565372944 0.1294070035
	0.1742866039 0.1618628055 0.1337791979
	0.1796312928 0.1670635045 0.1380856037
	0.1848537028 0.1721491963 0.1423334032
	0.1899529994 0.1771177948 0.1465034038
	0.1949339062 0.1819808930 0.1506060064
	0.1998192966 0.1867358983 0.1546511948
	0.2046055943 0.1913896054 0.1586488932
	0.2093106955 0.1959585994 0.1626013964
	0.2139423043 0.2004473954 0.1665008068
	0.2184966058 0.2048527002 0.1703405976
	0.2229668945 0.2091723979 0.1741351932
	0.2273671031 0.2134197950 0.1778849959
	0.2316877991 0.2175989002 0.1815871000
	0.2359403968 0.2217054963 0.1852401942
	0.2401207983 0.2257481962 0.1888412982
	0.2442404926 0.2297320962 0.1923972070
	0.2482959926 0.2336588949 0.1959189028
	0.2522906065 0.2375231981 0.1994097978
	0.2562406063 0.2413284928 0.2028710991
	0.2601419091 0.2450881004 0.2062990963
	0.2639907897 0.2487992048 0.2096917033
	0.2677909136 0.2524616122 0.2130511999
	0.2715432942 0.2560823858 0.2163791060
	0.2752490938 0.2596504092 0.2196782976
	0.2789067924 0.2631703019 0.2229489982
	0.2825185061 0.2666490972 0.2261860967
	0.2860870957 0.2700851858 0.2293913960
	0.2896127105 0.2734856904 0.2325628996
	0.2930983901 0.2768476009 0.2357040942
	0.2965483069 0.2801684141 0.2388191074
	0.2999581099 0.2834582031 0.2419067025
	0.3033216894 0.2867042124 0.2449615002
	0.3066503108 0.2899151146 0.2479871958
	0.3099426925 0.2930943966 0.2509889007
	0.3132070005 0.2962363064 0.2539705932
	0.3164420128 0.2993449867 0.2569276094
	0.3196372092 0.3024170995 0.2598538995
	0.3228017092 0.3054631948 0.2627541125
	0.3259347975 0.3084770143 0.2656317949
	0.3290332854 0.3114668131 0.2684907913
	0.3321030140 0.3144359887 0.2713276148
	0.3351433873 0.3173773885 0.2741436064
	0.3381536007 0.3202837110 0.2769415081
	0.3411369026 0.3231653869 0.2797215879
	0.3440904915 0.3260202110 0.2824831903
	0.3470189869 0.3288542926 0.2852219939
	0.3499220014 0.3316698968 0.2879402041
	0.3528007865 0.3344615102 0.2906357050
	0.3556517959 0.3372254968 0.2933070958
	0.3584778011 0.3399674892 0.2959615886
	0.3612776995 0.3426899016 0.2985951900
	0.3640502095 0.3453918099 0.3012051880
	0.3667984903 0.3480693996 0.3037928045
	0.3695279062 0.3507238925 0.3063583076
	0.3722384870 0.3533582091 0.3089059889
	0.3749296069 0.3559763134 0.3114354908
	0.3776003122 0.3585732877 0.3139464855
	0.3802514076 0.3611460924 0.3164429963
	0.3828811944 0.3637025952 0.3189218938
	0.3854868114 0.3662396967 0.3213779926
	0.3880729079 0.3687601089 0.3238114119
	0.3906360865 0.3712593019 0.3262237906
	0.3931770027 0.3737432957 0.3286206126
	0.3956986070 0.3762117028 0.3310020864
	0.3982034028 0.3786646128 0.3333649933
	0.4006921947 0.3811041117 0.3357118070
	0.4031597972 0.3835237026 0.3380421996
	0.4056158066 0.3859252036 0.3403576910
	0.4080604017 0.3883082867 0.3426569998
	0.4104911089 0.3906767964 0.3449401855
	0.4129078090 0.3930304050 0.3472093046
	0.4153085053 0.3953728974 0.3494597971
	0.4176962078 0.3977056146 0.3516952097
	0.4200707078 0.4000267088 0.3539173901
	0.4224311113 0.4023346007 0.3561232984
	0.4247764051 0.4046272933 0.3583106995
	0.4271036088 0.4069069028 0.3604839146
	0.4294143915 0.4091728926 0.3626427054
	0.4317080081 0.4114241898 0.3647843897
	0.4339860082 0.4136590064 0.3669061959
	0.4362483025 0.4158793986 0.3690074980
	0.4384947121 0.4180856943 0.3710916936
	0.4407278895 0.4202806056 0.3731572032
	0.4429492950 0.4224627912 0.3752071857
	0.4451586008 0.4246312082 0.3772436082
	0.4473553896 0.4267886877 0.3792651892
	0.4495382905 0.4289326072 0.3812715113
	0.4517078996 0.4310675859 0.3832643926
	0.4538640976 0.4331924021 0.3852454126
	0.4560067058 0.4353078902 0.3872154057
	0.4581354856 0.4374152124 0.3891724944
	0.4602501988 0.4395132959 0.3911151886
	0.4623506069 0.4416010976 0.3930422068
	0.4644348025 0.4436782002 0.3949519098
	0.4665004909 0.4457429945 0.3968465030
	0.4685483873 0.4477992058 0.3987269998
	0.4705809951 0.4498446882 0.4005940855
	0.4725970030 0.4518814087 0.4024456143
	0.4745942950 0.4539059103 0.4042817056
	0.4765745997 0.4559206069 0.4061039090
	0.4785369933 0.4579218924 0.4079152048
	0.4804831147 0.4599123001 0.4097140133
	0.4824160933 0.4618884921 0.4115009010
	0.4843369126 0.4638526142 0.4132741988
	0.4862442017 0.4658051133 0.4150344133
	0.4881368876 0.4677473903 0.4167799056
	0.4900161922 0.4696780145 0.4185154140
	0.4918822050 0.4715974033 0.4202412963
	0.4937359989 0.4735072851 0.4219577014
	0.4955778122 0.4754084051 0.4236656129
	0.4974071980 0.4772998095 0.4253664017
	0.4992232919 0.4791795909 0.4270611107
	0.5010253191 0.4810472131 0.4287497997
	0.5028162003 0.4829035103 0.4304314852
	0.5045911074 0.4847469032 0.4321100116
	0.5063520074 0.4865756035 0.4337812066
	0.5080993772 0.4883880019 0.4354482889
	0.5098353028 0.4901869893 0.4371086061
	0.5115584135 0.4919714034 0.4387632906
	0.5132681727 0.4937416911 0.4404115975
	0.5149654746 0.4954991937 0.4420526028
	0.5166510940 0.4972419143 0.4436877966
	0.5183221102 0.4989711940 0.4453130066
	0.5199794769 0.5006883740 0.4469313920
	0.5216261744 0.5023959875 0.4485433996
	0.5232623219 0.5040932894 0.4501496851
	0.5248879194 0.5057805181 0.4517503083
	0.5265035033 0.5074588060 0.4533442855
	0.5281016231 0.5091217756 0.4549309015
	0.5296890140 0.5107734203 0.4565131068
	0.5312656760 0.5124161243 0.4580908120
	0.5328325033 0.5140507221 0.4596638978
	0.5343909860 0.5156767964 0.4612325132
	0.5359356999 0.5172935128 0.4627946019
	0.5374701023 0.5189024210 0.4643518031
	0.5389943719 0.5205038190 0.4659039974
	0.5405091047 0.5220975280 0.4674513042
	0.5420141220 0.5236791968 0.4689922929
	0.5435104966 0.5252534747 0.4705272019
	0.5449982285 0.5268201232 0.4720568061
	0.5464764833 0.5283790827 0.4735811949
	0.5479413867 0.5299316049 0.4750989974
	0.5493953824 0.5314735174 0.4766100943
	0.5508413911 0.5330083966 0.4781157076
	0.5522797704 0.5345366001 0.4796159863
	0.5537052155 0.5360544920 0.4811086059
	0.5551214218 0.5375661254 0.4825947881
	0.5565286875 0.5390713811 0.4840748906
	0.5579245090 0.5405685902 0.4855479002
	0.5593087077 0.5420556068 0.4870094061
	0.5606855154 0.5435367227 0.4884645045
	0.5620552897 0.5450118780 0.4899129868
	0.5634167790 0.5464770794 0.4913502932
	0.5647714138 0.5479345918 0.4927789867
	0.5661193728 0.5493863225 0.4941999018
	0.5674555898 0.5508307815 0.4956082106
	0.5687829256 0.5522680879 0.4970068932
	0.5701043010 0.5537011027 0.4983989000
	0.5714179873 0.5551288724 0.4997817874
	0.5727239251 0.5565506816 0.5011560917
	0.5740242004 0.5579689145 0.5025244951
	0.5753160715 0.5593820214 0.5038843155
	0.5766007900 0.5607866049 0.5052357912
	0.5778805017 0.5621855855 0.5065827966
	0.5791519880 0.5635759830 0.5079236031
	0.5804169178 0.5649588108 0.5092585087
	0.5816770792 0.5663369298 0.5105897188
	0.5829272270 0.5677073002 0.5119146109
	0.5841702223 0.5690726042 0.5132346749
	0.5854083896 0.5704342723 0.5145516992
	0.5866373777 0.5717855096 0.5158618093
	0.5878623724 0.5731319785 0.5171685815
	0.5890823007 0.5744730830 0.5184715986
	0.5902937055 0.5758020282 0.5197688937
	0.5915008187 0.5771260858 0.5210636258
	0.5926988721 0.5784417987 0.5223534703
	0.5938925147 0.5797501802 0.5236395001
	0.5950831771 0.5810542107 0.5249232054
	0.5962653160 0.5823497176 0.5262010098
	0.5974434018 0.5836412907 0.5274763107
	0.5986136198 0.5849254727 0.5287467241
	0.5997778177 0.5862020850 0.5300114751
	0.6009387970 0.5874748230 0.5312736034
	0.6020932198 0.5887362957 0.5325291157
	0.6032456160 0.5899950862 0.5337823033
	0.6043936014 0.5912477970 0.5350301862
	0.6055356264 0.5924956203 0.5362746119
	0.6066730022 0.5937396884 0.5375164747
	0.6078019142 0.5949761868 0.5387526155
	0.6089282036 0.5962103009 0.5399869084
	0.6100460291 0.5974360704 0.5412151814
	0.6111602783 0.5986577868 0.5424402952
	0.6122679114 0.5998724103 0.5436596870
	0.6133708954 0.6010810733 0.5448756218
	0.6144707203 0.6022859216 0.5460891724
	0.6155622005 0.6034839749 0.5472962856
	0.6166514754 0.6046805978 0.5485017896
	0.6177281141 0.6058706045 0.5497025847
	0.6188026071 0.6070585251 0.5509018898
	0.6198686957 0.6082382798 0.5520957708
	0.6209319830 0.6094141006 0.5532882214
	0.6219903827 0.6105834842 0.5544781089
	0.6230461001 0.6117473245 0.5556638837
	0.6240993738 0.6129062772 0.5568463802
	0.6251472831 0.6140604019 0.5580248833
	0.6261926293 0.6152123213 0.5592017174
	0.6272296906 0.6163583994 0.5603731871
	0.6282647848 0.6175032258 0.5615437031
	0.6292926073 0.6186398864 0.5627098083
	0.6303197145 0.6197757125 0.5638754964
	0.6313399076 0.6209014058 0.5650361180
	0.6323593259 0.6220262051 0.5661963820
	0.6333720088 0.6231431961 0.5673534870
	0.6343832016 0.6242589951 0.5685095787
	0.6353875995 0.6253690720 0.5696610212
	0.6363899708 0.6264768839 0.5708104968
	0.6373851895 0.6275768280 0.5719538927
	0.6383780837 0.6286739707 0.5730956197
	0.6393638253 0.6297637224 0.5742328763
	0.6403476000 0.6308506727 0.5753682256
	0.6413263083 0.6319305897 0.5764986873
	0.6423032880 0.6330078840 0.5776277781
	0.6432760954 0.6340783238 0.5787534118
	0.6442463994 0.6351463199 0.5798763037
	0.6452097297 0.6362072825 0.5809919834
	0.6461709738 0.6372658014 0.5821056962
	0.6471257210 0.6383160949 0.5832133293
	0.6480792165 0.6393647790 0.5843191743
	0.6490263939 0.6404061913 0.5854179859
	0.6499727964 0.6414468288 0.5865159035
	0.6509122849 0.6424813271 0.5876076818
	0.6518514752 0.6435155869 0.5886991024
	0.6527829170 0.6445450187 0.5897815824
	0.6537142992 0.6455743909 0.5908641219
	0.6546376944 0.6465963721 0.5919384956
	0.6555603743 0.6476178765 0.5930123925
	0.6564759016 0.6486306787 0.5940799117
	0.6573897004 0.6496415138 0.5951458812
	0.6582992077 0.6506463289 0.5962070227
	0.6592066884 0.6516482234 0.5972657800
	0.6601099968 0.6526457071 0.5983211994
	0.6610093117 0.6536391973 0.5993734002
	0.6619052887 0.6546294093 0.6004229784
	0.6627947092 0.6556134224 0.6014679074
	0.6636828780 0.6565961838 0.6025115252
	0.6645650268 0.6575726271 0.6035487056
	0.6654471159 0.6585490704 0.6045858264
	0.6663234830 0.6595203876 0.6056172848
	0.6671994925 0.6604915261 0.6066485047
	0.6680691242 0.6614578962 0.6076750755
	0.6689361930 0.6624224782 0.6086999774
	0.6697993875 0.6633834243 0.6097220182
	0.6706585288 0.6643403172 0.6107410192
	0.6715161204 0.6652954221 0.6117582917
	0.6723682880 0.6662437916 0.6127699018
	0.6732205749 0.6671922207 0.6137815118
	0.6740664840 0.6681342721 0.6147891283
	0.6749119163 0.6690760255 0.6157965064
	0.6757528782 0.6700139046 0.6167991757
	0.6765912771 0.6709495783 0.6177995205
	0.6774272919 0.6718820930 0.6187973022
	0.6782582998 0.6728078723 0.6197900176
	0.6790893078 0.6737337112 0.6207826734
	0.6799132228 0.6746503115 0.6217687130
	0.6807367802 0.6755667925 0.6227545738
	0.6815574765 0.6764777899 0.6237366796
	0.6823765039 0.6773855090 0.6247165203
	0.6831939816 0.6782909036 0.6256946921
	0.6840069294 0.6791892052 0.6266679764
	0.6848198175 0.6800873876 0.6276412010
	0.6856262088 0.6809793711 0.6286085844
	0.6864315271 0.6818702221 0.6295750141
	0.6872345805 0.6827588081 0.6305391788
	0.6880347729 0.6836444139 0.6315007806
	0.6888350248 0.6845300198 0.6324623823
	0.6896290183 0.6854097843 0.6334151030
	0.6904228926 0.6862894893 0.6343677044
	0.6912125945 0.6871656179 0.6353166103
	0.6919984818 0.6880385280 0.6362622976
	0.6927841902 0.6889110208 0.6372076273
	0.6935647726 0.6897763014 0.6381461024
	0.6943454146 0.6906415820 0.6390845776
	0.6951224208 0.6915038824 0.6400200725
	0.6958963871 0.6923636794 0.6409534216
	0.6966701746 0.6932234168 0.6418864131
	0.6974359155 0.6940783858 0.6428129077
	0.6982017159 0.6949334145 0.6437392831
	0.6989647150 0.6957843900 0.6446622014
	0.6997249126 0.6966313720 0.6455814838
	0.7004849911 0.6974784732 0.6465008855
	0.7012411952 0.6983184814 0.6474134922
	0.7019971013 0.6991580725 0.6483256817
	0.7027515173 0.6999952793 0.6492353082
	0.7035031915 0.7008281946 0.6501401067
	0.7042549253 0.7016611099 0.6510447860
	0.7050036788 0.7024886012 0.6519446969
	0.7057514191 0.7033143044 0.6528429985
	0.7064986229 0.7041394114 0.6537404060
	0.7072420716 0.7049599886 0.6546317935
	0.7079855204 0.7057806253 0.6555231810
	0.7087271214 0.7065981030 0.6564105749
	0.7094665170 0.7074120045 0.6572937965
	0.7102057934 0.7082259059 0.6581770182
	0.7109420896 0.7090328932 0.6590545774
	0.7116774917 0.7098382115 0.6599308252
	0.7124124765 0.7106426954 0.6608062983
	0.7131438255 0.7114415169 0.6616767049
	0.7138749957 0.7122402787 0.6625469923
	0.7146041989 0.7130368948 0.6634144187
	0.7153301239 0.7138301134 0.6642774940
	0.7160559893 0.7146233916 0.6651405096
	0.7167779207 0.7154110074 0.6660001278
	0.7174975872 0.7161955833 0.6668580174
	0.7182173133 0.7169802785 0.6677159071
	0.7189335227 0.7177579999 0.6685678959
	0.7196493149 0.7185348868 0.6694192886
	0.7203645110 0.7193109989 0.6702697873
	0.7210751772 0.7200810909 0.6711146235
	0.7217859030 0.7208511829 0.6719594002
	0.7224943042 0.7216190100 0.6728019714
	0.7231976986 0.7223820090 0.6736403108
	0.7239010930 0.7231450081 0.6744784713
	0.7246015072 0.7239043713 0.6753134131
	0.7252988219 0.7246599793 0.6761450768
	0.7259960771 0.7254155874 0.6769768000
	0.7266904712 0.7261663079 0.6778048873
	0.7273831964 0.7269141078 0.6786310077
	0.7280758023 0.7276619077 0.6794571280
	0.7287634015 0.7284036279 0.6802788973
	0.7294492126 0.7291433215 0.6810994148
	0.7301350832 0.7298830152 0.6819198132
	0.7308161855 0.7306177020 0.6827344894
	0.7314965725 0.7313514948 0.6835482121
	0.7321768999 0.7320852876 0.6843619943
	0.7328532934 0.7328147292 0.6851683259
	0.7335293889 0.7335436940 0.6859741211
	0.7342054844 0.7342727184 0.6867799163
	0.7348755002 0.7349944711 0.6875799894
	0.7355453968 0.7357162237 0.6883801222
	0.7362151742 0.7364377975 0.6891800761
	0.7368800044 0.7371528745 0.6899746060
	0.7375447750 0.7378680706 0.6907690763
	0.7382096052 0.7385832071 0.6915634871
	0.7388706207 0.7392929196 0.6923534274
	0.7395316958 0.7400025725 0.6931431890
	0.7401927114 0.7407122850 0.6939331293
	0.7408468127 0.7414141893 0.6947162747
	0.7415009141 0.7421159744 0.6954995990
	0.7421548963 0.7428178191 0.6962828040
	0.7428026199 0.7435129285 0.6970598102
	0.7434499264 0.7442076206 0.6978365183
	0.7440971732 0.7449023128 0.6986131072
	0.7447416782 0.7455918193 0.6993851066
	0.7453858256 0.7462803721 0.7001565099
	0.7460299134 0.7469691038 0.7009277940
	0.7466691136 0.7476530075 0.7016950250
	0.7473068833 0.7483354807 0.7024608850
	0.7479445934 0.7490180135 0.7032269239
	0.7485784292 0.7496981025 0.7039886713
	0.7492100000 0.7503767014 0.7047483921
	0.7498415709 0.7510554194 0.7055081129
	0.7504718900 0.7517315149 0.7062641978
	0.7511010170 0.7524052262 0.7070168853
	0.7517300248 0.7530788183 0.7077695727
	0.7523571253 0.7537503839 0.7085205913
	0.7529804111 0.7544177175 0.7092683911
	0.7536036968 0.7550848722 0.7100160718
	0.7542262077 0.7557517290 0.7107632756
	0.7548426986 0.7564147711 0.7115064859
	0.7554591894 0.7570779920 0.7122498155
	0.7560756803 0.7577410936 0.7129930258
	0.7566884756 0.7583994865 0.7137312293
	0.7573007941 0.7590574026 0.7144687772
	0.7579131722 0.7597153187 0.7152063251
	0.7585223913 0.7603682280 0.7159397006
	0.7591298223 0.7610182762 0.7166706920
	0.7597371936 0.7616683841 0.7174018025
	0.7603425980 0.7623162270 0.7181308866
	0.7609441280 0.7629598975 0.7188568115
	0.7615455985 0.7636035085 0.7195826769
	0.7621468902 0.7642468810 0.7203084230
	0.7627450824 0.7648851871 0.7210304737
	0.7633432150 0.7655234933 0.7217525244
	0.7639414072 0.7661617994 0.7224745750
	0.7645366192 0.7667945027 0.7231923938
	0.7651305795 0.7674250007 0.7239086032
	0.7657245994 0.7680554986 0.7246248126
	0.7663164139 0.7686836720 0.7253388762
	0.7669041157 0.7693076730 0.7260494232
	0.7674916983 0.7699316144 0.7267599106
	0.7680794001 0.7705556154 0.7274703979
	0.7686625719 0.7711765170 0.7281758785
	0.7692456245 0.7717971802 0.7288811207
	0.7698286176 0.7724180222 0.7295863032
	0.7704098821 0.7730364203 0.7302888036
	0.7709895968 0.7736529112 0.7309889793
	0.7715693116 0.7742694020 0.7316892147
	0.7721486092 0.7748854160 0.7323889732
	0.7727230191 0.7754955888 0.7330843210
	0.7732973099 0.7761058211 0.7337794900
	0.7738716006 0.7767159939 0.7344747782
	0.7744429708 0.7773231864 0.7351666093
	0.7750123739 0.7779282928 0.7358562946
	0.7755817175 0.7785333991 0.7365459800
	0.7761507034 0.7791380882 0.7372353077
	0.7767155766 0.7797393203 0.7379208803
	0.7772805095 0.7803406119 0.7386065722
	0.7778455019 0.7809417844 0.7392922044
	0.7784079909 0.7815397978 0.7399750948
	0.7789685726 0.7821353078 0.7406558990
	0.7795292139 0.7827306986 0.7413367033
	0.7800899148 0.7833262086 0.7420175076
	0.7806466818 0.7839170098 0.7426925898
	0.7812033892 0.7845076919 0.7433677912
	0.7817602158 0.7850984931 0.7440428734
	0.7823156118 0.7856879234 0.7447155118
	0.7828689814 0.7862753272 0.7453842759
	0.7834224105 0.7868626118 0.7460532188
	0.7839757204 0.7874500155 0.7467219830
	0.7845265865 0.7880331874 0.7473868728
	0.7850766778 0.7886152267 0.7480508089
	0.7856268287 0.7891972065 0.7487146258
	0.7861765027 0.7897787094 0.7493779063
	0.7867226005 0.7903565168 0.7500371933
	0.7872688174 0.7909343243 0.7506964803
	0.7878149152 0.7915120721 0.7513558269
	0.7883592248 0.7920885086 0.7520118952
	0.7889010906 0.7926632762 0.7526640296
	0.7894430161 0.7932379842 0.7533161044
	0.7899848223 0.7938128114 0.7539681792
	0.7905251980 0.7943832278 0.7546153069
	0.7910649180 0.7949519753 0.7552605867
	0.7916046977 0.7955207229 0.7559058070
	0.7921444178 0.7960894704 0.7565510869
	0.7926815152 0.7966526747 0.7571910024
	0.7932183743 0.7972157001 0.7578307986
	0.7937554121 0.7977787256 0.7584705949
	0.7942914963 0.7983412147 0.7591093183
	0.7948241234 0.7989016175 0.7597439289
	0.7953568101 0.7994620800 0.7603784800
	0.7958894968 0.8000226021 0.7610130906
	0.7964202166 0.8005809188 0.7616454959
	0.7969478965 0.8011360168 0.7622743845
	0.7974755764 0.8016909957 0.7629033923
	0.7980033159 0.8022460938 0.7635322809
	0.7985295057 0.8027976751 0.7641590238
	0.7990543842 0.8033463955 0.7647839189
	0.7995793819 0.8038951755 0.7654088140
	0.8001043200 0.8044440150 0.7660337090
	0.8006263971 0.8049899936 0.7666553855
	0.8011472225 0.8055347204 0.7672758102
	0.8016679287 0.8060795069 0.7678961754
	0.8021886945 0.8066241741 0.7685164809
	0.8027051091 0.8071653843 0.7691326737
	0.8032202721 0.8077054024 0.7697477937
	0.8037353754 0.8082454801 0.7703629136
	0.8042505980 0.8087856174 0.7709779143
	0.8047627807 0.8093202114 0.7715882063
	0.8052744269 0.8098536730 0.7721974850
	0.8057860136 0.8103871942 0.7728068233
	0.8062974811 0.8109207153 0.7734162211
	0.8068054914 0.8114497066 0.7740216851
	0.8073129058 0.8119781017 0.7746266723
	0.8078203201 0.8125064969 0.7752317190
	0.8083277941 0.8130347729 0.7758368254
	0.8088303804 0.8135598898 0.7764384151
	0.8093321919 0.8140844107 0.7770395875
	0.8098341227 0.8146088719 0.7776407003
	0.8103358746 0.8151333928 0.7782418728
	0.8108342886 0.8156532049 0.7788380980
	0.8113318086 0.8161720037 0.7794333100
	0.8118293881 0.8166908026 0.7800284028
	0.8123269081 0.8172097206 0.7806236148
	0.8128222823 0.8177251816 0.7812144756
	0.8133168817 0.8182396889 0.7818040252
	0.8138114810 0.8187540770 0.7823935151
	0.8143060803 0.8192685843 0.7829831243
	0.8147979975 0.8197811246 0.7835692167
	0.8152884245 0.8202924728 0.7841535807
	0.8157786727 0.8208039999 0.7847380042
	0.8162690997 0.8213154078 0.7853223085
	0.8167579174 0.8218243122 0.7859038711
	0.8172453046 0.8223307729 0.7864828110
	0.8177325726 0.8228374124 0.7870616913
	0.8182200193 0.8233438730 0.7876405716
	0.8187068105 0.8238489032 0.7882180810
	0.8191924095 0.8243508935 0.7887930274
	0.8196780086 0.8248528838 0.7893679738
	0.8201637268 0.8253548741 0.7899429202
	0.8206487894 0.8258563876 0.7905169725
	0.8211302757 0.8263542056 0.7910869122
	0.8216118813 0.8268520832 0.7916566730
	0.8220934272 0.8273500204 0.7922264934
	0.8225749731 0.8278478980 0.7927963734
	0.8230516911 0.8283423185 0.7933602929
	0.8235278726 0.8288363218 0.7939236760
	0.8240039945 0.8293302059 0.7944871187
	0.8244801164 0.8298242092 0.7950503826
	0.8249552846 0.8303152919 0.7956107259
	0.8254299164 0.8308048248 0.7961691022
	0.8259044886 0.8312941790 0.7967274785
	0.8263791203 0.8317837119 0.7972859144
	0.8268527985 0.8322715759 0.7978432178
	0.8273245096 0.8327561021 0.7983981967
	0.8277962208 0.8332406282 0.7989532948
	0.8282678723 0.8337250948 0.7995082736
	0.8287395835 0.8342096210 0.8000633717
	0.8292062879 0.8346912861 0.8006147146
	0.8296728134 0.8351728916 0.8011659980
	0.8301392794 0.8356546164 0.8017172813
	0.8306058049 0.8361362219 0.8022685051
	0.8310710788 0.8366158009 0.8028172851
	0.8315353990 0.8370940089 0.8033642769
	0.8319997787 0.8375722170 0.8039113879
	0.8324642181 0.8380503058 0.8044583797
	0.8329282999 0.8385276794 0.8050045967
	0.8333910704 0.8390009999 0.8055471182
	0.8338539004 0.8394743204 0.8060895801
	0.8343166113 0.8399475813 0.8066321015
	0.8347793818 0.8404209018 0.8071746230
	0.8352388144 0.8408915997 0.8077148795
	0.8356966972 0.8413612843 0.8082543015
	0.8361546993 0.8418310285 0.8087937832
	0.8366125822 0.8423007131 0.8093332052
	0.8370695710 0.8427699208 0.8098720908
	0.8375232220 0.8432372808 0.8104090095
	0.8379768133 0.8437047005 0.8109459281
	0.8384304047 0.8441720009 0.8114827871
	0.8388838768 0.8446394205 0.8120197058
	0.8393365741 0.8451036811 0.8125535250
	0.8397887945 0.8455665112 0.8130859137
	0.8402410746 0.8460292220 0.8136183023
	0.8406932950 0.8464919925 0.8141508102
	0.8411452174 0.8469541073 0.8146827221
	0.8415938020 0.8474109769 0.8152111769
	0.8420425057 0.8478677869 0.8157396913
	0.8424912095 0.8483247161 0.8162680864
	0.8429399133 0.8487815261 0.8167966008
	0.8433864713 0.8492373228 0.8173233867
	0.8438311815 0.8496921062 0.8178485036
	0.8442757726 0.8501468897 0.8183735013
	0.8447204828 0.8506016731 0.8188986182
	0.8451651931 0.8510563970 0.8194236755
	0.8456082940 0.8515083194 0.8199456930
	0.8460512161 0.8519595861 0.8204671741
	0.8464940786 0.8524109125 0.8209887743
	0.8469370008 0.8528622985 0.8215103149
	0.8473795056 0.8533126116 0.8220310807
	0.8478202820 0.8537582755 0.8225489855
	0.8482609987 0.8542038798 0.8230667710
	0.8487017155 0.8546496034 0.8235846162
	0.8491423726 0.8550952077 0.8241025209
	0.8495807052 0.8555396795 0.8246183991
	0.8500161767 0.8559827209 0.8251321912
	0.8504515886 0.8564257026 0.8256459236
	0.8508870006 0.8568686247 0.8261595964
	0.8513224125 0.8573116064 0.8266733885
	0.8517556787 0.8577530980 0.8271840811
	0.8521881104 0.8581939936 0.8276935816
	0.8526204824 0.8586348295 0.8282030821
	0.8530527949 0.8590756059 0.8287125826
	0.8534852266 0.8595165014 0.8292220831
