release/datafiles/colormanagement/luts/film_response/agfa_agfacolor_hdc_400_plus.spi1d
Version 1
From 0.0 1.0
Length 1024
Components 3
{
	0.0000000000 0.0000000000 0.0000000000
	0.0188545007 0.0200409293 0.0140067302
	0.0332524888 0.0348740518 0.0258749295
	0.0452598706 0.0475615300 0.0362151787
	0.0559787415 0.0589470603 0.0456109904
	0.0658830702 0.0694492683 0.0543236583
	0.0752111897 0.0792194605 0.0625015125
	0.0841012076 0.0884407684 0.0702229664
	0.0926621929 0.0972259119 0.0775719434
	0.1009650975 0.1056030989 0.0846038684
	0.1090589985 0.1136253998 0.0913083479
	0.1170130968 0.1213366017 0.0977427885
	0.1247942969 0.1287464052 0.1039230004
	0.1323173046 0.1358782053 0.1098598987
	0.1394851059 0.1427361071 0.1155802011
	0.1463093013 0.1493203044 0.1211000010
	0.1528204978 0.1556663066 0.1264265031
	0.1590683013 0.1617784947 0.1315815002
	0.1650577933 0.1676822007 0.1365823001
	0.1708182991 0.1734001040 0.1414559036
	0.1763903052 0.1789600998 0.1462168992
	0.1817798018 0.1843533963 0.1508775055
	0.1870086044 0.1895903945 0.1554276943
	0.1920844018 0.1946922988 0.1598816961
	0.1970220059 0.1996600926 0.1642390937
	0.2018329054 0.2045013011 0.1684959978
	0.2065093070 0.2092238963 0.1726709008
	0.2110690027 0.2138542980 0.1767773032
	0.2155348957 0.2183912992 0.1808128059
	0.2198981047 0.2228228003 0.1847777069
	0.2241635025 0.2271593064 0.1886793971
	0.2283228040 0.2314175963 0.1925252974
	0.2323801965 0.2355985940 0.1963074058
	0.2363557965 0.2396991998 0.2000353038
	0.2402614951 0.2437127978 0.2036948055
	0.2441187054 0.2476392984 0.2072975934
	0.2479200959 0.2514924109 0.2108584046
	0.2516668141 0.2552962005 0.2143702954
	0.2553597987 0.2590639889 0.2178401053
	0.2590073943 0.2627837062 0.2212640047
	0.2626096010 0.2664473057 0.2246434987
	0.2661620975 0.2700594962 0.2279828042
	0.2696613073 0.2736192942 0.2312768996
	0.2731044888 0.2771342099 0.2345380038
	0.2764894962 0.2806042135 0.2377575040
	0.2798126042 0.2840265930 0.2409393936
	0.2830832899 0.2873997092 0.2440892011
	0.2863064110 0.2907201052 0.2471970022
	0.2894839048 0.2939862907 0.2502729893
	0.2926194966 0.2971968949 0.2533178031
	0.2957077026 0.3003590107 0.2563329041
	0.2987434864 0.3034782112 0.2593177855
	0.3017309904 0.3065663874 0.2622711957
	0.3046731055 0.3096238971 0.2652002871
	0.3075759113 0.3126527965 0.2681050003
	0.3104431033 0.3156541884 0.2709783912
	0.3132778108 0.3186286986 0.2738296092
	0.3160825074 0.3215768933 0.2766565979
	0.3188611865 0.3244988918 0.2794562876
	0.3216165900 0.3273960948 0.2822301984
	0.3243513107 0.3302688003 0.2849779129
	0.3270677924 0.3331151903 0.2877022028
	0.3297683895 0.3359293044 0.2903991938
	0.3324556947 0.3387104869 0.2930696011
	0.3351315856 0.3414531052 0.2957195044
	0.3377983868 0.3441590071 0.2983430922
	0.3404580057 0.3468317986 0.3009459972
	0.3431122899 0.3494741917 0.3035286963
	0.3457567990 0.3520886004 0.3060950041
	0.3483870029 0.3546772897 0.3086442053
	0.3509952128 0.3572408855 0.3111701012
	0.3535763919 0.3597824872 0.3136737049
	0.3561269045 0.3623043895 0.3161568940
	0.3586477935 0.3648073971 0.3186241984
	0.3611387014 0.3672929108 0.3210709095
	0.3636046052 0.3697636127 0.3234997094
	0.3660457134 0.3722181916 0.3259125948
	0.3684634864 0.3746534884 0.3283078969
	0.3708611131 0.3770717978 0.3306862116
	0.3732374012 0.3794744015 0.3330459893
	0.3755970895 0.3818623126 0.3353869021
	0.3779377937 0.3842301071 0.3377087116
	0.3802644014 0.3865832984 0.3400174975
	0.3825747967 0.3889225125 0.3423081040
	0.3848729134 0.3912503123 0.3445838094
	0.3871577978 0.3935666978 0.3468438089
	0.3894316852 0.3958694041 0.3490906954
	0.3916954100 0.3981603980 0.3513231874
	0.3939490914 0.4004369080 0.3535391092
	0.3961951137 0.4026972055 0.3557423055
	0.3984332085 0.4049367011 0.3579295874
	0.4006646872 0.4071569145 0.3600991964
	0.4028908908 0.4093607068 0.3622539937
	0.4051119983 0.4115476012 0.3643927872
	0.4073289931 0.4137150049 0.3665145040
	0.4095427990 0.4158644974 0.3686214983
	0.4117541909 0.4179973006 0.3707144856
	0.4139570892 0.4201147854 0.3727920055
	0.4161537886 0.4222174883 0.3748528957
	0.4183439910 0.4243085980 0.3768979013
	0.4205237925 0.4263896048 0.3789266050
	0.4226934910 0.4284594953 0.3809396923
	0.4248510003 0.4305211902 0.3829380870
	0.4269989133 0.4325712025 0.3849214911
	0.4291365147 0.4346114993 0.3868896961
	0.4312635958 0.4366433918 0.3888421953
	0.4333817959 0.4386653006 0.3907817900
	0.4354879856 0.4406721890 0.3927083015
	0.4375857115 0.4426656961 0.3946214020
	0.4396727085 0.4446468949 0.3965215981
	0.4417509139 0.4466181099 0.3984085917
	0.4438194931 0.4485799074 0.4002822936
	0.4458774030 0.4505313933 0.4021424949
	0.4479227960 0.4524719119 0.4039889872
	0.4499554038 0.4544002116 0.4058243036
	0.4519762993 0.4563159049 0.4076485038
	0.4539847076 0.4582194090 0.4094625115
	0.4559822977 0.4601128101 0.4112651944
	0.4579656124 0.4619938135 0.4130575061
	0.4599342942 0.4638626873 0.4148383141
	0.4618889093 0.4657208920 0.4166125953
	0.4638301134 0.4675695002 0.4183782041
	0.4657584131 0.4694097936 0.4201379120
	0.4676744044 0.4712429941 0.4218888879
	0.4695785046 0.4730699956 0.4236342013
	0.4714691937 0.4748862982 0.4253711104
	0.4733453989 0.4766918123 0.4271022975
	0.4752089083 0.4784876108 0.4288255870
	0.4770591855 0.4802748859 0.4305430055
	0.4788978100 0.4820528924 0.4322530031
	0.4807246923 0.4838208854 0.4339570105
	0.4825393856 0.4855782092 0.4356541038
	0.4843406081 0.4873236120 0.4373449087
	0.4861288071 0.4890565872 0.4390296042
	0.4879052043 0.4907774925 0.4407073855
	0.4896669984 0.4924885035 0.4423801005
	0.4914163053 0.4941891134 0.4440453053
	0.4931511879 0.4958809912 0.4457054138
	0.4948748052 0.4975647032 0.4473578930
	0.4965868890 0.4992407858 0.4490056038
	0.4982892871 0.5009080172 0.4506456852
	0.4999811053 0.5025680065 0.4522778988
	0.5016608238 0.5042217970 0.4539025128
	0.5033277869 0.5058667064 0.4555189908
	0.5049809813 0.5075010061 0.4571281075
	0.5066220760 0.5091261864 0.4587261975
	0.5082523823 0.5107440948 0.4603149891
	0.5098735094 0.5123543739 0.4618948102
	0.5114861131 0.5139557719 0.4634658098
	0.5130900741 0.5155460238 0.4650284052
	0.5146843791 0.5171270967 0.4665809870
	0.5162659287 0.5186967850 0.4681251943
	0.5178381205 0.5202578902 0.4696618021
	0.5194014907 0.5218108296 0.4711911976
	0.5209562182 0.5233557224 0.4727137089
	0.5225027204 0.5248928070 0.4742273986
	0.5240399241 0.5264220834 0.4757342041
	0.5255666971 0.5279446244 0.4772349000
	0.5270826221 0.5294610262 0.4787296057
	0.5285871029 0.5309712887 0.4802174866
	0.5300801992 0.5324715972 0.4816986024
	0.5315656066 0.5339645743 0.4831734896
	0.5330439210 0.5354511142 0.4846417010
	0.5345147848 0.5369303823 0.4861015081
	0.5359786153 0.5384036899 0.4875538051
	0.5374345779 0.5398699045 0.4889999032
	0.5388823748 0.5413284898 0.4904398918
	0.5403190255 0.5427761078 0.4918713868
	0.5417451859 0.5442144275 0.4932934940
	0.5431644917 0.5456464291 0.4947094917
	0.5445777774 0.5470724106 0.4961200953
	0.5459790826 0.5484896898 0.4975199103
	0.5473731756 0.5499022007 0.4989153147
	0.5487601161 0.5513098240 0.5003060102
	0.5501369238 0.5527070761 0.5016881227
	0.5515047908 0.5540965199 0.5030658245
	0.5528663993 0.5554798841 0.5044389963
	0.5542203188 0.5568554997 0.5058041215
	0.5555655956 0.5582247972 0.5071626902
	0.5569046140 0.5595903993 0.5085164905
	0.5582354069 0.5609512925 0.5098640919
	0.5595571995 0.5623037219 0.5112056732
	0.5608744025 0.5636506081 0.5125434995
	0.5621863008 0.5649901032 0.5138760209
	0.5634893179 0.5663208961 0.5152037144
	0.5647879243 0.5676466823 0.5165277719
	0.5660805702 0.5689647198 0.5178461075
	0.5673637986 0.5702759027 0.5191584826
	0.5686416030 0.5715829730 0.5204676986
	0.5699104071 0.5728827119 0.5217714906
	0.5711724758 0.5741752982 0.5230712891
	0.5724303126 0.5754632950 0.5243685842
	0.5736793280 0.5767428279 0.5256611705
	0.5749223232 0.5780189037 0.5269505978
	0.5761598945 0.5792912841 0.5282369256
	0.5773891807 0.5805559158 0.5295171142
	0.5786157250 0.5818173885 0.5307943821
	0.5798376203 0.5830736160 0.5320662856
	0.5810524225 0.5843229294 0.5333334804
	0.5822634101 0.5855684876 0.5345982909
	0.5834617019 0.5868036151 0.5358551741
	0.5846555233 0.5880358219 0.5371090174
	0.5858426094 0.5892624855 0.5383573771
	0.5870230794 0.5904846787 0.5395992994
	0.5882006884 0.5917047858 0.5408381224
	0.5893698931 0.5929183960 0.5420668125
	0.5905355811 0.5941283703 0.5432921052
	0.5916948915 0.5953302979 0.5445101261
	0.5928494930 0.5965275168 0.5457227826
	0.5940014720 0.5977213979 0.5469322205
	0.5951455235 0.5989087224 0.5481334925
	0.5962870121 0.6000937819 0.5493327975
	0.5974202752 0.6012709141 0.5505263209
	0.5985488296 0.6024438739 0.5517168045
	0.5996711254 0.6036102176 0.5529028773
	0.6007874012 0.6047713161 0.5540845990
	0.6019008160 0.6059291959 0.5552638173
	0.6030085087 0.6070817113 0.5564357042
	0.6041145921 0.6082327962 0.5576059818
	0.6052119732 0.6093747020 0.5587717295
	0.6063060164 0.6105144024 0.5599352717
	0.6073911786 0.6116470098 0.5610927939
	0.6084719896 0.6127761006 0.5622478127
	0.6095473170 0.6139001250 0.5633994937
	0.6106179953 0.6150193214 0.5645474792
	0.6116858125 0.6161350012 0.5656930804
	0.6127483249 0.6172463298 0.5668336153
	0.6138089895 0.6183556914 0.5679724216
	0.6148627996 0.6194601059 0.5691046715
	0.6159157157 0.6205636263 0.5702360272
	0.6169633269 0.6216604114 0.5713596940
	0.6180101037 0.6227564216 0.5724828839
	0.6190497279 0.6238446832 0.5736011267
	0.6200875044 0.6249315739 0.5747177005
	0.6211166978 0.6260104179 0.5758256912
	0.6221439838 0.6270869970 0.5769320130
	0.6231651902 0.6281551719 0.5780321956
	0.6241847873 0.6292213202 0.5791301131
	0.6252005100 0.6302810907 0.5802220702
	0.6262137294 0.6313390732 0.5813122988
	0.6272215247 0.6323928237 0.5823984742
	0.6282256246 0.6334443092 0.5834822059
	0.6292229891 0.6344907284 0.5845605731
	0.6302174926 0.6355344057 0.5856364965
	0.6312069297 0.6365721822 0.5867068172
	0.6321943998 0.6376072168 0.5877746940
	0.6331781745 0.6386352777 0.5888370872
	0.6341605186 0.6396614909 0.5898970962
	0.6351392865 0.6406822205 0.5909510255
	0.6361160278 0.6417014003 0.5920032263
	0.6370865107 0.6427150965 0.5930498242
	0.6380555034 0.6437277794 0.5940951109
	0.6390181184 0.6447337866 0.5951337814
	0.6399800181 0.6457393169 0.5961719155
	0.6409355998 0.6467369199 0.5972027779
	0.6418911219 0.6477345228 0.5982336998
	0.6428390741 0.6487230062 0.5992593169
	0.6437870860 0.6497110128 0.6002848744
	0.6447305083 0.6506903768 0.6013044715
	0.6456733942 0.6516680717 0.6023231745
	0.6466109157 0.6526402235 0.6033357978
	0.6475467086 0.6536098123 0.6043460965
	0.6484770179 0.6545764208 0.6053528786
	0.6494035721 0.6555402875 0.6063570976
	0.6503273249 0.6565018892 0.6073589921
	0.6512470245 0.6574596167 0.6083570719
	0.6521654129 0.6584159136 0.6093541980
	0.6530792713 0.6593660116 0.6103470922
	0.6539931297 0.6603162289 0.6113399863
	0.6548979282 0.6612582803 0.6123251915
	0.6558027267 0.6622002125 0.6133103967
	0.6567010283 0.6631376147 0.6142895222
	0.6575976014 0.6640735269 0.6152667999
	0.6584901810 0.6650068164 0.6162406206
	0.6593794823 0.6659374237 0.6172112823
	0.6602666974 0.6668658853 0.6181805134
	0.6611484885 0.6677879095 0.6191458106
	0.6620302200 0.6687098742 0.6201111078
	0.6629042029 0.6696240902 0.6210708022
	0.6637783051 0.6705380082 0.6220304966
	0.6646463871 0.6714469790 0.6229835153
	0.6655120850 0.6723536253 0.6239334941
	0.6663749814 0.6732575297 0.6248810291
	0.6672335863 0.6741561890 0.6258239746
	0.6680920124 0.6750550270 0.6267668009
	0.6689471006 0.6759482026 0.6277027726
	0.6698023081 0.6768413782 0.6286388040
	0.6706528068 0.6777299047 0.6295701861
	0.6715013981 0.6786159277 0.6304991841
	0.6723480821 0.6794993281 0.6314260960
	0.6731910110 0.6803758740 0.6323478818
	0.6740338206 0.6812524199 0.6332696080
	0.6748722792 0.6821228266 0.6341838837
	0.6757103205 0.6829922795 0.6350972056
	0.6765457988 0.6838589907 0.6360073090
	0.6773787141 0.6847224236 0.6369137168
	0.6782112718 0.6855856776 0.6378198266
	0.6790390015 0.6864398122 0.6387205124
	0.6798666716 0.6872938871 0.6396213174
	0.6806908250 0.6881433129 0.6405187845
	0.6815124750 0.6889889836 0.6414139867
	0.6823334098 0.6898341179 0.6423081756
	0.6831489205 0.6906722784 0.6431941986
	0.6839643717 0.6915106177 0.6440802217
	0.6847774982 0.6923443079 0.6449621916
	0.6855893135 0.6931747794 0.6458414197
	0.6864004731 0.6940047741 0.6467201710
	0.6872066855 0.6948273182 0.6475932002
	0.6880130172 0.6956499219 0.6484662294
	0.6888151765 0.6964679956 0.6493358016
	0.6896142960 0.6972820163 0.6502025723
	0.6904134154 0.6980959177 0.6510692835
	0.6912078261 0.6989029050 0.6519299746
	0.6920022964 0.6997095942 0.6527906060
	0.6927950978 0.7005147934 0.6536483169
	0.6935858130 0.7013174891 0.6545016766
	0.6943765283 0.7021203041 0.6553550959
	0.6951621175 0.7029188275 0.6562039852
	0.6959465146 0.7037159801 0.6570516229
	0.6967297792 0.7045122981 0.6578981876
	0.6975088120 0.7053027749 0.6587392092
	0.6982877254 0.7060933113 0.6595801711
	0.6990643144 0.7068814039 0.6604182720
	0.6998388171 0.7076671124 0.6612536907
	0.7006133199 0.7084527016 0.6620889902
	0.7013818026 0.7092331052 0.6629180908
	0.7021492720 0.7100123167 0.6637459993
	0.7029157877 0.7107905746 0.6645727754
	0.7036771774 0.7115622759 0.6653935909
	0.7044386268 0.7123339772 0.6662142873
	0.7051976919 0.7131032944 0.6670325994
	0.7059540153 0.7138692141 0.6678475738
	0.7067102790 0.7146351933 0.6686627269
	0.7074630260 0.7153962851 0.6694738865
	0.7082142234 0.7161549926 0.6702834964
	0.7089654803 0.7169137001 0.6710931063
	0.7097116709 0.7176669836 0.6718968153
	0.7104576826 0.7184197903 0.6727002263
	0.7112026811 0.7191722989 0.6735023856
	0.7119430900 0.7199227214 0.6742987037
	0.7126836181 0.7206730843 0.6750949025
	0.7134215236 0.7214214206 0.6758887768
	0.7141550779 0.7221655250 0.6766782999
	0.7148886919 0.7229096293 0.6774678230
	0.7156193852 0.7236497998 0.6782538295
	0.7163475752 0.7243860960 0.6790366769
	0.7170758247 0.7251223922 0.6798195839
	0.7178009748 0.7258551717 0.6805974841
	0.7185249925 0.7265861034 0.6813730001
	0.7192488909 0.7273170948 0.6821485162
	0.7199671268 0.7280430198 0.6829196215
	0.7206841111 0.7287673950 0.6836894155
	0.7214009762 0.7294918895 0.6844593287
	0.7221128941 0.7302092910 0.6852232814
	0.7228242755 0.7309256792 0.6859866977
	0.7235357165 0.7316421866 0.6867499948
	0.7242426872 0.7323533297 0.6875082850
	0.7249497175 0.7330641747 0.6882663965
	0.7256563902 0.7337750793 0.6890243888
	0.7263563275 0.7344793081 0.6897757053
	0.7270562053 0.7351834774 0.6905270219
	0.7277556062 0.7358874083 0.6912779808
	0.7284498811 0.7365834117 0.6920228004
	0.7291440964 0.7372794151 0.6927676201
	0.7298380136 0.7379751801 0.6935120821
	0.7305275798 0.7386654019 0.6942508817
	0.7312173247 0.7393556833 0.6949896812
	0.7319065928 0.7400457859 0.6957281828
	0.7325891256 0.7407314777 0.6964604259
	0.7332715988 0.7414172292 0.6971926093
	0.7339540124 0.7421028018 0.6979246736
	0.7346293926 0.7427842021 0.6986520290
	0.7353047729 0.7434653044 0.6993792057
	0.7359800935 0.7441465259 0.7001065016
	0.7366490960 0.7448238134 0.7008286715
	0.7373176217 0.7455006838 0.7015504241
	0.7379860878 0.7461774945 0.7022721171
	0.7386487722 0.7468507886 0.7029896975
	0.7393102050 0.7475231886 0.7037063241
	0.7399716973 0.7481955886 0.7044230103
	0.7406283021 0.7488650084 0.7051362991
	0.7412828207 0.7495329976 0.7058482170
	0.7419373989 0.7502009869 0.7065600157
	0.7425882220 0.7508667707 0.7072690129
	0.7432361841 0.7515305877 0.7079756260
	0.7438840866 0.7521942854 0.7086821795
	0.7445294261 0.7528566122 0.7093874216
	0.7451704741 0.7535158992 0.7100903988
	0.7458115220 0.7541753054 0.7107933760
	0.7464513183 0.7548338175 0.7114953995
	0.7470856905 0.7554876804 0.7121930122
	0.7477200031 0.7561414838 0.7128906250
	0.7483543158 0.7567954063 0.7135881782
	0.7489826083 0.7574434876 0.7142792940
	0.7496104836 0.7580910921 0.7149698138
	0.7502384186 0.7587388158 0.7156603932
	0.7508633137 0.7593836188 0.7163473964
	0.7514868975 0.7600269914 0.7170326114
	0.7521104217 0.7606704235 0.7177178264
	0.7527319193 0.7613118291 0.7184010744
	0.7533503771 0.7619500160 0.7190815210
	0.7539688945 0.7625880837 0.7197619081
	0.7545869946 0.7632259130 0.7204418182
	0.7552015185 0.7638580203 0.7211170197
	0.7558159828 0.7644901872 0.7217922807
	0.7564306259 0.7651224136 0.7224674821
	0.7570430040 0.7657516003 0.7231383920
	0.7576547265 0.7663797736 0.7238079906
	0.7582663894 0.7670078874 0.7244775295
	0.7588763237 0.7676342130 0.7251446843
	0.7594832778 0.7682573199 0.7258080840
	0.7600904107 0.7688804269 0.7264714837
	0.7606974244 0.7695034742 0.7271348238
	0.7613009214 0.7701197863 0.7277917266
	0.7619044185 0.7707359791 0.7284486294
	0.7625079155 0.7713521719 0.7291054130
	0.7631099820 0.7719650865 0.7297595143
	0.7637109756 0.7725753188 0.7304114103
	0.7643120885 0.7731856108 0.7310634255
	0.7649124265 0.7737953067 0.7317147851
	0.7655079961 0.7744010091 0.7323616743
	0.7661035061 0.7750065923 0.7330086827
	0.7666990757 0.7756121755 0.7336556911
	0.7672913074 0.7762138247 0.7342997193
	0.7678816915 0.7768129110 0.7349420190
	0.7684720755 0.7774121165 0.7355843782
	0.7690622211 0.7780106068 0.7362260818
	0.7696506977 0.7786043286 0.7368643284
	0.7702391148 0.7791979909 0.7375025153
	0.7708275914 0.7797915936 0.7381407022
	0.7714130878 0.7803828716 0.7387762070
	0.7719966769 0.7809723020 0.7394099236
	0.7725803256 0.7815617919 0.7400435805
	0.7731636167 0.7821511030 0.7406771779
	0.7737426162 0.7827333808 0.7413080931
	0.7743214965 0.7833157182 0.7419390082
	0.7749004960 0.7838979959 0.7425699234
	0.7754787803 0.7844783068 0.7431989908
	0.7760564089 0.7850558758 0.7438256741
	0.7766339779 0.7856335044 0.7444524765
	0.7772114873 0.7862110734 0.7450792193
	0.7777854800 0.7867867947 0.7457013726
	0.7783586979 0.7873620987 0.7463225126
	0.7789319158 0.7879372835 0.7469435930
	0.7795041800 0.7885116935 0.7475640774
	0.7800722718 0.7890805006 0.7481812835
	0.7806403041 0.7896494269 0.7487984896
	0.7812082767 0.7902181745 0.7494155765
	0.7817749977 0.7907847166 0.7500311732
	0.7823402286 0.7913483977 0.7506451011
	0.7829053998 0.7919120193 0.7512589097
	0.7834705114 0.7924757004 0.7518727779
	0.7840328813 0.7930366993 0.7524824739
	0.7845944762 0.7935966849 0.7530907989
	0.7851560116 0.7941566706 0.7536991239
	0.7857174277 0.7947167158 0.7543073297
	0.7862744927 0.7952712178 0.7549107075
	0.7868316174 0.7958257794 0.7555140853
	0.7873886824 0.7963802814 0.7561174035
	0.7879452109 0.7969337106 0.7567198277
	0.7885001898 0.7974827886 0.7573189139
	0.7890551090 0.7980319858 0.7579178810
	0.7896100283 0.7985811234 0.7585170269
	0.7901636958 0.7991284132 0.7591142058
	0.7907155752 0.7996730208 0.7597088218
	0.7912675738 0.8002175093 0.7603033781
	0.7918195128 0.8007619977 0.7608978748
	0.7923693061 0.8013039827 0.7614898086
	0.7929174900 0.8018441200 0.7620797753
	0.7934656739 0.8023841977 0.7626696825
	0.7940139174 0.8029242754 0.7632595897
	0.7945610285 0.8034613729 0.7638459802
	0.7951077223 0.8039970994 0.7644308209
	0.7956544161 0.8045328259 0.7650157213
	0.7962012291 0.8050686121 0.7656006217
	0.7967458963 0.8056014776 0.7661811709
	0.7972903252 0.8061336279 0.7667608261
	0.7978346944 0.8066657186 0.7673404217
	0.7983791232 0.8071978092 0.7679200172
	0.7989180088 0.8077269793 0.7684965134
	0.7994561791 0.8082556725 0.7690725923
	0.7999945283 0.8087844253 0.7696486115
	0.8005326986 0.8093131185 0.7702246904
	0.8010672927 0.8098369837 0.7707965970
	0.8016015887 0.8103603125 0.7713679075
	0.8021358848 0.8108835816 0.7719392776
	0.8026701808 0.8114069104 0.7725105882
	0.8032029867 0.8119258285 0.7730767131
	0.8037356138 0.8124440908 0.7736421227
	0.8042681813 0.8129622936 0.7742075920
	0.8048008084 0.8134806156 0.7747730017
	0.8053286076 0.8139951825 0.7753348947
	0.8058556914 0.8145089746 0.7758960724
	0.8063827753 0.8150228262 0.7764574289
	0.8069099188 0.8155366182 0.7770186067
	0.8074336052 0.8160470128 0.7775772214
	0.8079562783 0.8165563941 0.7781350017
	0.8084790707 0.8170658946 0.7786927819
	0.8090019226 0.8175752759 0.7792506218
	0.8095226288 0.8180813193 0.7798048258
	0.8100423813 0.8185856938 0.7803573012
	0.8105623126 0.8190901279 0.7809098959
	0.8110821247 0.8195945024 0.7814623713
	0.8115993142 0.8200960755 0.7820122838
	0.8121144772 0.8205952048 0.7825602293
	0.8126296997 0.8210942745 0.7831079960
	0.8131449819 0.8215934038 0.7836558223
	0.8136587739 0.8220912814 0.7842022181
	0.8141704798 0.8225870728 0.7847461104
	0.8146821260 0.8230829239 0.7852900028
	0.8151937723 0.8235787153 0.7858338952
	0.8157051206 0.8240739107 0.7863767743
	0.8162146807 0.8245658278 0.7869150043
	0.8167243004 0.8250576854 0.7874531150
	0.8172338009 0.8255496025 0.7879912853
	0.8177434206 0.8260415196 0.7885295153
	0.8182494044 0.8265284896 0.7890629172
	0.8187550902 0.8270152211 0.7895959020
	0.8192608953 0.8275017738 0.7901288867
	0.8197665811 0.8279885054 0.7906618714
	0.8202685714 0.8284724951 0.7911921144
	0.8207687140 0.8289551139 0.7917206883
	0.8212687969 0.8294377923 0.7922493219
	0.8217688799 0.8299204111 0.7927778959
	0.8222674727 0.8304020762 0.7933050990
	0.8227633834 0.8308820724 0.7938293219
	0.8232592940 0.8313620090 0.7943534851
	0.8237550855 0.8318418860 0.7948777080
	0.8242509961 0.8323218822 0.7954018712
	0.8247438073 0.8327968717 0.7959234715
	0.8252366185 0.8332718015 0.7964450121
	0.8257294297 0.8337466717 0.7969664931
	0.8262221813 0.8342216015 0.7974880934
	0.8267118931 0.8346939087 0.7980074286
	0.8271998763 0.8351643085 0.7985252738
	0.8276877999 0.8356347084 0.7990432978
	0.8281757832 0.8361051083 0.7995612025
	0.8286628127 0.8365753293 0.8000785112
	0.8291462064 0.8370444179 0.8005927205
	0.8296297193 0.8375133872 0.8011069894
	0.8301131129 0.8379824162 0.8016213179
	0.8305966258 0.8384515047 0.8021355867
	0.8310769796 0.8389179111 0.8026489019
	0.8315563798 0.8393831849 0.8031619191
	0.8320357800 0.8398485780 0.8036748767
	0.8325151801 0.8403139114 0.8041878939
	0.8329936266 0.8407778740 0.8047001958
	0.8334690928 0.8412373066 0.8052101731
	0.8339444995 0.8416966200 0.8057203293
	0.8344200253 0.8421559930 0.8062303066
	0.8348953724 0.8426154256 0.8067402840
	0.8353682756 0.8430727124 0.8072487116
	0.8358402252 0.8435291052 0.8077564240
	0.8363121152 0.8439856172 0.8082640767
	0.8367841244 0.8444420099 0.8087717295
	0.8372554779 0.8448981047 0.8092792034
	0.8377242088 0.8453521729 0.8097851276
	0.8381929994 0.8458061814 0.8102909923
	0.8386617899 0.8462603092 0.8107969165
	0.8391305208 0.8467143774 0.8113027811
	0.8395975828 0.8471655250 0.8118069172
	0.8400632739 0.8476139903 0.8123093247
	0.8405290246 0.8480623960 0.8128117919
	0.8409947157 0.8485109210 0.8133143187
	0.8414604068 0.8489593863 0.8138167858
	0.8419228196 0.8494048715 0.8143168092
	0.8423848748 0.8498501182 0.8148164153
	0.8428469896 0.8502953053 0.8153160214
	0.8433091044 0.8507404923 0.8158156872
	0.8437703252 0.8511855006 0.8163148761
	0.8442285061 0.8516296744 0.8168122768
	0.8446866274 0.8520739079 0.8173096180
	0.8451448083 0.8525180817 0.8178070188
	0.8456029892 0.8529623151 0.8183044195
	0.8460600972 0.8534045219 0.8187999129
	0.8465161920 0.8538445234 0.8192933798
	0.8469722867 0.8542845249 0.8197870255
	0.8474283814 0.8547245860 0.8202804923
	0.8478844166 0.8551645875 0.8207740188
	0.8483386040 0.8556007147 0.8212651014
	0.8487920165 0.8560351133 0.8217552900
	0.8492454290 0.8564695120 0.8222454786
	0.8496989012 0.8569039702 0.8227357268
	0.8501523137 0.8573384285 0.8232259154
