release/datafiles/colormanagement/luts/film_response/canon_optura_981111.slrr.spi1d
Version 1
From 0.0 1.0
Length 1024
Components 1
{
	0.0000000000
	0.0014726890
	0.0029453780
	0.0044180658
	0.0058907550
	0.0073634442
	0.0088361334
	0.0103471801
	0.0120028201
	0.0136584500
	0.0153140901
	0.0169697199
	0.0186253507
	0.0203142408
	0.0221658293
	0.0240174104
	0.0258690007
	0.0277205799
	0.0295721702
	0.0315769389
	0.0336277485
	0.0356785506
	0.0377293602
	0.0397801585
	0.0420004018
	0.0442409813
	0.0464815497
	0.0487221293
	0.0510343090
	0.0534415208
	0.0558487400
	0.0582559519
	0.0606994517
	0.0632383898
	0.0657773167
	0.0683162585
	0.0708854869
	0.0735143498
	0.0761432126
	0.0787720680
	0.0814261734
	0.0841023996
	0.0867786184
	0.0894548520
	0.0921387821
	0.0948246717
	0.0975105688
	0.1001949981
	0.1028613001
	0.1055274978
	0.1081937999
	0.1108473018
	0.1134739965
	0.1161006987
	0.1187274009
	0.1213281006
	0.1239041984
	0.1264802963
	0.1290563941
	0.1315979064
	0.1341194063
	0.1366408020
	0.1391623020
	0.1416479945
	0.1441158056
	0.1465836018
	0.1490515023
	0.1514890045
	0.1539075971
	0.1563262939
	0.1587449014
	0.1611427963
	0.1635183990
	0.1658940017
	0.1682696044
	0.1706354022
	0.1729750037
	0.1753146052
	0.1776542068
	0.1799937934
	0.1823045015
	0.1846151054
	0.1869256943
	0.1892361939
	0.1915317029
	0.1938195974
	0.1961075068
	0.1983955055
	0.2006783038
	0.2029488981
	0.2052195966
	0.2074902058
	0.2097609043
	0.2120196968
	0.2142771035
	0.2165344954
	0.2187919021
	0.2210443020
	0.2232909948
	0.2255375981
	0.2277843058
	0.2300308049
	0.2322676033
	0.2345044017
	0.2367410958
	0.2389778942
	0.2412088960
	0.2434349060
	0.2456609011
	0.2478868961
	0.2501122952
	0.2523249984
	0.2545377910
	0.2567506135
	0.2589632869
	0.2611669004
	0.2633624077
	0.2655578852
	0.2677533925
	0.2699488997
	0.2721224129
	0.2742953897
	0.2764684856
	0.2786414921
	0.2808037996
	0.2829482853
	0.2850928009
	0.2872372866
	0.2893818021
	0.2915014923
	0.2936109900
	0.2957204878
	0.2978301048
	0.2999396026
	0.3020089865
	0.3040772080
	0.3061453998
	0.3082135916
	0.3102754056
	0.3122963905
	0.3143174946
	0.3163385093
	0.3183594942
	0.3203707039
	0.3223395944
	0.3243085146
	0.3262774050
	0.3282462955
	0.3302091062
	0.3321220875
	0.3340350986
	0.3359481096
	0.3378610909
	0.3397741020
	0.3416356146
	0.3434903026
	0.3453449905
	0.3471997082
	0.3490543962
	0.3508799970
	0.3526752889
	0.3544706106
	0.3562659025
	0.3580613136
	0.3598566055
	0.3615975976
	0.3633337915
	0.3650701046
	0.3668062985
	0.3685424924
	0.3702695072
	0.3719482124
	0.3736267984
	0.3753054142
	0.3769840896
	0.3786627054
	0.3803300858
	0.3819536865
	0.3835771978
	0.3852007091
	0.3868241906
	0.3884477019
	0.3900690079
	0.3916406929
	0.3932124078
	0.3947840929
	0.3963558972
	0.3979276121
	0.3994992971
	0.4010384083
	0.4025622904
	0.4040861130
	0.4056099951
	0.4071337879
	0.4086576998
	0.4101763964
	0.4116567969
	0.4131371975
	0.4146175981
	0.4160979986
	0.4175783992
	0.4190588892
	0.4205251932
	0.4219667912
	0.4234085083
	0.4248501956
	0.4262919128
	0.4277335107
	0.4291751981
	0.4306024015
	0.4320102930
	0.4334180951
	0.4348258972
	0.4362337887
	0.4376415908
	0.4390495121
	0.4404478967
	0.4418269098
	0.4432058930
	0.4445849061
	0.4459638894
	0.4473429024
	0.4487217963
	0.4500991106
	0.4514541924
	0.4528093040
	0.4541643858
	0.4555194974
	0.4568746090
	0.4582296908
	0.4595848024
	0.4609268010
	0.4622628987
	0.4635990858
	0.4649352133
	0.4662713110
	0.4676074982
	0.4689435959
	0.4702768028
	0.4715988040
	0.4729208052
	0.4742426872
	0.4755646884
	0.4768866897
	0.4782086909
	0.4795306027
	0.4808464944
	0.4821588993
	0.4834713042
	0.4847837985
	0.4860962033
	0.4874086976
	0.4887211025
	0.4900333881
	0.4913406968
	0.4926480055
	0.4939553142
	0.4952625930
	0.4965699017
	0.4978772104
	0.4991844893
	0.5004913807
	0.5017976761
	0.5031039119
	0.5044102073
	0.5057165027
	0.5070226789
	0.5083289742
	0.5096353292
	0.5109434724
	0.5122525096
	0.5135614872
	0.5148705244
	0.5161795020
	0.5174884796
	0.5187975168
	0.5201069117
	0.5214219093
	0.5227369070
	0.5240519047
	0.5253669024
	0.5266819000
	0.5279968977
	0.5293118954
	0.5306311250
	0.5319548249
	0.5332785249
	0.5346022248
	0.5359259844
	0.5372496843
	0.5385733843
	0.5398970842
	0.5412306786
	0.5425651073
	0.5438994765
	0.5452339053
	0.5465683937
	0.5479028225
	0.5492371917
	0.5505766869
	0.5519229174
	0.5532690883
	0.5546153188
	0.5559614897
	0.5573077202
	0.5586538911
	0.5600001812
	0.5613582134
	0.5627163053
	0.5640742779
	0.5654324293
	0.5667904019
	0.5681484938
	0.5695065260
	0.5708712935
	0.5722399950
	0.5736086965
	0.5749773979
	0.5763460994
	0.5777148008
	0.5790835023
	0.5804548860
	0.5818316936
	0.5832085013
	0.5845853090
	0.5859621763
	0.5873389840
	0.5887157917
	0.5900928974
	0.5914738178
	0.5928547978
	0.5942357779
	0.5956166983
	0.5969976783
	0.5983787179
	0.5997595787
	0.6011396050
	0.6025193930
	0.6038991809
	0.6052790284
	0.6066588163
	0.6080386043
	0.6094183922
	0.6107937098
	0.6121658087
	0.6135379076
	0.6149100065
	0.6162821054
	0.6176542044
	0.6190263033
	0.6203941107
	0.6217511296
	0.6231080890
	0.6244651079
	0.6258221269
	0.6271792054
	0.6285362244
	0.6298931837
	0.6312292218
	0.6325632930
	0.6338974833
	0.6352316141
	0.6365658045
	0.6378998756
	0.6392341256
	0.6405552030
	0.6418588161
	0.6431624293
	0.6444659829
	0.6457697153
	0.6470733285
	0.6483768821
	0.6496804953
	0.6509557962
	0.6522219181
	0.6534879804
	0.6547541022
	0.6560202241
	0.6572862864
	0.6585524082
	0.6598184109
	0.6610473990
	0.6622701883
	0.6634929776
	0.6647157073
	0.6659384966
	0.6671612859
	0.6683840156
	0.6696068048
	0.6707972884
	0.6719723940
	0.6731474996
	0.6743227243
	0.6754977703
	0.6766729951
	0.6778481007
	0.6790233254
	0.6801899076
	0.6813148260
	0.6824398041
	0.6835647225
	0.6846895814
	0.6858144999
	0.6869394779
	0.6880643964
	0.6891893148
	0.6902999878
	0.6913738251
	0.6924476027
	0.6935213804
	0.6945952773
	0.6956691146
	0.6967428923
	0.6978167295
	0.6988906264
	0.6999644041
	0.7009894848
	0.7020128965
	0.7030364275
	0.7040597796
	0.7050833106
	0.7061067224
	0.7071300745
	0.7081536055
	0.7091770172
	0.7101910114
	0.7111660838
	0.7121412754
	0.7131164074
	0.7140914798
	0.7150666714
	0.7160418034
	0.7170169950
	0.7179921269
	0.7189671993
	0.7199423909
	0.7208750844
	0.7218052149
	0.7227352262
	0.7236652970
	0.7245953083
	0.7255253792
	0.7264555097
	0.7273855209
	0.7283155918
	0.7292456031
	0.7301679254
	0.7310569882
	0.7319461107
	0.7328351140
	0.7337241769
	0.7346132994
	0.7355023026
	0.7363914251
	0.7372804880
	0.7381694913
	0.7390586138
	0.7399476767
	0.7408025861
	0.7416555285
	0.7425082922
	0.7433611155
	0.7442138791
	0.7450668216
	0.7459195852
	0.7467724085
	0.7476251721
	0.7484781146
	0.7493308783
	0.7501770258
	0.7509987950
	0.7518206835
	0.7526425123
	0.7534642816
	0.7542861104
	0.7551078796
	0.7559298277
	0.7567515969
	0.7575734258
	0.7583951950
	0.7592170238
	0.7600377202
	0.7608340979
	0.7616304755
	0.7624269128
	0.7632232904
	0.7640197873
	0.7648162246
	0.7656126022
	0.7664089799
	0.7672054768
	0.7680019140
	0.7687982917
	0.7695947289
	0.7703816295
	0.7711585760
	0.7719355226
	0.7727125287
	0.7734894156
	0.7742664218
	0.7750433087
	0.7758203149
	0.7765973210
	0.7773742080
	0.7781512141
	0.7789281011
	0.7797051072
	0.7804738283
	0.7812374830
	0.7820013165
	0.7827649713
	0.7835286856
	0.7842923999
	0.7850561142
	0.7858198881
	0.7865836024
	0.7873473167
	0.7881109715
	0.7888746858
	0.7896384001
	0.7903987169
	0.7911556959
	0.7919127941
	0.7926697731
	0.7934268713
	0.7941839099
	0.7949410081
	0.7956979871
	0.7964550853
	0.7972121239
	0.7979692221
	0.7987263203
	0.7994832993
	0.8002405167
	0.8009977937
	0.8017551899
	0.8025125861
	0.8032699227
	0.8040273190
	0.8047845960
	0.8055419922
	0.8062993884
	0.8070567250
	0.8078141212
	0.8085715175
	0.8093287945
	0.8100870848
	0.8108522296
	0.8116173148
	0.8123824000
	0.8131474853
	0.8139125705
	0.8146777749
	0.8154429197
	0.8162080050
	0.8169730902
	0.8177381754
	0.8185033202
	0.8192685246
	0.8200343251
	0.8208150864
	0.8215959072
	0.8223767281
	0.8231574893
	0.8239383101
	0.8247190714
	0.8255000114
	0.8262807727
	0.8270615935
	0.8278424144
	0.8286231756
	0.8294039965
	0.8301904798
	0.8309953809
	0.8318002820
	0.8326051831
	0.8334100246
	0.8342149258
	0.8350198269
	0.8358247280
	0.8366295099
	0.8374344110
	0.8382393122
	0.8390442133
	0.8398489952
	0.8406803012
	0.8415176272
	0.8423550129
	0.8431922793
	0.8440296054
	0.8448669910
	0.8457043171
	0.8465415835
	0.8473790288
	0.8482162952
	0.8490536213
	0.8498910069
	0.8507630229
	0.8516402841
	0.8525176048
	0.8533949256
	0.8542721868
	0.8551493883
	0.8560267091
	0.8569039702
	0.8577812910
	0.8586584926
	0.8595358133
	0.8604339957
	0.8613557816
	0.8622775078
	0.8631992936
	0.8641210198
	0.8650426865
	0.8659644723
	0.8668861985
	0.8678079844
	0.8687297106
	0.8696514964
	0.8705996275
	0.8715636730
	0.8725277781
	0.8734918833
	0.8744559884
	0.8754202127
	0.8763843179
	0.8773484230
	0.8783125281
	0.8792766929
	0.8802478909
	0.8812404275
	0.8822329044
	0.8832253814
	0.8842179179
	0.8852105141
	0.8862029910
	0.8871955276
	0.8881880045
	0.8891804814
	0.8901726007
	0.8911628127
	0.8921530247
	0.8931431174
	0.8941333294
	0.8951234818
	0.8961136937
	0.8971037865
	0.8980939984
	0.8990842104
	0.9000707269
	0.9010120034
	0.9019532800
	0.9028946161
	0.9038360119
	0.9047772884
	0.9057186246
	0.9066599011
	0.9076012969
	0.9085425735
	0.9094839096
	0.9103804827
	0.9112226963
	0.9120650291
	0.9129071832
	0.9137495160
	0.9145917892
	0.9154340029
	0.9162762761
	0.9171184897
	0.9179608226
	0.9188029766
	0.9196453094
	0.9204097986
	0.9211177230
	0.9218255877
	0.9225335121
	0.9232413769
	0.9239493012
	0.9246572256
	0.9253650904
	0.9260730147
	0.9267808795
	0.9274888039
	0.9281967282
	0.9289045930
	0.9296125174
	0.9302552938
	0.9308195710
	0.9313837886
	0.9319481254
	0.9325122833
	0.9330765009
	0.9336407781
	0.9342049956
	0.9347692132
	0.9353334904
	0.9358977079
	0.9364619255
	0.9370262027
	0.9375904202
	0.9381545782
	0.9387189150
	0.9392830729
	0.9398472905
	0.9403160810
	0.9407495856
	0.9411829710
	0.9416164160
	0.9420498013
	0.9424831867
	0.9429165721
	0.9433500171
	0.9437834024
	0.9442167878
	0.9446501732
	0.9450836182
	0.9455170035
	0.9459503889
	0.9463838935
	0.9468172789
	0.9472507238
	0.9476841092
	0.9481174946
	0.9485508800
	0.9489843249
	0.9494177103
	0.9498510957
	0.9502140880
	0.9505401850
	0.9508662820
	0.9511923790
	0.9515184760
	0.9518445730
	0.9521707296
	0.9524968266
	0.9528229237
	0.9531490207
	0.9534751177
	0.9538012147
	0.9541273117
	0.9544534087
	0.9547795057
	0.9551056027
	0.9554316998
	0.9557577968
	0.9560838938
	0.9564099908
	0.9567360878
	0.9570621848
	0.9573882818
	0.9577143788
	0.9580404758
	0.9583665729
	0.9586927295
	0.9590188265
	0.9593449235
	0.9596710205
	0.9599971175
	0.9602413177
	0.9604846835
	0.9607281089
	0.9609714746
	0.9612150192
	0.9614583850
	0.9617018104
	0.9619451761
	0.9621887207
	0.9624320865
	0.9626755118
	0.9629188776
	0.9631623030
	0.9634057879
	0.9636492133
	0.9638925791
	0.9641360044
	0.9643794894
	0.9646229148
	0.9648662806
	0.9651097059
	0.9653531909
	0.9655966163
	0.9658399820
	0.9660834074
	0.9663268924
	0.9665703177
	0.9668136835
	0.9670571089
	0.9673005939
	0.9675440192
	0.9677873850
	0.9680308104
	0.9682741761
	0.9685177207
	0.9687610865
	0.9690045118
	0.9692478776
	0.9694914222
	0.9697347879
	0.9699782133
	0.9701654911
	0.9703474045
	0.9705291986
	0.9707109928
	0.9708927870
	0.9710745811
	0.9712563753
	0.9714382291
	0.9716200233
	0.9718018770
	0.9719836712
	0.9721655250
	0.9723473191
	0.9725291133
	0.9727109075
	0.9728927016
	0.9730746150
	0.9732564092
	0.9734382033
	0.9736199975
	0.9738017917
	0.9739835858
	0.9741653800
	0.9743471742
	0.9745290875
	0.9747108817
	0.9748926759
	0.9750745296
	0.9752563238
	0.9754381180
	0.9756199121
	0.9758018255
	0.9759836197
	0.9761654139
	0.9763472080
	0.9765290022
	0.9767107964
	0.9768925905
	0.9770743847
	0.9772562981
	0.9774380922
	0.9776198864
	0.9778016806
	0.9779834747
	0.9781653285
	0.9783471227
	0.9785289168
	0.9787107706
	0.9788926244
	0.9790744185
	0.9792562127
	0.9794380069
	0.9796198010
	0.9798015952
	0.9799835086
	0.9801241159
	0.9802607298
	0.9803972840
	0.9805337787
	0.9806703925
	0.9808070064
	0.9809435010
	0.9810801148
	0.9812166095
	0.9813532233
	0.9814897776
	0.9816262722
	0.9817628860
	0.9818994999
	0.9820359945
	0.9821726084
	0.9823091030
	0.9824457169
	0.9825822711
	0.9827188253
	0.9828553796
	0.9829919934
	0.9831284881
	0.9832651019
	0.9834015965
	0.9835382104
	0.9836748242
	0.9838113189
	0.9839478731
	0.9840844870
	0.9842209816
	0.9843575954
	0.9844942093
	0.9846307039
	0.9847673178
	0.9849038124
	0.9850404263
	0.9851769805
	0.9853134751
	0.9854500890
	0.9855867028
	0.9857231975
	0.9858598113
	0.9859963059
	0.9861329198
	0.9862694740
	0.9864060283
	0.9865425825
	0.9866791964
	0.9868156910
	0.9869523048
	0.9870887995
	0.9872254133
	0.9873620272
	0.9874985218
	0.9876350760
	0.9877716899
	0.9879081845
	0.9880447984
	0.9881814122
	0.9883179069
	0.9884545207
	0.9885910153
	0.9887276292
	0.9888641834
	0.9890006781
	0.9891372919
	0.9892739058
	0.9894104004
	0.9895470142
	0.9896835089
	0.9898201227
	0.9899566770
	0.9900705814
	0.9901739955
	0.9902775288
	0.9903808832
	0.9904842973
	0.9905877709
	0.9906911850
	0.9907945991
	0.9908980727
	0.9910014868
	0.9911049008
	0.9912083745
	0.9913117886
	0.9914152026
	0.9915186167
	0.9916220903
	0.9917255044
	0.9918289185
	0.9919323921
	0.9920358062
	0.9921392202
	0.9922426939
	0.9923461080
	0.9924495220
	0.9925529957
	0.9926564097
	0.9927598238
	0.9928632975
	0.9929667115
	0.9930701256
	0.9931734800
	0.9932770133
	0.9933804274
	0.9934837818
	0.9935873151
	0.9936907291
	0.9937940836
	0.9938976169
	0.9940009713
	0.9941043854
	0.9942079186
	0.9943112731
	0.9944146872
	0.9945182204
	0.9946215749
	0.9947249889
	0.9948284030
	0.9949318767
	0.9950352907
	0.9951387048
	0.9952421784
	0.9953455925
	0.9954490066
	0.9955524802
	0.9956558943
	0.9957593083
	0.9958627820
	0.9959661961
	0.9960696101
	0.9961730242
	0.9962764978
	0.9963799119
	0.9964833260
	0.9965867996
	0.9966902137
	0.9967936277
	0.9968971014
	0.9970005155
	0.9971039295
	0.9972074032
	0.9973108172
	0.9974141717
	0.9975177050
	0.9976211190
	0.9977244735
	0.9978278875
	0.9979314208
	0.9980347753
	0.9981381893
	0.9982417226
	0.9983450770
	0.9984484911
	0.9985520244
	0.9986553788
	0.9987587929
	0.9988623261
	0.9989656806
	0.9990690947
	0.9991726279
	0.9992759824
	0.9993793964
	0.9994828105
	0.9995862842
	0.9996896982
	0.9997931123
	0.9998965859
	1.0000000000
}
