release/datafiles/colormanagement/luts/film_response/canon_optura_981113.spi1d
Version 1
From 0.0 1.0
Length 1024
Components 1
{
	0.0000000000
	0.0135446005
	0.0202735607
	0.0249911100
	0.0297086593
	0.0336879417
	0.0376186185
	0.0414095595
	0.0449856818
	0.0485617891
	0.0520423800
	0.0554586984
	0.0588750206
	0.0622536913
	0.0656138808
	0.0689740628
	0.0723363981
	0.0756996870
	0.0790629685
	0.0824523792
	0.0858518705
	0.0892513692
	0.0926911235
	0.0961422473
	0.0995933712
	0.1030920967
	0.1065972000
	0.1101036966
	0.1136552989
	0.1172067970
	0.1207652017
	0.1243487000
	0.1279322952
	0.1315212995
	0.1351177990
	0.1387142986
	0.1423058063
	0.1458943933
	0.1494830996
	0.1530472934
	0.1566074044
	0.1601652950
	0.1636777967
	0.1671904027
	0.1706901938
	0.1741389930
	0.1775878072
	0.1810134947
	0.1843854934
	0.1877575070
	0.1911004037
	0.1943856031
	0.1976709068
	0.2009288967
	0.2041203976
	0.2073118985
	0.2104879022
	0.2135811001
	0.2166742980
	0.2197676003
	0.2227675021
	0.2257598937
	0.2287521958
	0.2316852063
	0.2345757037
	0.2374662012
	0.2403441072
	0.2431329042
	0.2459215969
	0.2487103939
	0.2514449954
	0.2541329861
	0.2568210065
	0.2595090866
	0.2621161044
	0.2647050917
	0.2672941089
	0.2698830068
	0.2723794878
	0.2748715878
	0.2773636878
	0.2798557878
	0.2822589874
	0.2846567929
	0.2870545983
	0.2894524038
	0.2917796075
	0.2940860093
	0.2963924110
	0.2986988127
	0.3009667993
	0.3031851053
	0.3054032922
	0.3076215982
	0.3098397851
	0.3119795024
	0.3141129911
	0.3162465096
	0.3183799982
	0.3204940856
	0.3225466013
	0.3245992064
	0.3266518116
	0.3287042975
	0.3307285011
	0.3327040076
	0.3346796036
	0.3366551101
	0.3386305869
	0.3405838013
	0.3424864113
	0.3443889916
	0.3462916017
	0.3481942117
	0.3500933051
	0.3519271910
	0.3537611067
	0.3555949926
	0.3574289083
	0.3592627943
	0.3610582054
	0.3628278077
	0.3645974100
	0.3663670123
	0.3681367040
	0.3699063063
	0.3716191053
	0.3733288050
	0.3750385046
	0.3767482042
	0.3784579039
	0.3801622093
	0.3818163872
	0.3834707141
	0.3851250112
	0.3867791891
	0.3884334862
	0.3900850117
	0.3916882873
	0.3932915032
	0.3948946893
	0.3964979947
	0.3981012106
	0.3997044861
	0.4012697041
	0.4028263986
	0.4043830931
	0.4059396982
	0.4074963927
	0.4090530872
	0.4105932117
	0.4121075869
	0.4136219919
	0.4151363969
	0.4166508019
	0.4181652069
	0.4196796119
	0.4211640060
	0.4226402938
	0.4241167009
	0.4255929887
	0.4270693958
	0.4285457134
	0.4300214946
	0.4314638972
	0.4329062998
	0.4343487024
	0.4357911050
	0.4372335076
	0.4386759102
	0.4401158094
	0.4415282011
	0.4429405034
	0.4443528950
	0.4457651973
	0.4471774995
	0.4485898912
	0.4500021935
	0.4513882101
	0.4527741969
	0.4541603029
	0.4555462897
	0.4569323957
	0.4583184123
	0.4597044885
	0.4610725939
	0.4624359906
	0.4637992978
	0.4651626050
	0.4665259123
	0.4678891897
	0.4692525864
	0.4706071019
	0.4719510078
	0.4732949138
	0.4746387899
	0.4759826958
	0.4773266017
	0.4786705077
	0.4800142050
	0.4813418090
	0.4826692939
	0.4839968979
	0.4853244126
	0.4866518974
	0.4879795015
	0.4893069863
	0.4906280935
	0.4919421077
	0.4932560027
	0.4945699871
	0.4958840013
	0.4971979856
	0.4985119104
	0.4998258948
	0.5011302829
	0.5024331212
	0.5037360191
	0.5050389171
	0.5063418150
	0.5076445937
	0.5089474916
	0.5102487206
	0.5115424991
	0.5128363967
	0.5141302943
	0.5154240727
	0.5167179704
	0.5180119276
	0.5193057060
	0.5205962062
	0.5218827128
	0.5231692791
	0.5244557858
	0.5257424116
	0.5270289779
	0.5283154845
	0.5296021104
	0.5308843851
	0.5321649909
	0.5334454775
	0.5347260237
	0.5360065103
	0.5372869968
	0.5385676026
	0.5398480892
	0.5411239266
	0.5423991084
	0.5436742902
	0.5449494720
	0.5462247133
	0.5474998951
	0.5487750769
	0.5500500798
	0.5513203144
	0.5525904298
	0.5538604856
	0.5551306009
	0.5564007759
	0.5576708913
	0.5589410067
	0.5602102280
	0.5614749193
	0.5627396107
	0.5640043020
	0.5652689934
	0.5665336847
	0.5677983761
	0.5690631270
	0.5703262091
	0.5715845227
	0.5728427768
	0.5741010904
	0.5753594041
	0.5766177177
	0.5778759718
	0.5791342854
	0.5803902149
	0.5816406012
	0.5828909874
	0.5841413736
	0.5853918195
	0.5866422057
	0.5878925920
	0.5891429782
	0.5903903246
	0.5916306973
	0.5928711295
	0.5941116214
	0.5953519940
	0.5965924263
	0.5978329182
	0.5990732908
	0.6003105044
	0.6015384197
	0.6027662754
	0.6039940715
	0.6052219868
	0.6064499021
	0.6076776981
	0.6089056134
	0.6101318002
	0.6113442183
	0.6125565171
	0.6137688756
	0.6149812937
	0.6161937118
	0.6174060702
	0.6186184883
	0.6198309064
	0.6210271716
	0.6222209930
	0.6234146953
	0.6246085167
	0.6258022189
	0.6269959807
	0.6281896830
	0.6293835044
	0.6305665970
	0.6317384839
	0.6329103708
	0.6340823174
	0.6352540851
	0.6364259720
	0.6375979185
	0.6387698054
	0.6399416924
	0.6410897970
	0.6422367096
	0.6433836222
	0.6445304751
	0.6456773281
	0.6468241811
	0.6479710937
	0.6491180062
	0.6502584815
	0.6513776183
	0.6524966955
	0.6536157131
	0.6547347903
	0.6558539271
	0.6569730043
	0.6580920815
	0.6592112184
	0.6603214145
	0.6614102721
	0.6624991894
	0.6635881066
	0.6646770239
	0.6657658815
	0.6668547988
	0.6679437160
	0.6690325737
	0.6701179743
	0.6711750031
	0.6722319126
	0.6732888818
	0.6743459105
	0.6754028797
	0.6764597893
	0.6775168180
	0.6785737872
	0.6796308160
	0.6806663275
	0.6816902161
	0.6827141047
	0.6837379932
	0.6847618818
	0.6857857704
	0.6868097186
	0.6878336072
	0.6888574958
	0.6898815036
	0.6908758283
	0.6918662190
	0.6928567290
	0.6938471198
	0.6948375106
	0.6958280206
	0.6968184114
	0.6978089213
	0.6987993121
	0.6997897029
	0.7007541060
	0.7017112970
	0.7026686072
	0.7036259174
	0.7045832276
	0.7055404782
	0.7064977884
	0.7074550986
	0.7084122896
	0.7093695998
	0.7103158832
	0.7112410069
	0.7121660709
	0.7130911946
	0.7140163183
	0.7149413824
	0.7158665061
	0.7167915106
	0.7177165747
	0.7186416984
	0.7195668221
	0.7204756141
	0.7213701010
	0.7222645879
	0.7231590748
	0.7240536213
	0.7249481082
	0.7258424759
	0.7267370224
	0.7276315093
	0.7285259962
	0.7294204831
	0.7303048968
	0.7311708927
	0.7320368886
	0.7329028845
	0.7337688208
	0.7346348166
	0.7355008125
	0.7363668084
	0.7372328043
	0.7380986810
	0.7389646769
	0.7398306727
	0.7406758070
	0.7415158749
	0.7423558831
	0.7431960106
	0.7440360188
	0.7448760867
	0.7457160950
	0.7465562224
	0.7473961711
	0.7482362986
	0.7490763068
	0.7499163747
	0.7507357001
	0.7515528202
	0.7523698211
	0.7531868219
	0.7540038824
	0.7548208833
	0.7556380033
	0.7564550042
	0.7572721243
	0.7580891252
	0.7589061260
	0.7597231865
	0.7605271935
	0.7613244057
	0.7621216774
	0.7629190087
	0.7637162805
	0.7645134926
	0.7653108239
	0.7661080956
	0.7669054270
	0.7677025795
	0.7684999108
	0.7692971826
	0.7700924873
	0.7708734870
	0.7716544271
	0.7724353075
	0.7732163072
	0.7739971876
	0.7747781873
	0.7755591273
	0.7763401270
	0.7771210074
	0.7779018879
	0.7786828876
	0.7794638276
	0.7802407742
	0.7810090184
	0.7817772031
	0.7825455070
	0.7833136916
	0.7840818763
	0.7848501801
	0.7856184244
	0.7863866091
	0.7871549129
	0.7879230976
	0.7886912823
	0.7894595265
	0.7902250886
	0.7909842730
	0.7917435169
	0.7925027013
	0.7932620049
	0.7940211892
	0.7947803736
	0.7955396175
	0.7962988019
	0.7970579863
	0.7978171706
	0.7985764742
	0.7993357182
	0.8000941873
	0.8008481264
	0.8016020060
	0.8023558855
	0.8031098247
	0.8038637042
	0.8046175838
	0.8053714037
	0.8061252832
	0.8068792224
	0.8076331019
	0.8083869815
	0.8091409206
	0.8098948002
	0.8106470704
	0.8113992214
	0.8121513724
	0.8129035234
	0.8136556149
	0.8144077063
	0.8151597977
	0.8159118891
	0.8166639805
	0.8174160719
	0.8181682825
	0.8189203739
	0.8196725249
	0.8204253912
	0.8211789131
	0.8219323754
	0.8226860166
	0.8234394789
	0.8241930008
	0.8249465227
	0.8257001042
	0.8264536262
	0.8272070885
	0.8279606104
	0.8287141919
	0.8294677138
	0.8302224278
	0.8309798241
	0.8317372799
	0.8324947953
	0.8332523108
	0.8340097070
	0.8347672224
	0.8355246782
	0.8362820745
	0.8370395899
	0.8377971053
	0.8385546207
	0.8393120170
	0.8400700092
	0.8408328295
	0.8415954709
	0.8423582911
	0.8431211114
	0.8438838720
	0.8446465731
	0.8454093933
	0.8461722136
	0.8469349146
	0.8476976752
	0.8484604955
	0.8492233157
	0.8499860168
	0.8507534862
	0.8515210152
	0.8522886038
	0.8530561924
	0.8538237214
	0.8545913100
	0.8553587794
	0.8561264277
	0.8568938971
	0.8576614857
	0.8584290147
	0.8591966033
	0.8599640727
	0.8607330918
	0.8615021706
	0.8622711897
	0.8630402088
	0.8638092875
	0.8645783067
	0.8653473854
	0.8661164045
	0.8668854833
	0.8676545024
	0.8684235215
	0.8691926003
	0.8699616194
	0.8707253933
	0.8714889288
	0.8722524047
	0.8730158806
	0.8737794161
	0.8745428920
	0.8753064871
	0.8760700226
	0.8768334985
	0.8775969744
	0.8783605099
	0.8791239858
	0.8798875213
	0.8806365728
	0.8813831210
	0.8821297288
	0.8828762770
	0.8836228848
	0.8843694925
	0.8851159811
	0.8858625889
	0.8866091967
	0.8873558044
	0.8881024122
	0.8888489008
	0.8895955086
	0.8903272748
	0.8910415769
	0.8917558193
	0.8924701214
	0.8931844234
	0.8938987255
	0.8946129084
	0.8953272104
	0.8960415125
	0.8967556953
	0.8974699974
	0.8981842995
	0.8988986015
	0.8996127844
	0.9003043175
	0.9009687901
	0.9016332030
	0.9022976756
	0.9029622078
	0.9036266804
	0.9042910933
	0.9049556255
	0.9056200981
	0.9062845707
	0.9069489837
	0.9076135159
	0.9082779884
	0.9089424014
	0.9096068740
	0.9102444053
	0.9108428955
	0.9114415050
	0.9120399952
	0.9126384854
	0.9132369757
	0.9138355255
	0.9144340158
	0.9150325060
	0.9156309962
	0.9162294865
	0.9168279767
	0.9174265265
	0.9180250168
	0.9186235070
	0.9192219973
	0.9198204875
	0.9203649759
	0.9208863974
	0.9214078188
	0.9219291210
	0.9224504828
	0.9229717851
	0.9234932065
	0.9240146279
	0.9245358706
	0.9250572920
	0.9255785942
	0.9261000156
	0.9266213775
	0.9271426797
	0.9276641011
	0.9281855226
	0.9287068248
	0.9292281866
	0.9297494888
	0.9302288294
	0.9306690097
	0.9311093092
	0.9315496087
	0.9319899082
	0.9324302077
	0.9328703880
	0.9333106875
	0.9337509871
	0.9341912866
	0.9346315861
	0.9350718260
	0.9355121255
	0.9359524250
	0.9363927245
	0.9368330240
	0.9372732043
	0.9377135038
	0.9381538033
	0.9385941029
	0.9390344024
	0.9394745827
	0.9399148822
	0.9402922988
	0.9406545758
	0.9410169125
	0.9413791895
	0.9417415261
	0.9421038032
	0.9424660802
	0.9428284168
	0.9431906939
	0.9435529709
	0.9439153075
	0.9442775846
	0.9446399212
	0.9450021982
	0.9453645945
	0.9457268715
	0.9460892081
	0.9464514852
	0.9468138218
	0.9471760988
	0.9475383759
	0.9479007125
	0.9482629895
	0.9486253262
	0.9489876032
	0.9493498802
	0.9497122169
	0.9500601292
	0.9503526092
	0.9506450295
	0.9509373903
	0.9512298107
	0.9515222907
	0.9518147111
	0.9521070719
	0.9523994923
	0.9526919723
	0.9529843926
	0.9532768130
	0.9535691738
	0.9538617134
	0.9541540742
	0.9544464946
	0.9547389150
	0.9550313950
	0.9553238153
	0.9556161761
	0.9559085965
	0.9562010765
	0.9564934969
	0.9567859173
	0.9570782781
	0.9573706985
	0.9576631784
	0.9579555988
	0.9582480192
	0.9585403800
	0.9588329196
	0.9591252804
	0.9594177008
	0.9597101212
	0.9600020051
	0.9602351189
	0.9604681134
	0.9607011080
	0.9609341025
	0.9611670971
	0.9614000916
	0.9616330862
	0.9618662000
	0.9620991945
	0.9623321891
	0.9625651836
	0.9627981782
	0.9630311728
	0.9632642269
	0.9634972811
	0.9637302756
	0.9639633298
	0.9641963243
	0.9644293189
	0.9646623135
	0.9648953080
	0.9651284218
	0.9653614163
	0.9655944109
	0.9658274055
	0.9660604000
	0.9662933946
	0.9665263891
	0.9667595029
	0.9669924974
	0.9672254920
	0.9674584866
	0.9676914811
	0.9679244757
	0.9681574702
	0.9683905840
	0.9686235785
	0.9688565731
	0.9690896273
	0.9693226218
	0.9695556164
	0.9697886109
	0.9700170755
	0.9702014923
	0.9703857899
	0.9705702066
	0.9707545042
	0.9709389210
	0.9711232185
	0.9713075757
	0.9714918733
	0.9716762900
	0.9718605876
	0.9720450044
	0.9722293019
	0.9724137187
	0.9725980163
	0.9727823734
	0.9729666710
	0.9731510878
	0.9733353853
	0.9735198021
	0.9737040997
	0.9738885164
	0.9740728140
	0.9742571712
	0.9744415283
	0.9746258855
	0.9748101830
	0.9749945998
	0.9751788974
	0.9753633142
	0.9755476117
	0.9757320285
	0.9759163260
	0.9761006236
	0.9762849808
	0.9764692783
	0.9766536951
	0.9768379927
	0.9770224094
	0.9772067070
	0.9773911238
	0.9775754213
	0.9777597785
	0.9779440761
	0.9781284928
	0.9783127904
	0.9784972072
	0.9786815047
	0.9788659215
	0.9790502191
	0.9792345762
	0.9794188738
	0.9796032906
	0.9797875881
	0.9799720049
	0.9801232815
	0.9802687764
	0.9804142118
	0.9805597067
	0.9807050824
	0.9808505774
	0.9809960127
	0.9811415076
	0.9812868834
	0.9814323783
	0.9815778136
	0.9817233086
	0.9818686843
	0.9820141792
	0.9821596146
	0.9823051095
	0.9824504852
	0.9825959802
	0.9827414155
	0.9828869104
	0.9830322862
	0.9831777811
	0.9833232164
	0.9834687114
	0.9836140871
	0.9837595820
	0.9839050174
	0.9840505123
	0.9841958880
	0.9843413830
	0.9844868183
	0.9846323133
	0.9847776890
	0.9849231839
	0.9850686193
	0.9852141142
	0.9853594899
	0.9855049849
	0.9856504202
	0.9857959151
	0.9859412909
	0.9860867858
	0.9862322211
	0.9863777161
	0.9865230918
	0.9866685867
	0.9868140221
	0.9869595170
	0.9871048927
	0.9872503877
	0.9873958230
	0.9875413179
	0.9876866937
	0.9878321886
	0.9879776239
	0.9881231189
	0.9882684946
	0.9884139895
	0.9885594249
	0.9887049198
	0.9888502955
	0.9889957905
	0.9891412258
	0.9892867208
	0.9894320965
	0.9895775914
	0.9897230864
	0.9898685217
	0.9900109768
	0.9901257753
	0.9902405739
	0.9903554916
	0.9904702902
	0.9905850887
	0.9906998873
	0.9908146858
	0.9909294844
	0.9910444021
	0.9911592007
	0.9912739992
	0.9913887978
	0.9915035963
	0.9916183949
	0.9917333126
	0.9918481112
	0.9919629097
	0.9920777082
	0.9921925068
	0.9923073053
	0.9924221039
	0.9925370216
	0.9926518202
	0.9927666187
	0.9928814173
	0.9929962158
	0.9931110144
	0.9932258725
	0.9933406711
	0.9934555292
	0.9935703278
	0.9936851263
	0.9937999249
	0.9939147830
	0.9940295815
	0.9941443801
	0.9942591786
	0.9943739772
	0.9944887757
	0.9946036935
	0.9947184920
	0.9948332906
	0.9949480891
	0.9950628877
	0.9951776862
	0.9952924848
	0.9954074025
	0.9955222011
	0.9956369996
	0.9957517982
	0.9958665967
	0.9959813952
	0.9960963130
	0.9962111115
	0.9963259101
	0.9964407086
	0.9965555072
	0.9966703057
	0.9967852235
	0.9969000220
	0.9970148206
	0.9971296191
	0.9972444177
	0.9973592162
	0.9974740148
	0.9975888729
	0.9977036715
	0.9978185296
	0.9979333282
	0.9980481267
	0.9981629252
	0.9982777834
	0.9983925819
	0.9985073805
	0.9986221790
	0.9987369776
	0.9988517761
	0.9989666939
	0.9990814924
	0.9991962910
	0.9993110895
	0.9994258881
	0.9995406866
	0.9996556044
	0.9997704029
	0.9998852015
	1.0000000000
}
