release/datafiles/colormanagement/luts/film_response/canon_optura_981114.spi1d
Version 1
From 0.0 1.0
Length 1024
Components 1
{
	0.0000000000
	0.0011549980
	0.0023099950
	0.0034649931
	0.0046199900
	0.0057749879
	0.0069299862
	0.0080849826
	0.0092399810
	0.0104988897
	0.0119577302
	0.0134165697
	0.0148754101
	0.0163342599
	0.0177931003
	0.0192519408
	0.0208822303
	0.0226929598
	0.0245036893
	0.0263144094
	0.0281251408
	0.0299358703
	0.0321105719
	0.0342986286
	0.0364867002
	0.0386747718
	0.0410060883
	0.0435574502
	0.0461088084
	0.0486601703
	0.0513551086
	0.0542088412
	0.0570625700
	0.0599162988
	0.0629694685
	0.0660286620
	0.0690878481
	0.0722158924
	0.0753731802
	0.0785304680
	0.0816907808
	0.0848537087
	0.0880166367
	0.0911577269
	0.0942621008
	0.0973664671
	0.1004566029
	0.1034670025
	0.1064774022
	0.1094878018
	0.1124091968
	0.1153123975
	0.1182155982
	0.1210779995
	0.1238754019
	0.1266727000
	0.1294700056
	0.1321890950
	0.1348897964
	0.1375904977
	0.1402821988
	0.1428993046
	0.1455163062
	0.1481333971
	0.1507305056
	0.1532779038
	0.1558253020
	0.1583727002
	0.1608998030
	0.1633909047
	0.1658820063
	0.1683731973
	0.1708489954
	0.1732959002
	0.1757428944
	0.1781897992
	0.1806280017
	0.1830410063
	0.1854541004
	0.1878671944
	0.1902772933
	0.1926648021
	0.1950524002
	0.1974398941
	0.1998274028
	0.2021971047
	0.2045654058
	0.2069337070
	0.2093019933
	0.2116595954
	0.2140129060
	0.2163662016
	0.2187193930
	0.2210668027
	0.2234072983
	0.2257477045
	0.2280880958
	0.2304262072
	0.2327540070
	0.2350818068
	0.2374096066
	0.2397374958
	0.2420527041
	0.2443664074
	0.2466800958
	0.2489937991
	0.2512977123
	0.2535941005
	0.2558904886
	0.2581869066
	0.2604787052
	0.2627533972
	0.2650280893
	0.2673028111
	0.2695775032
	0.2718302011
	0.2740780115
	0.2763257027
	0.2785733938
	0.2808091044
	0.2830238938
	0.2852387130
	0.2874535024
	0.2896682024
	0.2918500006
	0.2940258980
	0.2962017953
	0.2983776927
	0.3005422950
	0.3026734889
	0.3048047125
	0.3069359958
	0.3090671897
	0.3111704886
	0.3132519126
	0.3153333068
	0.3174147904
	0.3194962144
	0.3215366006
	0.3235639036
	0.3255912066
	0.3276185095
	0.3296456933
	0.3316256106
	0.3335955143
	0.3355652988
	0.3375352025
	0.3395051062
	0.3414301872
	0.3433403969
	0.3452506065
	0.3471607864
	0.3490709960
	0.3509500921
	0.3527995944
	0.3546490967
	0.3564985991
	0.3583481908
	0.3601911962
	0.3619799018
	0.3637686074
	0.3655573130
	0.3673459888
	0.3691348135
	0.3708924949
	0.3726212978
	0.3743501008
	0.3760789037
	0.3778077066
	0.3795365095
	0.3812226951
	0.3828932047
	0.3845637143
	0.3862341940
	0.3879047036
	0.3895752132
	0.3912039101
	0.3928183019
	0.3944328129
	0.3960472047
	0.3976615965
	0.3992759883
	0.4008611143
	0.4024221897
	0.4039832950
	0.4055444002
	0.4071055949
	0.4086667001
	0.4102205038
	0.4117313921
	0.4132421911
	0.4147531092
	0.4162639976
	0.4177747965
	0.4192857146
	0.4207718074
	0.4222356975
	0.4236997068
	0.4251635969
	0.4266274869
	0.4280914068
	0.4295552969
	0.4309889078
	0.4324092865
	0.4338296950
	0.4352501035
	0.4366703928
	0.4380908012
	0.4395112097
	0.4409053028
	0.4422855079
	0.4436658025
	0.4450460970
	0.4464263916
	0.4478066862
	0.4491870105
	0.4505521953
	0.4518958032
	0.4532394111
	0.4545829892
	0.4559265971
	0.4572702050
	0.4586139023
	0.4599575102
	0.4612688124
	0.4625791907
	0.4638895094
	0.4651997983
	0.4665100873
	0.4678204060
	0.4691306949
	0.4704309106
	0.4717111886
	0.4729914069
	0.4742717147
	0.4755519032
	0.4768322110
	0.4781123996
	0.4793927073
	0.4806587100
	0.4819119871
	0.4831652939
	0.4844186008
	0.4856719077
	0.4869252145
	0.4881784916
	0.4894317091
	0.4906719029
	0.4919010997
	0.4931303859
	0.4943596125
	0.4955888987
	0.4968182147
	0.4980474114
	0.4992766976
	0.5004972219
	0.5017052293
	0.5029131770
	0.5041211247
	0.5053290725
	0.5065370798
	0.5077450871
	0.5089530945
	0.5101585984
	0.5113480091
	0.5125373006
	0.5137265921
	0.5149158835
	0.5161052942
	0.5172945857
	0.5184838772
	0.5196732879
	0.5208507776
	0.5220239162
	0.5231968760
	0.5243700147
	0.5255430937
	0.5267161727
	0.5278891921
	0.5290622711
	0.5302324891
	0.5313915014
	0.5325505733
	0.5337095857
	0.5348685980
	0.5360276103
	0.5371866226
	0.5383455753
	0.5395045877
	0.5406568050
	0.5418037772
	0.5429506898
	0.5440977216
	0.5452446938
	0.5463917255
	0.5475386977
	0.5486857295
	0.5498327017
	0.5509709120
	0.5521076918
	0.5532444715
	0.5543813109
	0.5555180907
	0.5566548705
	0.5577917099
	0.5589284897
	0.5600647926
	0.5611929893
	0.5623211861
	0.5634493828
	0.5645775795
	0.5657057762
	0.5668339729
	0.5679622293
	0.5690904260
	0.5702171922
	0.5713382959
	0.5724593997
	0.5735803843
	0.5747014880
	0.5758225918
	0.5769436955
	0.5780646801
	0.5791857839
	0.5803052783
	0.5814204812
	0.5825356245
	0.5836508274
	0.5847659707
	0.5858811736
	0.5869963765
	0.5881115794
	0.5892267823
	0.5903404951
	0.5914508104
	0.5925611258
	0.5936715007
	0.5947818160
	0.5958921909
	0.5970025063
	0.5981128812
	0.5992231965
	0.6003323793
	0.6014387012
	0.6025450826
	0.6036515236
	0.6047579050
	0.6058642268
	0.6069706082
	0.6080769897
	0.6091833115
	0.6102889180
	0.6113919020
	0.6124950051
	0.6135979891
	0.6147010922
	0.6158041954
	0.6169071794
	0.6180102825
	0.6191133857
	0.6202158928
	0.6213160753
	0.6224163771
	0.6235166788
	0.6246169209
	0.6257172227
	0.6268175244
	0.6279177070
	0.6290180087
	0.6301180124
	0.6312158108
	0.6323136091
	0.6334114075
	0.6345092058
	0.6356070042
	0.6367048025
	0.6378026009
	0.6389003992
	0.6399981976
	0.6410936117
	0.6421890855
	0.6432846189
	0.6443799734
	0.6454755068
	0.6465709805
	0.6476663947
	0.6487619281
	0.6498574018
	0.6509507895
	0.6520439982
	0.6531370878
	0.6542302966
	0.6553233862
	0.6564165950
	0.6575096846
	0.6586028934
	0.6596959829
	0.6607874036
	0.6618781090
	0.6629688740
	0.6640595794
	0.6651502848
	0.6662409902
	0.6673316956
	0.6684224010
	0.6695131063
	0.6706023216
	0.6716902852
	0.6727783084
	0.6738662720
	0.6749542952
	0.6760423779
	0.6771304011
	0.6782184243
	0.6793063879
	0.6803932190
	0.6814782023
	0.6825631261
	0.6836479902
	0.6847329140
	0.6858178973
	0.6869028211
	0.6879876852
	0.6890726089
	0.6901569963
	0.6912384033
	0.6923196912
	0.6934009790
	0.6944823861
	0.6955636740
	0.6966450214
	0.6977263093
	0.6988077164
	0.6998890042
	0.7009665966
	0.7020437121
	0.7031208873
	0.7041980028
	0.7052751780
	0.7063522935
	0.7074295282
	0.7085065842
	0.7095838189
	0.7106578946
	0.7117301822
	0.7128025293
	0.7138748169
	0.7149469852
	0.7160192728
	0.7170916200
	0.7181639075
	0.7192360759
	0.7203068137
	0.7213733792
	0.7224400043
	0.7235066295
	0.7245730758
	0.7256397009
	0.7267063260
	0.7277728915
	0.7288395166
	0.7299060822
	0.7309666276
	0.7320265770
	0.7330865860
	0.7341464758
	0.7352064848
	0.7362664938
	0.7373265028
	0.7383863926
	0.7394464016
	0.7405027151
	0.7415549159
	0.7426071763
	0.7436593771
	0.7447115779
	0.7457638979
	0.7468160987
	0.7478684187
	0.7489206195
	0.7499728203
	0.7510163188
	0.7520595193
	0.7531027794
	0.7541459799
	0.7551891804
	0.7562325001
	0.7572757006
	0.7583189011
	0.7593622208
	0.7604013085
	0.7614340186
	0.7624667287
	0.7634993792
	0.7645320892
	0.7655647993
	0.7665975094
	0.7676302195
	0.7686629295
	0.7696955800
	0.7707195878
	0.7717399001
	0.7727602124
	0.7737805247
	0.7748007774
	0.7758212090
	0.7768415213
	0.7778617740
	0.7788820863
	0.7799023986
	0.7809095979
	0.7819153070
	0.7829210758
	0.7839267850
	0.7849326134
	0.7859383225
	0.7869439721
	0.7879498005
	0.7889555097
	0.7899612784
	0.7909504771
	0.7919390202
	0.7929275036
	0.7939161062
	0.7949045897
	0.7958930731
	0.7968816757
	0.7978702188
	0.7988587022
	0.7998473048
	0.8008186221
	0.8017867804
	0.8027549982
	0.8037232161
	0.8046914935
	0.8056597114
	0.8066279292
	0.8075960875
	0.8085643053
	0.8095325232
	0.8104882836
	0.8114324808
	0.8123767972
	0.8133209944
	0.8142651916
	0.8152093887
	0.8161537051
	0.8170979023
	0.8180420995
	0.8189862967
	0.8199306130
	0.8208488226
	0.8217648864
	0.8226810098
	0.8235970736
	0.8245131969
	0.8254293203
	0.8263453841
	0.8272615075
	0.8281775713
	0.8290936947
	0.8300095201
	0.8308929205
	0.8317763209
	0.8326597214
	0.8335431218
	0.8344264030
	0.8353098035
	0.8361932039
	0.8370766044
	0.8379600048
	0.8388434052
	0.8397268057
	0.8405842185
	0.8414300084
	0.8422756791
	0.8431215286
	0.8439673185
	0.8448129892
	0.8456587791
	0.8465046287
	0.8473502994
	0.8481960893
	0.8490418792
	0.8498876095
	0.8506965041
	0.8514996767
	0.8523029089
	0.8531060815
	0.8539093137
	0.8547124267
	0.8555155993
	0.8563187718
	0.8571220040
	0.8579251766
	0.8587284088
	0.8595315814
	0.8603150249
	0.8610708714
	0.8618267775
	0.8625826240
	0.8633384705
	0.8640943170
	0.8648502231
	0.8656061292
	0.8663619161
	0.8671178222
	0.8678736091
	0.8686295152
	0.8693854213
	0.8701316118
	0.8708360195
	0.8715404272
	0.8722447157
	0.8729491234
	0.8736534715
	0.8743578196
	0.8750622272
	0.8757665753
	0.8764709830
	0.8771752715
	0.8778796792
	0.8785840869
	0.8792883754
	0.8799927831
	0.8806430101
	0.8812925816
	0.8819422126
	0.8825919032
	0.8832414746
	0.8838911057
	0.8845406771
	0.8851904273
	0.8858399987
	0.8864896297
	0.8871392012
	0.8877888918
	0.8884385228
	0.8890880942
	0.8897377253
	0.8903535008
	0.8909463286
	0.8915392160
	0.8921319842
	0.8927248120
	0.8933175802
	0.8939105272
	0.8945032954
	0.8950961232
	0.8956890106
	0.8962817788
	0.8968746066
	0.8974674940
	0.8980603218
	0.8986530900
	0.8992459178
	0.8998388052
	0.9003897905
	0.9009250998
	0.9014605284
	0.9019957781
	0.9025312066
	0.9030665755
	0.9036018848
	0.9041373134
	0.9046726227
	0.9052079916
	0.9057434201
	0.9062787294
	0.9068140984
	0.9073494077
	0.9078847766
	0.9084202051
	0.9089555144
	0.9094908834
	0.9100235105
	0.9105020761
	0.9109807014
	0.9114593863
	0.9119380116
	0.9124165773
	0.9128953218
	0.9133738875
	0.9138525128
	0.9143311977
	0.9148098230
	0.9152883887
	0.9157670736
	0.9162456989
	0.9167243242
	0.9172030091
	0.9176815748
	0.9181602001
	0.9186388850
	0.9191175103
	0.9195960760
	0.9200661778
	0.9204902053
	0.9209141135
	0.9213380814
	0.9217619896
	0.9221860170
	0.9226099253
	0.9230338931
	0.9234578013
	0.9238818288
	0.9243056774
	0.9247297049
	0.9251536131
	0.9255775213
	0.9260014892
	0.9264253974
	0.9268494248
	0.9272732735
	0.9276973009
	0.9281212091
	0.9285451770
	0.9289690852
	0.9293931127
	0.9298170209
	0.9302117229
	0.9305840731
	0.9309564829
	0.9313287735
	0.9317011833
	0.9320735931
	0.9324460030
	0.9328184128
	0.9331908226
	0.9335631728
	0.9339355826
	0.9343079925
	0.9346802831
	0.9350526929
	0.9354251027
	0.9357975125
	0.9361699224
	0.9365422726
	0.9369146824
	0.9372870922
	0.9376595020
	0.9380317926
	0.9384042025
	0.9387766123
	0.9391490221
	0.9395213723
	0.9398937821
	0.9402320981
	0.9405568838
	0.9408816099
	0.9412062764
	0.9415311217
	0.9418557882
	0.9421805739
	0.9425053000
	0.9428300858
	0.9431548119
	0.9434794784
	0.9438043237
	0.9441289902
	0.9444537759
	0.9447785020
	0.9451032877
	0.9454280138
	0.9457526803
	0.9460775256
	0.9464021921
	0.9467269778
	0.9470517039
	0.9473763704
	0.9477012157
	0.9480258822
	0.9483507276
	0.9486753941
	0.9490001798
	0.9493249059
	0.9496495724
	0.9499744177
	0.9502593279
	0.9505407810
	0.9508221745
	0.9511036873
	0.9513852000
	0.9516667128
	0.9519482255
	0.9522296190
	0.9525110722
	0.9527925849
	0.9530740976
	0.9533556104
	0.9536370039
	0.9539185166
	0.9542000294
	0.9544814825
	0.9547629952
	0.9550443888
	0.9553259015
	0.9556074142
	0.9558889270
	0.9561703801
	0.9564517736
	0.9567332864
	0.9570147991
	0.9572963119
	0.9575778246
	0.9578592181
	0.9581406713
	0.9584221840
	0.9587036967
	0.9589852095
	0.9592666030
	0.9595481157
	0.9598296285
	0.9600958228
	0.9603385925
	0.9605814219
	0.9608241916
	0.9610670209
	0.9613097906
	0.9615526199
	0.9617953897
	0.9620382190
	0.9622809887
	0.9625238180
	0.9627665877
	0.9630094171
	0.9632521868
	0.9634950161
	0.9637377858
	0.9639806151
	0.9642233849
	0.9644662142
	0.9647089839
	0.9649518132
	0.9651945829
	0.9654374123
	0.9656801820
	0.9659230113
	0.9661657810
	0.9664086103
	0.9666513801
	0.9668942094
	0.9671369791
	0.9673798084
	0.9676225781
	0.9678654075
	0.9681081772
	0.9683510065
	0.9685937762
	0.9688366055
	0.9690793753
	0.9693222046
	0.9695649743
	0.9698078036
	0.9700434208
	0.9702520967
	0.9704607725
	0.9706693888
	0.9708781242
	0.9710866809
	0.9712954164
	0.9715039730
	0.9717127085
	0.9719213247
	0.9721300006
	0.9723386168
	0.9725472927
	0.9727559090
	0.9729645848
	0.9731732011
	0.9733818769
	0.9735904932
	0.9737992287
	0.9740077853
	0.9742165208
	0.9744251966
	0.9746338129
	0.9748424888
	0.9750511050
	0.9752597809
	0.9754683971
	0.9756770730
	0.9758856893
	0.9760944247
	0.9763029814
	0.9765117168
	0.9767202735
	0.9769290090
	0.9771376252
	0.9773463011
	0.9775549173
	0.9777635932
	0.9779723287
	0.9781808853
	0.9783896208
	0.9785981774
	0.9788069129
	0.9790155292
	0.9792242050
	0.9794328213
	0.9796414971
	0.9798501134
	0.9800503850
	0.9802291989
	0.9804080129
	0.9805868864
	0.9807657003
	0.9809445143
	0.9811233282
	0.9813022017
	0.9814810157
	0.9816598296
	0.9818385839
	0.9820175171
	0.9821962714
	0.9823750854
	0.9825540185
	0.9827327728
	0.9829115868
	0.9830904007
	0.9832692742
	0.9834480882
	0.9836269021
	0.9838057160
	0.9839845896
	0.9841634035
	0.9843422174
	0.9845209718
	0.9846999049
	0.9848787189
	0.9850574732
	0.9852364063
	0.9854152203
	0.9855939746
	0.9857727885
	0.9859517217
	0.9861304760
	0.9863092899
	0.9864881039
	0.9866669774
	0.9868457913
	0.9870246053
	0.9872034192
	0.9873822927
	0.9875611067
	0.9877399206
	0.9879187942
	0.9880976081
	0.9882764220
	0.9884551764
	0.9886341095
	0.9888129234
	0.9889916778
	0.9891704917
	0.9893494248
	0.9895281792
	0.9897069931
	0.9898858070
	0.9900553226
	0.9902083278
	0.9903612733
	0.9905142784
	0.9906672835
	0.9908202887
	0.9909732938
	0.9911262989
	0.9912793040
	0.9914323092
	0.9915853143
	0.9917383194
	0.9918913245
	0.9920443296
	0.9921972752
	0.9923502803
	0.9925032854
	0.9926561713
	0.9928091764
	0.9929621816
	0.9931151867
	0.9932681918
	0.9934211969
	0.9935742021
	0.9937272072
	0.9938802123
	0.9940332174
	0.9941862226
	0.9943392277
	0.9944921732
	0.9946451783
	0.9947981834
	0.9949511886
	0.9951041937
	0.9952571988
	0.9954102039
	0.9955630898
	0.9957160950
	0.9958691001
	0.9960221052
	0.9961751103
	0.9963281155
	0.9964811206
	0.9966341257
	0.9967870712
	0.9969400764
	0.9970930815
	0.9972460866
	0.9973990917
	0.9975520968
	0.9977051020
	0.9978581071
	0.9980111122
	0.9981641173
	0.9983171225
	0.9984701276
	0.9986230135
	0.9987760186
	0.9989290237
	0.9990820289
	0.9992349744
	0.9993879795
	0.9995409846
	0.9996939898
	0.9998469949
	1.0000000000
}
