release/datafiles/colormanagement/luts/film_response/eastman_double_x_neg_6min.spi1d
Version 1
From 0.0 1.0
Length 1024
Components 1
{
	0.0000000000
	0.0022076759
	0.0048505990
	0.0077307681
	0.0106430203
	0.0134941395
	0.0164271407
	0.0193642899
	0.0222814996
	0.0253338106
	0.0283298604
	0.0312295891
	0.0340677910
	0.0368127897
	0.0395192690
	0.0422245711
	0.0448633991
	0.0473990701
	0.0498608798
	0.0522968508
	0.0547638610
	0.0572266914
	0.0596168712
	0.0619427115
	0.0641859174
	0.0663840473
	0.0685592070
	0.0707125664
	0.0728932172
	0.0750729963
	0.0772423595
	0.0793742388
	0.0814804435
	0.0835459232
	0.0855793729
	0.0876187608
	0.0896756127
	0.0917201489
	0.0937488973
	0.0957670510
	0.0977691785
	0.0997611210
	0.1017474979
	0.1037304029
	0.1057140008
	0.1076987982
	0.1096796989
	0.1116433963
	0.1136050969
	0.1155518964
	0.1174954027
	0.1194273010
	0.1213321984
	0.1232244000
	0.1250977069
	0.1269564033
	0.1288059056
	0.1306264997
	0.1324591935
	0.1342981011
	0.1361421049
	0.1379898936
	0.1398337930
	0.1416724026
	0.1435085982
	0.1453595012
	0.1472201943
	0.1490903944
	0.1509464979
	0.1527885944
	0.1546380967
	0.1564874053
	0.1583337933
	0.1601832062
	0.1620080024
	0.1638301015
	0.1656454057
	0.1674109995
	0.1691544950
	0.1708903015
	0.1726087034
	0.1743192971
	0.1760134995
	0.1776891053
	0.1793549061
	0.1810144931
	0.1826763004
	0.1843471974
	0.1860086024
	0.1876676977
	0.1893319935
	0.1910057068
	0.1926884055
	0.1943672001
	0.1960387975
	0.1977010965
	0.1993733943
	0.2010557055
	0.2027229965
	0.2043714970
	0.2060067058
	0.2076272964
	0.2092293054
	0.2108173966
	0.2123903036
	0.2139514983
	0.2155003995
	0.2170374990
	0.2185630947
	0.2200783044
	0.2215853930
	0.2230909020
	0.2245920002
	0.2260849029
	0.2275708020
	0.2290592045
	0.2305610031
	0.2320587039
	0.2335456014
	0.2350171953
	0.2364920974
	0.2379685044
	0.2394436002
	0.2409150004
	0.2423750013
	0.2438220978
	0.2452608943
	0.2466982007
	0.2481335998
	0.2495692968
	0.2510060966
	0.2524541020
	0.2539057136
	0.2553601861
	0.2568137050
	0.2582660913
	0.2597176135
	0.2611657083
	0.2626079023
	0.2640449107
	0.2654654086
	0.2668786049
	0.2682839036
	0.2696810961
	0.2710821927
	0.2724924982
	0.2739025056
	0.2753120065
	0.2767190933
	0.2781172097
	0.2795062065
	0.2808851004
	0.2822608054
	0.2836303115
	0.2849979103
	0.2863635123
	0.2877384126
	0.2891165912
	0.2905051112
	0.2918922901
	0.2932763994
	0.2946614027
	0.2960470021
	0.2974393070
	0.2988334000
	0.3002207875
	0.3016053140
	0.3029761910
	0.3043459952
	0.3057133853
	0.3070785999
	0.3084413111
	0.3098073900
	0.3111760020
	0.3125430048
	0.3139094114
	0.3152734935
	0.3166370094
	0.3179858923
	0.3193317950
	0.3206684887
	0.3220038116
	0.3233413100
	0.3246791065
	0.3260106146
	0.3273411989
	0.3286638856
	0.3299851120
	0.3313086033
	0.3326326013
	0.3339475095
	0.3352591991
	0.3365674019
	0.3378736973
	0.3391835093
	0.3404963911
	0.3418085873
	0.3431195915
	0.3444280922
	0.3457283974
	0.3470287025
	0.3483307958
	0.3496328890
	0.3509300053
	0.3522259891
	0.3535211980
	0.3548158109
	0.3561145067
	0.3574211001
	0.3587279022
	0.3600377142
	0.3613474965
	0.3626418114
	0.3639313877
	0.3652200997
	0.3665077984
	0.3677951992
	0.3690789044
	0.3703626096
	0.3716369867
	0.3729074895
	0.3741776943
	0.3754476011
	0.3767175078
	0.3779971004
	0.3792783916
	0.3805550933
	0.3818249106
	0.3830947876
	0.3843517900
	0.3856075108
	0.3868649006
	0.3881247044
	0.3893845975
	0.3906409144
	0.3918966949
	0.3931471109
	0.3943845928
	0.3956221938
	0.3968513906
	0.3980770111
	0.3993020058
	0.4005202949
	0.4017386138
	0.4029510021
	0.4041553140
	0.4053595066
	0.4065566957
	0.4077515006
	0.4089460075
	0.4101307988
	0.4113157094
	0.4124985933
	0.4136764109
	0.4148542881
	0.4160273969
	0.4171960950
	0.4183647931
	0.4195275903
	0.4206880033
	0.4218483865
	0.4230014086
	0.4241535068
	0.4253054857
	0.4264521897
	0.4275988936
	0.4287458956
	0.4298943877
	0.4310429096
	0.4321908951
	0.4333373010
	0.4344835877
	0.4356265068
	0.4367592037
	0.4378919899
	0.4390229881
	0.4401493967
	0.4412758946
	0.4424026012
	0.4435302019
	0.4446578026
	0.4457832873
	0.4469003975
	0.4480175972
	0.4491330087
	0.4502356052
	0.4513381124
	0.4524405897
	0.4535480142
	0.4546554983
	0.4557628930
	0.4568733871
	0.4579845965
	0.4590956867
	0.4602054060
	0.4613144100
	0.4624234140
	0.4635319114
	0.4646396935
	0.4657475054
	0.4668546915
	0.4679591954
	0.4690637887
	0.4701682925
	0.4712668061
	0.4723646045
	0.4734624028
	0.4745511115
	0.4756326973
	0.4767143130
	0.4777936935
	0.4788640141
	0.4799341857
	0.4810045063
	0.4820767939
	0.4831495881
	0.4842225015
	0.4852963984
	0.4863724113
	0.4874483049
	0.4885242879
	0.4895890057
	0.4906522930
	0.4917156994
	0.4927777052
	0.4938377142
	0.4948976934
	0.4959576130
	0.4970098138
	0.4980604947
	0.4991110861
	0.5001580119
	0.5011935830
	0.5022290945
	0.5032647252
	0.5042961836
	0.5053253174
	0.5063543916
	0.5073835254
	0.5083957911
	0.5094074011
	0.5104188919
	0.5114263892
	0.5124220848
	0.5134177208
	0.5144132972
	0.5154060721
	0.5163959265
	0.5173857808
	0.5183756948
	0.5193517208
	0.5203220844
	0.5212926269
	0.5222629905
	0.5232200027
	0.5241754055
	0.5251306891
	0.5260860920
	0.5270460844
	0.5280060768
	0.5289661288
	0.5299252272
	0.5308769941
	0.5318287015
	0.5327805281
	0.5337300897
	0.5346677899
	0.5356054902
	0.5365431905
	0.5374808908
	0.5384188890
	0.5393568873
	0.5402948856
	0.5412318110
	0.5421609879
	0.5430902243
	0.5440192819
	0.5449479818
	0.5458660722
	0.5467841029
	0.5477020741
	0.5486202240
	0.5495285988
	0.5504361987
	0.5513436794
	0.5522512794
	0.5531492829
	0.5540440083
	0.5549386740
	0.5558333993
	0.5567305088
	0.5576295853
	0.5585287809
	0.5594279766
	0.5603266954
	0.5612239838
	0.5621213913
	0.5630186796
	0.5639160275
	0.5648062229
	0.5656958818
	0.5665857196
	0.5674753785
	0.5683673024
	0.5692604780
	0.5701537132
	0.5710470080
	0.5719397068
	0.5728303194
	0.5737208724
	0.5746114850
	0.5755020976
	0.5763865113
	0.5772687793
	0.5781511068
	0.5790333748
	0.5799121857
	0.5807796121
	0.5816469789
	0.5825144053
	0.5833817720
	0.5842388868
	0.5850911736
	0.5859435201
	0.5867958069
	0.5876480937
	0.5885003805
	0.5893527269
	0.5902050734
	0.5910574198
	0.5919092298
	0.5927603841
	0.5936114788
	0.5944626927
	0.5953139067
	0.5961607099
	0.5970060825
	0.5978515148
	0.5986968279
	0.5995422006
	0.6003857255
	0.6012291908
	0.6020725965
	0.6029161215
	0.6037604809
	0.6046084166
	0.6054564118
	0.6063044071
	0.6071524024
	0.6080002189
	0.6088476777
	0.6096950769
	0.6105425954
	0.6113901138
	0.6122344732
	0.6130748987
	0.6139153838
	0.6147558093
	0.6155961752
	0.6164314151
	0.6172606945
	0.6180900931
	0.6189194918
	0.6197488904
	0.6205750704
	0.6213976741
	0.6222202778
	0.6230428815
	0.6238654852
	0.6246876121
	0.6255089045
	0.6263303161
	0.6271517277
	0.6279730201
	0.6287912726
	0.6296015978
	0.6304119825
	0.6312224269
	0.6320326924
	0.6328420043
	0.6336416006
	0.6344411969
	0.6352407932
	0.6360403895
	0.6368399858
	0.6376360059
	0.6384313703
	0.6392267942
	0.6400222182
	0.6408177018
	0.6416134238
	0.6424095035
	0.6432055831
	0.6440016031
	0.6447976828
	0.6455929279
	0.6463851929
	0.6471775770
	0.6479700208
	0.6487624049
	0.6495547891
	0.6503387094
	0.6511209011
	0.6519030929
	0.6526852250
	0.6534674168
	0.6542478204
	0.6550251245
	0.6558023095
	0.6565796137
	0.6573567986
	0.6581341028
	0.6589120030
	0.6596900225
	0.6604681015
	0.6612461209
	0.6620242000
	0.6628038287
	0.6635876894
	0.6643714905
	0.6651554108
	0.6659392715
	0.6667230725
	0.6675077081
	0.6682925820
	0.6690775156
	0.6698623896
	0.6706473827
	0.6714323163
	0.6722124815
	0.6729924083
	0.6737722158
	0.6745520830
	0.6753318906
	0.6761127114
	0.6768987179
	0.6776847839
	0.6784707904
	0.6792567968
	0.6800428033
	0.6808322072
	0.6816287041
	0.6824250817
	0.6832215786
	0.6840180159
	0.6848145127
	0.6856052279
	0.6863880754
	0.6871711016
	0.6879541278
	0.6887369752
	0.6895200014
	0.6902992129
	0.6910743713
	0.6918495297
	0.6926246881
	0.6933997869
	0.6941748857
	0.6949504018
	0.6957262158
	0.6965019703
	0.6972777843
	0.6980537176
	0.6988294721
	0.6996037960
	0.7003753781
	0.7011470795
	0.7019187212
	0.7026903033
	0.7034620047
	0.7042315006
	0.7049934268
	0.7057551742
	0.7065169811
	0.7072789073
	0.7080407143
	0.7088025808
	0.7095500827
	0.7102975249
	0.7110450268
	0.7117924094
	0.7125399113
	0.7132872939
	0.7140312195
	0.7147734761
	0.7155159116
	0.7162582874
	0.7170007229
	0.7177429795
	0.7184851170
	0.7192267179
	0.7199681997
	0.7207098007
	0.7214512825
	0.7221928835
	0.7229344249
	0.7236632705
	0.7243912816
	0.7251192927
	0.7258473039
	0.7265753150
	0.7273033261
	0.7280253768
	0.7287402749
	0.7294551134
	0.7301700115
	0.7308847904
	0.7315996289
	0.7323145270
	0.7330235839
	0.7337319255
	0.7344402075
	0.7351484895
	0.7358567715
	0.7365651131
	0.7372738123
	0.7379835248
	0.7386932969
	0.7394030094
	0.7401127219
	0.7408224940
	0.7415322065
	0.7422450781
	0.7429605126
	0.7436760068
	0.7443913817
	0.7451068759
	0.7458223104
	0.7465378046
	0.7472481728
	0.7479571104
	0.7486659884
	0.7493749261
	0.7500838041
	0.7507926822
	0.7515016198
	0.7522053123
	0.7529084086
	0.7536116242
	0.7543147206
	0.7550178766
	0.7557209730
	0.7564241886
	0.7571367025
	0.7578495145
	0.7585622072
	0.7592749000
	0.7599875927
	0.7607002854
	0.7614130974
	0.7621260881
	0.7628390789
	0.7635521293
	0.7642651200
	0.7649781108
	0.7656911016
	0.7664040923
	0.7671093941
	0.7678139210
	0.7685185075
	0.7692229748
	0.7699275017
	0.7706320286
	0.7713364959
	0.7720378041
	0.7727380991
	0.7734382749
	0.7741385102
	0.7748388052
	0.7755389810
	0.7762392163
	0.7769402266
	0.7776417136
	0.7783433199
	0.7790448070
	0.7797464132
	0.7804480195
	0.7811495066
	0.7818514109
	0.7825546861
	0.7832580209
	0.7839611769
	0.7846645117
	0.7853677869
	0.7860711217
	0.7867742777
	0.7874720097
	0.7881684899
	0.7888649702
	0.7895615101
	0.7902579904
	0.7909544706
	0.7916510105
	0.7923467755
	0.7930412889
	0.7937358022
	0.7944303155
	0.7951248288
	0.7958192229
	0.7965136766
	0.7972081900
	0.7979041934
	0.7986006141
	0.7992969751
	0.7999933958
	0.8006898165
	0.8013861775
	0.8020825982
	0.8027787209
	0.8034735918
	0.8041685224
	0.8048635125
	0.8055583835
	0.8062533140
	0.8069481850
	0.8076431155
	0.8083345890
	0.8090218902
	0.8097093105
	0.8103966117
	0.8110839128
	0.8117712736
	0.8124585748
	0.8131459951
	0.8138281703
	0.8145077229
	0.8151872754
	0.8158668280
	0.8165463209
	0.8172258139
	0.8179054260
	0.8185849190
	0.8192651868
	0.8199456930
	0.8206261992
	0.8213067055
	0.8219872117
	0.8226677179
	0.8233482242
	0.8240286708
	0.8247126937
	0.8253976107
	0.8260825872
	0.8267675042
	0.8274524808
	0.8281373978
	0.8288223147
	0.8295072913
	0.8301901221
	0.8308722973
	0.8315544724
	0.8322365880
	0.8329188228
	0.8336008787
	0.8342831135
	0.8349652290
	0.8356407285
	0.8363116980
	0.8369827867
	0.8376538157
	0.8383247852
	0.8389958143
	0.8396669030
	0.8403378725
	0.8410078287
	0.8416758180
	0.8423439264
	0.8430119157
	0.8436799049
	0.8443478942
	0.8450158834
	0.8456839919
	0.8463522196
	0.8470252752
	0.8476983905
	0.8483713865
	0.8490445018
	0.8497176170
	0.8503906727
	0.8510637283
	0.8517367840
	0.8524100780
	0.8530836105
	0.8537570834
	0.8544304967
	0.8551040292
	0.8557773829
	0.8564509153
	0.8571243882
	0.8577973843
	0.8584672809
	0.8591372967
	0.8598073125
	0.8604773283
	0.8611472249
	0.8618171811
	0.8624871969
	0.8631570935
	0.8638226986
	0.8644846082
	0.8651465774
	0.8658084869
	0.8664703965
	0.8671323061
	0.8677942157
	0.8684561253
	0.8691179752
	0.8697800040
	0.8704419136
	0.8711038828
	0.8717659116
	0.8724278212
	0.8730897903
	0.8737516999
	0.8744137287
	0.8750752807
	0.8757330179
	0.8763905764
	0.8770483136
	0.8777058721
	0.8783634901
	0.8790212274
	0.8796787858
	0.8803364038
	0.8809922934
	0.8816409111
	0.8822894096
	0.8829380274
	0.8835865855
	0.8842352033
	0.8848837018
	0.8855323195
	0.8861808777
	0.8868293166
	0.8874773979
	0.8881254196
	0.8887733817
	0.8894214034
	0.8900694847
	0.8907175064
	0.8913655281
	0.8920136094
	0.8926612735
	0.8933075070
	0.8939536810
	0.8945999742
	0.8952462077
	0.8958923817
	0.8965386152
	0.8971849084
	0.8978310823
	0.8984773159
	0.8991330266
	0.8997886777
	0.9004443884
	0.9011002183
	0.9017559290
	0.9024116993
	0.9030674100
	0.9037231803
	0.9043788910
	0.9050328135
	0.9056859016
	0.9063389897
	0.9069920778
	0.9076452851
	0.9082983732
	0.9089515209
	0.9096046090
	0.9102578163
	0.9109084010
	0.9115543962
	0.9122003913
	0.9128465056
	0.9134925008
	0.9141384959
	0.9147844911
	0.9154306054
	0.9160766006
	0.9167225957
	0.9173694253
	0.9180163145
	0.9186632037
	0.9193100929
	0.9199569821
	0.9206038713
	0.9212508202
	0.9218977094
	0.9225445986
	0.9231904149
	0.9238339067
	0.9244773984
	0.9251207709
	0.9257643223
	0.9264076948
	0.9270511866
	0.9276946187
	0.9283381104
	0.9289816022
	0.9296203852
	0.9302564859
	0.9308925867
	0.9315286875
	0.9321647882
	0.9328008890
	0.9334369898
	0.9340732098
	0.9347093105
	0.9353454113
	0.9359716177
	0.9365960956
	0.9372205138
	0.9378449917
	0.9384695292
	0.9390940070
	0.9397184849
	0.9403430223
	0.9409673810
	0.9415919185
	0.9422088861
	0.9428256154
	0.9434422851
	0.9440590143
	0.9446756840
	0.9452924132
	0.9459090829
	0.9465258121
	0.9471424818
	0.9477592111
	0.9483684897
	0.9489774704
	0.9495865703
	0.9501956105
	0.9508047104
	0.9514136910
	0.9520227909
	0.9526317716
	0.9532408714
	0.9538499117
	0.9544495940
	0.9550477862
	0.9556459785
	0.9562441707
	0.9568424225
	0.9574406147
	0.9580388069
	0.9586369991
	0.9592351913
	0.9598333836
	0.9604253769
	0.9610139728
	0.9616026878
	0.9621914029
	0.9627799988
	0.9633687139
	0.9639573097
	0.9645460248
	0.9651346803
	0.9657232761
	0.9663069248
	0.9668803215
	0.9674537182
	0.9680271149
	0.9686005116
	0.9691739082
	0.9697473049
	0.9703207016
	0.9708940983
	0.9714674950
	0.9720408916
	0.9725995064
	0.9731563926
	0.9737132192
	0.9742701054
	0.9748269916
	0.9753838181
	0.9759407043
	0.9764975905
	0.9770544171
	0.9776113033
	0.9781597257
	0.9786922932
	0.9792249203
	0.9797576070
	0.9802901745
	0.9808228016
	0.9813554287
	0.9818881154
	0.9824206829
	0.9829533100
	0.9834858775
	0.9840049744
	0.9845178723
	0.9850307703
	0.9855437279
	0.9860566854
	0.9865695834
	0.9870824814
	0.9875953794
	0.9881082773
	0.9886211753
	0.9891340733
	0.9896370173
	0.9901388884
	0.9906408191
	0.9911426902
	0.9916446209
	0.9921464920
	0.9926484227
	0.9931502938
	0.9936522245
	0.9941540956
	0.9946557879
	0.9951416850
	0.9956275225
	0.9961133003
	0.9965991974
	0.9970849752
	0.9975708127
	0.9980567098
	0.9985424876
	0.9990283251
	0.9995142221
	1.0000000000
}
