release/datafiles/colormanagement/luts/film_response/eastman_double_x_neg_12min.spi1d
Version 1
From 0.0 1.0
Length 1024
Components 1
{
	0.0000000000
	0.0007793432
	0.0016043870
	0.0025048309
	0.0034564850
	0.0044531059
	0.0054927212
	0.0065743062
	0.0076966030
	0.0088652465
	0.0100406297
	0.0112482598
	0.0124893002
	0.0137513904
	0.0150318900
	0.0163053796
	0.0175968707
	0.0188959707
	0.0202209800
	0.0215417892
	0.0228415392
	0.0241345204
	0.0254166108
	0.0267051402
	0.0279715508
	0.0292299706
	0.0305107906
	0.0318148397
	0.0331244394
	0.0344182886
	0.0356710814
	0.0369000100
	0.0381264500
	0.0393604413
	0.0405932292
	0.0418275297
	0.0430539995
	0.0442756005
	0.0454925410
	0.0467148200
	0.0479568392
	0.0492201187
	0.0505055487
	0.0518039688
	0.0530999005
	0.0543935411
	0.0556728095
	0.0569286086
	0.0581700616
	0.0593975298
	0.0606211387
	0.0618490316
	0.0630754977
	0.0642991737
	0.0655274168
	0.0667622983
	0.0679954067
	0.0692288280
	0.0704668984
	0.0717051104
	0.0729388893
	0.0741742104
	0.0754114315
	0.0766490623
	0.0779046863
	0.0791758820
	0.0804568231
	0.0817457736
	0.0830455273
	0.0843512416
	0.0856669694
	0.0869878605
	0.0883099586
	0.0896294117
	0.0909416676
	0.0922398567
	0.0935223699
	0.0948002487
	0.0960806310
	0.0973561779
	0.0986227468
	0.0998791903
	0.1011310965
	0.1023767963
	0.1036218032
	0.1048732996
	0.1061237976
	0.1073772013
	0.1086406037
	0.1099131033
	0.1111890003
	0.1124633029
	0.1137432009
	0.1150280014
	0.1163161024
	0.1176021993
	0.1188817993
	0.1201585010
	0.1214374006
	0.1227219999
	0.1240141019
	0.1253069043
	0.1266023964
	0.1279031932
	0.1292033046
	0.1305052042
	0.1318120956
	0.1331252009
	0.1344417036
	0.1357488036
	0.1370531023
	0.1383568048
	0.1396605074
	0.1409630030
	0.1422598958
	0.1435438991
	0.1448162943
	0.1460811943
	0.1473405957
	0.1486002952
	0.1498605013
	0.1511213034
	0.1523707062
	0.1536183953
	0.1548663974
	0.1561181992
	0.1573731005
	0.1586305052
	0.1598910987
	0.1611555964
	0.1624190062
	0.1636800021
	0.1649398953
	0.1662012041
	0.1674640030
	0.1687299013
	0.1699973047
	0.1712664962
	0.1725308001
	0.1737935990
	0.1750548929
	0.1763173938
	0.1775805950
	0.1788450032
	0.1801103055
	0.1813762039
	0.1826315969
	0.1838831007
	0.1851277947
	0.1863732934
	0.1876191944
	0.1888664067
	0.1901142001
	0.1913629025
	0.1926099062
	0.1938558966
	0.1950968057
	0.1963375956
	0.1975809038
	0.1988252997
	0.2000714988
	0.2013193965
	0.2025685012
	0.2038163990
	0.2050641030
	0.2063076943
	0.2075518072
	0.2087996006
	0.2100487053
	0.2113008052
	0.2125546932
	0.2138112932
	0.2150679976
	0.2163249999
	0.2175804973
	0.2188349068
	0.2200877964
	0.2213395983
	0.2225918025
	0.2238440067
	0.2250992060
	0.2263558954
	0.2276154011
	0.2288765013
	0.2301405072
	0.2314060032
	0.2326692939
	0.2339307964
	0.2351918072
	0.2364521027
	0.2377136946
	0.2389771044
	0.2402402014
	0.2415028960
	0.2427645028
	0.2440197021
	0.2452747971
	0.2465146035
	0.2477540970
	0.2489840984
	0.2502116859
	0.2514351010
	0.2526553869
	0.2538737059
	0.2550880015
	0.2563014030
	0.2575060129
	0.2587105036
	0.2599005997
	0.2610872090
	0.2622725964
	0.2634567022
	0.2646411955
	0.2658275068
	0.2670137882
	0.2682031095
	0.2693929970
	0.2705830038
	0.2717730105
	0.2729629874
	0.2741507888
	0.2753385901
	0.2765288949
	0.2777211964
	0.2789132893
	0.2801041007
	0.2812949121
	0.2824903131
	0.2836886942
	0.2848882973
	0.2861017883
	0.2873153090
	0.2885307968
	0.2897481024
	0.2909654081
	0.2921859026
	0.2934064865
	0.2946256995
	0.2958427072
	0.2970597148
	0.2982782125
	0.2994971871
	0.3007166982
	0.3019422889
	0.3031679094
	0.3043949902
	0.3056245148
	0.3068540096
	0.3080824018
	0.3093104064
	0.3105382919
	0.3117617965
	0.3129849136
	0.3142082095
	0.3154324889
	0.3166567981
	0.3178820908
	0.3191089034
	0.3203358054
	0.3215647936
	0.3227958977
	0.3240269125
	0.3252558112
	0.3264834881
	0.3277111948
	0.3289369941
	0.3301621974
	0.3313874006
	0.3326055110
	0.3338221014
	0.3350386918
	0.3362470865
	0.3374541104
	0.3386611044
	0.3398616016
	0.3410609961
	0.3422603905
	0.3434514999
	0.3446409106
	0.3458304107
	0.3470165133
	0.3482016921
	0.3493868113
	0.3505715132
	0.3517560065
	0.3529404998
	0.3541254103
	0.3553107083
	0.3564960063
	0.3576815128
	0.3588675857
	0.3600535989
	0.3612394929
	0.3624249995
	0.3636103868
	0.3647958934
	0.3659862876
	0.3671767116
	0.3683671057
	0.3695602119
	0.3707543015
	0.3719483912
	0.3731409013
	0.3743312061
	0.3755215108
	0.3767108917
	0.3778904974
	0.3790701926
	0.3802497983
	0.3814249933
	0.3825984001
	0.3837718070
	0.3849433959
	0.3861109912
	0.3872785866
	0.3884460926
	0.3896096051
	0.3907724023
	0.3919351995
	0.3930951953
	0.3942511082
	0.3954069018
	0.3965628147
	0.3977113962
	0.3988589942
	0.4000065923
	0.4011510909
	0.4022890925
	0.4034270048
	0.4045650065
	0.4056946933
	0.4068213105
	0.4079478085
	0.4090737104
	0.4101923108
	0.4113109112
	0.4124295115
	0.4135465026
	0.4146609008
	0.4157753885
	0.4168899059
	0.4180073142
	0.4191260040
	0.4202446938
	0.4213634133
	0.4224787951
	0.4235939085
	0.4247091115
	0.4258244038
	0.4269405007
	0.4280565977
	0.4291726947
	0.4302915931
	0.4314163029
	0.4325410128
	0.4336656928
	0.4347921908
	0.4359208047
	0.4370495081
	0.4381780922
	0.4393090010
	0.4404419065
	0.4415748119
	0.4427076876
	0.4438371062
	0.4449638128
	0.4460904002
	0.4472169876
	0.4483405054
	0.4494614005
	0.4505822957
	0.4517031908
	0.4528234005
	0.4539428949
	0.4550623894
	0.4561819136
	0.4572989047
	0.4584122002
	0.4595254064
	0.4606387019
	0.4617524147
	0.4628674090
	0.4639823139
	0.4650971889
	0.4662118852
	0.4673239887
	0.4684360921
	0.4695481956
	0.4706602991
	0.4717625082
	0.4728631973
	0.4739638865
	0.4750646055
	0.4761615098
	0.4772560000
	0.4783504903
	0.4794450104
	0.4805378914
	0.4816266894
	0.4827154875
	0.4838042855
	0.4848932028
	0.4859696925
	0.4870451093
	0.4881204069
	0.4891957939
	0.4902659059
	0.4913307130
	0.4923956096
	0.4934605062
	0.4945251942
	0.4955861866
	0.4966472089
	0.4977082014
	0.4987691939
	0.4998275936
	0.5008835793
	0.5019395947
	0.5029956102
	0.5040516257
	0.5051162243
	0.5061810017
	0.5072458982
	0.5083106756
	0.5093780756
	0.5104498863
	0.5115215778
	0.5125933886
	0.5136651993
	0.5147346854
	0.5158032179
	0.5168716908
	0.5179402232
	0.5190086961
	0.5200641155
	0.5211194158
	0.5221747160
	0.5232300758
	0.5242825747
	0.5253263116
	0.5263699889
	0.5274137259
	0.5284574032
	0.5294985771
	0.5305367112
	0.5315749049
	0.5326129794
	0.5336511135
	0.5346894860
	0.5357280970
	0.5367668271
	0.5378053784
	0.5388441086
	0.5398868918
	0.5409319997
	0.5419769883
	0.5430220962
	0.5440670848
	0.5451143980
	0.5461627245
	0.5472109914
	0.5482593179
	0.5493075848
	0.5503467917
	0.5513814092
	0.5524160266
	0.5534505844
	0.5544852018
	0.5555140972
	0.5565391183
	0.5575640798
	0.5585891008
	0.5596141219
	0.5606383085
	0.5616616011
	0.5626850128
	0.5637083054
	0.5647315979
	0.5657541752
	0.5667750239
	0.5677956939
	0.5688164234
	0.5698372126
	0.5708575845
	0.5718625784
	0.5728675723
	0.5738726258
	0.5748776197
	0.5758826137
	0.5768746138
	0.5778616071
	0.5788486004
	0.5798354745
	0.5808225274
	0.5818051100
	0.5827798247
	0.5837545991
	0.5847293139
	0.5857040882
	0.5866789222
	0.5876461267
	0.5886127949
	0.5895795822
	0.5905464292
	0.5915130973
	0.5924791098
	0.5934441090
	0.5944091082
	0.5953741074
	0.5963391066
	0.5973042250
	0.5982726812
	0.5992414951
	0.6002103090
	0.6011791825
	0.6021479964
	0.6031122804
	0.6040681005
	0.6050239205
	0.6059796810
	0.6069355011
	0.6078913212
	0.6088355184
	0.6097744703
	0.6107134223
	0.6116523743
	0.6125913858
	0.6135302782
	0.6144611835
	0.6153919101
	0.6163225174
	0.6172531843
	0.6181837916
	0.6191145778
	0.6200459003
	0.6209772229
	0.6219084859
	0.6228398085
	0.6237710118
	0.6247057915
	0.6256468892
	0.6265881062
	0.6275292039
	0.6284703016
	0.6294115186
	0.6303575039
	0.6313095093
	0.6322615147
	0.6332135797
	0.6341655850
	0.6351175904
	0.6360645294
	0.6370056272
	0.6379467249
	0.6388878822
	0.6398289800
	0.6407700777
	0.6417067051
	0.6426376104
	0.6435685158
	0.6444994211
	0.6454303265
	0.6463611126
	0.6472914815
	0.6482210159
	0.6491504908
	0.6500799060
	0.6510093808
	0.6519389153
	0.6528680921
	0.6537961960
	0.6547242999
	0.6556524038
	0.6565805078
	0.6575086713
	0.6584367752
	0.6593579054
	0.6602786779
	0.6611993909
	0.6621202230
	0.6630408764
	0.6639617085
	0.6648803949
	0.6657980084
	0.6667156219
	0.6676332951
	0.6685509086
	0.6694685221
	0.6703848243
	0.6712977886
	0.6722108126
	0.6731237769
	0.6740368009
	0.6749498248
	0.6758627892
	0.6767727733
	0.6776821017
	0.6785914898
	0.6795008779
	0.6804103255
	0.6813195944
	0.6822264791
	0.6831287146
	0.6840307713
	0.6849328876
	0.6858351231
	0.6867371798
	0.6876392961
	0.6885449290
	0.6894515753
	0.6903582811
	0.6912649274
	0.6921715736
	0.6930782795
	0.6939843893
	0.6948862076
	0.6957879066
	0.6966897249
	0.6975914836
	0.6984933019
	0.6993951201
	0.7002941966
	0.7011892796
	0.7020843029
	0.7029793859
	0.7038745284
	0.7047696114
	0.7056646943
	0.7065535784
	0.7074385285
	0.7083234191
	0.7092083097
	0.7100932002
	0.7109780908
	0.7118629813
	0.7127363086
	0.7136055827
	0.7144749165
	0.7153440714
	0.7162134051
	0.7170826197
	0.7179518938
	0.7188181877
	0.7196837068
	0.7205492854
	0.7214148045
	0.7222803831
	0.7231459022
	0.7240114212
	0.7248805165
	0.7257506251
	0.7266206741
	0.7274907827
	0.7283608913
	0.7292309999
	0.7301011086
	0.7309634089
	0.7318221927
	0.7326809168
	0.7335395813
	0.7343984246
	0.7352570891
	0.7361158133
	0.7369657159
	0.7378072739
	0.7386490107
	0.7394906282
	0.7403321862
	0.7411738038
	0.7420154214
	0.7428557277
	0.7436921000
	0.7445284724
	0.7453650236
	0.7462013960
	0.7470378876
	0.7478743196
	0.7487106919
	0.7495496869
	0.7503886819
	0.7512277961
	0.7520667911
	0.7529059052
	0.7537449002
	0.7545840144
	0.7554156780
	0.7562410831
	0.7570664287
	0.7578917742
	0.7587171793
	0.7595425844
	0.7603678703
	0.7611923218
	0.7619991899
	0.7628061175
	0.7636129856
	0.7644199133
	0.7652267814
	0.7660337090
	0.7668405175
	0.7676423192
	0.7684385180
	0.7692347169
	0.7700309753
	0.7708271742
	0.7716233730
	0.7724196911
	0.7732158899
	0.7740070820
	0.7747973204
	0.7755873799
	0.7763776183
	0.7771677971
	0.7779579759
	0.7787482142
	0.7795379162
	0.7803233862
	0.7811089158
	0.7818945050
	0.7826799750
	0.7834655046
	0.7842510939
	0.7850366235
	0.7858232856
	0.7866128087
	0.7874022722
	0.7881917953
	0.7889813185
	0.7897707820
	0.7905603051
	0.7913498282
	0.7921416163
	0.7929369807
	0.7937325239
	0.7945278883
	0.7953233719
	0.7961187959
	0.7969142795
	0.7977098227
	0.7985072732
	0.7993078828
	0.8001083732
	0.8009089828
	0.8017095923
	0.8025102019
	0.8033106923
	0.8041113019
	0.8049136996
	0.8057196736
	0.8065257072
	0.8073316813
	0.8081377149
	0.8089436889
	0.8097497225
	0.8105556965
	0.8113610148
	0.8121625185
	0.8129640818
	0.8137655854
	0.8145672083
	0.8153687119
	0.8161702752
	0.8169717789
	0.8177734017
	0.8185741901
	0.8193749189
	0.8201755881
	0.8209763169
	0.8217771053
	0.8225777745
	0.8233785033
	0.8241791725
	0.8249862790
	0.8257976770
	0.8266091943
	0.8274207115
	0.8282322288
	0.8290436864
	0.8298552036
	0.8306667209
	0.8314790130
	0.8322961926
	0.8331133723
	0.8339306116
	0.8347477913
	0.8355649710
	0.8363820910
	0.8371992707
	0.8380165100
	0.8388273120
	0.8396344185
	0.8404415846
	0.8412486911
	0.8420559168
	0.8428630233
	0.8436701894
	0.8444772959
	0.8452842832
	0.8460859060
	0.8468874097
	0.8476889729
	0.8484904766
	0.8492919803
	0.8500936031
	0.8508951068
	0.8516967297
	0.8524969816
	0.8532947898
	0.8540925980
	0.8548902869
	0.8556880951
	0.8564857841
	0.8572835922
	0.8580814004
	0.8588790894
	0.8596730232
	0.8604632020
	0.8612535000
	0.8620436788
	0.8628339767
	0.8636242151
	0.8644145131
	0.8652046919
	0.8659949899
	0.8667806983
	0.8675637841
	0.8683468103
	0.8691297770
	0.8699129224
	0.8706958890
	0.8714789152
	0.8722620010
	0.8730450273
	0.8738256097
	0.8746048808
	0.8753840923
	0.8761633039
	0.8769425750
	0.8777217865
	0.8785009980
	0.8792803288
	0.8800594807
	0.8808330894
	0.8816019893
	0.8823708296
	0.8831397295
	0.8839085102
	0.8846774101
	0.8854461908
	0.8862150908
	0.8869838715
	0.8877493739
	0.8885086775
	0.8892679811
	0.8900274038
	0.8907867074
	0.8915460706
	0.8923053741
	0.8930646777
	0.8938241005
	0.8945831060
	0.8953374028
	0.8960916996
	0.8968459964
	0.8976002932
	0.8983545899
	0.8991088867
	0.8998631835
	0.9006174803
	0.9013717771
	0.9021221995
	0.9028707147
	0.9036192298
	0.9043676853
	0.9051162004
	0.9058647156
	0.9066131711
	0.9073616862
	0.9081102014
	0.9088572264
	0.9095978141
	0.9103382826
	0.9110788703
	0.9118193984
	0.9125599265
	0.9133005142
	0.9140409827
	0.9147815704
	0.9155220985
	0.9162616730
	0.9170007110
	0.9177396894
	0.9184786081
	0.9192175865
	0.9199566245
	0.9206956029
	0.9214345813
	0.9221735001
	0.9229124784
	0.9236471057
	0.9243810773
	0.9251152277
	0.9258491993
	0.9265832901
	0.9273173809
	0.9280514121
	0.9287855029
	0.9295194745
	0.9302524924
	0.9309753180
	0.9316980839
	0.9324210286
	0.9331437945
	0.9338666201
	0.9345893860
	0.9353122711
	0.9360350966
	0.9367579222
	0.9374781847
	0.9381874204
	0.9388967156
	0.9396058917
	0.9403151274
	0.9410244226
	0.9417335987
	0.9424427748
	0.9431521297
	0.9438613057
	0.9445694089
	0.9452716708
	0.9459741116
	0.9466764927
	0.9473788738
	0.9480813146
	0.9487836957
	0.9494860768
	0.9501885176
	0.9508908987
	0.9515926838
	0.9522830844
	0.9529734850
	0.9536638856
	0.9543542862
	0.9550446868
	0.9557350874
	0.9564254880
	0.9571158886
	0.9578062892
	0.9584966898
	0.9591748118
	0.9598501921
	0.9605255723
	0.9612010121
	0.9618763924
	0.9625517726
	0.9632272124
	0.9639025927
	0.9645779729
	0.9652534127
	0.9659177065
	0.9665694833
	0.9672212005
	0.9678729773
	0.9685248137
	0.9691764712
	0.9698283076
	0.9704800248
	0.9711318016
	0.9717835784
	0.9724348783
	0.9730530977
	0.9736713171
	0.9742894769
	0.9749076962
	0.9755259752
	0.9761441946
	0.9767624140
	0.9773805737
	0.9779987931
	0.9786170125
	0.9792193770
	0.9798017740
	0.9803841710
	0.9809666872
	0.9815490842
	0.9821314812
	0.9827138782
	0.9832963943
	0.9838787913
	0.9844611883
	0.9850435853
	0.9855896831
	0.9861239791
	0.9866582751
	0.9871926904
	0.9877269864
	0.9882612824
	0.9887955785
	0.9893299937
	0.9898642898
	0.9903985858
	0.9909328818
	0.9913933873
	0.9918504953
	0.9923074841
	0.9927644730
	0.9932215214
	0.9936786294
	0.9941356182
	0.9945926070
	0.9950495958
	0.9955067039
	0.9959604144
	0.9963275790
	0.9966949224
	0.9970620871
	0.9974293113
	0.9977965951
	0.9981638193
	0.9985311031
	0.9988983274
	0.9992654920
	0.9996327758
	1.0000000000
}
