release/datafiles/colormanagement/luts/film_response/eastman_double_x_neg_5min.spi1d
Version 1
From 0.0 1.0
Length 1024
Components 1
{
	0.0000000000
	0.0030272121
	0.0063094199
	0.0098175881
	0.0132390903
	0.0165068507
	0.0197617300
	0.0230012909
	0.0261860900
	0.0293740109
	0.0325979404
	0.0358636007
	0.0391314887
	0.0424252301
	0.0457398184
	0.0491124503
	0.0525345095
	0.0558606908
	0.0591593795
	0.0623592213
	0.0656063929
	0.0688082799
	0.0719619915
	0.0750681385
	0.0781241581
	0.0811320320
	0.0840930864
	0.0869851932
	0.0898269489
	0.0926580206
	0.0954112411
	0.0981268808
	0.1008647010
	0.1035747007
	0.1062444001
	0.1088567972
	0.1114612967
	0.1140118018
	0.1165103987
	0.1189728975
	0.1214018017
	0.1238031015
	0.1261426061
	0.1285005063
	0.1308861971
	0.1332633942
	0.1356558949
	0.1380044073
	0.1403446943
	0.1426548958
	0.1449654996
	0.1472640932
	0.1495569050
	0.1518307030
	0.1540544927
	0.1562412977
	0.1584434956
	0.1606242061
	0.1627897024
	0.1649412066
	0.1670477986
	0.1691658944
	0.1713186055
	0.1734748930
	0.1756159067
	0.1777509004
	0.1798588932
	0.1819704026
	0.1841046959
	0.1862291992
	0.1883134991
	0.1904103011
	0.1924743056
	0.1944988072
	0.1965171993
	0.1985401064
	0.2005351931
	0.2025036067
	0.2044758946
	0.2064372003
	0.2083602995
	0.2102862000
	0.2122135013
	0.2141225934
	0.2159958929
	0.2178680003
	0.2197511047
	0.2216199934
	0.2234732956
	0.2253248990
	0.2271879017
	0.2290568948
	0.2309205979
	0.2327875942
	0.2346781045
	0.2365760058
	0.2384558022
	0.2403216064
	0.2421821058
	0.2440275997
	0.2458492070
	0.2476378977
	0.2494101971
	0.2511883080
	0.2529624104
	0.2547251880
	0.2564688921
	0.2581931055
	0.2599115074
	0.2616336942
	0.2633337080
	0.2650091052
	0.2666670084
	0.2683193982
	0.2699855864
	0.2716380954
	0.2732735872
	0.2748895884
	0.2764844894
	0.2780745029
	0.2796624005
	0.2812372148
	0.2827902138
	0.2843335867
	0.2858856916
	0.2874445021
	0.2890088856
	0.2905732989
	0.2921339869
	0.2936922908
	0.2952659130
	0.2968513072
	0.2984412909
	0.3000228107
	0.3015750945
	0.3031128943
	0.3046396971
	0.3061710894
	0.3077040017
	0.3092370927
	0.3107506931
	0.3122516870
	0.3137294054
	0.3152104020
	0.3166939020
	0.3181836009
	0.3196648061
	0.3211343884
	0.3225882053
	0.3240387142
	0.3254922032
	0.3269436955
	0.3283936083
	0.3298347890
	0.3312718868
	0.3326953948
	0.3341206014
	0.3355478048
	0.3369952142
	0.3384498060
	0.3399038017
	0.3413537145
	0.3427903950
	0.3442232013
	0.3456513882
	0.3470813930
	0.3485122919
	0.3499529958
	0.3513954878
	0.3528392911
	0.3542819917
	0.3557189107
	0.3571557105
	0.3585920930
	0.3600325882
	0.3614800870
	0.3629246950
	0.3643657863
	0.3657987118
	0.3672237992
	0.3686499894
	0.3700770140
	0.3714995086
	0.3729186952
	0.3743284941
	0.3757312894
	0.3771198094
	0.3784962893
	0.3798680007
	0.3812347949
	0.3826048970
	0.3839792907
	0.3853527904
	0.3867248893
	0.3880946934
	0.3894568980
	0.3908174038
	0.3921599090
	0.3935025036
	0.3948425949
	0.3961825073
	0.3975262940
	0.3988716006
	0.4002110064
	0.4015452862
	0.4028792977
	0.4042125046
	0.4055452049
	0.4068675935
	0.4081901014
	0.4095175862
	0.4108465910
	0.4121741951
	0.4135001898
	0.4148246050
	0.4161387980
	0.4174529910
	0.4187706113
	0.4200890958
	0.4214057028
	0.4227195084
	0.4240333140
	0.4253349006
	0.4266364872
	0.4279260933
	0.4292064011
	0.4304861128
	0.4317606986
	0.4330351949
	0.4343157113
	0.4355998933
	0.4368841946
	0.4381690919
	0.4394541085
	0.4407306015
	0.4420005977
	0.4432705939
	0.4445107877
	0.4457508922
	0.4469895065
	0.4482258856
	0.4494622052
	0.4506838918
	0.4519014955
	0.4531166852
	0.4543156028
	0.4555146098
	0.4567095041
	0.4578996897
	0.4590897858
	0.4602785110
	0.4614667892
	0.4626550078
	0.4638502896
	0.4650456905
	0.4662390947
	0.4674263895
	0.4686135948
	0.4697979987
	0.4709784091
	0.4721589088
	0.4733403027
	0.4745222926
	0.4757043123
	0.4768933952
	0.4780850112
	0.4792765081
	0.4804633856
	0.4816494882
	0.4828355014
	0.4839955866
	0.4851537943
	0.4863120019
	0.4874627888
	0.4886133969
	0.4897640944
	0.4909220040
	0.4920799136
	0.4932379127
	0.4943912029
	0.4955444932
	0.4966978133
	0.4978221059
	0.4989440143
	0.5000659823
	0.5011757016
	0.5022830963
	0.5033904910
	0.5044888854
	0.5055838823
	0.5066789985
	0.5077672005
	0.5088503957
	0.5099335909
	0.5110126734
	0.5120856166
	0.5131585002
	0.5142297745
	0.5152938962
	0.5163578987
	0.5174219012
	0.5184922814
	0.5195631981
	0.5206341147
	0.5217061043
	0.5227789283
	0.5238515735
	0.5249236822
	0.5259944201
	0.5270652175
	0.5281358957
	0.5291953087
	0.5302540064
	0.5313128233
	0.5323665738
	0.5334162712
	0.5344660282
	0.5355166197
	0.5365738273
	0.5376309752
	0.5386883020
	0.5397393703
	0.5407869816
	0.5418345928
	0.5428798199
	0.5439077020
	0.5449357033
	0.5459637046
	0.5469853878
	0.5480024219
	0.5490195155
	0.5500364900
	0.5510535836
	0.5520707965
	0.5530878901
	0.5541033745
	0.5551161170
	0.5561287999
	0.5571414828
	0.5581471920
	0.5591498017
	0.5601524115
	0.5611549020
	0.5621367097
	0.5631183982
	0.5641000271
	0.5650776029
	0.5660427809
	0.5670080781
	0.5679733753
	0.5689417124
	0.5699135065
	0.5708853006
	0.5718570948
	0.5728263855
	0.5737943053
	0.5747622252
	0.5757302046
	0.5766975880
	0.5776649117
	0.5786321759
	0.5795994997
	0.5805698037
	0.5815405250
	0.5825111270
	0.5834817886
	0.5844538808
	0.5854260921
	0.5863983035
	0.5873705745
	0.5883414149
	0.5893121958
	0.5902829766
	0.5912536979
	0.5922099948
	0.5931643248
	0.5941184759
	0.5950728059
	0.5960159898
	0.5969563723
	0.5978966951
	0.5988370776
	0.5997706056
	0.6007006764
	0.6016308069
	0.6025608182
	0.6034846902
	0.6044021845
	0.6053197980
	0.6062374115
	0.6071522832
	0.6080605984
	0.6089687943
	0.6098771095
	0.6107851863
	0.6116871238
	0.6125890017
	0.6134908795
	0.6143928170
	0.6152886152
	0.6161820889
	0.6170755029
	0.6179689765
	0.6188614964
	0.6197524071
	0.6206433773
	0.6215342879
	0.6224251986
	0.6233009100
	0.6241760254
	0.6250510812
	0.6259261966
	0.6267927885
	0.6276513934
	0.6285099983
	0.6293684840
	0.6302270889
	0.6310849786
	0.6319429278
	0.6328008175
	0.6336587071
	0.6345123053
	0.6353611946
	0.6362100244
	0.6370587945
	0.6379076838
	0.6387491822
	0.6395896077
	0.6404299736
	0.6412703991
	0.6421101093
	0.6429476142
	0.6437851191
	0.6446226835
	0.6454601884
	0.6463015079
	0.6471462250
	0.6479908824
	0.6488355994
	0.6496803164
	0.6505240798
	0.6513677835
	0.6522114873
	0.6530550718
	0.6538987756
	0.6547306180
	0.6555622816
	0.6563938856
	0.6572256088
	0.6580554843
	0.6588743925
	0.6596933007
	0.6605123281
	0.6613311768
	0.6621484160
	0.6629601717
	0.6637719870
	0.6645838022
	0.6653956175
	0.6662080288
	0.6670222878
	0.6678364873
	0.6686508060
	0.6694651246
	0.6702783108
	0.6710888147
	0.6718993187
	0.6727098227
	0.6735203266
	0.6743295789
	0.6751338840
	0.6759383082
	0.6767426133
	0.6775469780
	0.6783509851
	0.6791514158
	0.6799517870
	0.6807522774
	0.6815527081
	0.6823530793
	0.6831542850
	0.6839554906
	0.6847568154
	0.6855580211
	0.6863592863
	0.6871563792
	0.6879516244
	0.6887468100
	0.6895419955
	0.6903371215
	0.6911249757
	0.6919013262
	0.6926776171
	0.6934539080
	0.6942301989
	0.6950061917
	0.6957769990
	0.6965478063
	0.6973184943
	0.6980893016
	0.6988599896
	0.6996240020
	0.7003840208
	0.7011440992
	0.7019041181
	0.7026641965
	0.7034214735
	0.7041661143
	0.7049108148
	0.7056553960
	0.7063999772
	0.7071446776
	0.7078785896
	0.7086068988
	0.7093350887
	0.7100633979
	0.7107917070
	0.7115197182
	0.7122437954
	0.7129678726
	0.7136920094
	0.7144160867
	0.7151402235
	0.7158653140
	0.7165917754
	0.7173182964
	0.7180448174
	0.7187712789
	0.7194977999
	0.7202196121
	0.7209396958
	0.7216597199
	0.7223798037
	0.7230998874
	0.7238199711
	0.7245283127
	0.7252361774
	0.7259441018
	0.7266520858
	0.7273600101
	0.7280663252
	0.7287629247
	0.7294594049
	0.7301560044
	0.7308526039
	0.7315490842
	0.7322456241
	0.7329418063
	0.7336379886
	0.7343341708
	0.7350304127
	0.7357265949
	0.7364248037
	0.7371274829
	0.7378302813
	0.7385330200
	0.7392356992
	0.7399383783
	0.7406404018
	0.7413403988
	0.7420405149
	0.7427405119
	0.7434405088
	0.7441406250
	0.7448390722
	0.7455317974
	0.7462245226
	0.7469171882
	0.7476099133
	0.7483025789
	0.7489954233
	0.7496907115
	0.7503858805
	0.7510811090
	0.7517763972
	0.7524716258
	0.7531669140
	0.7538704872
	0.7545759082
	0.7552812099
	0.7559865713
	0.7566918731
	0.7573972940
	0.7581034899
	0.7588102818
	0.7595170736
	0.7602239251
	0.7609307170
	0.7616376281
	0.7623426914
	0.7630413175
	0.7637398839
	0.7644385099
	0.7651370764
	0.7658355832
	0.7665342093
	0.7672234178
	0.7679098845
	0.7685962915
	0.7692828178
	0.7699692845
	0.7706558108
	0.7713416219
	0.7720258832
	0.7727100849
	0.7733944058
	0.7740787268
	0.7747629285
	0.7754471898
	0.7761262059
	0.7768033743
	0.7774804831
	0.7781575918
	0.7788347006
	0.7795119286
	0.7801874876
	0.7808486819
	0.7815099955
	0.7821711898
	0.7828325033
	0.7834938169
	0.7841550112
	0.7848129869
	0.7854657769
	0.7861186266
	0.7867714167
	0.7874242067
	0.7880769968
	0.7887297869
	0.7893806100
	0.7900301814
	0.7906798124
	0.7913293839
	0.7919788957
	0.7926285267
	0.7932780981
	0.7939221859
	0.7945647836
	0.7952073216
	0.7958499193
	0.7964923978
	0.7971348763
	0.7977774739
	0.7984188199
	0.7990599275
	0.7997009754
	0.8003420234
	0.8009830713
	0.8016241789
	0.8022652864
	0.8028982282
	0.8035295010
	0.8041607738
	0.8047922254
	0.8054234982
	0.8060547709
	0.8066862226
	0.8073112965
	0.8079345822
	0.8085579276
	0.8091812134
	0.8098044991
	0.8104277253
	0.8110510111
	0.8116706014
	0.8122878075
	0.8129050136
	0.8135222197
	0.8141394854
	0.8147566915
	0.8153738976
	0.8159893751
	0.8166022897
	0.8172150850
	0.8178278804
	0.8184407949
	0.8190535903
	0.8196663857
	0.8202791214
	0.8208892941
	0.8214995861
	0.8221098781
	0.8227202296
	0.8233304024
	0.8239406943
	0.8245509863
	0.8251606226
	0.8257699013
	0.8263791800
	0.8269885182
	0.8275977969
	0.8282071948
	0.8288164735
	0.8294249773
	0.8300309777
	0.8306369781
	0.8312429786
	0.8318489790
	0.8324549794
	0.8330609798
	0.8336669207
	0.8342692852
	0.8348699808
	0.8354706764
	0.8360713720
	0.8366721272
	0.8372727036
	0.8378733993
	0.8384736776
	0.8390662074
	0.8396586180
	0.8402510881
	0.8408436179
	0.8414360881
	0.8420284986
	0.8426210284
	0.8432112932
	0.8437972069
	0.8443831801
	0.8449690938
	0.8455551267
	0.8461410999
	0.8467270136
	0.8473129869
	0.8479040265
	0.8484994769
	0.8490949273
	0.8496903181
	0.8502858281
	0.8508812189
	0.8514766097
	0.8520721197
	0.8526653051
	0.8532572985
	0.8538494110
	0.8544414043
	0.8550335169
	0.8556255102
	0.8562176228
	0.8568096161
	0.8573905230
	0.8579664230
	0.8585423827
	0.8591184020
	0.8596943021
	0.8602703214
	0.8608462811
	0.8614221811
	0.8619980216
	0.8625736833
	0.8631494045
	0.8637250066
	0.8643007278
	0.8648763895
	0.8654521108
	0.8660277128
	0.8666040897
	0.8671810031
	0.8677579761
	0.8683350086
	0.8689119220
	0.8694888949
	0.8700659275
	0.8706427813
	0.8712193966
	0.8717948198
	0.8723701835
	0.8729457259
	0.8735210896
	0.8740965128
	0.8746719956
	0.8752474189
	0.8758227825
	0.8763949871
	0.8769670129
	0.8775389791
	0.8781110048
	0.8786829710
	0.8792549968
	0.8798270226
	0.8803989887
	0.8809679747
	0.8815342784
	0.8821007013
	0.8826671243
	0.8832334876
	0.8837999105
	0.8843662143
	0.8849325776
	0.8854988217
	0.8860610127
	0.8866233230
	0.8871855140
	0.8877478242
	0.8883100748
	0.8888723254
	0.8894345760
	0.8899968266
	0.8905580044
	0.8911178112
	0.8916776180
	0.8922374249
	0.8927971721
	0.8933569789
	0.8939167857
	0.8944765925
	0.8950363994
	0.8955954909
	0.8961544037
	0.8967131972
	0.8972721100
	0.8978309035
	0.8983898163
	0.8989487290
	0.8995075226
	0.9000663757
	0.9006261230
	0.9011856914
	0.9017453790
	0.9023050070
	0.9028646946
	0.9034243226
	0.9039840102
	0.9045435786
	0.9051036239
	0.9056655169
	0.9062274098
	0.9067893028
	0.9073511958
	0.9079130888
	0.9084749818
	0.9090368748
	0.9095988274
	0.9101592898
	0.9107123017
	0.9112653136
	0.9118183255
	0.9123712182
	0.9129241705
	0.9134771824
	0.9140301943
	0.9145832062
	0.9151350856
	0.9156765938
	0.9162181020
	0.9167596102
	0.9173009992
	0.9178425074
	0.9183840156
	0.9189255238
	0.9194669724
	0.9200084805
	0.9205374122
	0.9210653901
	0.9215933084
	0.9221212864
	0.9226492047
	0.9231771827
	0.9237051010
	0.9242330790
	0.9247609973
	0.9252843857
	0.9258053899
	0.9263263941
	0.9268475175
	0.9273685217
	0.9278895855
	0.9284105897
	0.9289315939
	0.9294527173
	0.9299737811
	0.9304950833
	0.9310163260
	0.9315376282
	0.9320588708
	0.9325801730
	0.9331014752
	0.9336227179
	0.9341440201
	0.9346653223
	0.9351785183
	0.9356899858
	0.9362015128
	0.9367129803
	0.9372245073
	0.9377359748
	0.9382475019
	0.9387590289
	0.9392704964
	0.9397779703
	0.9402741790
	0.9407703876
	0.9412665963
	0.9417628050
	0.9422590733
	0.9427552819
	0.9432514906
	0.9437476993
	0.9442439079
	0.9447419047
	0.9452412128
	0.9457404017
	0.9462395906
	0.9467388988
	0.9472380877
	0.9477373958
	0.9482365847
	0.9487358928
	0.9492350817
	0.9497361183
	0.9502375722
	0.9507390261
	0.9512404203
	0.9517418742
	0.9522433281
	0.9527447820
	0.9532461762
	0.9537475705
	0.9542490840
	0.9547458887
	0.9552422762
	0.9557387233
	0.9562351704
	0.9567316175
	0.9572281241
	0.9577245116
	0.9582208991
	0.9587174058
	0.9592137933
	0.9596955180
	0.9601761103
	0.9606567025
	0.9611372948
	0.9616180062
	0.9620985985
	0.9625791907
	0.9630599022
	0.9635404944
	0.9640210867
	0.9644860029
	0.9649478793
	0.9654096961
	0.9658715725
	0.9663333893
	0.9667953253
	0.9672570825
	0.9677190185
	0.9681807756
	0.9686427116
	0.9691007733
	0.9695566893
	0.9700127244
	0.9704685807
	0.9709244967
	0.9713804722
	0.9718363881
	0.9722923040
	0.9727482200
	0.9732041955
	0.9736583829
	0.9741089940
	0.9745596051
	0.9750102162
	0.9754608274
	0.9759113789
	0.9763619900
	0.9768124819
	0.9772630930
	0.9777137041
	0.9781643152
	0.9786108732
	0.9790568948
	0.9795029163
	0.9799489975
	0.9803950191
	0.9808409810
	0.9812871218
	0.9817330837
	0.9821791053
	0.9826251268
	0.9830691218
	0.9835088253
	0.9839485288
	0.9843881726
	0.9848278761
	0.9852675796
	0.9857072830
	0.9861469865
	0.9865866899
	0.9870265126
	0.9874662161
	0.9878935218
	0.9883149266
	0.9887362719
	0.9891576767
	0.9895790815
	0.9900006056
	0.9904220104
	0.9908434153
	0.9912648201
	0.9916862249
	0.9921076298
	0.9924955964
	0.9928798079
	0.9932640791
	0.9936484098
	0.9940326810
	0.9944170117
	0.9948012233
	0.9951854944
	0.9955698252
	0.9959540963
	0.9963378906
	0.9966707826
	0.9970036745
	0.9973366857
	0.9976695776
	0.9980025291
	0.9983354211
	0.9986683130
	0.9990012050
	0.9993342161
	0.9996671081
	1.0000000000
}
