release/datafiles/colormanagement/luts/film_response/eastman_double_x_neg_4min.spi1d
Version 1
From 0.0 1.0
Length 1024
Components 1
{
	0.0000000000
	0.0023687680
	0.0054706829
	0.0086651789
	0.0120176496
	0.0158339497
	0.0195765607
	0.0236159302
	0.0276366994
	0.0318052210
	0.0358720496
	0.0399059989
	0.0439607613
	0.0478296690
	0.0517273210
	0.0555948503
	0.0593124293
	0.0629053935
	0.0664692596
	0.0699850023
	0.0734276623
	0.0768507421
	0.0801614299
	0.0833590478
	0.0865080431
	0.0895957723
	0.0926453620
	0.0956536904
	0.0985890403
	0.1014889032
	0.1043139026
	0.1071280017
	0.1098439023
	0.1126044020
	0.1154047996
	0.1181370020
	0.1207929030
	0.1234567985
	0.1260991991
	0.1286775023
	0.1312310994
	0.1338002980
	0.1363786012
	0.1389155984
	0.1414254010
	0.1439868957
	0.1465484947
	0.1490968019
	0.1516236961
	0.1540950984
	0.1565376967
	0.1589566022
	0.1613540947
	0.1637308002
	0.1660850048
	0.1684197038
	0.1707345992
	0.1730296016
	0.1753066033
	0.1775436997
	0.1797461957
	0.1819386929
	0.1841226071
	0.1862974018
	0.1884626001
	0.1906190962
	0.1927487999
	0.1948511004
	0.1969520003
	0.1990513057
	0.2011491954
	0.2032300979
	0.2052827030
	0.2073220015
	0.2093351036
	0.2113271952
	0.2133180052
	0.2153075039
	0.2172959000
	0.2192790955
	0.2212336957
	0.2231718004
	0.2251033932
	0.2270285040
	0.2289548069
	0.2309035063
	0.2328732014
	0.2348369956
	0.2367957979
	0.2387501001
	0.2406919003
	0.2426078022
	0.2445061952
	0.2464056015
	0.2483084053
	0.2502099872
	0.2521064878
	0.2539938092
	0.2558684051
	0.2577266097
	0.2595650852
	0.2613835931
	0.2631973922
	0.2650325000
	0.2668823004
	0.2687312961
	0.2705838084
	0.2724444866
	0.2743074894
	0.2761450112
	0.2779580951
	0.2797524035
	0.2815274894
	0.2832885981
	0.2850483060
	0.2868123949
	0.2885822058
	0.2903468013
	0.2920975983
	0.2938277125
	0.2955364883
	0.2972253859
	0.2988938093
	0.3005304933
	0.3021554053
	0.3037792146
	0.3054072857
	0.3070620894
	0.3087309003
	0.3104070127
	0.3120703995
	0.3137196898
	0.3153668940
	0.3170216084
	0.3186618090
	0.3202942014
	0.3219175935
	0.3235363066
	0.3251608014
	0.3267996013
	0.3284519017
	0.3301031888
	0.3317410052
	0.3333635926
	0.3349764943
	0.3365670145
	0.3381485939
	0.3397214115
	0.3412905037
	0.3428558111
	0.3444117010
	0.3459688127
	0.3475267887
	0.3490850031
	0.3506405950
	0.3521885872
	0.3537277877
	0.3552600145
	0.3567726910
	0.3582783937
	0.3597534001
	0.3612213135
	0.3626750112
	0.3641248941
	0.3655717969
	0.3670117855
	0.3684495986
	0.3698936105
	0.3713377118
	0.3727797866
	0.3742178977
	0.3756431937
	0.3770616055
	0.3784677088
	0.3798623085
	0.3812437057
	0.3826156855
	0.3839798868
	0.3853352964
	0.3866848946
	0.3880395889
	0.3893971145
	0.3907648027
	0.3921375871
	0.3935118020
	0.3948867023
	0.3962557912
	0.3976216912
	0.3989877999
	0.4003542066
	0.4017100036
	0.4030559957
	0.4043887854
	0.4057038128
	0.4070141017
	0.4083139896
	0.4096128941
	0.4109064043
	0.4121997952
	0.4134868085
	0.4147739112
	0.4160555899
	0.4173362851
	0.4186184108
	0.4199014008
	0.4211877882
	0.4224792123
	0.4237694144
	0.4250515997
	0.4263338149
	0.4276081026
	0.4288811088
	0.4301379919
	0.4313819110
	0.4326207042
	0.4338417947
	0.4350628853
	0.4362733960
	0.4374822080
	0.4386931062
	0.4399060011
	0.4411188960
	0.4423305988
	0.4435423911
	0.4447481036
	0.4459505081
	0.4471527040
	0.4483538866
	0.4495550990
	0.4507592022
	0.4519644976
	0.4531674981
	0.4543609023
	0.4555541873
	0.4567396045
	0.4579207897
	0.4591009021
	0.4602701068
	0.4614393115
	0.4626025856
	0.4637596905
	0.4649167955
	0.4660637975
	0.4672091901
	0.4683555067
	0.4695048034
	0.4706541896
	0.4718030095
	0.4729512036
	0.4740993977
	0.4752402902
	0.4763796926
	0.4775182903
	0.4786491096
	0.4797798991
	0.4809078872
	0.4820297956
	0.4831517935
	0.4842692018
	0.4853824079
	0.4864956141
	0.4876025915
	0.4887068868
	0.4898110926
	0.4909138083
	0.4920162857
	0.4931187034
	0.4942246974
	0.4953309894
	0.4964371026
	0.4975334108
	0.4986295998
	0.4997260869
	0.5008261800
	0.5019261837
	0.5030261278
	0.5041244030
	0.5052226782
	0.5063204765
	0.5074101090
	0.5084996819
	0.5095893145
	0.5106704831
	0.5117517710
	0.5128329992
	0.5139064789
	0.5149794221
	0.5160521865
	0.5171185732
	0.5181834102
	0.5192481875
	0.5203077197
	0.5213642716
	0.5224208832
	0.5234770179
	0.5245326161
	0.5255880952
	0.5266445875
	0.5277037024
	0.5287628174
	0.5298218727
	0.5308706760
	0.5319193006
	0.5329679847
	0.5340090990
	0.5350469947
	0.5360848904
	0.5371162891
	0.5381368995
	0.5391575098
	0.5401778221
	0.5411760211
	0.5421741009
	0.5431722999
	0.5441654921
	0.5451557040
	0.5461459160
	0.5471357107
	0.5481235981
	0.5491116047
	0.5500994921
	0.5510740876
	0.5520431995
	0.5530123115
	0.5539786220
	0.5549340248
	0.5558893085
	0.5568445921
	0.5578002930
	0.5587561727
	0.5597121119
	0.5606679916
	0.5616241097
	0.5625802875
	0.5635365248
	0.5644925237
	0.5654482245
	0.5664039850
	0.5673596859
	0.5683150887
	0.5692703724
	0.5702255964
	0.5711804032
	0.5721278787
	0.5730754733
	0.5740230083
	0.5749645829
	0.5758937001
	0.5768228769
	0.5777519941
	0.5786722898
	0.5795848966
	0.5804976225
	0.5814102888
	0.5823227167
	0.5832350850
	0.5841473937
	0.5850597024
	0.5859693885
	0.5868784785
	0.5877876878
	0.5886967778
	0.5896003246
	0.5905032754
	0.5914062858
	0.5923094153
	0.5932080746
	0.5941067934
	0.5950053930
	0.5959041119
	0.5967944860
	0.5976848006
	0.5985751748
	0.5994654894
	0.6003587246
	0.6012520790
	0.6021453738
	0.6030387282
	0.6039313078
	0.6048238277
	0.6057162285
	0.6066086888
	0.6074911952
	0.6083701849
	0.6092491746
	0.6101281047
	0.6109964848
	0.6118568778
	0.6127172112
	0.6135776043
	0.6144360900
	0.6152914166
	0.6161466241
	0.6170017719
	0.6178573966
	0.6187161803
	0.6195750237
	0.6204338074
	0.6212925911
	0.6221556067
	0.6230198741
	0.6238840818
	0.6247482896
	0.6256136894
	0.6264808178
	0.6273478866
	0.6282148957
	0.6290820241
	0.6299490929
	0.6308162212
	0.6316832900
	0.6325504780
	0.6334146857
	0.6342768073
	0.6351389885
	0.6360011101
	0.6368619800
	0.6377084851
	0.6385549903
	0.6394014955
	0.6402480006
	0.6410933137
	0.6419374943
	0.6427816749
	0.6436259747
	0.6444702148
	0.6453065276
	0.6461421847
	0.6469779015
	0.6478136182
	0.6486436725
	0.6494596004
	0.6502755880
	0.6510915160
	0.6519075036
	0.6527132988
	0.6535121202
	0.6543108821
	0.6551098228
	0.6559085846
	0.6566948891
	0.6574789286
	0.6582627892
	0.6590468287
	0.6598308086
	0.6606147885
	0.6613988280
	0.6621828079
	0.6629667878
	0.6637505293
	0.6645327210
	0.6653149128
	0.6660971045
	0.6668794155
	0.6676582098
	0.6684288979
	0.6691997051
	0.6699703932
	0.6707410812
	0.6715074182
	0.6722648144
	0.6730222106
	0.6737796068
	0.6745370030
	0.6752945185
	0.6760522127
	0.6768100262
	0.6775677204
	0.6783254743
	0.6790840030
	0.6798446774
	0.6806052923
	0.6813660264
	0.6821267009
	0.6828873158
	0.6836469769
	0.6844068170
	0.6851665974
	0.6859263182
	0.6866860986
	0.6874372959
	0.6881881952
	0.6889392138
	0.6896901131
	0.6904410124
	0.6911798120
	0.6919142008
	0.6926484704
	0.6933829188
	0.6941173077
	0.6948506236
	0.6955826283
	0.6963145733
	0.6970465183
	0.6977785230
	0.6985105276
	0.6992424726
	0.6999745965
	0.7007066011
	0.7014386058
	0.7021707296
	0.7028998137
	0.7036275864
	0.7043554187
	0.7050831914
	0.7058110237
	0.7065402269
	0.7072740197
	0.7080078125
	0.7087416053
	0.7094753981
	0.7102091908
	0.7109380960
	0.7116650939
	0.7123920918
	0.7131190896
	0.7138460875
	0.7145711780
	0.7152836919
	0.7159962058
	0.7167087197
	0.7174212933
	0.7181338072
	0.7188457847
	0.7195572257
	0.7202687263
	0.7209801078
	0.7216914892
	0.7224029899
	0.7231106758
	0.7238175273
	0.7245242000
	0.7252308726
	0.7259377241
	0.7266442180
	0.7273383141
	0.7280324101
	0.7287266254
	0.7294207215
	0.7301148772
	0.7308074832
	0.7314937115
	0.7321799994
	0.7328662276
	0.7335523963
	0.7342386246
	0.7349203229
	0.7355914712
	0.7362626791
	0.7369338870
	0.7376050949
	0.7382763028
	0.7389466763
	0.7396153808
	0.7402840853
	0.7409527898
	0.7416214943
	0.7422903180
	0.7429624796
	0.7436416745
	0.7443209887
	0.7450001836
	0.7456793785
	0.7463586926
	0.7470390201
	0.7477223873
	0.7484058738
	0.7490894198
	0.7497729063
	0.7504563928
	0.7511395812
	0.7518200874
	0.7525004745
	0.7531809807
	0.7538614273
	0.7545418739
	0.7552223802
	0.7558920979
	0.7565605044
	0.7572287917
	0.7578970790
	0.7585654855
	0.7592337728
	0.7598943114
	0.7605494261
	0.7612044811
	0.7618595958
	0.7625148296
	0.7631698847
	0.7638273835
	0.7644920945
	0.7651568055
	0.7658215165
	0.7664862275
	0.7671508193
	0.7678154707
	0.7684820890
	0.7691490054
	0.7698159814
	0.7704828978
	0.7711498737
	0.7718167901
	0.7724804878
	0.7731373906
	0.7737944126
	0.7744513750
	0.7751083970
	0.7757654190
	0.7764223814
	0.7770789862
	0.7777354121
	0.7783918977
	0.7790483832
	0.7797049284
	0.7803612947
	0.7810173035
	0.7816702127
	0.7823230028
	0.7829759121
	0.7836287022
	0.7842816114
	0.7849345207
	0.7855864167
	0.7862372994
	0.7868881822
	0.7875390053
	0.7881898880
	0.7888407707
	0.7894915938
	0.7901493907
	0.7908108234
	0.7914720774
	0.7921335101
	0.7927948833
	0.7934563160
	0.7941176295
	0.7947735190
	0.7954280972
	0.7960826755
	0.7967371941
	0.7973917723
	0.7980462909
	0.7987009287
	0.7993466258
	0.7999910712
	0.8006355762
	0.8012802005
	0.8019247055
	0.8025692105
	0.8032137156
	0.8038467169
	0.8044781089
	0.8051096201
	0.8057410121
	0.8063725233
	0.8070039153
	0.8076354265
	0.8082551956
	0.8088722229
	0.8094893098
	0.8101062775
	0.8107234240
	0.8113403916
	0.8119574785
	0.8125758171
	0.8131948113
	0.8138139248
	0.8144329190
	0.8150519133
	0.8156709075
	0.8162900209
	0.8169054985
	0.8175162077
	0.8181269169
	0.8187375069
	0.8193482161
	0.8199589252
	0.8205695748
	0.8211792707
	0.8217806220
	0.8223819733
	0.8229833841
	0.8235847950
	0.8241862059
	0.8247876167
	0.8253890276
	0.8259866834
	0.8265830278
	0.8271793127
	0.8277755976
	0.8283720016
	0.8289682865
	0.8295645714
	0.8301581144
	0.8307436705
	0.8313292861
	0.8319149017
	0.8325005174
	0.8330860734
	0.8336716890
	0.8342573047
	0.8348429799
	0.8354287148
	0.8360143900
	0.8366001844
	0.8371859193
	0.8377715945
	0.8383573294
	0.8389438987
	0.8395407200
	0.8401374817
	0.8407343030
	0.8413311243
	0.8419278860
	0.8425247073
	0.8431215286
	0.8437163830
	0.8443077803
	0.8448992968
	0.8454906940
	0.8460822105
	0.8466736078
	0.8472651243
	0.8478565216
	0.8484436274
	0.8490272760
	0.8496111035
	0.8501948714
	0.8507785797
	0.8513624072
	0.8519461155
	0.8525298834
	0.8531131744
	0.8536962271
	0.8542792201
	0.8548622131
	0.8554453254
	0.8560283184
	0.8566113114
	0.8571943045
	0.8577736020
	0.8583512902
	0.8589290977
	0.8595069051
	0.8600847125
	0.8606625199
	0.8612403274
	0.8618180752
	0.8624026775
	0.8629906178
	0.8635786176
	0.8641664982
	0.8647544980
	0.8653423786
	0.8659303784
	0.8665183187
	0.8671081066
	0.8676996231
	0.8682910800
	0.8688824773
	0.8694739938
	0.8700655103
	0.8706569076
	0.8712484241
	0.8718379140
	0.8724226952
	0.8730074763
	0.8735923171
	0.8741770983
	0.8747618794
	0.8753467202
	0.8759315014
	0.8765162826
	0.8770982027
	0.8776800036
	0.8782619238
	0.8788437843
	0.8794255853
	0.8800075054
	0.8805894256
	0.8811712265
	0.8817477226
	0.8823202848
	0.8828929067
	0.8834654093
	0.8840379715
	0.8846104741
	0.8851830959
	0.8857555985
	0.8863282800
	0.8869022727
	0.8874762058
	0.8880501986
	0.8886241913
	0.8891981244
	0.8897721171
	0.8903459907
	0.8909199834
	0.8914952874
	0.8920720220
	0.8926486969
	0.8932253718
	0.8938022256
	0.8943789005
	0.8949555755
	0.8955323100
	0.8961089849
	0.8966785073
	0.8972461224
	0.8978137970
	0.8983814716
	0.8989492059
	0.8995168209
	0.9000844955
	0.9006522298
	0.9012197256
	0.9017801881
	0.9023407102
	0.9029011726
	0.9034616947
	0.9040222168
	0.9045826793
	0.9051432014
	0.9057037234
	0.9062626958
	0.9068132043
	0.9073637128
	0.9079142213
	0.9084647894
	0.9090152979
	0.9095658064
	0.9101163149
	0.9106668234
	0.9112154245
	0.9117550254
	0.9122946858
	0.9128342867
	0.9133738875
	0.9139136076
	0.9144532084
	0.9149928093
	0.9155325294
	0.9160724878
	0.9166154861
	0.9171584845
	0.9177014828
	0.9182446003
	0.9187875986
	0.9193305969
	0.9198735952
	0.9204165936
	0.9209595919
	0.9214972854
	0.9220345020
	0.9225717783
	0.9231091142
	0.9236463904
	0.9241837263
	0.9247208834
	0.9252582192
	0.9257954955
	0.9263281822
	0.9268587828
	0.9273893833
	0.9279199839
	0.9284505248
	0.9289811254
	0.9295117259
	0.9300423265
	0.9305728078
	0.9311010838
	0.9316242933
	0.9321475029
	0.9326707125
	0.9331939220
	0.9337170720
	0.9342402816
	0.9347636104
	0.9352868199
	0.9358100295
	0.9363203049
	0.9368283749
	0.9373363853
	0.9378443956
	0.9383524060
	0.9388604164
	0.9393684268
	0.9398764968
	0.9403845072
	0.9408923984
	0.9413998723
	0.9419075251
	0.9424151182
	0.9429225922
	0.9434301853
	0.9439377785
	0.9444453120
	0.9449529052
	0.9454603791
	0.9459722042
	0.9464867711
	0.9470013976
	0.9475159049
	0.9480304718
	0.9485449791
	0.9490596056
	0.9495741725
	0.9500886798
	0.9506033063
	0.9511142969
	0.9516245127
	0.9521347880
	0.9526450038
	0.9531552196
	0.9536654949
	0.9541757107
	0.9546859264
	0.9551960826
	0.9557064176
	0.9562019110
	0.9566963911
	0.9571908712
	0.9576854110
	0.9581798911
	0.9586743712
	0.9591689110
	0.9596635103
	0.9601579905
	0.9606524706
	0.9611294270
	0.9616053104
	0.9620811939
	0.9625570774
	0.9630330205
	0.9635089040
	0.9639847875
	0.9644606709
	0.9649366140
	0.9654123783
	0.9658750892
	0.9663354158
	0.9667956829
	0.9672560096
	0.9677162170
	0.9681764841
	0.9686368108
	0.9690970778
	0.9695574045
	0.9700176120
	0.9704771042
	0.9709361196
	0.9713950753
	0.9718540907
	0.9723131061
	0.9727721214
	0.9732310772
	0.9736900926
	0.9741491079
	0.9746081829
	0.9750655293
	0.9755191803
	0.9759730101
	0.9764267206
	0.9768803716
	0.9773342013
	0.9777879119
	0.9782416821
	0.9786953926
	0.9791491032
	0.9796028733
	0.9800477028
	0.9804913998
	0.9809350967
	0.9813787937
	0.9818224907
	0.9822661877
	0.9827098846
	0.9831535816
	0.9835972786
	0.9840409756
	0.9844785929
	0.9849042296
	0.9853296876
	0.9857553244
	0.9861809015
	0.9866064787
	0.9870321155
	0.9874576926
	0.9878833294
	0.9883089066
	0.9887344837
	0.9891439080
	0.9895455837
	0.9899473190
	0.9903489947
	0.9907506704
	0.9911524057
	0.9915542006
	0.9919558764
	0.9923576117
	0.9927592874
	0.9931610227
	0.9935230017
	0.9938808084
	0.9942384958
	0.9945963025
	0.9949539900
	0.9953116775
	0.9956694841
	0.9960271716
	0.9963849783
	0.9967427254
	0.9970995188
	0.9973632097
	0.9976267815
	0.9978904724
	0.9981542230
	0.9984179139
	0.9986816049
	0.9989452958
	0.9992089272
	0.9994726181
	0.9997363091
	1.0000000000
}
