release/datafiles/colormanagement/luts/film_response/fujifilm_fci.spi1d
Version 1
From 0.0 1.0
Length 1024
Components 3
{
	0.0000000000 0.0000000000 0.0000000000
	0.0033529000 0.0050222902 0.0032476850
	0.0072128819 0.0108181098 0.0077999481
	0.0113698002 0.0162938796 0.0123000797
	0.0156070897 0.0214859303 0.0166385006
	0.0199807901 0.0263246894 0.0207970906
	0.0243835095 0.0308334995 0.0247384906
	0.0286132805 0.0350737683 0.0284963101
	0.0324965417 0.0390635394 0.0320877396
	0.0360950083 0.0428937711 0.0354904681
	0.0395800695 0.0465790592 0.0387074091
	0.0429466292 0.0501471013 0.0416742302
	0.0462706387 0.0536180995 0.0443837605
	0.0495057292 0.0570361391 0.0468798988
	0.0526856817 0.0603578687 0.0492865406
	0.0557528697 0.0635878816 0.0516750701
	0.0587552190 0.0667311326 0.0540582016
	0.0617134199 0.0698272586 0.0564595386
	0.0646046400 0.0728573427 0.0588268489
	0.0674475282 0.0758241564 0.0611601882
	0.0702735782 0.0787356123 0.0634666085
	0.0730631575 0.0815977603 0.0657490194
	0.0758077726 0.0844080597 0.0680202469
	0.0785278529 0.0871943235 0.0702772215
	0.0811867565 0.0899614617 0.0725171790
	0.0838195309 0.0926874802 0.0747344568
	0.0863845199 0.0953808501 0.0769255832
	0.0889284089 0.0980331302 0.0790845528
	0.0914222598 0.1006408036 0.0812203065
	0.0939096585 0.1032157987 0.0833272487
	0.0963765979 0.1057695001 0.0854128227
	0.0988149419 0.1082855985 0.0874713212
	0.1012422964 0.1107629016 0.0895218775
	0.1036200002 0.1132119000 0.0915501490
	0.1059933975 0.1156331003 0.0935597792
	0.1083453968 0.1180197969 0.0955581069
	0.1106605977 0.1203960031 0.0975283831
	0.1129731014 0.1227459982 0.0994904488
	0.1152468994 0.1250717044 0.1014442965
	0.1174897999 0.1273722053 0.1033670977
	0.1197345033 0.1296402067 0.1052874029
	0.1219704002 0.1319027990 0.1072127968
	0.1241703033 0.1341574937 0.1091049984
	0.1263649017 0.1363900006 0.1109855026
	0.1285486072 0.1386093944 0.1128652021
	0.1306926012 0.1408098936 0.1147162989
	0.1328168064 0.1429897994 0.1165445000
	0.1349381059 0.1451606005 0.1183724999
	0.1370306015 0.1473139971 0.1202073991
	0.1390942931 0.1494463980 0.1220164970
	0.1411485970 0.1515574008 0.1238055974
	0.1432065070 0.1536653936 0.1255939007
	0.1452423036 0.1557527035 0.1273798943
	0.1472520977 0.1578146964 0.1291383952
	0.1492526978 0.1598653048 0.1308757067
	0.1512524039 0.1619043052 0.1326085031
	0.1532357931 0.1639177054 0.1343494058
	0.1552000046 0.1659058034 0.1360910982
	0.1571528018 0.1678874046 0.1378227025
	0.1591075957 0.1698614955 0.1395412982
	0.1610587984 0.1718100011 0.1412588060
	0.1629907042 0.1737367064 0.1429695040
	0.1649049968 0.1756578982 0.1446525007
	0.1668141931 0.1775816977 0.1463117003
	0.1687301993 0.1794971973 0.1479572952
	0.1706393063 0.1813943982 0.1495992988
	0.1725254953 0.1832813025 0.1512472928
	0.1743942946 0.1851720065 0.1529006958
	0.1762564927 0.1870612949 0.1545381993
	0.1781218946 0.1889400929 0.1561595052
	0.1799844950 0.1908051968 0.1577727944
	0.1818296015 0.1926642060 0.1593860984
	0.1836557984 0.1945220977 0.1609999985
	0.1854719967 0.1963763982 0.1625989974
	0.1872864068 0.1982188970 0.1641764939
	0.1891041994 0.2000444978 0.1657395959
	0.1909209043 0.2018636018 0.1672948003
	0.1927119941 0.2036861926 0.1688483953
	0.1944850981 0.2054955065 0.1704075038
	0.1962500066 0.2072805017 0.1719689965
	0.1980129927 0.2090491951 0.1735302061
	0.1997700036 0.2108096033 0.1750829965
	0.2015154958 0.2125660926 0.1766262054
	0.2032480985 0.2143186033 0.1781643927
	0.2049618065 0.2160613984 0.1797035038
	0.2066676021 0.2177938968 0.1812402010
	0.2083701938 0.2195162028 0.1827660948
	0.2100692987 0.2212309986 0.1842781007
	0.2117556036 0.2229442000 0.1857748926
	0.2134384066 0.2246554941 0.1872583032
	0.2151104063 0.2263627946 0.1887380928
	0.2167720050 0.2280618995 0.1902170032
	0.2184257954 0.2297437936 0.1916978061
	0.2200689018 0.2314164937 0.1931888014
	0.2217032015 0.2330885977 0.1946718991
	0.2233294994 0.2347614020 0.1961459965
	0.2249525934 0.2364338040 0.1976051033
	0.2265653014 0.2380886972 0.1990566999
	0.2281704992 0.2397311032 0.2005050927
	0.2297694981 0.2413610071 0.2019519955
	0.2313688993 0.2429879010 0.2034036070
	0.2329650968 0.2446155995 0.2048534006
	0.2345501930 0.2462483943 0.2062973976
	0.2361329943 0.2478673011 0.2077303976
	0.2377143055 0.2494771034 0.2091592997
	0.2392926067 0.2510702908 0.2105841041
	0.2408663034 0.2526575029 0.2120015025
	0.2424364984 0.2542414963 0.2134159952
	0.2439859062 0.2558271885 0.2148285061
	0.2455307990 0.2574067116 0.2162439972
	0.2470698953 0.2589786947 0.2176620960
	0.2486097962 0.2605280876 0.2190825939
	0.2501479089 0.2620697916 0.2204976976
	0.2516750991 0.2635981143 0.2218970954
	0.2531996965 0.2651236951 0.2232882977
	0.2547213137 0.2666468024 0.2246735990
	0.2562285066 0.2681731880 0.2260529995
	0.2577311993 0.2696993053 0.2274315953
	0.2592264116 0.2712090015 0.2288105935
	0.2607224882 0.2727130949 0.2301889062
	0.2622207999 0.2742044926 0.2315658033
	0.2637135983 0.2756915987 0.2329387963
	0.2652012110 0.2771748006 0.2343091965
	0.2666864991 0.2786591947 0.2356632948
	0.2681710124 0.2801440060 0.2370133996
	0.2696504891 0.2816297114 0.2383510023
	0.2711291909 0.2831149995 0.2396876067
	0.2726014853 0.2845805883 0.2410192937
	0.2740728855 0.2860446870 0.2423513979
	0.2755376995 0.2874991000 0.2436847985
	0.2770003974 0.2889532149 0.2450177968
	0.2784548104 0.2904062867 0.2463497967
	0.2799058855 0.2918587029 0.2476796955
	0.2813473046 0.2933095098 0.2490058988
	0.2827846110 0.2947534919 0.2503249049
	0.2842110097 0.2961812913 0.2516323030
	0.2856361866 0.2976050079 0.2529352903
	0.2870579064 0.2990190089 0.2542308867
	0.2884807885 0.3004320860 0.2555251122
	0.2899079919 0.3018426001 0.2568162084
	0.2913340926 0.3032543063 0.2581079900
	0.2927548885 0.3046708107 0.2594015896
	0.2941757143 0.3060868084 0.2606950998
	0.2955969870 0.3074971139 0.2619884014
	0.2970184088 0.3089073896 0.2632819116
	0.2984277010 0.3103012145 0.2645807862
	0.2998363078 0.3116944134 0.2658798099
	0.3012431860 0.3130815029 0.2671642900
	0.3026494980 0.3144671023 0.2684471011
	0.3040472865 0.3158538043 0.2697230875
	0.3054392934 0.3172411919 0.2709963024
	0.3068284094 0.3186290860 0.2722682953
	0.3082126975 0.3200176060 0.2735388875
	0.3095946908 0.3214035928 0.2748104036
	0.3109588921 0.3227730095 0.2760851979
	0.3123230934 0.3241423070 0.2773601115
	0.3136793077 0.3255028129 0.2786275148
	0.3150336146 0.3268615901 0.2798944116
	0.3163881004 0.3282201886 0.2811588943
	0.3177425861 0.3295786977 0.2824218869
	0.3190953135 0.3309383988 0.2836810946
	0.3204368949 0.3323050141 0.2849281132
	0.3217783868 0.3336715996 0.2861750126
	0.3231084049 0.3350208998 0.2874141932
	0.3244343996 0.3363648057 0.2886519134
	0.3257552087 0.3377039135 0.2898885906
	0.3270645142 0.3390335143 0.2911236882
	0.3283737898 0.3403630853 0.2923589051
	0.3296771944 0.3416889906 0.2935976982
	0.3309794068 0.3430142105 0.2948367894
	0.3322823942 0.3443411887 0.2960684001
	0.3335868120 0.3456712961 0.2972904146
	0.3348912001 0.3470014036 0.2985123992
	0.3361887038 0.3483262956 0.2997243106
	0.3374845088 0.3496501148 0.3009350896
	0.3387758136 0.3509699106 0.3021413982
	0.3400512934 0.3522767127 0.3033381999
	0.3413268030 0.3535835147 0.3045350015
	0.3425957859 0.3548851907 0.3057265878
	0.3438603878 0.3561838865 0.3069159091
	0.3451249003 0.3574824929 0.3081052899
	0.3463880122 0.3587825894 0.3092936873
	0.3476510942 0.3600828052 0.3104822040
	0.3489136994 0.3613828123 0.3116725981
	0.3501749933 0.3626824915 0.3128665984
	0.3514364064 0.3639822900 0.3140606880
	0.3526903093 0.3652707934 0.3152511120
	0.3539369106 0.3665491939 0.3164390028
	0.3551836014 0.3678277135 0.3176268935
	0.3564186096 0.3690966964 0.3188065886
	0.3576493859 0.3703624904 0.3199844956
	0.3588801026 0.3716283143 0.3211624026
	0.3601047099 0.3728910983 0.3223274946
	0.3613288105 0.3741537035 0.3234925866
	0.3625529110 0.3754166067 0.3246566951
	0.3637793064 0.3766838908 0.3258154094
	0.3650057018 0.3779512048 0.3269740045
	0.3662337065 0.3792163134 0.3281326890
	0.3674710095 0.3804695904 0.3292913139
	0.3687084019 0.3817228973 0.3304499090
	0.3699420094 0.3829731941 0.3316102922
	0.3711602986 0.3842121959 0.3327750862
	0.3723787069 0.3854511976 0.3339399993
	0.3735949099 0.3866888881 0.3351032138
	0.3748030066 0.3879219890 0.3362624049
	0.3760110140 0.3891550899 0.3374215961
	0.3772188127 0.3903886080 0.3385764062
	0.3784255981 0.3916240931 0.3397186995
	0.3796324134 0.3928596079 0.3408609927
	0.3808397949 0.3940944076 0.3420014083
	0.3820542097 0.3953225017 0.3431330025
	0.3832687140 0.3965505064 0.3442645073
	0.3844830990 0.3977786005 0.3453958035
	0.3856852055 0.3989897966 0.3465226889
	0.3868865967 0.4002004862 0.3476496041
	0.3880881071 0.4014112055 0.3487764895
	0.3892784119 0.4026145041 0.3499045968
	0.3904655874 0.4038158953 0.3510330021
	0.3916527927 0.4050172865 0.3521612883
	0.3928368986 0.4062179923 0.3532944024
	0.3940187097 0.4074181020 0.3544299901
	0.3952004015 0.4086182117 0.3555656970
	0.3963829875 0.4098179936 0.3566969037
	0.3975678086 0.4110169113 0.3578208089
	0.3987526894 0.4122158885 0.3589447141
	0.3999375105 0.4134148955 0.3600678146
	0.4011155963 0.4145950079 0.3611775935
	0.4022935033 0.4157749116 0.3622873127
	0.4034712911 0.4169546962 0.3633970916
	0.4046387970 0.4181272984 0.3645012081
	0.4057992101 0.4192951918 0.3656027913
	0.4069595933 0.4204632044 0.3667044044
	0.4081184864 0.4216302931 0.3678053021
	0.4092698991 0.4227936864 0.3689045906
	0.4104213119 0.4239571989 0.3700039089
	0.4115728140 0.4251207113 0.3711032867
	0.4127238989 0.4262751043 0.3721981943
	0.4138750136 0.4274260998 0.3732920885
	0.4150260091 0.4285770059 0.3743860126
	0.4161767960 0.4297257066 0.3754799068
	0.4173265100 0.4308654070 0.3765740991
	0.4184763134 0.4320049882 0.3776682913
	0.4196259975 0.4331446886 0.3787625134
	0.4207628965 0.4342770875 0.3798545003
	0.4218915105 0.4354051948 0.3809455037
	0.4230200946 0.4365333021 0.3820365965
	0.4241487980 0.4376614094 0.3831265867
	0.4252648056 0.4387851059 0.3842037916
	0.4263804853 0.4399087131 0.3852809966
	0.4274963140 0.4410324097 0.3863582909
	0.4286107123 0.4421544969 0.3874323070
	0.4297220111 0.4432731867 0.3885014951
	0.4308333099 0.4443919063 0.3895707130
	0.4319446087 0.4455106854 0.3906398118
	0.4330579937 0.4466271102 0.3917075098
	0.4341728985 0.4477419853 0.3927743137
	0.4352878034 0.4488568008 0.3938410878
	0.4364027083 0.4499715865 0.3949080110
	0.4375129938 0.4510774016 0.3959777057
	0.4386217892 0.4521808028 0.3970479965
	0.4397307038 0.4532842040 0.3981181979
	0.4408395886 0.4543874860 0.3991884887
	0.4419341087 0.4554865062 0.4002597928
	0.4430272877 0.4565851986 0.4013310969
	0.4441205859 0.4576838911 0.4024024010
	0.4452137053 0.4587827027 0.4034720063
	0.4462993145 0.4598833919 0.4045264125
	0.4473848939 0.4609842002 0.4055807889
	0.4484705031 0.4620848894 0.4066353142
	0.4495561123 0.4631853998 0.4076882005
	0.4506419003 0.4642808139 0.4087311029
	0.4517278075 0.4653762877 0.4097740948
	0.4528135955 0.4664717019 0.4108170867
	0.4538995028 0.4675666988 0.4118593931
	0.4549854994 0.4686492980 0.4128966033
	0.4560714960 0.4697318971 0.4139338136
	0.4571574926 0.4708144069 0.4149709940
	0.4582434893 0.4718970060 0.4160081148
	0.4593130946 0.4729729891 0.4170450866
	0.4603815079 0.4740487039 0.4180820882
	0.4614498913 0.4751243889 0.4191190898
	0.4625183940 0.4762001038 0.4201560915
	0.4635789990 0.4772703052 0.4211978018
	0.4646374881 0.4783391058 0.4222402871
	0.4656960070 0.4794079065 0.4232827127
	0.4667544961 0.4804767072 0.4243251085
	0.4678117931 0.4815419912 0.4253644943
	0.4688681960 0.4826048911 0.4264025092
	0.4699246883 0.4836677015 0.4274404049
	0.4709810913 0.4847306013 0.4284783900
	0.4720368981 0.4857918918 0.4295131862
	0.4730910957 0.4868499935 0.4305432141
	0.4741452932 0.4879080951 0.4315730929
	0.4751994908 0.4889661968 0.4326030910
	0.4762536883 0.4900242984 0.4336324930
	0.4772971869 0.4910764992 0.4346519113
	0.4783403873 0.4921286106 0.4356713891
	0.4793835878 0.4931806922 0.4366908967
	0.4804266989 0.4942328036 0.4377104044
	0.4814636111 0.4952807128 0.4387266040
	0.4824956954 0.4963257015 0.4397411942
	0.4835278988 0.4973706007 0.4407558143
	0.4845600128 0.4984155893 0.4417704046
	0.4855917990 0.4994598031 0.4427852035
	0.4866203964 0.5004987717 0.4438005090
	0.4876489937 0.5015376806 0.4448158145
	0.4886775911 0.5025765896 0.4458310902
	0.4897061884 0.5036156178 0.4468463957
	0.4907324910 0.5046514869 0.4478605092
	0.4917572141 0.5056853294 0.4488740861
	0.4927819073 0.5067191720 0.4498876035
	0.4938066006 0.5077530146 0.4509010911
	0.4948312938 0.5087867975 0.4519143999
	0.4958443046 0.5098149776 0.4529229105
	0.4968571067 0.5108430982 0.4539315104
	0.4978697896 0.5118712783 0.4549399912
	0.4988825917 0.5128993988 0.4559485912
	0.4998916090 0.5139253736 0.4569540024
	0.5008922219 0.5149468184 0.4579545856
	0.5018928051 0.5159683228 0.4589551985
	0.5028933883 0.5169898272 0.4599558115
	0.5038939714 0.5180112123 0.4609563947
	0.5048918128 0.5190292001 0.4619503915
	0.5058875084 0.5200446248 0.4629409909
	0.5068832040 0.5210601091 0.4639315009
	0.5078788996 0.5220755935 0.4649220109
	0.5088744760 0.5230910182 0.4659124911
	0.5098662972 0.5240967274 0.4668990970
	0.5108568072 0.5250995159 0.4678849876
	0.5118473172 0.5261024237 0.4688709080
	0.5128378868 0.5271052122 0.4698567986
	0.5138283968 0.5281080008 0.4708425999
	0.5148209929 0.5291042924 0.4718292058
	0.5158140063 0.5300996900 0.4728156924
	0.5168069005 0.5310950875 0.4738022983
	0.5177997947 0.5320904851 0.4747888148
	0.5187928081 0.5330858827 0.4757753909
	0.5197734237 0.5340675712 0.4767676890
	0.5207530260 0.5350484252 0.4777599871
	0.5217326283 0.5360292196 0.4787522852
	0.5227121115 0.5370100141 0.4797446132
	0.5236917138 0.5379908085 0.4807369113
	0.5246657729 0.5389664173 0.4817185104
	0.5256392956 0.5399416089 0.4826998115
	0.5266126990 0.5409168005 0.4836811125
	0.5275862217 0.5418918729 0.4846624136
	0.5285596251 0.5428671241 0.4856437147
	0.5295339823 0.5438383222 0.4866138101
	0.5305086970 0.5448085070 0.4875822067
	0.5314832926 0.5457786918 0.4885506034
	0.5324578881 0.5467488766 0.4895190895
	0.5334326029 0.5477191806 0.4904874861
	0.5344074965 0.5486854911 0.4914506078
	0.5353826284 0.5496494770 0.4924111962
	0.5363577008 0.5506135225 0.4933719039
	0.5373327732 0.5515775084 0.4943326116
	0.5383079052 0.5525414944 0.4952932000
	0.5392804146 0.5535004735 0.4962526858
	0.5402482152 0.5544509292 0.4972105920
	0.5412160158 0.5554013848 0.4981685877
	0.5421838164 0.5563517809 0.4991264939
	0.5431516171 0.5573021770 0.5000844002
	0.5441191792 0.5582525134 0.5010424852
	0.5450795889 0.5591980219 0.5020027161
	0.5460399985 0.5601435900 0.5029628873
	0.5470004082 0.5610890985 0.5039231181
	0.5479608178 0.5620347261 0.5048832297
	0.5489212275 0.5629801750 0.5058434010
	0.5498812795 0.5639281273 0.5067989230
	0.5508412719 0.5648773909 0.5077521801
	0.5518013239 0.5658267140 0.5087053776
	0.5527613759 0.5667759776 0.5096586943
	0.5537214279 0.5677253008 0.5106120110
	0.5546813011 0.5686742067 0.5115646720
	0.5556406975 0.5696194172 0.5125145912
	0.5566000938 0.5705646276 0.5134643912
	0.5575594902 0.5715097785 0.5144143105
	0.5585188866 0.5724549890 0.5153642297
	0.5594782829 0.5734001994 0.5163140893
	0.5604329705 0.5743389726 0.5172604918
	0.5613837242 0.5752723813 0.5182046294
	0.5623344183 0.5762056708 0.5191487074
	0.5632849932 0.5771390796 0.5200927854
	0.5642356873 0.5780724883 0.5210369825
	0.5651863813 0.5790058970 0.5219811201
	0.5661293268 0.5799363256 0.5229173899
	0.5670710802 0.5808663964 0.5238531828
	0.5680128932 0.5817964077 0.5247889757
	0.5689548254 0.5827264190 0.5257248878
	0.5698965788 0.5836563706 0.5266606808
	0.5708373189 0.5845860243 0.5275958776
	0.5717707872 0.5855131745 0.5285283923
	0.5727043152 0.5864403844 0.5294609070
	0.5736377239 0.5873675942 0.5303934813
	0.5745711923 0.5882948041 0.5313259959
	0.5755046010 0.5892218947 0.5322586298
	0.5764377117 0.5901458859 0.5331916809
	0.5773698092 0.5910627246 0.5341259241
	0.5783019066 0.5919793844 0.5350601077
	0.5792340040 0.5928962231 0.5359942913
	0.5801661015 0.5938128829 0.5369284749
	0.5810983181 0.5947296023 0.5378627181
	0.5820268989 0.5956423879 0.5387967229
	0.5829498768 0.5965489149 0.5397306085
	0.5838727951 0.5974555016 0.5406643748
	0.5847957134 0.5983620286 0.5415983200
	0.5857185721 0.5992684960 0.5425322056
	0.5866414905 0.6001750231 0.5434659719
	0.5875610113 0.6010807753 0.5443956852
	0.5884745121 0.6019853950 0.5453197956
	0.5893880129 0.6028900146 0.5462440252
	0.5903015137 0.6037945747 0.5471680760
	0.5912150145 0.6046991944 0.5480923057
	0.5921285152 0.6056038141 0.5490164757
	0.5930395126 0.6065080166 0.5499367118
	0.5939435959 0.6074110866 0.5508491993
	0.5948476791 0.6083140969 0.5517616868
	0.5957517028 0.6092172265 0.5526741743
	0.5966557860 0.6101201773 0.5535867810
	0.5975599289 0.6110233068 0.5544993281
	0.5984631777 0.6119254827 0.5554108024
	0.5993574858 0.6128194928 0.5563166142
	0.6002519131 0.6137136221 0.5572223067
	0.6011462808 0.6146075726 0.5581281185
	0.6020405889 0.6155017018 0.5590338111
	0.6029350162 0.6163957119 0.5599395037
	0.6038293242 0.6172897816 0.5608453155
	0.6047170162 0.6181768179 0.5617492795
	0.6056030989 0.6190621853 0.5626531243
	0.6064891219 0.6199476123 0.5635567904
	0.6073752046 0.6208329797 0.5644605756
	0.6082612276 0.6217185259 0.5653644204
	0.6091471910 0.6226038933 0.5662680864
	0.6100293994 0.6234887838 0.5671733022
	0.6109064221 0.6243731976 0.5680798888
	0.6117833257 0.6252574921 0.5689864159
	0.6126602888 0.6261419058 0.5698930025
	0.6135371923 0.6270262003 0.5707995892
	0.6144142151 0.6279106140 0.5717061758
	0.6152911782 0.6287949085 0.5726128221
	0.6161587834 0.6296725273 0.5735203028
	0.6170259714 0.6305497885 0.5744279027
	0.6178932190 0.6314271092 0.5753353834
	0.6187602878 0.6323043704 0.5762429237
	0.6196274757 0.6331816912 0.5771505237
	0.6204947233 0.6340590119 0.5780580044
	0.6213582158 0.6349307895 0.5789619088
	0.6222159863 0.6357945204 0.5798614025
	0.6230738163 0.6366583109 0.5807610154
	0.6239315867 0.6375219822 0.5816605091
	0.6247894168 0.6383857131 0.5825600028
	0.6256471872 0.6392493844 0.5834594965
	0.6265048981 0.6401131153 0.5843591094
	0.6273571253 0.6409724951 0.5852504969
	0.6282070279 0.6418303847 0.5861397982
	0.6290569901 0.6426882148 0.5870289803
	0.6299068928 0.6435461044 0.5879182816
	0.6307569146 0.6444038749 0.5888075829
	0.6316068172 0.6452617049 0.5896968842
	0.6324567795 0.6461195946 0.5905860066
	0.6333056092 0.6469790936 0.5914697051
	0.6341544986 0.6478387117 0.5923534036
	0.6350033283 0.6486982107 0.5932369828
	0.6358520985 0.6495578289 0.5941206813
	0.6367009282 0.6504173279 0.5950043797
	0.6375498176 0.6512768865 0.5958880782
	0.6383976936 0.6521351933 0.5967717171
	0.6392375231 0.6529834867 0.5976545215
	0.6400774121 0.6538317800 0.5985373855
	0.6409171820 0.6546800733 0.5994203091
	0.6417570114 0.6555284262 0.6003031135
	0.6425967813 0.6563767195 0.6011859775
	0.6434366107 0.6572250128 0.6020689011
	0.6442754269 0.6580716968 0.6029512286
	0.6451067924 0.6589083076 0.6038312912
	0.6459382772 0.6597449780 0.6047112942
	0.6467698216 0.6605815887 0.6055914164
	0.6476011872 0.6614183187 0.6064714193
	0.6484326720 0.6622549295 0.6073514819
	0.6492642164 0.6630915999 0.6082314849
	0.6500955820 0.6639279723 0.6091110110
	0.6509268880 0.6647610068 0.6099858880
	0.6517581940 0.6655939817 0.6108608842
	0.6525893807 0.6664270163 0.6117358208
	0.6534206867 0.6672599912 0.6126108170
	0.6542518735 0.6680930853 0.6134856939
	0.6550831795 0.6689261198 0.6143606901
	0.6559144855 0.6697590947 0.6152356267
	0.6567456722 0.6705949903 0.6160972714
	0.6575769782 0.6714311838 0.6169580817
	0.6584082246 0.6722674966 0.6178188920
	0.6592394710 0.6731036901 0.6186797023
	0.6600707769 0.6739400029 0.6195405126
	0.6609020233 0.6747761965 0.6204013228
	0.6617333293 0.6756125093 0.6212620735
	0.6625599861 0.6764392257 0.6221166849
	0.6633837223 0.6772598028 0.6229680777
	0.6642073989 0.6780803204 0.6238194704
	0.6650310755 0.6789008975 0.6246708035
	0.6658548117 0.6797214150 0.6255221963
	0.6666784883 0.6805419922 0.6263735294
	0.6675022244 0.6813625097 0.6272249222
	0.6683244705 0.6821811795 0.6280750036
	0.6691414714 0.6829928756 0.6289216280
	0.6699584723 0.6838045716 0.6297681928
	0.6707754731 0.6846163869 0.6306148171
	0.6715924740 0.6854280829 0.6314613819
	0.6724094748 0.6862397790 0.6323080063
	0.6732264757 0.6870514750 0.6331545711
	0.6740434766 0.6878631711 0.6340011954
	0.6748613715 0.6886737943 0.6348477006
	0.6756796837 0.6894840002 0.6356942058
	0.6764978766 0.6902940869 0.6365405917
	0.6773161888 0.6911042929 0.6373870969
	0.6781343818 0.6919143796 0.6382334828
	0.6789526939 0.6927245855 0.6390799880
	0.6797710061 0.6935346723 0.6399263740
	0.6805893183 0.6943448186 0.6407734752
	0.6814084053 0.6951546073 0.6416242123
	0.6822274923 0.6959642768 0.6424750090
	0.6830466986 0.6967741251 0.6433258057
	0.6838657856 0.6975837946 0.6441764832
	0.6846848726 0.6983935833 0.6450272799
	0.6855040193 0.6992033124 0.6458780169
	0.6863232255 0.7000131011 0.6467288136
	0.6871380806 0.7008184195 0.6475781798
	0.6879450083 0.7016159892 0.6484256983
	0.6887519956 0.7024134994 0.6492732167
	0.6895589828 0.7032110095 0.6501206756
	0.6903660297 0.7040085793 0.6509681940
	0.6911730170 0.7048060894 0.6518155932
	0.6919798851 0.7056037188 0.6526631117
	0.6927868724 0.7064012289 0.6535105705
	0.6935915947 0.7071955800 0.6543517113
	0.6943939924 0.7079871893 0.6551877260
	0.6951963902 0.7087786794 0.6560238004
	0.6959987879 0.7095702291 0.6568598151
	0.6968013048 0.7103617787 0.6576958895
	0.6976037025 0.7111533284 0.6585319042
	0.6984061003 0.7119448185 0.6593679786
	0.6992084980 0.7127364278 0.6602039933
	0.7000085711 0.7135254145 0.6610358953
	0.7008067966 0.7143123150 0.6618649960
	0.7016050220 0.7150992155 0.6626940966
	0.7024031878 0.7158861160 0.6635231972
	0.7032014132 0.7166730165 0.6643521786
	0.7039995790 0.7174599767 0.6651812792
	0.7047978044 0.7182468772 0.6660103798
	0.7055960298 0.7190337777 0.6668394804
	0.7063922286 0.7198162079 0.6676673889
	0.7071862221 0.7205935717 0.6684942245
	0.7079802155 0.7213708758 0.6693210006
	0.7087742090 0.7221482992 0.6701477766
	0.7095682025 0.7229256034 0.6709744930
	0.7103621960 0.7237030268 0.6718013287
	0.7111561894 0.7244802713 0.6726281047
	0.7119501829 0.7252575755 0.6734548807
	0.7127416134 0.7260324955 0.6742823720
	0.7135254741 0.7268006802 0.6751112938
	0.7143093944 0.7275689244 0.6759402752
	0.7150933146 0.7283371091 0.6767693162
	0.7158772945 0.7291052938 0.6775982976
	0.7166612148 0.7298734784 0.6784272790
	0.7174450755 0.7306417227 0.6792562008
	0.7182289958 0.7314097881 0.6800851822
	0.7190129757 0.7321779728 0.6809142232
	0.7197942138 0.7329385281 0.6817373037
	0.7205750942 0.7336984277 0.6825603843
	0.7213560939 0.7344583869 0.6833835244
	0.7221370935 0.7352182865 0.6842064857
	0.7229180932 0.7359783053 0.6850296259
	0.7236990929 0.7367382050 0.6858527064
	0.7244800925 0.7374982238 0.6866757870
	0.7252609730 0.7382581234 0.6874988079
	0.7260380983 0.7390146852 0.6883146763
	0.7268108726 0.7397677898 0.6891244054
	0.7275837064 0.7405210137 0.6899340749
	0.7283565998 0.7412741184 0.6907438040
	0.7291293740 0.7420272231 0.6915534735
	0.7299022079 0.7427803278 0.6923632026
	0.7306751013 0.7435334921 0.6931728721
	0.7314478755 0.7442865968 0.6939826012
	0.7322207093 0.7450397015 0.6947922707
	0.7329800129 0.7457880974 0.6955934167
