release/datafiles/colormanagement/luts/film_response/fujifilm_f-250.spi1d
Version 1
From 0.0 1.0
Length 1024
Components 3
{
	0.0000000000 0.0000000000 0.0000000000
	0.0340563506 0.0275065694 0.0159309693
	0.0581281595 0.0446017683 0.0286259800
	0.0766732469 0.0585205704 0.0393032692
	0.0912864283 0.0693459511 0.0486846492
	0.1037112027 0.0783905834 0.0571168698
	0.1149740964 0.0866255537 0.0647848472
	0.1255443990 0.0943730623 0.0718255714
	0.1358117014 0.1018529013 0.0783746019
	0.1458894014 0.1092692986 0.0845360085
	0.1554104984 0.1165430993 0.0902841464
	0.1642753929 0.1235136986 0.0956311375
	0.1725185066 0.1300638020 0.1007089019
	0.1802159995 0.1362310052 0.1055677980
	0.1874677986 0.1420270056 0.1101925969
	0.1943995059 0.1475103050 0.1146183014
	0.2010439038 0.1526764929 0.1188452989
	0.2075248957 0.1576137990 0.1229263991
	0.2138666064 0.1623017043 0.1268835962
	0.2200817019 0.1667637974 0.1307622045
	0.2262571007 0.1710768938 0.1345600933
	0.2322959006 0.1752613038 0.1383388937
	0.2381743044 0.1792901009 0.1420553029
	0.2439599037 0.1831696928 0.1457192004
	0.2495301962 0.1869384944 0.1493068933
	0.2549104095 0.1905891001 0.1528359056
	0.2600974143 0.1941210032 0.1562989056
	0.2651267946 0.1975311041 0.1596667022
	0.2699950933 0.2007963061 0.1629731953
	0.2746872902 0.2039687932 0.1662473977
	0.2792500854 0.2070634067 0.1694674939
	0.2837044001 0.2100957930 0.1726872027
	0.2880541086 0.2130752951 0.1758597940
	0.2922781110 0.2160121948 0.1789810956
	0.2963983119 0.2189164013 0.1820618957
	0.3004223108 0.2217878997 0.1850834042
	0.3043056130 0.2246080041 0.1880794019
	0.3080697954 0.2273644060 0.1910150051
	0.3117355108 0.2300619930 0.1939160973
	0.3153220117 0.2327065021 0.1967920959
	0.3188439906 0.2353048027 0.1996531039
	0.3223091066 0.2378443033 0.2024717033
	0.3257097900 0.2403286994 0.2052704990
	0.3290207982 0.2427732944 0.2080609947
	0.3322731853 0.2452045977 0.2108310014
	0.3354865909 0.2476018071 0.2135528028
	0.3386512101 0.2499758005 0.2162420005
	0.3417851031 0.2523289025 0.2188850939
	0.3448846936 0.2546671927 0.2214843929
	0.3479135036 0.2569605112 0.2240575999
	0.3508971930 0.2591898143 0.2266031057
	0.3538430929 0.2613660097 0.2291243970
	0.3567287922 0.2634985149 0.2316229939
	0.3595845103 0.2655822933 0.2340888977
	0.3624258935 0.2676230967 0.2365391999
	0.3652456105 0.2696104944 0.2389807999
	0.3680748940 0.2715514004 0.2413962036
	0.3708611131 0.2734310031 0.2437824011
	0.3735972047 0.2752597928 0.2461562008
	0.3762691021 0.2770377994 0.2485167980
	0.3789086044 0.2787886858 0.2508699000
	0.3814966083 0.2805095911 0.2532047033
	0.3840735853 0.2822039127 0.2555142939
	0.3866173923 0.2838774920 0.2578059137
	0.3891361058 0.2855109870 0.2600739002
	0.3916285038 0.2871398032 0.2623229921
	0.3941093087 0.2887691855 0.2645553052
	0.3965596855 0.2904030979 0.2667697966
	0.3989767134 0.2920188010 0.2689580023
	0.4013713896 0.2936233878 0.2711285055
	0.4037455022 0.2952230871 0.2732937932
	0.4060991108 0.2968241870 0.2754479051
	0.4084275067 0.2984308898 0.2775818110
	0.4107517004 0.3000445962 0.2796877921
	0.4130510986 0.3016583025 0.2817656994
	0.4153209031 0.3032869101 0.2838352919
	0.4175666869 0.3049050868 0.2858906984
	0.4197983146 0.3065397143 0.2879244983
	0.4220117033 0.3081744909 0.2899451852
	0.4241906106 0.3098129034 0.2919526100
	0.4263457954 0.3114565909 0.2939467132
	0.4284875989 0.3130967915 0.2959286869
	0.4306012988 0.3147349954 0.2978995144
	0.4326950014 0.3163720965 0.2998577058
	0.4347662032 0.3180099130 0.3018037975
	0.4368287027 0.3196572065 0.3037435114
	0.4388831854 0.3213165104 0.3056769073
	0.4409214854 0.3229748011 0.3075988889
	0.4429436028 0.3246040940 0.3095020056
	0.4449625909 0.3262285888 0.3113960922
	0.4469791055 0.3278538883 0.3132843077
	0.4489935935 0.3294833004 0.3151693940
	0.4509986937 0.3311119974 0.3170453012
	0.4529815018 0.3327403069 0.3189097047
	0.4549526870 0.3343681991 0.3207617104
	0.4569247961 0.3359952867 0.3225966990
	0.4588770866 0.3376198113 0.3244307935
	0.4608316123 0.3392421007 0.3262627125
	0.4627926052 0.3408617973 0.3280918002
	0.4647417963 0.3424758017 0.3298951089
	0.4666925967 0.3440926969 0.3316844106
	0.4686441123 0.3457145989 0.3334603012
	0.4705764949 0.3473288119 0.3352111876
	0.4724830091 0.3489370942 0.3369530141
	0.4743657112 0.3505378962 0.3386858106
	0.4762322009 0.3521256149 0.3404065073
	0.4780816138 0.3537108004 0.3421171010
	0.4799089134 0.3552944958 0.3438138068
	0.4817309082 0.3568659127 0.3454996943
	0.4835452139 0.3584319055 0.3471781015
	0.4853380024 0.3599914014 0.3488380909
	0.4871332943 0.3615401089 0.3504877090
	0.4889298975 0.3630783856 0.3521300852
	0.4907036126 0.3646185100 0.3537611961
	0.4924693108 0.3661572933 0.3553892970
	0.4942173064 0.3676883876 0.3570109904
	0.4959532917 0.3692195117 0.3586300910
	0.4976806045 0.3707506955 0.3602473140
	0.4994089901 0.3722806871 0.3618556857
	0.5011367202 0.3738102019 0.3634608984
	0.5028569102 0.3753306866 0.3650502861
	0.5045688748 0.3768486083 0.3666361868
	0.5062633157 0.3783572018 0.3682140112
	0.5079504251 0.3798607886 0.3697811067
	0.5096306801 0.3813571036 0.3713372052
	0.5112873912 0.3828429878 0.3728885055
	0.5129328966 0.3843210936 0.3744373918
	0.5145742297 0.3857963085 0.3759793937
	0.5162146091 0.3872702122 0.3775196970
	0.5178315043 0.3887482882 0.3790464103
	0.5194466114 0.3902272880 0.3805716932
	0.5210654736 0.3916977048 0.3820922077
	0.5226833224 0.3931671977 0.3836125135
	0.5242862105 0.3946341872 0.3851282001
	0.5258901119 0.3961010873 0.3866432905
	0.5275049806 0.3975507915 0.3881508112
	0.5291187763 0.3990002871 0.3896571100
	0.5307204127 0.4004558921 0.3911463916
	0.5323221087 0.4019115865 0.3926354945
	0.5339249969 0.4033721089 0.3941121101
	0.5355278850 0.4048328102 0.3955886960
	0.5371186137 0.4062801898 0.3970466852
	0.5387089849 0.4077258110 0.3985038996
	0.5402762294 0.4091561139 0.3999438882
	0.5418404937 0.4105820954 0.4013813138
	0.5433958173 0.4120019972 0.4028140903
	0.5449482799 0.4134188890 0.4042451978
	0.5464795232 0.4148291945 0.4056676030
	0.5479968190 0.4162329137 0.4070835114
	0.5495104194 0.4176310897 0.4084953070
	0.5510190725 0.4190171063 0.4099004865
	0.5525225997 0.4204013050 0.4113028049
	0.5540046096 0.4217655063 0.4126909971
	0.5554866195 0.4231297076 0.4140791893
	0.5569679737 0.4244849980 0.4154512882
	0.5584493279 0.4258384109 0.4168216884
	0.5599154234 0.4271919131 0.4181849957
	0.5613729954 0.4285452962 0.4195438027
	0.5628271103 0.4298977852 0.4209015071
	0.5642738938 0.4312470853 0.4222564995
	0.5657206774 0.4325963855 0.4236116111
	0.5671554208 0.4339382946 0.4249607027
	0.5685896277 0.4352790117 0.4263094068
	0.5700142980 0.4366140068 0.4276516140
	0.5714316964 0.4379422963 0.4289883971
	0.5728462934 0.4392705858 0.4303236902
	0.5742422938 0.4405961931 0.4316473901
	0.5756382942 0.4419218898 0.4329712093
	0.5770087838 0.4432437122 0.4342881143
	0.5783665776 0.4445624053 0.4356010854
	0.5797222257 0.4458796084 0.4369125068
	0.5810663104 0.4471733868 0.4382139146
	0.5824103951 0.4484671950 0.4395152032
	0.5837360024 0.4497536123 0.4408144057
	0.5850501060 0.4510329962 0.4421119988
	0.5863640904 0.4523124993 0.4434092939
	0.5876724124 0.4535883069 0.4446893036
	0.5889807940 0.4548639953 0.4459693134
	0.5902798176 0.4561336040 0.4472444057
	0.5915662050 0.4573903978 0.4485121965
	0.5928525925 0.4586473107 0.4497799873
	0.5941187143 0.4598957002 0.4510425925
	0.5953786969 0.4611397982 0.4523034990
	0.5966371894 0.4623838067 0.4535635114
	0.5978767872 0.4636138082 0.4548071027
	0.5991163850 0.4648432136 0.4560508132
	0.6003507972 0.4660690129 0.4572936893
	0.6015748978 0.4672825933 0.4585348964
	0.6027989984 0.4684962034 0.4597761929
	0.6040027738 0.4697115123 0.4610106051
	0.6051900983 0.4709289968 0.4622390866
	0.6063774228 0.4721465111 0.4634675980
	0.6075572968 0.4733569920 0.4646885097
	0.6087344885 0.4745635092 0.4659062028
	0.6099116802 0.4757699072 0.4671239853
	0.6110656857 0.4769654870 0.4683316052
	0.6122164130 0.4781579971 0.4695374966
	0.6133670807 0.4793503881 0.4707433879
	0.6145061851 0.4805291891 0.4719372094
	0.6156448722 0.4817059934 0.4731302857
	0.6167832017 0.4828827083 0.4743235111
	0.6179025769 0.4840502143 0.4755181074
	0.6190220714 0.4852168858 0.4767127037
	0.6201403141 0.4863835871 0.4779073000
	0.6212201118 0.4875405133 0.4790931046
	0.6222999096 0.4886966050 0.4802789986
	0.6233797073 0.4898526967 0.4814648926
	0.6244452000 0.4909954071 0.4826442897
	0.6255105734 0.4921365082 0.4838235974
	0.6265758872 0.4932776093 0.4850027859
	0.6276177168 0.4943977892 0.4861753881
	0.6286571026 0.4955132902 0.4873471856
	0.6296964884 0.4966287911 0.4885190129
	0.6307348013 0.4977380931 0.4896813035
	0.6317728162 0.4988445044 0.4908406138
	0.6328107715 0.4999508858 0.4919998944
	0.6338409781 0.5010526180 0.4931561053
	0.6348659992 0.5021498799 0.4943102002
	0.6358910799 0.5032472014 0.4954642057
	0.6369110942 0.5043411851 0.4966160059
	0.6379228830 0.5054274201 0.4977641106
	0.6389346719 0.5065134764 0.4989121854
	0.6399447918 0.5075992942 0.5000599027
	0.6409429908 0.5086715221 0.5012037158
	0.6419411898 0.5097436905 0.5023475885
	0.6429393291 0.5108159184 0.5034914017
	0.6439177990 0.5118789077 0.5046312809
	0.6448913813 0.5129379034 0.5057700872
	0.6458649039 0.5139970183 0.5069088936
	0.6468328834 0.5150539875 0.5080435872
	0.6477934122 0.5161070824 0.5091723204
	0.6487538815 0.5171602964 0.5103009939
	0.6497141719 0.5182133913 0.5114297271
	0.6506603956 0.5192496181 0.5125468969
	0.6516065001 0.5202844143 0.5136641264
	0.6525526047 0.5213190913 0.5147812963
	0.6534926891 0.5223445892 0.5158960819
	0.6544277072 0.5233588815 0.5170087814
	0.6553627253 0.5243731141 0.5181214809
	0.6562976837 0.5253874063 0.5192341805
	0.6572293043 0.5263924003 0.5203433037
	0.6581609249 0.5273966789 0.5214524269
	0.6590924859 0.5284010172 0.5225614905
	0.6600255966 0.5294005275 0.5236659050
	0.6609606147 0.5303912163 0.5247640014
	0.6618955731 0.5313820243 0.5258620977
	0.6628304720 0.5323727131 0.5269600749
	0.6637492776 0.5333474278 0.5280525088
	0.6646643877 0.5343161225 0.5291435122
	0.6655796170 0.5352846980 0.5302343965
	0.6664931774 0.5362530947 0.5313249230
	0.6673964858 0.5372167230 0.5324121714
	0.6682997942 0.5381802917 0.5334994793
	0.6692031026 0.5391438007 0.5345867276
	0.6701043844 0.5401027799 0.5356699824
	0.6710026860 0.5410515070 0.5367466807
	0.6719009876 0.5420001745 0.5378234982
	0.6727992892 0.5429489017 0.5389001966
	0.6736878753 0.5438944101 0.5399749279
	0.6745703220 0.5448371172 0.5410481095
	0.6754528284 0.5457797050 0.5421212912
	0.6763352156 0.5467222929 0.5431944728
	0.6772043705 0.5476604104 0.5442599058
	0.6780694127 0.5485960841 0.5453224778
	0.6789343953 0.5495318174 0.5463851094
	0.6797993779 0.5504674911 0.5474476814
	0.6806520224 0.5513973236 0.5485045910
	0.6815025806 0.5523251891 0.5495604277
	0.6823530793 0.5532531142 0.5506160855
	0.6832036972 0.5541810989 0.5516719222
	0.6840479970 0.5551018715 0.5527248979
	0.6848915219 0.5560209155 0.5537775159
	0.6857351065 0.5569398999 0.5548300743
	0.6865785718 0.5578588843 0.5558826923
	0.6874216795 0.5587705970 0.5569267869
	0.6882647872 0.5596801043 0.5579692721
	0.6891077757 0.5605894923 0.5590118766
	0.6899508238 0.5614989996 0.5600544214
	0.6907768250 0.5624088049 0.5610944033
	0.6915978789 0.5633186102 0.5621334910
	0.6924189925 0.5642284751 0.5631725788
	0.6932401061 0.5651383996 0.5642117262
	0.6940519214 0.5660479069 0.5652444959
	0.6948580742 0.5669571161 0.5662732720
	0.6956644058 0.5678663254 0.5673021078
	0.6964706779 0.5687754750 0.5683308840
	0.6972733736 0.5696833730 0.5693569779
	0.6980714798 0.5705887079 0.5703790784
	0.6988695264 0.5714939833 0.5714011788
	0.6996675134 0.5723993182 0.5724232793
	0.7004622221 0.5733036995 0.5734450221
	0.7012382150 0.5741962790 0.5744643211
	0.7020143270 0.5750889182 0.5754836798
	0.7027903795 0.5759814978 0.5765029788
	0.7035663724 0.5768741965 0.5775223970
	0.7043431997 0.5777689219 0.5785338283
	0.7051200867 0.5786644220 0.5795432925
	0.7058969736 0.5795599818 0.5805526972
	0.7066739202 0.5804554820 0.5815622211
	0.7074453831 0.5813494921 0.5825701952
	0.7082093954 0.5822402835 0.5835762024
	0.7089732885 0.5831311941 0.5845820904
	0.7097373009 0.5840221047 0.5855880976
	0.7105011940 0.5849128962 0.5865939856
	0.7112401128 0.5857965946 0.5875905156
	0.7119778991 0.5866792202 0.5885863900
	0.7127156258 0.5875617862 0.5895823240
	0.7134532928 0.5884444714 0.5905781984
	0.7141891718 0.5893244147 0.5915713906
	0.7149226069 0.5901988745 0.5925608873
	0.7156559825 0.5910735130 0.5935503244
	0.7163894176 0.5919480920 0.5945397019
	0.7171227932 0.5928226709 0.5955291986
	0.7178444862 0.5936961174 0.5965164900
	0.7185636759 0.5945690870 0.5975033045
	0.7192828059 0.5954421759 0.5984901190
	0.7200019956 0.5963152051 0.5994768739
	0.7207183242 0.5971875191 0.6004620194
	0.7214186788 0.5980507731 0.6014366150
	0.7221192122 0.5989142060 0.6024110913
	0.7228196263 0.5997775197 0.6033856869
	0.7235201001 0.6006407738 0.6043602824
	0.7242172956 0.6015027165 0.6053301096
	0.7249100804 0.6023617983 0.6062927842
	0.7256028056 0.6032208800 0.6072555184
	0.7262955904 0.6040800214 0.6082183123
	0.7269883156 0.6049389839 0.6091809869
	0.7276725173 0.6057918072 0.6101375222
	0.7283511758 0.6066387892 0.6110895872
	0.7290298939 0.6074858904 0.6120417714
	0.7297086120 0.6083328724 0.6129938960
	0.7303872705 0.6091799736 0.6139460802
	0.7310575843 0.6100224853 0.6148930788
	0.7317247987 0.6108626127 0.6158381104
	0.7323920727 0.6117026210 0.6167830825
	0.7330592871 0.6125426888 0.6177281737
	0.7337265015 0.6133828163 0.6186732054
	0.7343794703 0.6142179966 0.6196153164
	0.7350285053 0.6150509715 0.6205565929
	0.7356774211 0.6158841252 0.6214978099
	0.7363263965 0.6167172194 0.6224390864
	0.7369753718 0.6175503135 0.6233803034
	0.7376106977 0.6183786988 0.6243141890
	0.7382416129 0.6192048192 0.6252453923
	0.7388725281 0.6200309992 0.6261765957
	0.7395033836 0.6208571196 0.6271077991
	0.7401342988 0.6216832995 0.6280390024
	0.7407568097 0.6225084066 0.6289677024
	0.7413746715 0.6233326197 0.6298949122
	0.7419925928 0.6241568923 0.6308221221
	0.7426105142 0.6249812245 0.6317493916
	0.7432283759 0.6258054972 0.6326766014
	0.7438343167 0.6266260743 0.6335960031
	0.7444267869 0.6274409294 0.6345061064
	0.7450193167 0.6282557249 0.6354162097
	0.7456117868 0.6290705204 0.6363263130
	0.7462043166 0.6298853159 0.6372364163
	0.7467948198 0.6306993961 0.6381446719
	0.7473781109 0.6315096021 0.6390461922
	0.7479612827 0.6323196888 0.6399477124
	0.7485445142 0.6331298947 0.6408491731
	0.7491278052 0.6339399815 0.6417506933
	0.7497109771 0.6347501874 0.6426522136
	0.7502849102 0.6355507970 0.6435450912
	0.7508574128 0.6363490820 0.6444365978
	0.7514299750 0.6371474862 0.6453281045
	0.7520025969 0.6379457712 0.6462196112
	0.7525750995 0.6387441158 0.6471111178
	0.7531384230 0.6395425200 0.6479977965
	0.7536910176 0.6403411031 0.6488788128
	0.7542436123 0.6411396861 0.6497598290
	0.7547962070 0.6419383287 0.6506407857
	0.7553488016 0.6427369118 0.6515218019
	0.7559013963 0.6435353756 0.6524028182
	0.7564553022 0.6443219781 0.6532747746
	0.7570090890 0.6451072097 0.6541464925
	0.7575628757 0.6458923221 0.6550180912
	0.7581167817 0.6466773748 0.6558898091
	0.7586706281 0.6474626064 0.6567614079
	0.7592213154 0.6482473016 0.6576269865
	0.7597671151 0.6490309238 0.6584824920
	0.7603129745 0.6498146057 0.6593379974
	0.7608588934 0.6505982876 0.6601936221
	0.7614046931 0.6513819098 0.6610491276
	0.7619506121 0.6521655917 0.6619045734
	0.7624893785 0.6529437900 0.6627510786
	0.7630257010 0.6537193060 0.6635940075
	0.7635619044 0.6544947028 0.6644368768
	0.7640982270 0.6552700996 0.6652798057
	0.7646344900 0.6560454965 0.6661226749
	0.7651708126 0.6568210125 0.6669656038
	0.7657119036 0.6575928926 0.6677941084
	0.7662529945 0.6583644748 0.6686221957
	0.7667940855 0.6591361761 0.6694504023
	0.7673352957 0.6599078178 0.6702784896
	0.7678763866 0.6606794000 0.6711065769
	0.7684165239 0.6614500880 0.6719334722
	0.7689508796 0.6622111201 0.6727535725
	0.7694852948 0.6629719734 0.6735736132
	0.7700197101 0.6637328863 0.6743935943
	0.7705541849 0.6644939184 0.6752135754
	0.7710886002 0.6652547717 0.6760336161
	0.7716192007 0.6660150290 0.6768512130
	0.7721378803 0.6667712927 0.6776608229
	0.7726566792 0.6675274968 0.6784703732
	0.7731754184 0.6682838202 0.6792799830
	0.7736940980 0.6690400839 0.6800895929
	0.7742128968 0.6697964072 0.6808992028
	0.7747325897 0.6705529094 0.6817058921
	0.7752555013 0.6713106036 0.6825023890
	0.7757782936 0.6720684171 0.6832988858
	0.7763012052 0.6728261113 0.6840953827
	0.7768241167 0.6735839248 0.6848918796
	0.7773470283 0.6743416190 0.6856883764
	0.7778692245 0.6750988960 0.6864832044
	0.7783874273 0.6758496761 0.6872665882
	0.7789055705 0.6766005158 0.6880499721
	0.7794237733 0.6773511767 0.6888334155
	0.7799419165 0.6781020164 0.6896167994
	0.7804601192 0.6788527966 0.6904001832
	0.7809783220 0.6796035767 0.6911836267
	0.7814986110 0.6803464890 0.6919562221
	0.7820190191 0.6810883880 0.6927281022
	0.7825394273 0.6818302870 0.6934999824
	0.7830597758 0.6825721860 0.6942719221
	0.7835801840 0.6833140850 0.6950438023
	0.7841004729 0.6840559840 0.6958156824
	0.7846269011 0.6847928166 0.6965779066
	0.7851561904 0.6855260730 0.6973350048
	0.7856854796 0.6862595081 0.6980922222
	0.7862148285 0.6869928837 0.6988493204
	0.7867441177 0.6877261996 0.6996064186
	0.7872734070 0.6884595752 0.7003635764
	0.7878013253 0.6891936064 0.7011185288
	0.7883257270 0.6899294853 0.7018678784
	0.7888501287 0.6906654835 0.7026172876
	0.7893745899 0.6914014816 0.7033666968
	0.7898989916 0.6921374202 0.7041161060
	0.7904235125 0.6928734183 0.7048655152
	0.7909479141 0.6936092973 0.7056149244
	0.7914677858 0.6943377256 0.7063497901
	0.7919868231 0.6950635910 0.7070816159
	0.7925058007 0.6957895756 0.7078133821
	0.7930247784 0.6965156198 0.7085452080
	0.7935438156 0.6972414851 0.7092769742
	0.7940626740 0.6979675293 0.7100086808
	0.7945836782 0.6986932755 0.7107384205
	0.7951102257 0.6994187832 0.7114617229
	0.7956367135 0.7001444101 0.7121850252
	0.7961632013 0.7008699179 0.7129083276
	0.7966896892 0.7015954256 0.7136315703
	0.7972161770 0.7023208737 0.7143548727
	0.7977427244 0.7030463815 0.7150781751
	0.7982670069 0.7037687898 0.7157930732
	0.7987899780 0.7044885755 0.7165021896
	0.7993130088 0.7052084208 0.7172113061
	0.7998359799 0.7059280872 0.7179204226
	0.8003590107 0.7066478729 0.7186294198
	0.8008819818 0.7073677182 0.7193384767
	0.8014048934 0.7080873847 0.7200475931
	0.8019158244 0.7088059783 0.7207496762
	0.8024243116 0.7095242143 0.7214503884
	0.8029329181 0.7102422714 0.7221511006
	0.8034414053 0.7109605074 0.7228518128
	0.8039500117 0.7116786838 0.7235525250
	0.8044584990 0.7123969197 0.7242532969
	0.8049671054 0.7131149769 0.7249540091
	0.8054732084 0.7138308883 0.7256454825
	0.8059793115 0.7145465016 0.7263367176
	0.8064854145 0.7152621150 0.7270278931
	0.8069915175 0.7159777284 0.7277191877
	0.8074976206 0.7166932821 0.7284104228
	0.8080037236 0.7174088955 0.7291015983
	0.8085097075 0.7181245089 0.7297927737
	0.8090131879 0.7188358903 0.7304673791
	0.8095167279 0.7195469737 0.7311419249
	0.8100202084 0.7202581167 0.7318164706
	0.8105236888 0.7209693193 0.7324910164
	0.8110272288 0.7216804028 0.7331656218
	0.8115307093 0.7223916054 0.7338401079
	0.8120341897 0.7231026888 0.7345147133
	0.8125367761 0.7238088846 0.7351782918
	0.8130393028 0.7245143056 0.7358410954
	0.8135418892 0.7252197862 0.7365038991
	0.8140444160 0.7259252071 0.7371665835
	0.8145468831 0.7266306877 0.7378293872
	0.8150494099 0.7273361087 0.7384921908
	0.8155519962 0.7280415893 0.7391549945
	0.8160499930 0.7287421227 0.7398017049
	0.8165466189 0.7294405103 0.7404432297
	0.8170431852 0.7301387787 0.7410846949
	0.8175398111 0.7308372259 0.7417262197
	0.8180363774 0.7315356135 0.7423676848
	0.8185330033 0.7322340012 0.7430092096
	0.8190296888 0.7329323888 0.7436506748
	0.8195242286 0.7336298227 0.7442870736
	0.8200165033 0.7343257070 0.7449178100
	0.8205088973 0.7350217104 0.7455484867
	0.8210011721 0.7357177138 0.7461792231
	0.8214935064 0.7364135981 0.7468098998
	0.8219857812 0.7371096015 0.7474406958
	0.8224781752 0.7378056049 0.7480713725
	0.8229702115 0.7385014892 0.7487009168
	0.8234596252 0.7391961217 0.7493168712
	0.8239489794 0.7398905754 0.7499328852
	0.8244382739 0.7405852079 0.7505488992
	0.8249276876 0.7412797809 0.7511649132
	0.8254171014 0.7419744134 0.7517809272
	0.8259065151 0.7426689267 0.7523968816
	0.8263958097 0.7433634996 0.7530128956
	0.8268806934 0.7440590262 0.7536231279
	0.8273624778 0.7447553277 0.7542291880
	0.8278442025 0.7454516888 0.7548351884
	0.8283259869 0.7461479902 0.7554411888
	0.8288077116 0.7468442917 0.7560473084
	0.8292894959 0.7475407124 0.7566533089
	0.8297712207 0.7482370138 0.7572593093
	0.8302530050 0.7489333153 0.7578654289
	0.8307291269 0.7496249080 0.7584576011
	0.8312050104 0.7503160834 0.7590492964
	0.8316810131 0.7510071993 0.7596409917
	0.8321568966 0.7516983747 0.7602326870
	0.8326328993 0.7523894906 0.7608243823
	0.8331087828 0.7530807257 0.7614160776
	0.8335847259 0.7537717819 0.7620077729
	0.8340600729 0.7544625998 0.7625957727
	0.8345336914 0.7551519275 0.7631717920
	0.8350073099 0.7558411956 0.7637478113
	0.8354809284 0.7565305233 0.7643237710
	0.8359544873 0.7572197914 0.7648997903
	0.8364281058 0.7579091191 0.7654758096
	0.8369017243 0.7585983872 0.7660518289
	0.8373752832 0.7592877150 0.7666277885
	0.8378481865 0.7599760294 0.7671977878
	0.8383200169 0.7606624961 0.7677584291
	0.8387917876 0.7613489032 0.7683190107
	0.8392636776 0.7620353103 0.7688795924
	0.8397355080 0.7627217770 0.7694401741
	0.8402072787 0.7634081841 0.7700008154
	0.8406791091 0.7640945911 0.7705613971
	0.8411508799 0.7647809982 0.7711219788
	0.8416199088 0.7654656768 0.7716754079
	0.8420853019 0.7661474943 0.7722191811
	0.8425505757 0.7668293118 0.7727630734
	0.8430159092 0.7675111294 0.7733069062
	0.8434813023 0.7681930065 0.7738506794
	0.8439465761 0.7688748240 0.7743945122
	0.8444120288 0.7695565820 0.7749384046
	0.8448773026 0.7702383995 0.7754821777
	0.8453407288 0.7709181905 0.7760233283
	0.8458008170 0.7715933919 0.7765594125
	0.8462607861 0.7722684741 0.7770954967
	0.8467208147 0.7729436755 0.7776315808
	0.8471809030 0.7736188173 0.7781677246
	0.8476408720 0.7742940187 0.7787038088
	0.8481009007 0.7749692202 0.7792398930
	0.8485609889 0.7756443024 0.7797759771
	0.8490195274 0.7763193250 0.7803099751
	0.8494699001 0.7769930959 0.7808322906
	0.8499203920 0.7776669264 0.7813544869
	0.8503708243 0.7783406973 0.7818766832
	0.8508211970 0.7790145278 0.7823989987
	0.8512716889 0.7796882987 0.7829211950
	0.8517221212 0.7803621292 0.7834433913
	0.8521726131 0.7810359001 0.7839657068
	0.8526229858 0.7817096710 0.7844879031
	0.8530669808 0.7823808193 0.7850015163
	0.8535096049 0.7830513120 0.7855132818
	0.8539522886 0.7837216854 0.7860249877
	0.8543949723 0.7843921781 0.7865368128
	0.8548377156 0.7850626111 0.7870485187
	0.8552803993 0.7857329845 0.7875602841
	0.8557230234 0.7864034772 0.7880721092
	0.8561657071 0.7870739102 0.7885838151
	0.8566074967 0.7877444029 0.7890909910
	0.8570477962 0.7884148955 0.7895907760
	0.8574879766 0.7890855074 0.7900906205
	0.8579282761 0.7897560000 0.7905902863
	0.8583685756 0.7904264927 0.7910900712
	0.8588088751 0.7910971045 0.7915899158
	0.8592491746 0.7917675972 0.7920895815
	0.8596894741 0.7924380898 0.7925894260
	0.8601297736 0.7931085825 0.7930892110
	0.8605728149 0.7937740088 0.7935796976
