release/datafiles/colormanagement/luts/film_response/fujifilm_fp2900z.spi1d
Version 1
From 0.0 1.0
Length 1024
Components 3
{
	0.0000000000 0.0000000000 0.0000000000
	0.0008503073 0.0060487022 0.0064002438
	0.0031247020 0.0077070072 0.0084807090
	0.0065889051 0.0093767531 0.0092614815
	0.0087466193 0.0171994604 0.0101535600
	0.0108801499 0.0271614902 0.0109591102
	0.0145162800 0.0324796699 0.0117238201
	0.0193788800 0.0365465991 0.0124966996
	0.0240556896 0.0401393399 0.0133267604
	0.0285850298 0.0431072004 0.0142630199
	0.0330653489 0.0448529907 0.0153544797
	0.0372812003 0.0457478799 0.0166501496
	0.0410104282 0.0465190299 0.0183483995
	0.0442945287 0.0478400812 0.0208099205
	0.0474888906 0.0510223396 0.0238338206
	0.0509595312 0.0559057482 0.0271846093
	0.0551288798 0.0616184585 0.0307629295
	0.0602344498 0.0672886521 0.0349612683
	0.0657841787 0.0724673122 0.0396671183
	0.0712287277 0.0778958723 0.0446968898
	0.0760187581 0.0834463537 0.0498669893
	0.0797053277 0.0889106467 0.0549938083
	0.0827539414 0.0940806195 0.0598937795
	0.0854174793 0.0987935290 0.0646180511
	0.0878179371 0.1031830981 0.0695652813
	0.0900772810 0.1073582023 0.0744954869
	0.0923174620 0.1114075035 0.0791333169
	0.0946604684 0.1154199019 0.0832034126
	0.0972282588 0.1194840968 0.0864467174
	0.1001427993 0.1236867979 0.0890749767
	0.1034547016 0.1279577017 0.0913295001
	0.1070737988 0.1322295070 0.0933255404
	0.1109554023 0.1365102977 0.0951783583
	0.1150562018 0.1408081055 0.0970032215
	0.1193327978 0.1451306939 0.0989153683
	0.1237417012 0.1494861990 0.1010300964
	0.1282396019 0.1538825035 0.1034625992
	0.1330090016 0.1583275944 0.1061728969
	0.1381776035 0.1628293991 0.1090466008
	0.1436399072 0.1673959941 0.1120757982
	0.1492906064 0.1720408946 0.1152525023
	0.1550242007 0.1768026054 0.1185685992
	0.1607352942 0.1816647947 0.1220161989
	0.1663185954 0.1866011024 0.1255874038
	0.1716686040 0.1915850043 0.1292741001
	0.1766799986 0.1965896934 0.1330682933
	0.1812472045 0.2015890032 0.1369619966
	0.1853772998 0.2065560967 0.1409474015
	0.1893154979 0.2114645988 0.1450162977
	0.1930917948 0.2164134979 0.1491608024
	0.1967224926 0.2215435952 0.1533937007
	0.2002238035 0.2267996967 0.1579982042
	0.2036122978 0.2321251035 0.1629922986
	0.2069043070 0.2374628037 0.1682806015
	0.2101161033 0.2427562028 0.1737675965
	0.2132640928 0.2479483038 0.1793580055
	0.2163646966 0.2529824078 0.1849561036
	0.2194342017 0.2578017116 0.1904667020
	0.2224891037 0.2623493075 0.1957941055
	0.2255457044 0.2665685117 0.2008430064
	0.2286203057 0.2704024017 0.2055179030
	0.2317294031 0.2737948895 0.2097503990
	0.2348892987 0.2768653929 0.2138119936
	0.2381162941 0.2797451913 0.2177951038
	0.2414056957 0.2824516892 0.2216964066
	0.2446805984 0.2850024104 0.2255128026
	0.2479368001 0.2874149084 0.2292409986
	0.2511793077 0.2897064984 0.2328778058
	0.2544130981 0.2918949127 0.2364200950
	0.2576431930 0.2939974070 0.2398646027
	0.2608745992 0.2960315943 0.2432080954
	0.2641122043 0.2980149090 0.2464473993
	0.2673611939 0.2999647856 0.2495792955
	0.2706263959 0.3018988967 0.2526006103
	0.2739129066 0.3038344979 0.2555082142
	0.2772257030 0.3057892025 0.2582986951
	0.2805697918 0.3077805042 0.2609690130
	0.2839502096 0.3098258972 0.2635160089
	0.2874231935 0.3119427860 0.2659429908
	0.2910543084 0.3141488135 0.2682636976
	0.2948203087 0.3164612055 0.2704857886
	0.2986972034 0.3188976943 0.2726168931
	0.3026610911 0.3214755952 0.2746646106
	0.3066878021 0.3242133856 0.2766366005
	0.3107534945 0.3271133900 0.2785406113
	0.3148340881 0.3301571906 0.2803840935
	0.3189055920 0.3333252966 0.2821748853
	0.3229441047 0.3365986049 0.2839204967
	0.3269253969 0.3399577141 0.2856287062
	0.3308256865 0.3433833122 0.2873069942
	0.3346208036 0.3468560874 0.2889631093
	0.3382869065 0.3503566980 0.2906045914
	0.3417999148 0.3538660109 0.2922393084
	0.3451356888 0.3573645949 0.2938747108
	0.3482705057 0.3608331978 0.2955183983
	0.3511801958 0.3642525077 0.2971782088
	0.3538407981 0.3676030934 0.2988617122
	0.3562282920 0.3708657920 0.3005765080
	0.3583298028 0.3740212917 0.3023301959
	0.3602797091 0.3770503104 0.3041304946
	0.3621290028 0.3799622953 0.3059850931
	0.3638837039 0.3828690052 0.3079015911
	0.3655497134 0.3857800961 0.3098875880
	0.3671329916 0.3886910081 0.3119508028
	0.3686397970 0.3915975094 0.3140988052
	0.3700759113 0.3944953084 0.3163442016
	0.3714475036 0.3973797858 0.3187192976
	0.3727603853 0.4002467990 0.3212150037
	0.3740208149 0.4030919075 0.3238149881
	0.3752345145 0.4059107900 0.3265028894
	0.3764077127 0.4086990058 0.3292626143
	0.3775463104 0.4114522040 0.3320775926
	0.3786563873 0.4141660929 0.3349316120
	0.3797439933 0.4168362021 0.3378083110
	0.3808149099 0.4194582105 0.3406915069
	0.3818753958 0.4220277965 0.3435646892
	0.3829312921 0.4245404899 0.3464117050
	0.3839887977 0.4269919991 0.3492161930
	0.3850536942 0.4293780029 0.3519617915
	0.3861320913 0.4316940010 0.3546322882
	0.3872300982 0.4339357018 0.3572112024
	0.3883534968 0.4360988140 0.3596824110
	0.3895084858 0.4381788075 0.3620485067
	0.3907010853 0.4401713908 0.3643788993
	0.3919371068 0.4420722127 0.3666825891
	0.3932228088 0.4438770115 0.3689602911
	0.3945640028 0.4456013143 0.3712129891
	0.3959667087 0.4472714067 0.3734416068
	0.3974370956 0.4488897026 0.3756470084
	0.3989810050 0.4504584968 0.3778300881
	0.4006046057 0.4519804120 0.3799915910
	0.4023137093 0.4534575939 0.3821327090
	0.4041146040 0.4548926055 0.3842540085
	0.4060753882 0.4562878013 0.3863565922
	0.4082339108 0.4576455057 0.3884412050
	0.4105701149 0.4589681923 0.3905088902
	0.4130640924 0.4602581859 0.3925603926
	0.4156959951 0.4615179896 0.3945967853
	0.4184457064 0.4627498090 0.3966186941
	0.4212931991 0.4639562070 0.3986273110
	0.4242187142 0.4651395082 0.4006232023
	0.4272021055 0.4663020968 0.4026075006
	0.4302234948 0.4674463868 0.4045810997
	0.4332629144 0.4685747921 0.4065446854
	0.4363003075 0.4696896076 0.4084993005
	0.4393157065 0.4707933962 0.4104458094
	0.4422892928 0.4718883038 0.4123851061
	0.4452010095 0.4729770124 0.4143181145
	0.4480308890 0.4740616977 0.4162456095
	0.4507589042 0.4751448035 0.4181686044
	0.4533652067 0.4762287140 0.4200878143
	0.4558297098 0.4773159027 0.4220044017
	0.4581323862 0.4784086943 0.4239189923
	0.4602535069 0.4795095026 0.4258325994
	0.4622519016 0.4806207120 0.4277462065
	0.4642114937 0.4817445874 0.4296604991
	0.4661338031 0.4828838110 0.4315764010
	0.4680199921 0.4840404987 0.4334949851
	0.4698711932 0.4852172136 0.4354169965
	0.4716886878 0.4864163101 0.4373432994
	0.4734737873 0.4876401126 0.4392806888
	0.4752275944 0.4888910949 0.4412496090
	0.4769513011 0.4901716113 0.4432489872
	0.4786463082 0.4914839864 0.4452759027
	0.4803135991 0.4928306937 0.4473274052
	0.4819546044 0.4942142069 0.4494006038
	0.4835703969 0.4956367016 0.4514926076
	0.4851622880 0.4971008003 0.4536004961
	0.4867314994 0.4986090064 0.4557211995
	0.4882791936 0.5001742244 0.4578520060
	0.4898067117 0.5017988086 0.4599897861
	0.4913150966 0.5034782290 0.4621317089
	0.4928056002 0.5052075982 0.4642749131
	0.4942795932 0.5069822073 0.4664162993
	0.4957382083 0.5087974072 0.4685530961
	0.4971826971 0.5106484294 0.4706822038
	0.4986141920 0.5125305057 0.4728009105
	0.5000339746 0.5144389868 0.4749062061
	0.5014433265 0.5163691044 0.4769951105
	0.5028433204 0.5183159709 0.4790647030
	0.5042353272 0.5202751756 0.4811120927
	0.5056204796 0.5222417116 0.4831343889
	0.5070000291 0.5242109895 0.4851284921
	0.5083752275 0.5261781812 0.4870916903
	0.5097472072 0.5281386971 0.4890210032
	0.5111172199 0.5300877094 0.4909133911
	0.5124865770 0.5320205092 0.4927659929
	0.5138564110 0.5339323282 0.4945758879
	0.5152279735 0.5358185172 0.4963401854
	0.5166025162 0.5376741886 0.4980559051
	0.5179811716 0.5394948125 0.4997201860
	0.5193653107 0.5412756205 0.5013300180
	0.5207560062 0.5430117249 0.5028824806
	0.5221545100 0.5446984768 0.5043746829
	0.5235620141 0.5463312864 0.5058037043
	0.5249798894 0.5479233265 0.5071665049
	0.5264092088 0.5495030880 0.5084602833
	0.5278512836 0.5510712266 0.5096821785
	0.5293071866 0.5526280999 0.5108290911
	0.5307784081 0.5541737080 0.5118982196
	0.5322659016 0.5557085276 0.5128865242
	0.5337721109 0.5572324991 0.5137987733
	0.5353026986 0.5587460995 0.5146775842
	0.5368571877 0.5602493286 0.5155304074
	0.5384340286 0.5617424846 0.5163580179
	0.5400314927 0.5632258058 0.5171611905
	0.5416480899 0.5646995902 0.5179405808
	0.5432822704 0.5661638975 0.5186970830
	0.5449323058 0.5676190257 0.5194314122
	0.5465967059 0.5690650940 0.5201442242
	0.5482738018 0.5705024004 0.5208364129
	0.5499621034 0.5719311833 0.5215085745
	0.5516598821 0.5733516812 0.5221616030
	0.5533655882 0.5747640133 0.5227962136
	0.5550776720 0.5761684775 0.5234131217
	0.5567945242 0.5775651932 0.5240131021
	0.5585144758 0.5789545178 0.5245969892
	0.5602360964 0.5803365111 0.5251653790
	0.5619575977 0.5817114711 0.5257192254
	0.5636774898 0.5830796957 0.5262590051
	0.5653942227 0.5844413042 0.5267856717
	0.5671060085 0.5857964754 0.5273000002
	0.5688114166 0.5871455073 0.5278027058
	0.5705088973 0.5884885788 0.5282945037
	0.5721967220 0.5898259282 0.5287762284
	0.5738732815 0.5911576748 0.5292484164
	0.5755370855 0.5924841762 0.5297120810
	0.5771865249 0.5938054919 0.5301678181
	0.5788199902 0.5951220989 0.5306165218
	0.5804358125 0.5964338779 0.5310587883
	0.5820325017 0.5977414250 0.5314955115
	0.5836083889 0.5990446210 0.5319272876
	0.5851619244 0.6003437042 0.5323550105
	0.5866914988 0.6016390920 0.5327793956
	0.5881955028 0.6029310226 0.5332012177
	0.5896723866 0.6042193770 0.5336210728
	0.5911204815 0.6055046916 0.5340399146
	0.5925382972 0.6067870855 0.5344585180
	0.5939241052 0.6080667973 0.5348774195
	0.5952764153 0.6093440056 0.5352975130
	0.5965934992 0.6106188893 0.5357195735
	0.5978739262 0.6118916869 0.5361443162
	0.5991160274 0.6131626964 0.5365725160
	0.6003181934 0.6144319773 0.5370048285
	0.6014788747 0.6157000065 0.5374420881
	0.6025965214 0.6169667244 0.5378851295
	0.6036692858 0.6182324886 0.5383346081
	0.6046959162 0.6194974780 0.5387912989
	0.6056745052 0.6207618713 0.5392559171
	0.6066036820 0.6220260262 0.5397291780
	0.6074817777 0.6232900023 0.5402120948
	0.6083071828 0.6245540977 0.5407050848
	0.6090785265 0.6258184910 0.5412091017
	0.6098169088 0.6270834804 0.5417249203
	0.6105371714 0.6283515096 0.5422530770
	0.6112400889 0.6296306252 0.5427945852
	0.6119259000 0.6309205890 0.5433501005
	0.6125950217 0.6322209239 0.5439202785
	0.6132478714 0.6335307956 0.5445060134
	0.6138849854 0.6348494887 0.5451080203
	0.6145066023 0.6361764073 0.5457270145
	0.6151131988 0.6375107765 0.5463637114
	0.6157053113 0.6388520002 0.5470190048
	0.6162831783 0.6401991844 0.5476934910
	0.6168472767 0.6415519118 0.5483881235
	0.6173980832 0.6429092288 0.5491034985
	0.6179360747 0.6442704797 0.5498402715
	0.6184614897 0.6456350088 0.5505995154
	0.6189749241 0.6470022202 0.5513817072
	0.6194766164 0.6483712792 0.5521876812
	0.6199671030 0.6497414708 0.5530344248
	0.6204468012 0.6511121988 0.5539386868
	0.6209161282 0.6524828076 0.5548986197
	0.6213753819 0.6538524032 0.5559120178
	0.6218250990 0.6552203894 0.5569766164
	0.6222656965 0.6565861106 0.5580903888
	0.6226975918 0.6579487920 0.5592513084
	0.6231212020 0.6593078971 0.5604572296
	0.6235368848 0.6606624722 0.5617058873
	0.6239451170 0.6620119810 0.5629951954
	0.6243463159 0.6633557081 0.5643231869
	0.6247407794 0.6646929979 0.5656875968
	0.6251292229 0.6660230160 0.5670863986
	0.6255117059 0.6673452258 0.5685173273
	0.6258888841 0.6686587930 0.5699784160
	0.6262611151 0.6699631214 0.5714673996
	0.6266288161 0.6712573767 0.5729821920
	0.6269922853 0.6725410223 0.5745208263
	0.6273521781 0.6738132238 0.5760809779
	0.6277086735 0.6750733852 0.5776606202
	0.6280624270 0.6763207912 0.5792576075
	0.6284136772 0.6775547266 0.5808697939
	0.6287629008 0.6787744164 0.5824952126
	0.6291105151 0.6799793243 0.5841314793
	0.6294568777 0.6811686158 0.5857766271
	0.6298025250 0.6823415756 0.5874286294
	0.6301478148 0.6834977269 0.5890851021
	0.6304932237 0.6846361160 0.5907440782
	0.6308389902 0.6857560873 0.5924034715
	0.6311857104 0.6868569851 0.5940610766
	0.6315336823 0.6879382133 0.5957149267
	0.6318835020 0.6889989972 0.5973626971
	0.6322354078 0.6900386214 0.5990023017
	0.6325898767 0.6910563111 0.6006317139
	0.6329473853 0.6920514703 0.6022487283
	0.6333082914 0.6930233836 0.6038513184
	0.6336730123 0.6939712763 0.6054372191
	0.6340420246 0.6948946714 0.6070044041
	0.6344156265 0.6957926154 0.6085507870
	0.6347942948 0.6966645122 0.6100741029
	0.6351785064 0.6975097060 0.6115723848
	0.6355686188 0.6983274817 0.6130434275
	0.6359649897 0.6991170049 0.6144850850
	0.6363682151 0.6998777986 0.6158952713
	0.6367785931 0.7006090283 0.6172720194
	0.6371966004 0.7013099790 0.6186128855
	0.6376225948 0.7019799948 0.6199159026
	0.6380569935 0.7026184201 0.6211791039
	0.6385002136 0.7032272816 0.6224001050
	0.6389526725 0.7038217783 0.6235768795
	0.6394149065 0.7044044733 0.6247074008
	0.6398872137 0.7049757838 0.6257894039
	0.6403700113 0.7055358291 0.6268209219
	0.6408637762 0.7060847282 0.6277996898
	0.6413689256 0.7066227794 0.6287239790
	0.6418856978 0.7071502209 0.6296194792
	0.6424148083 0.7076671720 0.6305025220
	0.6429564953 0.7081741095 0.6313732862
	0.6435111761 0.7086709738 0.6322320104
	0.6440793276 0.7091581821 0.6330789924
	0.6446613073 0.7096359134 0.6339144111
	0.6452575922 0.7101042867 0.6347385049
	0.6458685994 0.7105637193 0.6355515718
	0.6464946866 0.7110142112 0.6363537908
	0.6471362710 0.7114561200 0.6371454000
	0.6477938890 0.7118896246 0.6379265785
	0.6484678984 0.7123149037 0.6386976838
	0.6491587162 0.7127323151 0.6394590139
	0.6498693228 0.7131419778 0.6402105093
	0.6506212950 0.7135441899 0.6409527063
	0.6514183879 0.7139390707 0.6416856050
	0.6522591114 0.7143269181 0.6424096227
	0.6531423926 0.7147079110 0.6431248784
	0.6540668011 0.7150822878 0.6438316703
	0.6550312042 0.7154504061 0.6445302963
	0.6560341716 0.7158122063 0.6452208161
	0.6570745707 0.7161681056 0.6459035873
	0.6581510901 0.7165182829 0.6465789080
	0.6592624187 0.7168630958 0.6472467780
	0.6604073048 0.7172024846 0.6479076743
	0.6615846157 0.7175369263 0.6485617161
	0.6627929211 0.7178664804 0.6492090821
	0.6640309095 0.7181913853 0.6498501897
	0.6652973890 0.7185119987 0.6504852176
	0.6665912271 0.7188284993 0.6511142254
	0.6679108739 0.7191410065 0.6517375708
	0.6692553163 0.7194498181 0.6523556113
	0.6706231833 0.7197551131 0.6529684067
	0.6720132232 0.7200570703 0.6535763144
	0.6734240055 0.7203561068 0.6541793942
	0.6748545170 0.7206522822 0.6547781229
	0.6763033271 0.7209458947 0.6553725004
	0.6777691841 0.7212371230 0.6559628844
	0.6792508960 0.7215262055 0.6565495729
	0.6807470918 0.7218133807 0.6571326852
	0.6822565198 0.7220988274 0.6577125192
	0.6837779880 0.7223827839 0.6582891941
	0.6853101850 0.7226654887 0.6588631272
	0.6868517995 0.7229471207 0.6594343781
	0.6884016991 0.7232279778 0.6600034237
	0.6899583936 0.7235082984 0.6605702043
	0.6915208101 0.7237882018 0.6611351967
	0.6930875182 0.7240679264 0.6616984010
	0.6946573853 0.7243477702 0.6622602940
	0.6962291002 0.7246279120 0.6628209949
	0.6978012919 0.7249085903 0.6633808017
	0.6993728876 0.7251899838 0.6639397740
	0.7009423971 0.7254723907 0.6644983888
	0.7025088072 0.7257559896 0.6650567055
	0.7040706277 0.7260410190 0.6656150222
	0.7056266069 0.7263275981 0.6661735773
	0.7071756124 0.7266160846 0.6667326093
	0.7087162733 0.7269067168 0.6672922969
	0.7102472782 0.7271996140 0.6678529978
	0.7117674947 0.7274950743 0.6684147716
	0.7132756114 0.7277932763 0.6689779758
	0.7147703171 0.7280943990 0.6695429087
	0.7162501812 0.7283987999 0.6701096892
	0.7177143097 0.7287065983 0.6706784964
	0.7191610932 0.7290180922 0.6712498069
	0.7205895185 0.7293334007 0.6718236208
	0.7219980955 0.7296528220 0.6724001765
	0.7233856916 0.7299764752 0.6729798913
	0.7247509956 0.7303047776 0.6735628843
	0.7260926962 0.7306377888 0.6741493940
	0.7274097204 0.7309758067 0.6747397184
	0.7287005186 0.7313190103 0.6753339767
	0.7299638987 0.7316675782 0.6759325266
	0.7311987281 0.7320219278 0.6765354276
	0.7324035764 0.7323821187 0.6771430969
	0.7335773706 0.7327483892 0.6777557731
	0.7347186208 0.7331209779 0.6783735752
	0.7358261943 0.7335001230 0.6789968014
	0.7368987799 0.7338860035 0.6796255708
	0.7379351258 0.7342789173 0.6802604198
	0.7389339209 0.7346789837 0.6809012294
	0.7398939133 0.7350866199 0.6815484166
	0.7408269048 0.7355018258 0.6821988821
	0.7417528033 0.7359247804 0.6828476787
	0.7426717877 0.7363560200 0.6834948063
	0.7435839772 0.7367956042 0.6841400862
	0.7444893718 0.7372435927 0.6847838163
	0.7453880906 0.7377005219 0.6854259968
	0.7462803125 0.7381662726 0.6860665083
	0.7471659184 0.7386413813 0.6867055893
	0.7480450869 0.7391259074 0.6873431802
	0.7489178777 0.7396200895 0.6879792809
	0.7497844100 0.7401241064 0.6886140704
	0.7506446242 0.7406383157 0.6892474890
	0.7514986992 0.7411627769 0.6898795962
	0.7523466945 0.7416979074 0.6905105114
	0.7531886101 0.7422437072 0.6911401153
	0.7540246844 0.7428004742 0.6917685866
	0.7548547983 0.7433686256 0.6923959255
	0.7556790709 0.7439481020 0.6930220723
	0.7564978004 0.7445440292 0.6936473250
	0.7573106885 0.7451735139 0.6942713857
	0.7581180930 0.7458376884 0.6948946118
	0.7589198947 0.7465357184 0.6955168843
	0.7597163916 0.7472668290 0.6961382031
	0.7605074048 0.7480301857 0.6967588067
	0.7612931728 0.7488250732 0.6973785162
	0.7620736957 0.7496505976 0.6979975104
	0.7628490925 0.7505061030 0.6986157894
	0.7636194229 0.7513905764 0.6992332935
	0.7643846869 0.7523034215 0.6998503208
	0.7651450038 0.7532438040 0.7004666924
	0.7659006119 0.7542108297 0.7010825276
	0.7666512728 0.7552037239 0.7016978264
	0.7673972845 0.7562217712 0.7023125887
	0.7681385875 0.7572641969 0.7029271126
	0.7688754201 0.7583301067 0.7035411000
	0.7696077228 0.7594187260 0.7041547894
	0.7703356147 0.7605292797 0.7047681808
	0.7710590959 0.7616609931 0.7053813934
	0.7717784047 0.7628129721 0.7059943080
	0.7724934220 0.7639846206 0.7066071033
	0.7732043266 0.7651749253 0.7072197199
	0.7739111781 0.7663831711 0.7078322768
	0.7746139765 0.7676087022 0.7084447742
	0.7753129005 0.7688505054 0.7090572715
	0.7760080099 0.7701079249 0.7096698880
	0.7766993046 0.7713800073 0.7102825046
	0.7773869038 0.7726660967 0.7108952999
	0.7780709267 0.7739654779 0.7115082145
	0.7787513733 0.7752770782 0.7121213078
	0.7794283032 0.7766004205 0.7127346992
	0.7801018953 0.7779344916 0.7133483887
	0.7807720900 0.7792785764 0.7139623761
	0.7814390063 0.7806318998 0.7145767808
	0.7821028233 0.7819936275 0.7151916027
	0.7827634215 0.7833629251 0.7158069015
	0.7834209800 0.7847390175 0.7164226174
	0.7840756178 0.7861210704 0.7170389891
	0.7847272754 0.7875084877 0.7176558971
	0.7853761911 0.7889003158 0.7182734013
	0.7860223055 0.7902957201 0.7188916206
	0.7866656780 0.7916939855 0.7195104957
	0.7873066068 0.7930942774 0.7201302052
	0.7879447937 0.7944958806 0.7207505703
	0.7885807157 0.7958979011 0.7213718891
	0.7892140746 0.7972996235 0.7219941020
	0.7898452282 0.7987000942 0.7226172090
	0.7904739976 0.8000987172 0.7232413292
	0.7911006808 0.8014945984 0.7238664031
	0.7917252779 0.8028869033 0.7244924903
	0.7923477888 0.8042749166 0.7251197100
	0.7929683924 0.8056578040 0.7257481217
	0.7935870886 0.8070347905 0.7263776064
	0.7942039967 0.8084051013 0.7270082831
	0.7948191166 0.8097679019 0.7276402712
	0.7954326272 0.8111224174 0.7282735705
	0.7960445285 0.8124678135 0.7289083004
	0.7966548204 0.8138033152 0.7295442820
	0.7972636819 0.8151280880 0.7301818132
	0.7978711724 0.8164414167 0.7308207154
	0.7984774113 0.8177425265 0.7314611077
	0.7990823984 0.8190305233 0.7321031094
	0.7996861935 0.8203045726 0.7327467203
	0.8002889752 0.8215640187 0.7333918810
	0.8008906841 0.8228080273 0.7340387702
	0.8014913797 0.8240358233 0.7346873879
	0.8020913005 0.8252465129 0.7353377938
	0.8026903868 0.8264393210 0.7359899879
	0.8032888174 0.8276134729 0.7366440296
	0.8038864732 0.8287683129 0.7372999787
	0.8044837117 0.8299028277 0.7379577756
	0.8050802946 0.8310164213 0.7386177182
	0.8056765199 0.8321080804 0.7392795086
	0.8062723279 0.8331770897 0.7399433851
	0.8068677783 0.8342227936 0.7406094074
	0.8074631095 0.8352441788 0.7412775755
	0.8080583215 0.8362407088 0.7419478893
	0.8086534142 0.8372113109 0.7426204085
	0.8092485070 0.8381553888 0.7432953119
	0.8098437190 0.8390719891 0.7439724207
	0.8104389906 0.8399605155 0.7446519136
	0.8110345006 0.8408200145 0.7453336716
	0.8116303086 0.8416497111 0.7460181117
	0.8122264743 0.8424487710 0.7467048168
	0.8128219247 0.8432167172 0.7473942041
	0.8134155869 0.8439698815 0.7480859756
	0.8140075803 0.8447198272 0.7487804890
	0.8145980835 0.8454664946 0.7494776249
	0.8151867986 0.8462098837 0.7501773834
	0.8157740235 0.8469501138 0.7508800030
	0.8163595200 0.8476870060 0.7515853047
	0.8169434071 0.8484206796 0.7522934079
	0.8175256848 0.8491510749 0.7530043721
	0.8181064725 0.8498781919 0.7537181973
	0.8186855912 0.8506020904 0.7544351220
	0.8192632198 0.8513227105 0.7551549077
	0.8198392987 0.8520401120 0.7558776736
	0.8204138279 0.8527541161 0.7566035986
	0.8209868073 0.8534649014 0.7573326230
	0.8215582967 0.8541724086 0.7580646873
	0.8221281767 0.8548766971 0.7588000894
	0.8226966858 0.8555775881 0.7595385909
	0.8232637048 0.8562753201 0.7602804899
	0.8238291740 0.8569697142 0.7610256076
	0.8243932724 0.8576607704 0.7617741823
	0.8249558806 0.8583486080 0.7625260949
	0.8255169988 0.8590331078 0.7632815242
	0.8260768056 0.8597143292 0.7640402913
	0.8266351223 0.8603922129 0.7648026943
	0.8271920085 0.8610668182 0.7655686736
	0.8277475238 0.8617380857 0.7663382292
	0.8283016086 0.8624060750 0.7671114802
	0.8288543820 0.8630707860 0.7678884268
	0.8294057846 0.8637322187 0.7686690092
	0.8299558163 0.8643901944 0.7694535255
	0.8305044770 0.8650450110 0.7702416778
	0.8310518861 0.8656963706 0.7710338831
	0.8315979838 0.8663445115 0.7718299031
	0.8321427107 0.8669893146 0.7726336718
	0.8326861858 0.8676307797 0.7734528184
	0.8332284093 0.8682689071 0.7742872238
	0.8337693214 0.8689036965 0.7751364708
	0.8343089223 0.8695350885 0.7760004997
	0.8348472714 0.8701633215 0.7768787146
	0.8353844285 0.8707880974 0.7777708173
	0.8359202743 0.8714094758 0.7786765099
	0.8364549875 0.8720275760 0.7795954943
	0.8369885087 0.8726423979 0.7805274129
	0.8375207782 0.8732538223 0.7814719081
	0.8380519152 0.8738619089 0.7824286222
	0.8385819197 0.8744665980 0.7833971977
	0.8391106129 0.8750680089 0.7843773961
	0.8396382928 0.8756660223 0.7853689194
	0.8401647210 0.8762605786 0.7863711715
	0.8406900764 0.8768519163 0.7873840928
	0.8412142992 0.8774397969 0.7884072065
	0.8417373896 0.8780243993 0.7894402146
	0.8422595263 0.8786056042 0.7904826999
	0.8427804112 0.8791834116 0.7915344834
	0.8433002830 0.8797578216 0.7925950885
	0.8438190818 0.8803288937 0.7936642766
	0.8443368077 0.8808965087 0.7947415709
	0.8448535800 0.8814607859 0.7958269119
	0.8453692198 0.8820217848 0.7969195843
	0.8458839059 0.8825793266 0.7980195880
	0.8463975787 0.8831334114 0.7991263866
	0.8469101787 0.8836842179 0.8002396822
	0.8474218845 0.8842315078 0.8013591766
	0.8479325771 0.8847755194 0.8024845123
	0.8484423161 0.8853160739 0.8036152720
	0.8489511013 0.8858531713 0.8047512770
	0.8494588733 0.8863869905 0.8058922291
	0.8499658704 0.8869172931 0.8070374727
	0.8504719138 0.8874443173 0.8081870079
	0.8509768844 0.8879678249 0.8093402982
	0.8514810801 0.8884878755 0.8104971051
	0.8519843817 0.8890047073 0.8116570711
	0.8524867892 0.8895179033 0.8128197789
