release/datafiles/colormanagement/luts/film_response/fujifilm_f-400.spi1d
Version 1
From 0.0 1.0
Length 1024
Components 3
{
	0.0000000000 0.0000000000 0.0000000000
	0.0603632890 0.0454680510 0.0325050801
	0.0916145369 0.0672334507 0.0560519211
	0.1141282991 0.0832497999 0.0737638026
	0.1319569051 0.0963873789 0.0874102712
	0.1474671066 0.1078206971 0.0974757820
	0.1610251069 0.1180547997 0.1053474993
	0.1732669026 0.1273127049 0.1128624976
	0.1844484061 0.1358955950 0.1203550026
	0.1948004961 0.1437651068 0.1278492957
	0.2044326067 0.1510639042 0.1352435946
	0.2135390937 0.1580073982 0.1424624026
	0.2222227007 0.1645933986 0.1493878067
	0.2305278927 0.1708792001 0.1560759991
	0.2384292036 0.1768720001 0.1626075953
	0.2459527999 0.1825958937 0.1688462943
	0.2531175911 0.1880602986 0.1748789996
	0.2599833906 0.1933407038 0.1807505935
	0.2665782869 0.1983918995 0.1864421070
	0.2729392946 0.2032617927 0.1920263022
	0.2790789902 0.2080129981 0.1974907964
	0.2850643992 0.2126218975 0.2027806044
	0.2908408046 0.2170598060 0.2078876942
	0.2965438068 0.2213744968 0.2128470987
	0.3020817935 0.2255962938 0.2176713943
	0.3074505031 0.2297365963 0.2223367989
	0.3126476109 0.2337452024 0.2268441021
	0.3176782131 0.2376385927 0.2312131971
	0.3225966990 0.2414472997 0.2354972064
	0.3274005949 0.2451924980 0.2396982014
	0.3320432901 0.2488888949 0.2437300980
	0.3365654051 0.2524788976 0.2476260960
	0.3410258889 0.2559857070 0.2514533103
	0.3453224003 0.2594096065 0.2552187145
	0.3495548964 0.2627862990 0.2589012980
	0.3537135124 0.2661119998 0.2625198960
	0.3577654064 0.2694039047 0.2660697997
	0.3617587984 0.2726261914 0.2695469856
	0.3657540083 0.2757805884 0.2729555070
	0.3696199059 0.2788713872 0.2763257921
	0.3734039068 0.2819064856 0.2796599865
	0.3770940006 0.2849085927 0.2829268873
	0.3806684911 0.2878705859 0.2861185074
	0.3841705024 0.2907994092 0.2892411947
	0.3875944912 0.2937094867 0.2923243046
	0.3909009099 0.2965498865 0.2953714132
	0.3941605091 0.2993265986 0.2983838916
	0.3973405063 0.3020490110 0.3013431132
	0.4004949033 0.3047288954 0.3042708039
	0.4036108851 0.3073731959 0.3071705103
	0.4066615999 0.3100095093 0.3100284040
	0.4096829891 0.3126212955 0.3128500879
	0.4127061069 0.3152045012 0.3156496882
	0.4156985879 0.3177570999 0.3184089959
	0.4186556935 0.3202543855 0.3211377859
	0.4215945005 0.3227119148 0.3238492906
	0.4244618118 0.3251400888 0.3265129030
	0.4272699058 0.3275529146 0.3291609883
	0.4300499856 0.3299373984 0.3317633867
	0.4328002036 0.3323051929 0.3343206048
	0.4354938865 0.3346739113 0.3368437886
	0.4381406009 0.3370254934 0.3393223882
	0.4407618046 0.3393487930 0.3417755067
	0.4433783889 0.3416441083 0.3441849053
	0.4459331930 0.3439005911 0.3465532959
	0.4484468997 0.3461334109 0.3488821089
	0.4509404898 0.3483205140 0.3511759937
	0.4534223080 0.3504905999 0.3534452021
	0.4558776915 0.3526290059 0.3557046950
	0.4582909048 0.3547618091 0.3579384089
	0.4606809914 0.3568730056 0.3601483107
	0.4630529881 0.3589904904 0.3623368144
	0.4653714001 0.3610835075 0.3645074964
	0.4676778913 0.3631530106 0.3666630983
	0.4699575007 0.3652003109 0.3688057065
	0.4722292125 0.3671888113 0.3709379137
	0.4745065868 0.3691641092 0.3730610013
	0.4767518938 0.3711192012 0.3751786053
	0.4789671004 0.3730652034 0.3772909939
	0.4811646044 0.3749937117 0.3793990016
	0.4833407998 0.3769024014 0.3814974129
	0.4854697883 0.3788143098 0.3835780919
	0.4875837862 0.3807007074 0.3856568933
	0.4896746874 0.3826003969 0.3877165020
	0.4917361140 0.3844895065 0.3897739947
	0.4937821031 0.3863629997 0.3918241858
	0.4958266914 0.3882220984 0.3938601017
	0.4978322089 0.3900676966 0.3958753943
	0.4998154044 0.3919059038 0.3978557885
	0.5017874837 0.3937377036 0.3998196125
	0.5037454963 0.3955607116 0.4017657936
	0.5056617856 0.3973649144 0.4036836028
	0.5075917840 0.3991670012 0.4055893123
	0.5095139742 0.4009510875 0.4074887931
	0.5114189982 0.4027169943 0.4093823135
	0.5132684112 0.4044859111 0.4112665951
	0.5151203871 0.4062362909 0.4131282866
	0.5169649720 0.4079819024 0.4149852991
	0.5187842846 0.4097360075 0.4168485999
	0.5205675960 0.4114727974 0.4186882079
	0.5223402977 0.4132055044 0.4205282927
	0.5241093040 0.4149374068 0.4223743081
	0.5258463025 0.4166536033 0.4241972864
	0.5275856256 0.4183549881 0.4260225892
	0.5293406248 0.4200339913 0.4278545082
	0.5310854912 0.4217008948 0.4296846986
	0.5328161120 0.4233531058 0.4315181971
	0.5345103741 0.4249719083 0.4333597124
	0.5362126827 0.4265843928 0.4351972938
	0.5379176140 0.4281908870 0.4370343983
	0.5396010876 0.4297637045 0.4388785958
	0.5412700772 0.4313359857 0.4407181144
	0.5429202914 0.4329077005 0.4425528049
	0.5445725918 0.4344569147 0.4443916082
	0.5462222099 0.4360015094 0.4462321103
	0.5478432775 0.4375520945 0.4480772018
	0.5494470000 0.4390931129 0.4499236941
	0.5510246158 0.4406209886 0.4517717957
	0.5525965095 0.4421330988 0.4536193013
	0.5541654825 0.4436380863 0.4554666877
	0.5557032228 0.4451265037 0.4573141932
	0.5572413206 0.4466089010 0.4591605067
	0.5587986708 0.4480651915 0.4610021114
	0.5603525043 0.4495176077 0.4628401995
	0.5618990064 0.4509631097 0.4646731913
	0.5634241104 0.4523977935 0.4664989114
	0.5649273992 0.4538224936 0.4683187902
	0.5664381981 0.4552442133 0.4701269865
	0.5679532290 0.4566642940 0.4719302058
	0.5694528818 0.4580616951 0.4737173021
	0.5709474087 0.4594523013 0.4755006135
	0.5723990798 0.4608454108 0.4772619009
	0.5738419890 0.4622389972 0.4790205061
	0.5752863288 0.4636129141 0.4807558954
	0.5767307281 0.4649848938 0.4824900925
	0.5781518221 0.4663662910 0.4842281938
	0.5795705914 0.4677484035 0.4859664142
	0.5809577703 0.4691171050 0.4876765907
	0.5823417902 0.4704849124 0.4893858135
	0.5837211013 0.4718532860 0.4910922945
	0.5850995779 0.4732218087 0.4927985966
	0.5864555240 0.4745810032 0.4944742918
	0.5878059864 0.4759384096 0.4961453974
	0.5891577005 0.4772793949 0.4978106916
	0.5905098915 0.4786145985 0.4994742870
	0.5918568969 0.4799452126 0.5011221766
	0.5932002068 0.4812729955 0.5027614236
	0.5945292115 0.4825868905 0.5043945909
	0.5958389044 0.4838840961 0.5060214996
	0.5971521139 0.4851810038 0.5076392889
	0.5984765887 0.4864774048 0.5092359781
	0.5998010039 0.4877730906 0.5108314157
	0.6011152864 0.4890460968 0.5124111176
	0.6024296284 0.4903191030 0.5139907002
	0.6037279963 0.4915966988 0.5155413747
	0.6050211787 0.4928756058 0.5170856118
	0.6063179970 0.4941464067 0.5186198950
	0.6076188087 0.4954087138 0.5201451778
	0.6089168191 0.4966705143 0.5216658711
	0.6101980805 0.4979301095 0.5231689811
	0.6114792824 0.4991895854 0.5246720910
	0.6127241850 0.5004386902 0.5261573792
	0.6139590144 0.5016852021 0.5276395082
	0.6151936054 0.5029277205 0.5291115046
	0.6164277196 0.5041645765 0.5305709839
	0.6176617742 0.5054013729 0.5320304036
	0.6188758016 0.5066292882 0.5334817767
	0.6200888753 0.5078570247 0.5349332094
	0.6212956905 0.5090678930 0.5363718271
	0.6224961281 0.5102629066 0.5378000140
	0.6236965060 0.5114579201 0.5392268896
	0.6248922944 0.5126475096 0.5406283140
	0.6260880828 0.5138370991 0.5420296192
	0.6272730827 0.5150145888 0.5434191227
	0.6284447908 0.5161781907 0.5447971225
	0.6296163797 0.5173417926 0.5461751223
	0.6307746768 0.5185059905 0.5475438237
	0.6319308877 0.5196703076 0.5489118099
	0.6330848932 0.5208293200 0.5502725840
	0.6342328191 0.5219740868 0.5516172051
	0.6353806257 0.5231189132 0.5529618263
	0.6365122199 0.5242677927 0.5542978048
	0.6376327872 0.5254191756 0.5556291938
	0.6387532949 0.5265706778 0.5569607019
	0.6398714185 0.5277099013 0.5582699180
	0.6409891248 0.5288481116 0.5595781803
	0.6421049833 0.5299884081 0.5608838797
	0.6432113051 0.5311387777 0.5621806979
	0.6443176270 0.5322890878 0.5634775162
	0.6454114914 0.5334355235 0.5647640824
	0.6464858055 0.5345761180 0.5660377741
	0.6475601792 0.5357167125 0.5673115849
	0.6486206055 0.5368447900 0.5685880780
	0.6496704817 0.5379639268 0.5698662996
	0.6507204175 0.5390831232 0.5711445212
	0.6517605186 0.5401955843 0.5724067092
	0.6527966261 0.5413054824 0.5736641288
	0.6538326740 0.5424153805 0.5749214292
	0.6548563242 0.5435019732 0.5761708021
	0.6558768749 0.5445836782 0.5774188042
	0.6568974853 0.5456653237 0.5786669254
	0.6579241753 0.5467439890 0.5798960924
	0.6589519978 0.5478222966 0.5811234713
	0.6599798203 0.5489006042 0.5823509097
	0.6609984040 0.5499593019 0.5835713744
	0.6620156169 0.5510154963 0.5847914219
	0.6630328894 0.5520715714 0.5860112906
	0.6640465260 0.5531296730 0.5872145891
	0.6650593877 0.5541881919 0.5884156823
	0.6660723090 0.5552465916 0.5896167755
	0.6670761704 0.5562924743 0.5908033848
	0.6680768728 0.5573346019 0.5919865966
	0.6690776944 0.5583767295 0.5931698084
	0.6700693965 0.5594154000 0.5943410993
	0.6710556746 0.5604522824 0.5955067277
	0.6720418930 0.5614892244 0.5966722965
	0.6730256081 0.5625199080 0.5978301167
	0.6740061045 0.5635436177 0.5989803076
	0.6749866009 0.5645673275 0.6001303792
	0.6759673953 0.5655882955 0.6012763977
	0.6769493818 0.5666012168 0.6024119258
	0.6779313087 0.5676140785 0.6035472751
	0.6789131761 0.5686269999 0.6046826243
	0.6798806787 0.5696319938 0.6058049798
	0.6808475256 0.5706369281 0.6069275141
	0.6818143129 0.5716418028 0.6080499887
	0.6827753782 0.5726358294 0.6091644168
	0.6837335229 0.5736240149 0.6102753282
	0.6846914887 0.5746123195 0.6113861203
	0.6856489778 0.5755988955 0.6124936938
	0.6866049767 0.5765814185 0.6135942936
	0.6875609756 0.5775640011 0.6146950126
	0.6885170937 0.5785465240 0.6157956719
	0.6894577146 0.5795089006 0.6168872714
	0.6903957129 0.5804682970 0.6179779172
	0.6913337111 0.5814276934 0.6190685034
	0.6922674179 0.5823866725 0.6201496124
	0.6931942105 0.5833454132 0.6212183833
	0.6941210032 0.5843039751 0.6222872138
	0.6950476766 0.5852625966 0.6233559847
	0.6959589720 0.5862057209 0.6244189143
	0.6968678236 0.5871466994 0.6254813075
	0.6977766156 0.5880876780 0.6265437007
	0.6986793280 0.5890266895 0.6276041269
	0.6995667219 0.5899611712 0.6286605000
	0.7004541159 0.5908957720 0.6297169924
	0.7013415098 0.5918303132 0.6307734251
	0.7022203803 0.5927559733 0.6318181753
	0.7030950189 0.5936775208 0.6328582764
	0.7039695978 0.5945990086 0.6338983774
	0.7048441172 0.5955204964 0.6349384189
	0.7057145834 0.5964314938 0.6359745860
	0.7065848708 0.5973424911 0.6370108128
	0.7074552178 0.5982534289 0.6380469203
	0.7083240151 0.5991623998 0.6390789747
	0.7091879845 0.6000658870 0.6401014924
	0.7100520134 0.6009693146 0.6411240101
	0.7109159827 0.6018726826 0.6421465278
	0.7117736936 0.6027743220 0.6431624889
	0.7126240134 0.6036738157 0.6441721916
	0.7134742141 0.6045733094 0.6451817751
	0.7143244743 0.6054729223 0.6461914778
	0.7151702046 0.6063696742 0.6471874118
	0.7160130143 0.6072648764 0.6481761932
	0.7168557048 0.6081600785 0.6491649151
	0.7176983953 0.6090552807 0.6501536965
	0.7185257077 0.6099364161 0.6511443853
	0.7193462253 0.6108118892 0.6521357298
	0.7201668024 0.6116873026 0.6531270146
	0.7209873199 0.6125627756 0.6541182995
	0.7217960954 0.6134387851 0.6550964117
	0.7226005793 0.6143149137 0.6560708880
	0.7234051228 0.6151911020 0.6570454240
	0.7242096066 0.6160672903 0.6580199003
	0.7250012755 0.6169329286 0.6589906216
	0.7257876992 0.6177945137 0.6599599719
	0.7265741825 0.6186562181 0.6609295011
	0.7273607254 0.6195178032 0.6618989706
	0.7281492949 0.6203829050 0.6628596187
	0.7289391756 0.6212499738 0.6638159752
	0.7297291160 0.6221169829 0.6647723913
	0.7305189967 0.6229839921 0.6657288074
	0.7313020229 0.6238461137 0.6666783094
	0.7320774198 0.6247032285 0.6676219106
	0.7328528762 0.6255602837 0.6685655117
	0.7336283922 0.6264173985 0.6695091128
	0.7344021201 0.6272711754 0.6704490185
	0.7351711988 0.6281173825 0.6713812947
	0.7359403968 0.6289635897 0.6723136902
	0.7367094755 0.6298096776 0.6732460856
	0.7374784946 0.6306557059 0.6741766930
	0.7382401228 0.6314933896 0.6750792861
	0.7390015721 0.6323310733 0.6759818792
	0.7397632003 0.6331688166 0.6768844724
	0.7405247092 0.6340065002 0.6777871251
	0.7412760854 0.6348341107 0.6786838174
	0.7420225143 0.6356573105 0.6795783043
	0.7427688837 0.6364803910 0.6804727912
	0.7435153127 0.6373035908 0.6813672781
	0.7442601919 0.6381258965 0.6822535992
	0.7450010777 0.6389461756 0.6831231713
	0.7457420230 0.6397663951 0.6839928031
	0.7464829087 0.6405866742 0.6848623753
	0.7472237945 0.6414070129 0.6857320070
	0.7479677796 0.6422203183 0.6865984797
	0.7487124205 0.6430320740 0.6874645948
	0.7494571209 0.6438438892 0.6883307099
	0.7502018213 0.6446557045 0.6891968250
	0.7509424090 0.6454676986 0.6900563836
	0.7516725063 0.6462804079 0.6909027100
	0.7524024844 0.6470929980 0.6917490959
	0.7531325817 0.6479057074 0.6925954223
	0.7538626790 0.6487182975 0.6934418082
	0.7545816898 0.6495214105 0.6942890882
	0.7552953959 0.6503202915 0.6951367855
	0.7560091019 0.6511192918 0.6959844828
	0.7567229271 0.6519181728 0.6968321800
	0.7574365735 0.6527169943 0.6976789236
	0.7581534982 0.6535111070 0.6985118985
	0.7588703036 0.6543052197 0.6993448734
	0.7595872283 0.6550993919 0.7001779079
	0.7603039742 0.6558935046 0.7010108829
	0.7610172033 0.6566845775 0.7018424273
	0.7617210150 0.6574687958 0.7026708722
	0.7624248266 0.6582528949 0.7034993768
	0.7631285191 0.6590371132 0.7043278813
	0.7638322711 0.6598212123 0.7051563859
	0.7645226121 0.6606013775 0.7059795260
	0.7651978135 0.6613773108 0.7067975998
	0.7658728957 0.6621533036 0.7076157928
	0.7665480971 0.6629291773 0.7084339857
	0.7672232985 0.6637052298 0.7092521191
	0.7678937912 0.6644771099 0.7100641727
	0.7685611248 0.6652464867 0.7108727098
	0.7692285180 0.6660159230 0.7116813064
	0.7698957920 0.6667852998 0.7124899030
	0.7705631256 0.6675546765 0.7132984996
	0.7712234855 0.6683161855 0.7141026258
	0.7718799114 0.6690734029 0.7149047256
	0.7725363970 0.6698306799 0.7157067060
	0.7731928825 0.6705878973 0.7165088058
	0.7738493085 0.6713451743 0.7173109055
	0.7744975090 0.6721003056 0.7181041241
	0.7751405239 0.6728541255 0.7188926935
	0.7757834792 0.6736080050 0.7196813822
	0.7764264941 0.6743618250 0.7204700112
	0.7770696282 0.6751157045 0.7212585807
	0.7777153850 0.6758605838 0.7220466137
	0.7783638835 0.6765974164 0.7228341103
	0.7790123820 0.6773343086 0.7236214876
	0.7796608806 0.6780712008 0.7244089842
	0.7803093791 0.6788079739 0.7251964808
	0.7809547782 0.6795421243 0.7259809971
	0.7815937996 0.6802709103 0.7267609239
	0.7822328806 0.6809996963 0.7275406718
	0.7828719020 0.6817284822 0.7283204794
	0.7835109830 0.6824573278 0.7291004062
	0.7841491103 0.6831848025 0.7298780084
	0.7847760916 0.6839002967 0.7306407094
	0.7854030132 0.6846157908 0.7314034104
	0.7860299945 0.6853312850 0.7321661711
	0.7866569757 0.6860468984 0.7329288721
	0.7872840166 0.6867623925 0.7336915731
	0.7879158854 0.6874758005 0.7344440222
	0.7885494828 0.6881886125 0.7351937890
	0.7891830206 0.6889013052 0.7359436154
	0.7898166180 0.6896141171 0.7366933227
	0.7904502153 0.6903269291 0.7374430895
	0.7910810709 0.6910367012 0.7381889224
	0.7917066216 0.6917409897 0.7389283180
	0.7923321128 0.6924453974 0.7396677136
	0.7929577231 0.6931496859 0.7404071093
	0.7935832143 0.6938540936 0.7411465049
	0.7942087054 0.6945583820 0.7418857813
	0.7948155999 0.6952574253 0.7426193953
	0.7954189181 0.6959553957 0.7433521152
	0.7960221171 0.6966534257 0.7440848947
	0.7966253757 0.6973515153 0.7448176146
	0.7972286940 0.6980494857 0.7455503941
	0.7978311181 0.6987463832 0.7462819219
	0.7984310985 0.6994404197 0.7470108271
	0.7990310788 0.7001342773 0.7477396131
	0.7996311188 0.7008281946 0.7484685183
	0.8002310991 0.7015221715 0.7491973042
	0.8008310795 0.7022160888 0.7499262094
	0.8014271259 0.7029095888 0.7506538033
	0.8020204902 0.7036026716 0.7513806820
	0.8026139140 0.7042958140 0.7521076202
	0.8032072783 0.7049888968 0.7528346181
	0.8038007021 0.7056819797 0.7535614967
	0.8043941855 0.7063751221 0.7542883754
	0.8049713969 0.7070598006 0.7550076842
	0.8055459857 0.7077432871 0.7557262182
	0.8061205745 0.7084268928 0.7564446926
	0.8066952229 0.7091103792 0.7571632266
	0.8072698712 0.7097939253 0.7578817010
	0.8078448176 0.7104768157 0.7585989237
	0.8084272742 0.7111461759 0.7593011260
	0.8090099096 0.7118155956 0.7600033879
	0.8095924258 0.7124850154 0.7607055902
	0.8101750016 0.7131544948 0.7614077926
	0.8107575178 0.7138239145 0.7621099949
	0.8113396168 0.7144926786 0.7628099918
	0.8119179010 0.7151576281 0.7634986043
	0.8124963045 0.7158225179 0.7641872764
	0.8130745888 0.7164874077 0.7648758888
	0.8136529922 0.7171524167 0.7655645013
	0.8142312765 0.7178173065 0.7662531137
	0.8148078918 0.7184810042 0.7669401169
	0.8153703213 0.7191364169 0.7676184177
	0.8159328103 0.7197918892 0.7682967782
	0.8164951801 0.7204474211 0.7689750791
	0.8170577288 0.7211027741 0.7696533799
	0.8176200986 0.7217583060 0.7703316808
	0.8181825876 0.7224134803 0.7710090876
	0.8187462091 0.7230613232 0.7716705799
	0.8193098903 0.7237089872 0.7723321915
	0.8198735714 0.7243567705 0.7729938030
	0.8204373121 0.7250046134 0.7736552954
	0.8210009933 0.7256522775 0.7743169069
	0.8215646148 0.7263001204 0.7749783993
	0.8221263289 0.7269431949 0.7756360173
	0.8226876259 0.7275854945 0.7762929201
	0.8232489228 0.7282276750 0.7769498825
	0.8238101006 0.7288699746 0.7776067853
	0.8243713975 0.7295122743 0.7782638073
	0.8249326944 0.7301545143 0.7789208293
	0.8254861832 0.7307953238 0.7795671821
	0.8260335922 0.7314348221 0.7802065015
	0.8265808821 0.7320743799 0.7808458209
	0.8271281719 0.7327139974 0.7814850807
	0.8276755810 0.7333536148 0.7821244001
	0.8282228708 0.7339931130 0.7827637196
	0.8287672997 0.7346323729 0.7834032774
	0.8292987943 0.7352702022 0.7840442061
	0.8298302293 0.7359080911 0.7846850157
	0.8303616047 0.7365459800 0.7853258848
	0.8308929801 0.7371838093 0.7859666944
	0.8314244747 0.7378216982 0.7866076231
	0.8319559097 0.7384595275 0.7872483730
	0.8324869275 0.7390930057 0.7878805995
	0.8330175877 0.7397248745 0.7885100245
	0.8335484266 0.7403566837 0.7891393900
	0.8340792060 0.7409886122 0.7897688150
	0.8346099257 0.7416204810 0.7903981805
	0.8351407051 0.7422522902 0.7910276055
	0.8356696963 0.7428832054 0.7916554809
	0.8361886144 0.7435089946 0.7922765017
	0.8367075920 0.7441349030 0.7928975821
	0.8372265100 0.7447606921 0.7935186028
	0.8377454281 0.7453864813 0.7941396832
	0.8382642865 0.7460123897 0.7947607040
	0.8387833238 0.7466381788 0.7953817844
	0.8392910957 0.7472589016 0.7959994078
	0.8397874236 0.7478746176 0.7966139913
	0.8402836919 0.7484902740 0.7972285748
	0.8407800198 0.7491058707 0.7978432178
	0.8412762880 0.7497215867 0.7984578013
	0.8417726159 0.7503373027 0.7990723848
	0.8422688842 0.7509530187 0.7996870279
	0.8427659869 0.7515618801 0.8002871871
	0.8432633877 0.7521684170 0.8008829951
	0.8437607884 0.7527748942 0.8014789224
	0.8442581892 0.7533814907 0.8020746708
	0.8447555900 0.7539880276 0.8026704788
	0.8452529907 0.7545946240 0.8032664061
	0.8457503915 0.7552011013 0.8038622141
	0.8462408781 0.7558019757 0.8044577241
	0.8467301726 0.7564020753 0.8050531149
	0.8472195864 0.7570022941 0.8056485057
	0.8477090001 0.7576023936 0.8062438965
	0.8481984138 0.7582024932 0.8068394065
	0.8486878276 0.7588025928 0.8074347973
	0.8491771817 0.7594026923 0.8080301881
	0.8496577144 0.7599987984 0.8086149096
	0.8501371741 0.7605946064 0.8091987967
	0.8506168127 0.7611902952 0.8097828031
	0.8510962725 0.7617859840 0.8103666902
	0.8515759110 0.7623817921 0.8109506965
	0.8520553708 0.7629774809 0.8115345836
	0.8525350094 0.7635732293 0.8121185899
	0.8530108929 0.7641665936 0.8127080798
	0.8534861207 0.7647594213 0.8132985234
	0.8539612889 0.7653523088 0.8138889074
	0.8544363976 0.7659451962 0.8144792914
	0.8549116254 0.7665380836 0.8150696754
	0.8553867936 0.7671309114 0.8156599998
	0.8558620214 0.7677237988 0.8162503839
	0.8563336730 0.7683117986 0.8168362975
	0.8568035960 0.7688974142 0.8174201250
	0.8572735190 0.7694829702 0.8180038929
	0.8577435017 0.7700685859 0.8185877204
	0.8582134247 0.7706542015 0.8191714883
	0.8586832881 0.7712398171 0.8197553754
	0.8591532111 0.7718253732 0.8203392029
	0.8596208096 0.7724086046 0.8209149837
	0.8600844741 0.7729880810 0.8214796185
	0.8605483174 0.7735676765 0.8220440745
	0.8610121012 0.7741472125 0.8226085901
	0.8614758253 0.7747266889 0.8231731057
	0.8619396091 0.7753062248 0.8237376213
	0.8624032736 0.7758857012 0.8243020773
	0.8628671169 0.7764651775 0.8248665929
	0.8633220196 0.7770413160 0.8254293203
	0.8637769222 0.7776173949 0.8259919882
	0.8642318249 0.7781934738 0.8265547752
	0.8646866083 0.7787696123 0.8271175027
	0.8651415110 0.7793456912 0.8276802897
	0.8655962944 0.7799218297 0.8282430172
	0.8660511971 0.7804979086 0.8288056850
	0.8665007949 0.7810693979 0.8293619752
	0.8669447899 0.7816361785 0.8299123049
	0.8673887849 0.7822030187 0.8304625750
	0.8678327799 0.7827697992 0.8310130239
	0.8682768941 0.7833365202 0.8315632939
	0.8687208891 0.7839033008 0.8321136236
	0.8691648841 0.7844700813 0.8326638937
	0.8696088791 0.7850369215 0.8332142234
	0.8700435758 0.7855976820 0.8337548971
	0.8704770207 0.7861577868 0.8342946172
	0.8709102869 0.7867177725 0.8348342776
	0.8713436127 0.7872778773 0.8353739977
	0.8717769980 0.7878379226 0.8359137177
	0.8722103238 0.7883980274 0.8364533782
	0.8726437092 0.7889580131 0.8369930983
	0.8730763793 0.7895172834 0.8375316858
	0.8735055923 0.7900726795 0.8380653262
	0.8739346862 0.7906280756 0.8385987878
	0.8743638992 0.7911834717 0.8391324282
	0.8747929931 0.7917389274 0.8396660089
	0.8752222061 0.7922942042 0.8401995897
	0.8756513000 0.7928496003 0.8407331705
	0.8760805130 0.7934049964 0.8412668109
	0.8765051961 0.7939593196 0.8417996168
	0.8769198060 0.7945113182 0.8423308134
	0.8773342967 0.7950633168 0.8428620100
	0.8777489066 0.7956153154 0.8433932066
	0.8781633973 0.7961671948 0.8439245224
	0.8785778880 0.7967191935 0.8444557190
	0.8789924979 0.7972711921 0.8449869156
	0.8794069886 0.7978231907 0.8455181122
	0.8798193932 0.7983725071 0.8460463881
	0.8802276850 0.7989166975 0.8465698957
	0.8806359768 0.7994610071 0.8470934033
	0.8810443282 0.8000053167 0.8476169109
	0.8814526200 0.8005495071 0.8481404185
	0.8818609118 0.8010938168 0.8486639261
	0.8822692037 0.8016381264 0.8491873741
	0.8826774955 0.8021823764 0.8497108817
	0.8830862045 0.8027231097 0.8502314091
	0.8834958076 0.8032547235 0.8507447243
	0.8839054704 0.8037862182 0.8512579799
	0.8843150735 0.8043177724 0.8517714143
	0.8847246766 0.8048493266 0.8522847295
	0.8851343989 0.8053808808 0.8527981043
	0.8855440021 0.8059123755 0.8533114195
	0.8859536052 0.8064439893 0.8538246751
	0.8863626719 0.8069751859 0.8543373942
	0.8867633939 0.8075023293 0.8548439145
	0.8871641159 0.8080292940 0.8553503752
	0.8875647783 0.8085563779 0.8558567762
	0.8879655004 0.8090834022 0.8563632965
	0.8883662820 0.8096104860 0.8568698168
	0.8887670040 0.8101376295 0.8573762774
	0.8891677260 0.8106645942 0.8578827977
	0.8895683885 0.8111916780 0.8583891988
	0.8899617195 0.8117120862 0.8588874936
	0.8903526068 0.8122305274 0.8593834043
	0.8907433748 0.8127487898 0.8598793149
	0.8911342025 0.8132671118 0.8603752255
	0.8915249705 0.8137853742 0.8608711958
	0.8919157982 0.8143036962 0.8613671064
	0.8923066854 0.8148220778 0.8618630171
	0.8926975131 0.8153403997 0.8623589277
	0.8930876851 0.8158568144 0.8628520966
	0.8934766054 0.8163688183 0.8633397818
	0.8938655853 0.8168808818 0.8638275266
	0.8942545056 0.8173928857 0.8643152118
	0.8946434259 0.8179048896 0.8648028970
	0.8950322866 0.8184170127 0.8652905822
	0.8954212070 0.8189290166 0.8657783270
	0.8958101869 0.8194410801 0.8662660122
	0.8961991072 0.8199530840 0.8667536974
	0.8965854049 0.8204619288 0.8672325015
