release/datafiles/colormanagement/luts/film_response/fujifilm_f-125.spi1d
Version 1
From 0.0 1.0
Length 1024
Components 3
{
	0.0000000000 0.0000000000 0.0000000000
	0.0174498409 0.0158984791 0.0114764702
	0.0361074992 0.0300892591 0.0227251798
	0.0508534499 0.0413388014 0.0331778601
	0.0630743131 0.0511820987 0.0424059182
	0.0737055317 0.0595689416 0.0507076010
	0.0831899792 0.0670762509 0.0583669208
	0.0918336809 0.0739420429 0.0653621703
	0.0999075696 0.0803586915 0.0719582215
	0.1073999032 0.0863586813 0.0781143606
	0.1143994033 0.0919513777 0.0840181410
	0.1210075021 0.0972131789 0.0896857306
	0.1272652000 0.1023328975 0.0950955227
	0.1332022995 0.1073141024 0.1002841964
	0.1389860064 0.1120809987 0.1052708998
	0.1446685940 0.1166312024 0.1100749969
	0.1502207965 0.1210201979 0.1147160009
	0.1556082070 0.1252893060 0.1191812009
	0.1608344018 0.1294762045 0.1235382035
	0.1659597009 0.1336127967 0.1277814955
	0.1709610969 0.1376406997 0.1319573969
	0.1758396029 0.1415354013 0.1360505968
	0.1805783063 0.1453579962 0.1400354058
	0.1851565987 0.1491020024 0.1439131051
	0.1896200031 0.1527583003 0.1477226019
	0.1940072030 0.1563414037 0.1514364034
	0.1983578950 0.1599265933 0.1550768018
	0.2026146054 0.1634611934 0.1586581022
	0.2068161964 0.1669549942 0.1621633023
	0.2109510005 0.1704287976 0.1656109989
	0.2149749994 0.1738846004 0.1689939946
	0.2188791931 0.1773294955 0.1723017991
	0.2226788998 0.1807734072 0.1755644977
	0.2264375985 0.1841789037 0.1787340939
	0.2301400006 0.1875509024 0.1818515062
	0.2337515056 0.1908915937 0.1848967969
	0.2373262048 0.1941868067 0.1878945976
	0.2408698052 0.1974609047 0.1908354014
	0.2443857044 0.2007011026 0.1937474012
	0.2478293926 0.2038740963 0.1966456026
	0.2511906028 0.2069949955 0.1995196939
	0.2545030117 0.2100716978 0.2023606002
	0.2577551007 0.2130948007 0.2052040994
	0.2609705925 0.2161156982 0.2080169022
	0.2641761005 0.2191050053 0.2107931972
	0.2673386037 0.2220419943 0.2135623991
	0.2704797983 0.2249206007 0.2162752002
	0.2735692859 0.2277640998 0.2189542055
	0.2766304910 0.2305577993 0.2216016054
	0.2796724141 0.2333119065 0.2241947949
	0.2826831937 0.2360485047 0.2267569005
	0.2856605947 0.2387613952 0.2292927057
	0.2885996997 0.2414368987 0.2317842990
	0.2914834917 0.2441027015 0.2342378944
	0.2943134904 0.2467696965 0.2366532981
	0.2971065044 0.2494162023 0.2390290052
	0.2998841107 0.2520292997 0.2413756996
	0.3026126027 0.2546142042 0.2437071949
	0.3053067923 0.2571905851 0.2460273951
	0.3079755008 0.2597542107 0.2483306974
	0.3106071949 0.2622892857 0.2506220937
	0.3132098019 0.2647835910 0.2528899908
	0.3157896101 0.2672505081 0.2551301122
	0.3183388114 0.2697114050 0.2573640943
	0.3208617866 0.2721551955 0.2595869899
	0.3233729005 0.2745685875 0.2617990971
	0.3258588910 0.2769567966 0.2639977038
	0.3283306956 0.2793405056 0.2661921084
	0.3308002055 0.2817173004 0.2683886886
	0.3332616091 0.2840746939 0.2705698907
	0.3356887102 0.2864069939 0.2727307081
	0.3380911052 0.2887319922 0.2748725116
	0.3404774070 0.2910597026 0.2769970894
	0.3428531885 0.2933830023 0.2791089118
	0.3452278078 0.2956911922 0.2812050879
	0.3475916088 0.2979753911 0.2832851112
	0.3499327898 0.3002283871 0.2853564918
	0.3522517085 0.3024463058 0.2874124944
	0.3545554876 0.3046588004 0.2894454896
	0.3568528891 0.3068628013 0.2914513052
	0.3591203094 0.3090505004 0.2934390903
	0.3613556027 0.3112153113 0.2954114974
	0.3635644913 0.3133526146 0.2973645031
	0.3657538891 0.3154605031 0.2992906868
	0.3679293990 0.3175630867 0.3012037873
	0.3700731993 0.3196572065 0.3031010032
	0.3722012937 0.3217284083 0.3049888909
	0.3743169010 0.3237737119 0.3068724871
	0.3764213026 0.3257966936 0.3087452054
	0.3785130084 0.3278082013 0.3106024861
	0.3805955052 0.3298071027 0.3124460876
	0.3826780915 0.3317958117 0.3142769933
	0.3847546875 0.3337770998 0.3160952926
	0.3867942095 0.3357304037 0.3179017007
	0.3888104856 0.3376702964 0.3196955025
	0.3908145130 0.3396002054 0.3214753866
	0.3928089142 0.3415268064 0.3232490122
	0.3947995007 0.3434461057 0.3250178993
	0.3967804909 0.3453572989 0.3267830908
	0.3987523913 0.3472534120 0.3285475075
	0.4007174075 0.3491292894 0.3303103149
	0.4026708007 0.3509947956 0.3320707083
	0.4046143889 0.3528488874 0.3338232934
	0.4065484107 0.3546791077 0.3355642855
	0.4084819853 0.3565005064 0.3372963965
	0.4104149938 0.3583168089 0.3390068114
	0.4123412967 0.3601278961 0.3407028019
	0.4142560065 0.3619349003 0.3423874974
	0.4161522090 0.3637281060 0.3440541029
	0.4180339873 0.3655182123 0.3457126915
	0.4199067950 0.3673050106 0.3473584950
	0.4217523932 0.3690750003 0.3489893973
	0.4235874116 0.3708429039 0.3506138027
	0.4254117906 0.3726145029 0.3522236049
	0.4272232056 0.3743841052 0.3538290858
	0.4290306866 0.3761518002 0.3554284871
	0.4308294058 0.3779003918 0.3570241034
	0.4326210022 0.3796432018 0.3586181998
	0.4344018102 0.3813720942 0.3602060080
	0.4361707866 0.3830938041 0.3617906868
	0.4379333854 0.3848012090 0.3633658886
	0.4396809936 0.3864955008 0.3649328053
	0.4414246082 0.3881793916 0.3664895892
	0.4431430995 0.3898509145 0.3680340052
	0.4448564947 0.3915182054 0.3695713878
	0.4465528131 0.3931697011 0.3710972071
	0.4482432008 0.3948189020 0.3726201952
	0.4499239028 0.3964514136 0.3741200864
	0.4515936971 0.3980818987 0.3756181896
	0.4532519877 0.3997015953 0.3771077991
	0.4548968971 0.4013178945 0.3785969913
	0.4565317035 0.4029234946 0.3800840974
	0.4581527114 0.4045226872 0.3815703094
	0.4597654939 0.4061067104 0.3830527067
	0.4613632858 0.4076885879 0.3845353127
	0.4629530907 0.4092662036 0.3860189021
	0.4645408094 0.4108397961 0.3874995112
	0.4661273062 0.4124050140 0.3889681995
	0.4677076936 0.4139649868 0.3904353082
	0.4692842960 0.4155119956 0.3918946981
	0.4708591998 0.4170548022 0.3933512866
	0.4724324942 0.4185824096 0.3947859108
	0.4739956856 0.4201084077 0.3962202072
	0.4755468965 0.4216217101 0.3976345956
	0.4770910144 0.4231351018 0.3990488946
	0.4786213040 0.4246394038 0.4004501104
	0.4801476002 0.4261435866 0.4018495977
	0.4816561043 0.4276433885 0.4032416940
	0.4831644893 0.4291422963 0.4046311080
	0.4846526980 0.4306376874 0.4060145020
	0.4861406982 0.4321312904 0.4073927999
	0.4876179993 0.4336220026 0.4087674022
	0.4890919924 0.4351086915 0.4101338089
	0.4905653000 0.4365926087 0.4114997089
	0.4920378029 0.4380624890 0.4128586948
	0.4935061932 0.4395323992 0.4142177105
	0.4949601889 0.4409978986 0.4155749083
	0.4964140952 0.4424628019 0.4169315994
	0.4978365004 0.4439246953 0.4182890952
	0.4992552996 0.4453840852 0.4196475148
	0.5006620884 0.4468388855 0.4210050106
	0.5020588040 0.4482730925 0.4223509133
	0.5034533739 0.4497072101 0.4236967862
	0.5048360825 0.4511240125 0.4250375032
	0.5062186718 0.4525361061 0.4263758063
	0.5075957179 0.4539420903 0.4277085066
	0.5089703798 0.4553368986 0.4290247858
	0.5103421211 0.4567317963 0.4303410053
	0.5117046833 0.4581159055 0.4316442013
	0.5130673051 0.4594987035 0.4329437912
	0.5144175887 0.4608711898 0.4342381954
	0.5157638192 0.4622273147 0.4355193973
	0.5171049237 0.4635834098 0.4368005097
	0.5184270144 0.4649255872 0.4380722940
	0.5197492242 0.4662652016 0.4393407106
	0.5210537910 0.4676026106 0.4406091869
	0.5223482847 0.4689337909 0.4418779016
	0.5236423016 0.4702650905 0.4431464970
	0.5249115229 0.4715861082 0.4444108009
	0.5261808038 0.4729016125 0.4456712902
	0.5274490118 0.4742170870 0.4469316900
	0.5287154913 0.4755303860 0.4481886029
	0.5299819708 0.4768437147 0.4494448900
	0.5312492251 0.4781504869 0.4506979883
	0.5325167775 0.4794408083 0.4519374073
	0.5337843895 0.4807311893 0.4531767964
	0.5350342989 0.4820165038 0.4544104934
	0.5362828970 0.4832974970 0.4556373060
	0.5375289917 0.4845784903 0.4568639994
	0.5387613177 0.4858368039 0.4580819011
	0.5399935842 0.4870882928 0.4592955112
	0.5412209034 0.4883398116 0.4605090916
	0.5424383879 0.4895803928 0.4617215991
	0.5436558723 0.4908204079 0.4629341066
	0.5448678136 0.4920594990 0.4641464949
	0.5460734963 0.4932895899 0.4653517008
	0.5472792983 0.4945197105 0.4665569961
	0.5484790802 0.4957481027 0.4677614868
	0.5496746898 0.4969693124 0.4689593911
	0.5508701801 0.4981904924 0.4701572061
	0.5520610809 0.4994137883 0.4713543952
	0.5532492995 0.5006437898 0.4725480974
	0.5544373989 0.5018737912 0.4737417102
	0.5556218028 0.5030999184 0.4749346972
	0.5568041205 0.5043138862 0.4761235118
	0.5579863191 0.5055277944 0.4773122966
	0.5591588020 0.5067374706 0.4785006046
	0.5603247285 0.5079305172 0.4796842933
	0.5614907146 0.5091236234 0.4808681011
	0.5626431108 0.5103173256 0.4820516109
	0.5637829900 0.5115153193 0.4832226932
	0.5649229884 0.5127133131 0.4843936861
	0.5660511851 0.5139113069 0.4855647981
	0.5671615005 0.5151088834 0.4867219925
	0.5682718158 0.5163065195 0.4878776968
	0.5693790913 0.5175040960 0.4890333116
	0.5704758167 0.5186815858 0.4901837111
	0.5715726018 0.5198547244 0.4913321137
	0.5726693273 0.5210276842 0.4924804866
	0.5737720132 0.5221964717 0.4936192930
	0.5748748183 0.5233623981 0.4947485924
	0.5759775043 0.5245283246 0.4958778918
	0.5770760775 0.5256924033 0.4970034957
	0.5781732202 0.5268526077 0.4981164932
	0.5792703032 0.5280128121 0.4992294014
	0.5803601146 0.5291728973 0.5003424287
	0.5814397931 0.5303236246 0.5014445186
	0.5825194120 0.5314744115 0.5025454760
	0.5835987926 0.5326251984 0.5036464930
	0.5846728086 0.5337677002 0.5047429800
	0.5857468843 0.5349056125 0.5058357120
	0.5868209004 0.5360434055 0.5069283843
	0.5878757238 0.5371788144 0.5080201030
	0.5889192820 0.5383052826 0.5091047883
	0.5899627805 0.5394318104 0.5101894736
	0.5910035968 0.5405583978 0.5112742186
	0.5920301080 0.5416883826 0.5123528838
	0.5930566788 0.5428196192 0.5134283900
	0.5940833092 0.5439507961 0.5145038962
	0.5950983167 0.5450789928 0.5155786872
	0.5961067080 0.5461968184 0.5166484118
	0.5971152186 0.5473145843 0.5177180767
	0.5981239080 0.5484325290 0.5187878013
	0.5991356969 0.5495414734 0.5198484063
	0.6001476049 0.5506458879 0.5209016204
	0.6011593938 0.5517503023 0.5219547153
	0.6021643281 0.5528541207 0.5230079293
	0.6031603217 0.5539363027 0.5240486860
	0.6041563749 0.5550184250 0.5250884295
	0.6051524282 0.5561006069 0.5261281729
	0.6061363816 0.5571805835 0.5271657705
	0.6071165204 0.5582563877 0.5281966925
	0.6080965996 0.5593320727 0.5292276144
	0.6090764999 0.5604078770 0.5302584767
	0.6100435257 0.5614696145 0.5312880278
	0.6110104918 0.5625219941 0.5323162079
	0.6119775176 0.5635743737 0.5333443880
	0.6129397154 0.5646268129 0.5343726277
	0.6138859987 0.5656726956 0.5353969932
	0.6148322821 0.5667169094 0.5364199877
	0.6157786250 0.5677611828 0.5374429226
	0.6167212725 0.5688053966 0.5384659171
	0.6176583171 0.5698326230 0.5394816995
	0.6185953021 0.5708590150 0.5404965281
	0.6195322871 0.5718854070 0.5415111780
	0.6204634905 0.5729113817 0.5425258875
	0.6213884950 0.5739294291 0.5435299873
	0.6223133802 0.5749472976 0.5445337296
	0.6232383251 0.5759652853 0.5455372930
	0.6241629124 0.5769823194 0.5465409160
	0.6250872016 0.5779896975 0.5475350022
	0.6260113716 0.5789970756 0.5485289097
	0.6269357204 0.5800045133 0.5495228171
	0.6278557777 0.5810111165 0.5505167842
	0.6287717223 0.5820034742 0.5515152216
	0.6296874881 0.5829960108 0.5525137782
	0.6306033731 0.5839884281 0.5535123944
	0.6315113902 0.5849809051 0.5545110106
	0.6324080229 0.5859525204 0.5554962158
	0.6333045959 0.5869235992 0.5564795732
	0.6342011094 0.5878946185 0.5574629903
	0.6350932121 0.5888655782 0.5584464073
	0.6359726787 0.5898336172 0.5594201088
	0.6368522048 0.5908008814 0.5603901744
	0.6377316713 0.5917682052 0.5613601804
	0.6386104822 0.5927355289 0.5623303056
	0.6394773126 0.5936999917 0.5632957816
	0.6403442025 0.5946627259 0.5642570257
	0.6412109733 0.5956255198 0.5652183294
	0.6420779228 0.5965881944 0.5661795735
	0.6429408789 0.5975462794 0.5671393871
	0.6438030005 0.5984956026 0.5680949092
	0.6446650028 0.5994448066 0.5690503120
	0.6455270052 0.6003941298 0.5700057745
	0.6463868022 0.6013432741 0.5709612966
	0.6472437978 0.6022868752 0.5719025135
	0.6481007934 0.6032304764 0.5728424788
	0.6489577889 0.6041740775 0.5737825036
	0.6498141289 0.6051176786 0.5747225285
	0.6506562233 0.6060569286 0.5756577849
	0.6514983177 0.6069930792 0.5765889287
	0.6523404717 0.6079294086 0.5775198936
	0.6531826258 0.6088656783 0.5784509182
	0.6540184021 0.6098006964 0.5793818235
	0.6548498273 0.6107280850 0.5803099871
	0.6556811929 0.6116555929 0.5812382102
	0.6565124989 0.6125831008 0.5821664929
	0.6573433876 0.6135106087 0.5830947161
	0.6581645012 0.6144319773 0.5840185881
	0.6589856148 0.6153494716 0.5849387050
	0.6598067284 0.6162670255 0.5858588219
	0.6606277823 0.6171844006 0.5867788792
	0.6614431739 0.6181018949 0.5876989961
	0.6622517705 0.6190115213 0.5886114240
	0.6630604267 0.6199212074 0.5895230770
	0.6638690233 0.6208307743 0.5904347897
	0.6646776199 0.6217405200 0.5913465023
	0.6654757261 0.6226496100 0.5922542214
	0.6662709117 0.6235576868 0.5931503177
	0.6670660973 0.6244658232 0.5940464139
	0.6678612828 0.6253738999 0.5949425101
	0.6686561704 0.6262819767 0.5958386064
	0.6694442034 0.6271823049 0.5967332721
	0.6702321768 0.6280776262 0.5976269245
	0.6710202098 0.6289728880 0.5985203981
	0.6718081832 0.6298682094 0.5994138718
	0.6725955009 0.6307634711 0.6003074050
	0.6733806133 0.6316475272 0.6011890769
	0.6741657257 0.6325287223 0.6020658016
	0.6749507189 0.6334097981 0.6029425859
	0.6757357717 0.6342908740 0.6038193703
	0.6765164137 0.6351721287 0.6046960950
	0.6772890091 0.6360508800 0.6055694818
	0.6780614853 0.6369295716 0.6064420938
	0.6788340807 0.6378083229 0.6073147058
	0.6796066165 0.6386870146 0.6081873775
	0.6803761721 0.6395655870 0.6090599895
	0.6811413169 0.6404411793 0.6099300981
	0.6819062829 0.6413165927 0.6107999086
	0.6826714277 0.6421920061 0.6116697192
	0.6834365129 0.6430674195 0.6125395298
	0.6841984987 0.6439427733 0.6134092808
	0.6849551797 0.6448048949 0.6142743230
	0.6857119203 0.6456660032 0.6151384115
	0.6864687204 0.6465271115 0.6160026193
	0.6872254014 0.6473882198 0.6168667078
	0.6879792213 0.6482493281 0.6177309155
	0.6887251735 0.6491037011 0.6185951233
	0.6894711256 0.6499567032 0.6194592714
	0.6902170777 0.6508097053 0.6203234792
	0.6909629703 0.6516628265 0.6211876869
	0.6917080283 0.6525158286 0.6220518947
	0.6924436092 0.6533647776 0.6229112148
	0.6931793094 0.6542117000 0.6237667799
	0.6939148903 0.6550586224 0.6246222854
	0.6946504712 0.6559054852 0.6254779100
	0.6953861117 0.6567524076 0.6263334155
	0.6961168051 0.6575965285 0.6271870732
	0.6968464851 0.6584361792 0.6280364990
	0.6975762844 0.6592760086 0.6288859248
	0.6983060241 0.6601157188 0.6297354102
	0.6990358233 0.6609554887 0.6305847764
	0.6997650862 0.6617947817 0.6314343214
	0.7004939914 0.6626260877 0.6322728992
	0.7012230158 0.6634575129 0.6331112981
	0.7019519210 0.6642888784 0.6339496970
	0.7026808858 0.6651203036 0.6347880960
	0.7034088969 0.6659517288 0.6356264949
	0.7041271925 0.6667770743 0.6364635825
	0.7048454881 0.6675990224 0.6372997165
	0.7055637836 0.6684209108 0.6381359100
	0.7062821984 0.6692429185 0.6389719844
	0.7070004940 0.6700648069 0.6398081183
	0.7077152729 0.6708840132 0.6406437755
	0.7084274888 0.6716861129 0.6414728165
	0.7091398239 0.6724882722 0.6423017979
	0.7098520994 0.6732904911 0.6431307793
	0.7105643749 0.6740925908 0.6439598203
	0.7112765908 0.6748948097 0.6447888017
	0.7119773030 0.6756910086 0.6456167102
	0.7126780152 0.6764826775 0.6464434862
	0.7133787870 0.6772742867 0.6472703218
	0.7140794992 0.6780658960 0.6480970979
	0.7147802711 0.6788576245 0.6489239931
	0.7154778838 0.6796491742 0.6497508287
	0.7161695957 0.6804391742 0.6505677104
	0.7168614268 0.6812291145 0.6513826251
	0.7175530791 0.6820189953 0.6521974802
	0.7182449102 0.6828088164 0.6530123949
	0.7189366221 0.6835986972 0.6538271904
	0.7196236253 0.6843873262 0.6546415091
	0.7203075290 0.6851689219 0.6554480195
	0.7209913731 0.6859505177 0.6562544703
	0.7216752768 0.6867321730 0.6570609808
	0.7223592997 0.6875138283 0.6578674912
	0.7230432034 0.6882954240 0.6586740017
	0.7237169147 0.6890760064 0.6594784856
	0.7243875265 0.6898545027 0.6602771878
	0.7250581980 0.6906331182 0.6610758901
	0.7257289290 0.6914116144 0.6618745923
	0.7263996005 0.6921901107 0.6626732945
	0.7270702124 0.6929686069 0.6634719968
	0.7277340293 0.6937432885 0.6642683744
	0.7283964753 0.6945124269 0.6650602221
	0.7290591002 0.6952815056 0.6658521295
	0.7297216058 0.6960507035 0.6666439176
	0.7303841710 0.6968197823 0.6674357057
	0.7310466766 0.6975889206 0.6682276130
	0.7317048907 0.6983528733 0.6690183282
	0.7323622108 0.6991090178 0.6698067784
	0.7330195904 0.6998651028 0.6705952883
	0.7336769104 0.7006211877 0.6713837981
	0.7343342900 0.7013772726 0.6721723080
	0.7349916101 0.7021334171 0.6729608178
	0.7356424928 0.7028859258 0.6737465262
	0.7362912297 0.7036299109 0.6745222211
	0.7369397879 0.7043738961 0.6752979755
	0.7375885248 0.7051178217 0.6760736704
	0.7382372022 0.7058618069 0.6768494844
	0.7388858795 0.7066057920 0.6776251793
	0.7395280004 0.7073493004 0.6784006953
	0.7401649952 0.7080891132 0.6791678071
	0.7408019900 0.7088289857 0.6799349785
	0.7414389849 0.7095689178 0.6807020903
	0.7420759201 0.7103086710 0.6814693213
	0.7427129149 0.7110486031 0.6822363734
	0.7433465123 0.7117884159 0.6830036044
	0.7439708710 0.7125198841 0.6837611794
	0.7445952892 0.7132496834 0.6845157146
	0.7452197075 0.7139794230 0.6852701902
	0.7458441854 0.7147092223 0.6860247254
	0.7464686036 0.7154390216 0.6867792010
	0.7470930219 0.7161687016 0.6875336766
	0.7477155924 0.7168959975 0.6882864833
	0.7483379841 0.7176201940 0.6890364885
	0.7489603758 0.7183443904 0.6897866130
	0.7495828271 0.7190685868 0.6905366182
	0.7502052188 0.7197927833 0.6912866831
	0.7508276105 0.7205169797 0.6920368075
	0.7514470816 0.7212411761 0.6927868128
	0.7520624995 0.7219575047 0.6935216784
	0.7526779771 0.7226737142 0.6942551136
	0.7532935143 0.7233898044 0.6949886084
	0.7539088726 0.7241060138 0.6957219839
	0.7545244098 0.7248222232 0.6964554191
	0.7551398873 0.7255383730 0.6971887946
	0.7557541132 0.7262521982 0.6979203224
	0.7563681006 0.7269626856 0.6986479163
	0.7569820881 0.7276732922 0.6993755102
	0.7575961947 0.7283838987 0.7001032233
	0.7582101822 0.7290943861 0.7008308172
	0.7588242292 0.7298049927 0.7015584707
	0.7594367266 0.7305154800 0.7022861242
	0.7600427866 0.7312164903 0.7030051947
	0.7606487870 0.7319142818 0.7037203908
	0.7612549067 0.7326120138 0.7044355273
	0.7618610263 0.7333098054 0.7051507235
	0.7624670267 0.7340075970 0.7058659196
	0.7630730867 0.7347053885 0.7065809965
	0.7636762857 0.7354031801 0.7072961926
	0.7642757297 0.7360877991 0.7080059052
	0.7648751140 0.7367721796 0.7087152004
	0.7654743791 0.7374566197 0.7094244957
	0.7660738230 0.7381410003 0.7101337910
	0.7666732073 0.7388253808 0.7108430266
	0.7672724724 0.7395098805 0.7115523219
	0.7678692937 0.7401931286 0.7122616172
	0.7684640288 0.7408679724 0.7129713297
	0.7690587044 0.7415428758 0.7136811018
	0.7696534991 0.7422178984 0.7143908143
	0.7702481747 0.7428928018 0.7151005268
	0.7708429098 0.7435677052 0.7158101797
	0.7714375854 0.7442426085 0.7165200114
	0.7720239162 0.7449169755 0.7172291875
	0.7726042271 0.7455884814 0.7179328203
	0.7731844783 0.7462599874 0.7186363935
	0.7737647891 0.7469314933 0.7193400264
	0.7743450999 0.7476029992 0.7200435996
	0.7749254107 0.7482745051 0.7207471728
	0.7755057216 0.7489460111 0.7214508057
	0.7760874033 0.7496169209 0.7221543193
	0.7766703963 0.7502800822 0.7228549123
	0.7772535086 0.7509431839 0.7235553861
	0.7778365016 0.7516064048 0.7242559195
	0.7784196138 0.7522696257 0.7249565125
	0.7790026069 0.7529327869 0.7256569862
	0.7795857191 0.7535960078 0.7263575196
	0.7801663876 0.7542592287 0.7270581126
	0.7807425261 0.7549132109 0.7277507782
	0.7813186049 0.7555662990 0.7284420729
	0.7818946838 0.7562193871 0.7291333079
	0.7824708223 0.7568724751 0.7298246026
	0.7830467820 0.7575256228 0.7305157781
	0.7836229205 0.7581787109 0.7312070727
	0.7841988206 0.7588317990 0.7318983078
	0.7847698927 0.7594774961 0.7325916290
	0.7853410840 0.7601187229 0.7332865000
	0.7859122157 0.7607598901 0.7339814901
	0.7864832878 0.7614011168 0.7346764207
	0.7870544791 0.7620422840 0.7353712916
	0.7876256108 0.7626835108 0.7360662818
	0.7881966829 0.7633246779 0.7367612123
	0.7887653708 0.7639619708 0.7374557853
	0.7893326879 0.7645862103 0.7381486297
	0.7899000049 0.7652103901 0.7388414741
	0.7904673219 0.7658346295 0.7395343781
	0.7910345793 0.7664586902 0.7402272224
	0.7916018963 0.7670829296 0.7409201264
	0.7921692133 0.7677071095 0.7416129708
	0.7927350998 0.7683312893 0.7423058748
	0.7932925820 0.7689499259 0.7429925799
	0.7938501239 0.7695664763 0.7436763048
	0.7944076061 0.7701830268 0.7443599105
	0.7949650884 0.7707995772 0.7450435162
	0.7955226898 0.7714161277 0.7457271814
	0.7960801721 0.7720326185 0.7464107871
	0.7966377139 0.7726492286 0.7470945120
	0.7971891761 0.7732650042 0.7477774024
	0.7977350950 0.7738748193 0.7484462857
	0.7982810736 0.7744845152 0.7491152287
	0.7988271117 0.7750942707 0.7497841120
	0.7993730903 0.7757040262 0.7504529953
	0.7999191284 0.7763137817 0.7511218786
	0.8004651070 0.7769234776 0.7517908216
	0.8010110259 0.7775332928 0.7524597049
	0.8015481234 0.7781410813 0.7531278729
	0.8020827770 0.7787457705 0.7537946105
	0.8026174903 0.7793504000 0.7544614077
	0.8031522036 0.7799550295 0.7551280856
	0.8036869168 0.7805595994 0.7557948232
	0.8042215705 0.7811642885 0.7564616203
	0.8047562242 0.7817689180 0.7571282983
	0.8052908778 0.7823734879 0.7577949762
	0.8058195114 0.7829757929 0.7584580183
	0.8063477278 0.7835758924 0.7591165900
	0.8068758845 0.7841761112 0.7597752810
	0.8074041009 0.7847762704 0.7604339719
	0.8079321980 0.7853764296 0.7610926032
	0.8084604144 0.7859765887 0.7617512941
	0.8089885712 0.7865768075 0.7624099851
	0.8095167875 0.7871769071 0.7630686164
	0.8100429177 0.7877739072 0.7637246847
	0.8105689287 0.7883684039 0.7643780708
	0.8110948801 0.7889629006 0.7650315762
	0.8116210103 0.7895573974 0.7656850815
	0.8121470213 0.7901518941 0.7663385868
	0.8126729727 0.7907463908 0.7669919729
	0.8131991029 0.7913408279 0.7676454782
	0.8137251139 0.7919353247 0.7682989836
	0.8142498136 0.7925245762 0.7689477205
	0.8147743940 0.7931082845 0.7695900202
	0.8152989745 0.7936919928 0.7702323198
	0.8158236146 0.7942757010 0.7708745003
	0.8163480759 0.7948594093 0.7715167999
	0.8168727160 0.7954431772 0.7721590996
	0.8173972964 0.7960268855 0.7728013992
	0.8179218769 0.7966105938 0.7734436989
	0.8184441924 0.7971937060 0.7740848064
	0.8189654946 0.7977755070 0.7747216821
	0.8194869161 0.7983571887 0.7753584981
	0.8200082183 0.7989389896 0.7759953737
	0.8205295205 0.7995206714 0.7766323090
	0.8210508227 0.8001024127 0.7772691846
	0.8215721846 0.8006842136 0.7779061198
	0.8220934868 0.8012658954 0.7785429955
	0.8226118088 0.8018476963 0.7791798711
	0.8231247067 0.8024280071 0.7798110843
	0.8236376047 0.8030081987 0.7804415822
	0.8241505027 0.8035883904 0.7810720801
	0.8246634007 0.8041685820 0.7817025781
	0.8251761794 0.8047488928 0.7823330760
	0.8256890774 0.8053290844 0.7829635143
	0.8262019753 0.8059092760 0.7835940123
	0.8267148733 0.8064895868 0.7842245102
	0.8272213936 0.8070695996 0.7848517895
	0.8277270794 0.8076496124 0.7854750752
	0.8282328844 0.8082295060 0.7860983014
	0.8287385702 0.8088093996 0.7867215872
	0.8292443752 0.8093892932 0.7873448730
	0.8297501802 0.8099691868 0.7879682183
	0.8302559257 0.8105490804 0.7885915041
	0.8307616711 0.8111289740 0.7892147899
	0.8312665224 0.8117089868 0.7898380160
	0.8317692280 0.8122891188 0.7904539704
