release/datafiles/colormanagement/luts/film_response/kodak_kaf-3000.spi1d
Version 1
From 0.0 1.0
Length 1024
Components 1
{
	0.0000000000
	0.0008239537
	0.0017113760
	0.0026572610
	0.0036410000
	0.0046517309
	0.0056753629
	0.0066966042
	0.0077035818
	0.0086956657
	0.0096768690
	0.0106551796
	0.0116374604
	0.0126282601
	0.0136336396
	0.0146547500
	0.0156989004
	0.0167712905
	0.0178667009
	0.0189784598
	0.0201001503
	0.0212287605
	0.0223587994
	0.0234838799
	0.0245989803
	0.0257005394
	0.0267930105
	0.0278819893
	0.0289712399
	0.0300603900
	0.0311466791
	0.0322293788
	0.0333095305
	0.0343901701
	0.0354710110
	0.0365408882
	0.0375862904
	0.0386093296
	0.0396146104
	0.0406112485
	0.0416014791
	0.0425814800
	0.0435459092
	0.0444903001
	0.0454233699
	0.0463445894
	0.0472576804
	0.0481645502
	0.0490692593
	0.0499759391
	0.0508891717
	0.0518166013
	0.0527626611
	0.0537226386
	0.0546919592
	0.0556649007
	0.0566373095
	0.0576051287
	0.0585623085
	0.0595092699
	0.0604476705
	0.0613846295
	0.0623276606
	0.0632801205
	0.0642424524
	0.0652119219
	0.0661871582
	0.0671750307
	0.0681754425
	0.0691855326
	0.0701999068
	0.0712177306
	0.0722424909
	0.0732808188
	0.0743458495
	0.0754341781
	0.0765458792
	0.0776749030
	0.0788224265
	0.0799827874
	0.0811530426
	0.0823262334
	0.0834952369
	0.0846570507
	0.0858169273
	0.0869782567
	0.0881420672
	0.0893090963
	0.0904768184
	0.0916401520
	0.0927933380
	0.0939279124
	0.0950335264
	0.0961028486
	0.0971330479
	0.0981383100
	0.0991264507
	0.1001088023
	0.1010833979
	0.1020457000
	0.1029841006
	0.1038997024
	0.1047933027
	0.1056651995
	0.1065146998
	0.1073456034
	0.1081662029
	0.1089894995
	0.1098269969
	0.1106915995
	0.1115795970
	0.1124866977
	0.1134070009
	0.1143371984
	0.1152724028
	0.1162075028
	0.1171367019
	0.1180611029
	0.1189863980
	0.1199202016
	0.1209200025
	0.1219737977
	0.1230672970
	0.1241782010
	0.1253035069
	0.1264393032
	0.1275773048
	0.1287124008
	0.1298429966
	0.1309712976
	0.1321021020
	0.1332444996
	0.1343923956
	0.1355278045
	0.1366423070
	0.1377331018
	0.1388027072
	0.1398545951
	0.1408876032
	0.1419010013
	0.1428834945
	0.1438401043
	0.1447667032
	0.1456668973
	0.1465339959
	0.1473750025
	0.1481927037
	0.1490017027
	0.1498129964
	0.1506288052
	0.1514475048
	0.1522585005
	0.1530572027
	0.1538338065
	0.1545996070
	0.1553678066
	0.1561364979
	0.1569079012
	0.1576897949
	0.1584908068
	0.1593147069
	0.1601596028
	0.1610313058
	0.1619254947
	0.1628465056
	0.1637898982
	0.1647551060
	0.1657350957
	0.1667309999
	0.1677470058
	0.1687898934
	0.1698749065
	0.1710059941
	0.1721913069
	0.1734060049
	0.1746453941
	0.1758995950
	0.1771610975
	0.1784185022
	0.1796668023
	0.1809030026
	0.1821372062
	0.1833820045
	0.1846434027
	0.1859240979
	0.1872127950
	0.1884990036
	0.1897740960
	0.1910288036
	0.1922529936
	0.1934324950
	0.1945621967
	0.1956468970
	0.1966817975
	0.1976771951
	0.1986268014
	0.1995413005
	0.2004172951
	0.2012622952
	0.2020770013
	0.2028657049
	0.2036325037
	0.2043817043
	0.2051236928
	0.2058676034
	0.2066213936
	0.2074044049
	0.2082141936
	0.2090529948
	0.2099052966
	0.2107656002
	0.2116280943
	0.2124830037
	0.2133235037
	0.2141488940
	0.2149658054
	0.2157903016
	0.2166465074
	0.2175375968
	0.2184633017
	0.2194138020
	0.2203830928
	0.2213633060
	0.2223457992
	0.2233193070
	0.2242776006
	0.2252182066
	0.2261507064
	0.2270810008
	0.2280130982
	0.2289510965
	0.2298972011
	0.2308543026
	0.2318239957
	0.2328100950
	0.2338117063
	0.2348213047
	0.2358337045
	0.2368506938
	0.2378790975
	0.2389242053
	0.2399875969
	0.2410621047
	0.2421357036
	0.2432024926
	0.2442667931
	0.2453292012
	0.2463901937
	0.2474516928
	0.2485162020
	0.2495937049
	0.2506928146
	0.2518276870
	0.2529919147
	0.2541776896
	0.2553750873
	0.2565745115
	0.2577669024
	0.2589448988
	0.2600898147
	0.2612054944
	0.2622891963
	0.2633585930
	0.2644208074
	0.2654806077
	0.2665413916
	0.2676038146
	0.2686690092
	0.2697396874
	0.2708159983
	0.2718920112
	0.2729560137
	0.2739931047
	0.2749989033
	0.2759633064
	0.2768782079
	0.2777278125
	0.2785072923
	0.2792311013
	0.2799170017
	0.2805862129
	0.2812471092
	0.2819086015
	0.2825776935
	0.2832584083
	0.2839589119
	0.2846930027
	0.2854613066
	0.2862626016
	0.2870804965
	0.2879104912
	0.2887445986
	0.2895751894
	0.2903952003
	0.2912051082
	0.2920134962
	0.2928391099
	0.2937021852
	0.2946189046
	0.2955986857
	0.2966246903
	0.2976948917
	0.2987993956
	0.2999471128
	0.3011271954
	0.3023349047
	0.3035596907
	0.3047932982
	0.3060269952
	0.3072519898
	0.3084549904
	0.3096269071
	0.3107633889
	0.3118777871
	0.3129779100
	0.3140724897
	0.3151645064
	0.3162542880
	0.3173392117
	0.3184188902
	0.3194957972
	0.3205688894
	0.3216289878
	0.3226647973
	0.3236807883
	0.3246811926
	0.3256719112
	0.3266536891
	0.3276238143
	0.3285810947
	0.3295294940
	0.3304790854
	0.3314437866
	0.3324182034
	0.3333995938
	0.3343864977
	0.3353833854
	0.3363946080
	0.3374285102
	0.3384769857
	0.3395330906
	0.3405885100
	0.3416405916
	0.3426834047
	0.3437139094
	0.3447251916
	0.3457196951
	0.3466978967
	0.3476671875
	0.3486328125
	0.3495933115
	0.3505493999
	0.3514994979
	0.3524489999
	0.3534050882
	0.3543708026
	0.3553416133
	0.3563007116
	0.3572334945
	0.3581455946
	0.3590348959
	0.3599027991
	0.3607496023
	0.3615792990
	0.3623996973
	0.3632219136
	0.3640663028
	0.3649503887
	0.3658618033
	0.3667995036
	0.3677533865
	0.3687168062
	0.3696813881
	0.3706347942
	0.3715701103
	0.3724884987
	0.3733963072
	0.3743011057
	0.3752076924
	0.3761194050
	0.3770408034
	0.3779734969
	0.3789207041
	0.3798849881
	0.3808659017
	0.3818587959
	0.3828561008
	0.3838579953
	0.3848698139
	0.3859066069
	0.3869642019
	0.3880375028
	0.3891113997
	0.3901838064
	0.3912554085
	0.3923274875
	0.3934000134
	0.3944740891
	0.3955540955
	0.3966433108
	0.3977557123
	0.3989006877
	0.4000787139
	0.4012784064
	0.4024907053
	0.4037069976
	0.4049186110
	0.4061144888
	0.4072830081
	0.4084154963
	0.4095208943
	0.4106051922
	0.4116787910
	0.4127461016
	0.4138118029
	0.4148772061
	0.4159424007
	0.4170075953
	0.4180721939
	0.4191268086
	0.4201577902
	0.4211621881
	0.4221380055
	0.4230895936
	0.4240145087
	0.4249120951
	0.4257782996
	0.4266144037
	0.4274252057
	0.4282115996
	0.4289813936
	0.4297375083
	0.4304881990
	0.4312418997
	0.4320062995
	0.4327985048
	0.4336202145
	0.4344716072
	0.4353393018
	0.4362154007
	0.4370937943
	0.4379679859
	0.4388278127
	0.4396711886
	0.4405008852
	0.4413329065
	0.4421812892
	0.4430595934
	0.4439747036
	0.4449261129
	0.4459050000
	0.4469138086
	0.4479498863
	0.4490180016
	0.4501048923
	0.4512071908
	0.4523200095
	0.4534398019
	0.4545612931
	0.4556761980
	0.4567787051
	0.4578686059
	0.4589490891
	0.4600251913
	0.4611012936
	0.4621792138
	0.4632557929
	0.4643296897
	0.4654009044
	0.4664717913
	0.4675419927
	0.4686031938
	0.4696451128
	0.4706639946
	0.4716722965
	0.4726729095
	0.4736702144
	0.4746587873
	0.4756379128
	0.4766108096
	0.4775831103
	0.4785614014
	0.4795452058
	0.4805310071
	0.4815202951
	0.4825159013
	0.4835259020
	0.4845573902
	0.4856084883
	0.4866689146
	0.4877327979
	0.4888001978
	0.4898718894
	0.4909470081
	0.4920218885
	0.4930953085
	0.4941661954
	0.4952344000
	0.4963006973
	0.4973612130
	0.4984084964
	0.4994311035
	0.5004292727
	0.5014035106
	0.5023515224
	0.5032755733
	0.5041642785
	0.5050222874
	0.5058479905
	0.5066505075
	0.5074304938
	0.5081961155
	0.5089520812
	0.5097069740
	0.5104699135
	0.5112537742
	0.5120664239
	0.5129058957
	0.5137627721
	0.5146341920
	0.5155118704
	0.5163893104
	0.5172569752
	0.5181056857
	0.5189391971
	0.5197678208
	0.5206072927
	0.5214716196
	0.5223724246
	0.5233045220
	0.5242694020
	0.5252612829
	0.5262829065
	0.5273327231
	0.5284060836
	0.5294969082
	0.5305972099
	0.5317053795
	0.5328170061
	0.5339269042
	0.5350281000
	0.5361132026
	0.5371879935
	0.5382577777
	0.5393270850
	0.5403997898
	0.5414752960
	0.5425496101
	0.5436221957
	0.5446935892
	0.5457674861
	0.5468341112
	0.5478798747
	0.5489076972
	0.5499224067
	0.5509316921
	0.5519384742
	0.5529379845
	0.5539290905
	0.5549092293
	0.5558865070
	0.5568640232
	0.5578449965
	0.5588300228
	0.5598173738
	0.5608099103
	0.5618140101
	0.5628398061
	0.5638893247
	0.5649536848
	0.5660216212
	0.5670881271
	0.5681570768
	0.5692278743
	0.5702992082
	0.5713713169
	0.5724447966
	0.5735238791
	0.5746114850
	0.5757126212
	0.5768241882
	0.5779408813
	0.5790569782
	0.5801681280
	0.5812727213
	0.5823650956
	0.5834385157
	0.5844845176
	0.5854976773
	0.5864800811
	0.5874279737
	0.5883439779
	0.5892180204
	0.5900630951
	0.5908904076
	0.5917155147
	0.5925496817
	0.5933985710
	0.5942596197
	0.5951249003
	0.5959877968
	0.5968421102
	0.5976834297
	0.5984950066
	0.5992792249
	0.6000332832
	0.6007766724
	0.6015186906
	0.6022672057
	0.6030321717
	0.6038194895
	0.6046321988
	0.6054781079
	0.6063600779
	0.6072819233
	0.6082324982
	0.6092107296
	0.6102107763
	0.6112337708
	0.6122769713
	0.6133307219
	0.6143916249
	0.6154521704
	0.6165164113
	0.6175839901
	0.6186556220
	0.6197301745
	0.6208109260
	0.6219016910
	0.6230133772
	0.6241537929
	0.6253302097
	0.6265388727
	0.6277642846
	0.6289970875
	0.6302282214
	0.6314477921
	0.6326466203
	0.6338086724
	0.6349387169
	0.6360424757
	0.6371321082
	0.6382141113
	0.6392921209
	0.6403672099
	0.6414381862
	0.6425055265
	0.6435723901
	0.6446369290
	0.6456918120
	0.6467275023
	0.6477332711
	0.6487026811
	0.6496292949
	0.6505001187
	0.6513100863
	0.6520529985
	0.6527563930
	0.6534317136
	0.6540933847
	0.6547484994
	0.6554052234
	0.6560714245
	0.6567540765
	0.6574617028
	0.6582099795
	0.6589958072
	0.6598116755
	0.6606448889
	0.6614922881
	0.6623446941
	0.6631942987
	0.6640357971
	0.6648727059
	0.6657136083
	0.6665757895
	0.6674811244
	0.6684336066
	0.6694403887
	0.6704826951
	0.6715667248
	0.6726835966
	0.6738361716
	0.6750171781
	0.6762194037
	0.6774324775
	0.6786479950
	0.6798574924
	0.6810536981
	0.6822184920
	0.6833531857
	0.6844527125
	0.6855350137
	0.6866068244
	0.6876752973
	0.6887421012
	0.6898087859
	0.6908742785
	0.6919373870
	0.6929990053
	0.6940523982
	0.6950901151
	0.6961060762
	0.6971120238
	0.6981120706
	0.6991108060
	0.7001062036
	0.7010952830
	0.7020772099
	0.7030572295
	0.7040420771
	0.7050337195
	0.7060307860
	0.7070298195
	0.7080342174
	0.7090519071
	0.7100886703
	0.7111470103
	0.7122195959
	0.7132937908
	0.7143607140
	0.7154163122
	0.7164533138
	0.7174721956
	0.7184677124
	0.7194433808
	0.7204009295
	0.7213470936
	0.7222880721
	0.7232226133
	0.7241495252
	0.7250617146
	0.7259560227
	0.7268221974
	0.7276610136
	0.7284513116
	0.7291994095
	0.7299144268
	0.7306104898
	0.7312946916
	0.7319728136
	0.7326508164
	0.7333354950
	0.7340328097
	0.7347601056
	0.7355272174
	0.7363470793
	0.7372058034
	0.7380936742
	0.7390053868
	0.7399355173
	0.7408784032
	0.7418274879
	0.7427803278
	0.7437379956
	0.7447054982
	0.7456836104
	0.7466775775
	0.7476887703
	0.7487217188
	0.7497777939
	0.7508600950
	0.7519810796
	0.7531362176
	0.7543209195
	0.7555187941
	0.7567229867
	0.7579241991
	0.7591124177
	0.7602767944
	0.7614082098
	0.7625083923
	0.7635900974
	0.7646592855
	0.7657235861
	0.7667865157
	0.7678502202
	0.7689155936
	0.7699834704
	0.7710577846
	0.7721307278
	0.7731891870
	0.7742263079
	0.7752460241
	0.7762551904
	0.7772603035
	0.7782598138
	0.7792512178
	0.7802270055
	0.7811887860
	0.7821359038
	0.7830716968
	0.7839983106
	0.7849181890
	0.7858353853
	0.7867543101
	0.7876856923
	0.7886385918
	0.7896096706
	0.7905899286
	0.7915676236
	0.7925336957
	0.7934818268
	0.7944025993
	0.7952839136
	0.7961304784
	0.7969564199
	0.7977765799
	0.7986037731
	0.7994433045
	0.8003032207
	0.8011813164
	0.8020802736
	0.8030009270
	0.8039441705
	0.8048942089
	0.8058394194
	0.8067725897
	0.8077021837
	0.8086333871
	0.8095719814
	0.8105241060
	0.8114864826
	0.8124600053
	0.8134480119
	0.8144549131
	0.8154819012
	0.8165273070
	0.8175873160
	0.8186547160
	0.8197259903
	0.8207991123
	0.8218631744
	0.8229097724
	0.8239313960
	0.8249354959
	0.8259270191
	0.8269088864
	0.8278800249
	0.8288375139
	0.8297861814
	0.8307325840
	0.8316870928
	0.8326554894
	0.8336303234
	0.8346098065
	0.8355954289
	0.8365911245
	0.8376066089
	0.8386394978
	0.8396871090
	0.8407385945
	0.8417950273
	0.8428555131
	0.8439220190
	0.8449907899
	0.8460597992
	0.8471270800
	0.8481943011
	0.8492627144
	0.8503319025
	0.8513954878
	0.8524438739
	0.8534613848
	0.8544461131
	0.8553860188
	0.8562803864
	0.8571103811
	0.8578768969
	0.8585957885
	0.8592829704
	0.8599522114
	0.8606104255
	0.8612663150
	0.8619267941
	0.8625972271
	0.8632894158
	0.8640218973
	0.8647894859
	0.8655846119
	0.8664000034
	0.8672314882
	0.8680710793
	0.8689119220
	0.8697466254
	0.8705791235
	0.8714179993
	0.8722798824
	0.8731784225
	0.8741275072
	0.8751282096
	0.8761690259
	0.8772516847
	0.8783689141
	0.8795279264
	0.8807160258
	0.8819314837
	0.8831598163
	0.8843933940
	0.8856235147
	0.8868407011
	0.8880308867
	0.8891866803
	0.8903077245
	0.8914114833
	0.8925023079
	0.8935890198
	0.8946737051
	0.8957551122
	0.8968315125
	0.8979024887
	0.8989741206
	0.9000406861
	0.9010896087
	0.9021161199
	0.9031258225
	0.9041231871
	0.9051136971
	0.9060966969
	0.9070687890
	0.9080281854
	0.9089828134
	0.9099376798
	0.9109022021
	0.9118763208
	0.9128565788
	0.9138407707
	0.9148361087
	0.9158486128
	0.9168851972
	0.9179406762
	0.9190021753
	0.9200580716
	0.9210987091
	0.9221140742
	0.9230914712
	0.9240095019
	0.9248781800
	0.9257149100
	0.9265410900
	0.9273703098
	0.9282112718
	0.9290707111
	0.9299505949
	0.9308521152
	0.9317784905
	0.9327259064
	0.9336796999
	0.9346215725
	0.9355351925
	0.9364286065
	0.9372990131
	0.9381507039
	0.9389857054
	0.9398118854
	0.9406411052
	0.9414886832
	0.9423733950
	0.9433202744
	0.9443135262
	0.9453420043
	0.9463896155
	0.9474490881
	0.9485102892
	0.9495586157
	0.9505851269
	0.9515897036
	0.9525790811
	0.9535614848
	0.9545397162
	0.9555109143
	0.9564700127
	0.9574239254
	0.9583799839
	0.9593443274
	0.9603207707
	0.9613075852
	0.9623004794
	0.9633029103
	0.9643172026
	0.9653546214
	0.9664106965
	0.9674816728
	0.9685521722
	0.9696255922
	0.9707052708
	0.9717903733
	0.9728767872
	0.9739595056
	0.9750362039
	0.9761099815
	0.9771819115
	0.9782528877
	0.9793108106
	0.9803507924
	0.9813615084
	0.9823462963
	0.9833049178
	0.9842357039
	0.9851344228
	0.9859966040
	0.9868291020
	0.9876328707
	0.9884179831
	0.9891839027
	0.9899348021
	0.9906693101
	0.9913892150
	0.9920961857
	0.9927936792
	0.9934824109
	0.9941564202
	0.9948133826
	0.9954445958
	0.9960510731
	0.9966241717
	0.9971635938
	0.9976590276
	0.9981124997
	0.9985358715
	0.9989339113
	0.9993115067
	0.9996662736
	1.0000000000
}
