release/datafiles/colormanagement/luts/film_response/kodak_ektachrome_400x.spi1d
Version 1
From 0.0 1.0
Length 1024
Components 3
{
	0.0000000000 0.0000000000 0.0000000000
	0.0003428414 0.0002644671 0.0001401811
	0.0007192744 0.0005423503 0.0002875368
	0.0011335440 0.0008326409 0.0004389792
	0.0015786689 0.0011433410 0.0005958441
	0.0020476291 0.0014799440 0.0007588092
	0.0025404820 0.0018298780 0.0009286210
	0.0030616501 0.0021946840 0.0011060070
	0.0036125139 0.0025735211 0.0012919310
	0.0041929889 0.0029686880 0.0014847160
	0.0048043700 0.0033767780 0.0016857330
	0.0054497430 0.0038043610 0.0018942290
	0.0061183511 0.0042493441 0.0021089639
	0.0068146689 0.0047143549 0.0023315491
	0.0075340671 0.0051967530 0.0025640430
	0.0082950303 0.0057056639 0.0028035671
	0.0090911062 0.0062496541 0.0030509511
	0.0099175517 0.0068204752 0.0033067439
	0.0107904803 0.0074211471 0.0035727150
	0.0117002502 0.0080482997 0.0038465990
	0.0126570398 0.0087003373 0.0041274340
	0.0136648295 0.0093829166 0.0044194721
	0.0147075197 0.0101065598 0.0047251140
	0.0157950595 0.0108555797 0.0050429730
	0.0169297699 0.0116311004 0.0053711529
	0.0181103703 0.0124387797 0.0057113222
	0.0193332806 0.0132759996 0.0060676620
	0.0206129998 0.0141413296 0.0064390958
	0.0219328105 0.0150437802 0.0068241018
	0.0233088601 0.0159855708 0.0072196471
	0.0247331504 0.0169505794 0.0076266280
	0.0262072906 0.0179369505 0.0080475174
	0.0277359709 0.0189558994 0.0084815770
	0.0293284301 0.0200254805 0.0089281071
	0.0309679396 0.0211107805 0.0093870452
	0.0326597206 0.0222219098 0.0098592760
	0.0343937390 0.0233689900 0.0103457300
	0.0361940786 0.0245578606 0.0108465999
	0.0380464606 0.0257728007 0.0113617396
	0.0399493314 0.0270075500 0.0118910903
	0.0419140086 0.0282745995 0.0124359597
	0.0439488515 0.0296080001 0.0129955998
	0.0460439511 0.0309876800 0.0135690300
	0.0481984690 0.0323878303 0.0141631197
	0.0504118018 0.0338152684 0.0147708496
	0.0526927300 0.0352800488 0.0153927896
	0.0550270416 0.0367900804 0.0160309207
	0.0574264787 0.0383353084 0.0166857298
	0.0598822795 0.0398985818 0.0173553694
	0.0623928793 0.0414841883 0.0180462394
	0.0649654418 0.0431171395 0.0187484995
	0.0676013976 0.0448169708 0.0194632709
	0.0702958703 0.0465711690 0.0201920494
	0.0730418488 0.0483480282 0.0209390707
	0.0758519098 0.0501504205 0.0217033103
	0.0787305906 0.0519958399 0.0224795192
	0.0816697702 0.0538894385 0.0232669692
	0.0846705586 0.0558331497 0.0240675099
	0.0877186880 0.0578123406 0.0248920992
	0.0908257365 0.0598101094 0.0257320199
	0.0940086022 0.0618289597 0.0265861396
	0.0972353294 0.0639070272 0.0274642892
	0.1005206034 0.0660314709 0.0283592492
	0.1038618013 0.0682074204 0.0292693600
	0.1072567031 0.0704347715 0.0302035604
	0.1107103974 0.0726976171 0.0311573707
	0.1142259985 0.0749783218 0.0321260095
	0.1177944019 0.0772918463 0.0331200808
	0.1214151010 0.0796481296 0.0341317691
	0.1250821054 0.0820898935 0.0351568311
	0.1287855953 0.0845760182 0.0362133905
	0.1325509995 0.0870889798 0.0372799113
	0.1363651007 0.0896213502 0.0383602083
	0.1402193010 0.0921822414 0.0394625701
	0.1441060007 0.0947721824 0.0405752398
	0.1480046958 0.0973958895 0.0417135507
	0.1519186944 0.1000884995 0.0428665988
	0.1558499932 0.1028292999 0.0440348983
	0.1598220021 0.1056241989 0.0452243313
	0.1638336033 0.1084792018 0.0464208983
	0.1678801030 0.1113488972 0.0476398095
	0.1719820052 0.1142351031 0.0488679707
	0.1761175990 0.1171704978 0.0501159504
	0.1802733988 0.1201329008 0.0513837487
	0.1844418943 0.1231521964 0.0526686385
	0.1886288971 0.1262086034 0.0539824814
	0.1928298026 0.1292911023 0.0553071685
	0.1970759928 0.1324020028 0.0566712618
	0.2013373971 0.1355181038 0.0580410585
	0.2056180984 0.1386440992 0.0594506897
	0.2099272013 0.1417901963 0.0608652011
	0.2142390013 0.1449521929 0.0623159185
	0.2185354978 0.1481644064 0.0637758672
	0.2228298932 0.1513926983 0.0652757511
	0.2271223068 0.1547017992 0.0667859018
	0.2314382046 0.1580224037 0.0683313832
	0.2357621044 0.1613737047 0.0698857680
	0.2401127070 0.1647437066 0.0714698881
	0.2444832027 0.1681362987 0.0730611980
	0.2488923073 0.1715582013 0.0746805519
	0.2533152103 0.1749991030 0.0763059929
	0.2577489913 0.1784823984 0.0779676214
	0.2621993124 0.1819818020 0.0796313584
	0.2666550875 0.1855379939 0.0813349113
	0.2711015940 0.1891071051 0.0830384567
	0.2755472958 0.1927215010 0.0847683027
	0.2799974084 0.1963423938 0.0865003392
	0.2844476104 0.2000225931 0.0882561207
	0.2888987958 0.2037090063 0.0900193900
	0.2933452129 0.2073960006 0.0917988792
	0.2977733016 0.2110829949 0.0935909674
	0.3021937013 0.2147787064 0.0953960270
	0.3065907061 0.2184758037 0.0972275063
	0.3109777868 0.2221865058 0.0990616009
	0.3153359890 0.2259006053 0.1009372994
	0.3196929097 0.2296067029 0.1028129980
	0.3240458071 0.2333091944 0.1047334969
	0.3283928931 0.2370095998 0.1066685989
	0.3327110112 0.2407082021 0.1086295024
	0.3370262086 0.2444002032 0.1106277034
	0.3413048983 0.2480811030 0.1126269996
	0.3455835879 0.2517619133 0.1146645993
	0.3498139083 0.2554424107 0.1167021990
	0.3540413976 0.2591229081 0.1187660992
	0.3582440019 0.2627831101 0.1208472997
	0.3624396026 0.2664416134 0.1229355037
	0.3666112125 0.2701123059 0.1250668019
	0.3707655966 0.2737897933 0.1271981001
	0.3749122918 0.2774769068 0.1293662041
	0.3790445030 0.2811841965 0.1315550953
	0.3831717968 0.2848913968 0.1337489933
	0.3872435987 0.2885521054 0.1359899044
	0.3913154006 0.2922112942 0.1382308006
	0.3953064978 0.2958714068 0.1404815018
	0.3992744088 0.2995322049 0.1427416056
	0.4032138884 0.3031899035 0.1450016946
	0.4071162045 0.3068281114 0.1472705007
	0.4110161960 0.3104662001 0.1495404989
	0.4148718119 0.3140855134 0.1518152952
	0.4187273979 0.3176954091 0.1541071981
	0.4225727022 0.3213038146 0.1563991010
	0.4264118969 0.3249039054 0.1586962938
	0.4302516878 0.3285039961 0.1609987020
	0.4340943098 0.3320690989 0.1633010954
	0.4379369915 0.3356105089 0.1656249017
	0.4417563081 0.3391517997 0.1679558009
	0.4455639124 0.3426533043 0.1702867001
	0.4493665993 0.3461548090 0.1726520061
	0.4531346858 0.3496446013 0.1750191003
	0.4569028914 0.3531137109 0.1773868054
	0.4606313109 0.3565827906 0.1797600985
	0.4643262029 0.3600330055 0.1821334064
	0.4680210054 0.3634741902 0.1845103949
	0.4716567993 0.3669154048 0.1869013011
	0.4752872884 0.3703399003 0.1892922968
	0.4789054096 0.3737635016 0.1916884929
	0.4824860990 0.3771829009 0.1940988004
	0.4860669076 0.3805834055 0.1965090930
	0.4896276891 0.3839837909 0.1989264935
	0.4931711853 0.3873957992 0.2013619989
	0.4967147112 0.3908275962 0.2037975937
	0.5001958013 0.3942595124 0.2062384039
	0.5036591887 0.3976672888 0.2086957991
	0.5071225762 0.4010519087 0.2111531943
	0.5105044842 0.4044364095 0.2136141956
	0.5138846040 0.4077871144 0.2160944939
	0.5172544718 0.4111149907 0.2185747027
	0.5205571055 0.4144429862 0.2210548967
	0.5238596201 0.4177626073 0.2235321999
	0.5271421075 0.4210774004 0.2260096073
	0.5303608179 0.4243923128 0.2284868956
	0.5335794091 0.4276579022 0.2309691012
	0.5367782116 0.4308958948 0.2334523946
	0.5399305224 0.4341338873 0.2359357029
	0.5430827141 0.4373329878 0.2384334058
	0.5462197065 0.4405049086 0.2409410030
	0.5493230820 0.4436767995 0.2434486002
	0.5524265170 0.4468128979 0.2459536940
	0.5555045009 0.4499109983 0.2484524995
	0.5585151911 0.4530090988 0.2509512901
	0.5615258813 0.4560930133 0.2534500957
	0.5645241141 0.4591484070 0.2559669018
	0.5674679279 0.4622037113 0.2584846020
	0.5704116821 0.4652596116 0.2610023916
	0.5733518004 0.4683186114 0.2635214031
	0.5762202740 0.4713774920 0.2660414875
	0.5790888071 0.4744364917 0.2685616016
	0.5819572806 0.4774442017 0.2710804045
	0.5847468972 0.4804444015 0.2735868096
	0.5875238180 0.4834446013 0.2760930955
	0.5903006792 0.4864538014 0.2785995007
	0.5930446982 0.4894700050 0.2811084092
	0.5957688093 0.4924862981 0.2836191952
	0.5984929204 0.4954943061 0.2861298919
	0.6011797786 0.4984689057 0.2886404097
	0.6037912965 0.5014435053 0.2911294997
	0.6064026952 0.5044180751 0.2936185896
	0.6090142131 0.5073412061 0.2961077094
	0.6115440130 0.5102497935 0.2985940874
	0.6140723825 0.5131583810 0.3010762036
	0.6166006923 0.5160554051 0.3035584092
	0.6191328168 0.5189260840 0.3060404956
	0.6216673851 0.5217968822 0.3085111082
	0.6242020726 0.5246676803 0.3109765947
	0.6267291903 0.5274786949 0.3134421110
	0.6292034984 0.5302724242 0.3159075975
	0.6316779256 0.5330660939 0.3183633983
	0.6341521740 0.5358421206 0.3208185136
	0.6366034746 0.5385411978 0.3232735991
	0.6390401721 0.5412402749 0.3257263005
	0.6414769292 0.5439392924 0.3281632960
	0.6439121962 0.5465759039 0.3306002915
	0.6463143826 0.5491589904 0.3330372870
	0.6487165093 0.5517421961 0.3354707062
	0.6511186957 0.5543252826 0.3378941119
	0.6535044909 0.5568907857 0.3403174877
	0.6558670998 0.5594527125 0.3427408934
	0.6582297087 0.5620146990 0.3451600075
	0.6605921984 0.5645741224 0.3475705981
	0.6629050970 0.5670986772 0.3499810994
	0.6651992202 0.5696232915 0.3523916006
	0.6674932837 0.5721479058 0.3547942042
	0.6697874069 0.5746628046 0.3571807146
	0.6720268130 0.5771465898 0.3595671952
	0.6742650867 0.5796303749 0.3619537950
	0.6765033007 0.5821142197 0.3643409908
	0.6787335277 0.5846080780 0.3667303920
	0.6809238791 0.5871208906 0.3691197932
	0.6831144094 0.5896338224 0.3715091050
	0.6853048205 0.5921465755 0.3738974929
	0.6874766946 0.5946516991 0.3762792051
	0.6896049976 0.5971447825 0.3786608875
	0.6917333007 0.5996379256 0.3810425997
	0.6938616037 0.6021310091 0.3834243119
	0.6959702969 0.6046125293 0.3858002126
	0.6980445981 0.6070746183 0.3881756961
	0.7001190186 0.6095365882 0.3905512989
	0.7021933198 0.6119986773 0.3929268122
	0.7042300105 0.6144391894 0.3952862024
	0.7062014937 0.6168267131 0.3976376057
	0.7081729770 0.6192142963 0.3999890983
	0.7101445198 0.6216018200 0.4023405910
	0.7120977044 0.6239740252 0.4046814144
	0.7140085101 0.6262511015 0.4070011973
	0.7159193754 0.6285281777 0.4093208909
	0.7178301811 0.6308053732 0.4116407037
	0.7197390199 0.6330825090 0.4139603972
	0.7216380239 0.6352655292 0.4162608087
	0.7235370874 0.6374403238 0.4185597897
	0.7254360914 0.6396151185 0.4208588004
	0.7273350954 0.6417899728 0.4231578112
	0.7291654944 0.6438943744 0.4254482090
	0.7309942245 0.6459581256 0.4277282059
	0.7328227758 0.6480216980 0.4300082028
	0.7346515059 0.6500852704 0.4322882891
	0.7364507914 0.6521360278 0.4345682859
	0.7382380962 0.6541525126 0.4368130863
	0.7400254011 0.6561689973 0.4390538931
	0.7418125868 0.6581856012 0.4412946999
	0.7435858846 0.6602020860 0.4435355067
	0.7453356981 0.6621177197 0.4457657039
	0.7470855117 0.6640151739 0.4479677975
	0.7488353252 0.6659126282 0.4501698911
	0.7505850792 0.6678100824 0.4523718953
	0.7522721887 0.6696808934 0.4545739889
	0.7539572716 0.6715016961 0.4567523003
	0.7556424141 0.6733224988 0.4589129984
	0.7573276162 0.6751433015 0.4610736966
	0.7590008974 0.6769641042 0.4632343948
	0.7606620789 0.6787366271 0.4653950036
	0.7623233199 0.6804947853 0.4675134122
	0.7639845014 0.6822531223 0.4696210027
	0.7656456828 0.6840112805 0.4717285931
	0.7672730088 0.6857655048 0.4738362134
	0.7688981295 0.6874911189 0.4759437144
	0.7705233097 0.6892166138 0.4780164063
	0.7721484900 0.6909422278 0.4800868034
	0.7737551928 0.6926677227 0.4821572006
	0.7753220201 0.6943894029 0.4842276871
	0.7768889070 0.6961051822 0.4862979054
	0.7784556746 0.6978209019 0.4883329868
	0.7800226212 0.6995366812 0.4903681874
	0.7815604806 0.7012524009 0.4924033880
	0.7830802798 0.7029501796 0.4944385886
	0.7846000791 0.7046359777 0.4964737892
	0.7861198783 0.7063217163 0.4984565973
	0.7876396775 0.7080073953 0.5004389286
	0.7891361713 0.7096931934 0.5024212003
	0.7906283140 0.7113500237 0.5044035912
	0.7921203971 0.7129955292 0.5063859224
	0.7936124802 0.7146410942 0.5083438754
	0.7951045036 0.7162865996 0.5102990866
	0.7965341210 0.7179322243 0.5122541785
	0.7979624867 0.7195677161 0.5142092705
	0.7993909717 0.7212001085 0.5161644220
	0.8008195162 0.7228323817 0.5181018710
	0.8022456169 0.7244647741 0.5200322866
	0.8036258817 0.7260971069 0.5219627023
	0.8050063252 0.7276834846 0.5238931179
	0.8063865900 0.7292519212 0.5258234739
	0.8077669144 0.7308204174 0.5277478099
	0.8091464043 0.7323887944 0.5296645164
	0.8105019927 0.7339571714 0.5315812826
	0.8118575215 0.7355170846 0.5334979892
	0.8132131100 0.7370710969 0.5354146957
	0.8145685792 0.7386251092 0.5373278856
	0.8159241080 0.7401791215 0.5392090082
	0.8172050714 0.7417330742 0.5410900712
	0.8184810877 0.7432689071 0.5429710746
	0.8197571039 0.7447763085 0.5448521972
	0.8210331798 0.7462838292 0.5467333198
	0.8223091960 0.7477911711 0.5485991836
	0.8235437870 0.7492985725 0.5504574180
	0.8247652054 0.7507972121 0.5523154736
	0.8259866834 0.7522162199 0.5541737080
	0.8272081017 0.7536352873 0.5560318232
	0.8284295797 0.7550544143 0.5578854084
	0.8296269178 0.7564734817 0.5597094297
	0.8307995200 0.7578924894 0.5615333915
	0.8319721818 0.7592418194 0.5633574128
	0.8331449032 0.7605643868 0.5651813745
	0.8343175054 0.7618870139 0.5670053959
	0.8354796767 0.7632095814 0.5688126087
	0.8365802765 0.7645322084 0.5706043243
	0.8376808167 0.7658463717 0.5723959208
	0.8387814164 0.7671360970 0.5741875768
	0.8398818970 0.7684258819 0.5759791732
	0.8409824967 0.7697157264 0.5777708888
	0.8420794010 0.7710055113 0.5795426965
	0.8431748152 0.7722951770 0.5813097954
	0.8442702293 0.7735279799 0.5830768943
	0.8453655839 0.7747368217 0.5848439932
	0.8464609981 0.7759457231 0.5866110921
	0.8475471139 0.7771545053 0.5883777738
	0.8485909104 0.7783632874 0.5900940895
	0.8496348262 0.7795684934 0.5918104053
	0.8506786823 0.7807170153 0.5935267210
	0.8517224789 0.7818654180 0.5952430964
	0.8527663946 0.7830138803 0.5969594121
	0.8537737131 0.7841622829 0.5986704230
	0.8547530770 0.7853106856 0.6003401279
	0.8557325006 0.7864531875 0.6020097733
	0.8567119241 0.7875832915 0.6036794186
	0.8576912880 0.7887133956 0.6053491235
	0.8586707115 0.7898433805 0.6070188284
	0.8596333861 0.7909734845 0.6086828709
	0.8605933189 0.7921035886 0.6103072166
	0.8615533113 0.7932407856 0.6119315028
	0.8625131845 0.7943854928 0.6135557890
	0.8634731770 0.7955302000 0.6151800752
	0.8644313216 0.7966749072 0.6168044209
	0.8653596044 0.7978194952 0.6184266806
	0.8662878871 0.7989642024 0.6199904084
	0.8672162294 0.8000708222 0.6215540767
	0.8681445122 0.8011484742 0.6231178045
	0.8690729141 0.8022263050 0.6246814728
	0.8699941039 0.8033040166 0.6262450814
	0.8708788157 0.8043817282 0.6278088093
	0.8717635870 0.8054593801 0.6293694973
	0.8726484179 0.8065189123 0.6309295893
	0.8735331297 0.8075633049 0.6324898005
	0.8744179010 0.8086076975 0.6340498924
	0.8752959967 0.8096520901 0.6356101036
	0.8761417270 0.8106964827 0.6371701956
	0.8769873977 0.8117408752 0.6387233734
	0.8778331280 0.8127887249 0.6402710080
	0.8786787987 0.8138411045 0.6418185830
	0.8795245290 0.8148934841 0.6433662176
	0.8803673983 0.8159459233 0.6449137926
	0.8811801076 0.8169983029 0.6464614868
	0.8819928765 0.8180506825 0.6480066180
	0.8828055859 0.8190910220 0.6495386958
	0.8836184144 0.8200846910 0.6510708928
	0.8844311237 0.8210783005 0.6526029706
	0.8852438927 0.8220720291 0.6541351080
	0.8860117793 0.8230656981 0.6556673050
	0.8867745996 0.8240593076 0.6571993828
	0.8875373006 0.8250529766 0.6587041020
	0.8883000016 0.8260309100 0.6601948738
	0.8890628219 0.8270068169 0.6616855860
	0.8898255229 0.8279826045 0.6631764174
	0.8905583024 0.8289585114 0.6646671891
	0.8912715912 0.8299342990 0.6661580205
	0.8919848800 0.8309102058 0.6676467061
	0.8926982284 0.8318812847 0.6691030264
	0.8934115767 0.8328469992 0.6705592871
	0.8941249251 0.8338125944 0.6720156074
	0.8948332071 0.8347781897 0.6734719276
	0.8955228925 0.8357439041 0.6749281883
	0.8962126970 0.8367094994 0.6763845086
	0.8969023824 0.8376750946 0.6778261065
	0.8975921869 0.8385697007 0.6792402864
	0.8982818723 0.8394591808 0.6806545854
	0.8989716768 0.8403486013 0.6820688248
	0.8996360898 0.8412380219 0.6834830046
	0.9002904892 0.8421275020 0.6848973036
	0.9009450078 0.8430169225 0.6863114834
	0.9015994072 0.8438990116 0.6877009869
	0.9022538066 0.8447635770 0.6890684962
	0.9029083252 0.8456280828 0.6904361248
	0.9035584927 0.8464927077 0.6918036938
	0.9041764140 0.8473572731 0.6931712031
	0.9047942758 0.8482218981 0.6945387721
	0.9054121971 0.8490865231 0.6959062815
	0.9060301781 0.8499292731 0.6972550750
	0.9066480994 0.8507544994 0.6985912919
	0.9072660208 0.8515797257 0.6999275088
	0.9078578949 0.8524048924 0.7012637258
	0.9084116817 0.8532301188 0.7025998831
	0.9089655280 0.8540552855 0.7039362192
	0.9095193148 0.8548805118 0.7052723765
	0.9100729823 0.8557091951 0.7065873146
	0.9106268287 0.8565393090 0.7078853250
	0.9111806154 0.8573694825 0.7091832161
	0.9117125273 0.8581997156 0.7104812264
	0.9122291207 0.8590298891 0.7117791176
	0.9127455950 0.8598600030 0.7130771279
	0.9132621288 0.8606901765 0.7143750191
	0.9137787223 0.8614907861 0.7156553864
	0.9142951965 0.8622807264 0.7169089913
	0.9148116708 0.8630706072 0.7181627154
	0.9153102040 0.8638604879 0.7194163203
	0.9157993793 0.8646503091 0.7206699252
	0.9162884951 0.8654401898 0.7219234705
	0.9167776108 0.8662300706 0.7231771946
	0.9172667861 0.8670079708 0.7244259715
	0.9177559018 0.8677796721 0.7256401777
	0.9182450175 0.8685513735 0.7268543243
	0.9187002778 0.8693230152 0.7280684114
	0.9191343188 0.8700947165 0.7292826176
	0.9195683002 0.8708662987 0.7304967046
	0.9200022817 0.8716380000 0.7317107916
	0.9204363227 0.8723940253 0.7329249978
	0.9208703041 0.8731313944 0.7341042161
	0.9213042855 0.8738688231 0.7352702022
	0.9217389822 0.8746061921 0.7364361882
	0.9221745729 0.8753436804 0.7376021743
	0.9226102233 0.8760811090 0.7387682796
	0.9230456948 0.8768184781 0.7399343252
	0.9234812856 0.8775455952 0.7411003113
	0.9239168763 0.8782122135 0.7422618270
	0.9243525267 0.8788788915 0.7434059978
	0.9247846007 0.8795455098 0.7445502877
	0.9252011776 0.8802121878 0.7456945777
	0.9256178141 0.8808789253 0.7468389273
	0.9260342717 0.8815454841 0.7479830980
	0.9264509082 0.8822122216 0.7491273880
	0.9268674850 0.8828688264 0.7502716780
	0.9272841215 0.8835214972 0.7514011860
	0.9277005792 0.8841741085 0.7525197268
	0.9280946255 0.8848267794 0.7536382079
	0.9284824133 0.8854793906 0.7547566891
	0.9288702011 0.8861320019 0.7558751702
	0.9292579889 0.8867846727 0.7569937110
	0.9296457767 0.8874309063 0.7581123114
	0.9300336242 0.8880439997 0.7592307925
	0.9304214716 0.8886572123 0.7603214979
	0.9308112860 0.8892703056 0.7614058256
	0.9312064052 0.8898835182 0.7624900937
	0.9316015244 0.8904966116 0.7635744214
	0.9319965839 0.8911098242 0.7646586895
	0.9323917031 0.8917229176 0.7657430172
	0.9327868223 0.8923314214 0.7668272853
	0.9331818819 0.8929349184 0.7679116130
	0.9335770011 0.8935384154 0.7689800262
	0.9339686036 0.8941419125 0.7700471282
	0.9343581796 0.8947455287 0.7711141109
	0.9347478151 0.8953490257 0.7721812129
	0.9351373911 0.8959525228 0.7732483149
	0.9355270267 0.8965560198 0.7743152976
	0.9359166026 0.8971521854 0.7753823996
	0.9363061786 0.8977450132 0.7764495015
	0.9366958141 0.8983377814 0.7774727941
	0.9370884895 0.8989306092 0.7784914970
	0.9374815822 0.8995233774 0.7795102000
	0.9378746748 0.9001162052 0.7805289030
	0.9382678270 0.9007089734 0.7815477252
	0.9386609197 0.9013018012 0.7825664282
	0.9390540123 0.9018632174 0.7835850716
	0.9394471049 0.9024146795 0.7846037745
	0.9398401976 0.9029660821 0.7855820060
	0.9402080178 0.9035176039 0.7865473032
	0.9405754209 0.9040690064 0.7875126004
	0.9409428835 0.9046205282 0.7884777784
	0.9413102865 0.9051718712 0.7894430757
	0.9416776896 0.9057233930 0.7904083729
	0.9420450926 0.9062736034 0.7913736105
	0.9424126148 0.9068232179 0.7923389077
	0.9427800179 0.9073727727 0.7932832241
	0.9431211948 0.9079225063 0.7942044735
	0.9434615970 0.9084721208 0.7951257825
	0.9438019991 0.9090217948 0.7960470915
	0.9441424012 0.9095714092 0.7969682813
	0.9444829226 0.9101210237 0.7978895903
	0.9448233247 0.9106593132 0.7988108993
	0.9451637268 0.9111868739 0.7997322083
	0.9455041289 0.9117143750 0.8006522059
	0.9458433986 0.9122418761 0.8015512228
	0.9461824298 0.9127693772 0.8024501204
	0.9465214014 0.9132968783 0.8033490777
	0.9468603730 0.9138243794 0.8042480946
	0.9471994042 0.9143518806 0.8051471114
	0.9475384951 0.9148817062 0.8060461283
	0.9478775263 0.9154210091 0.8069450855
	0.9482164979 0.9159603715 0.8078441024
	0.9485536218 0.9164997935 0.8087291718
	0.9488890767 0.9170392156 0.8096008897
	0.9492245913 0.9175785184 0.8104726076
	0.9495601058 0.9181178808 0.8113443255
	0.9498956203 0.9186573029 0.8122159839
	0.9502310157 0.9191967249 0.8130877018
	0.9505664706 0.9197019935 0.8139594197
	0.9509019852 0.9201949835 0.8148310781
	0.9512333870 0.9206879139 0.8157027960
	0.9515367150 0.9211807847 0.8165382743
	0.9518401027 0.9216737747 0.8173654079
	0.9521434903 0.9221667051 0.8181924820
	0.9524468184 0.9226595759 0.8190196753
	0.9527502060 0.9231525064 0.8198468089
	0.9530535936 0.9236370921 0.8206740022
	0.9533569813 0.9240685105 0.8215010762
	0.9536603093 0.9244999290 0.8223283291
	0.9539365172 0.9249312282 0.8231554031
	0.9541925788 0.9253625870 0.8239536285
	0.9544487000 0.9257940054 0.8247510791
	0.9547048807 0.9262254238 0.8255487084
	0.9549610019 0.9266567230 0.8263462782
	0.9552171230 0.9270880818 0.8271439075
	0.9554733038 0.9275091887 0.8279414773
	0.9557294250 0.9279149771 0.8287389874
	0.9559856057 0.9283208251 0.8295366168
	0.9562343955 0.9287264943 0.8303341866
	0.9564822912 0.9291322827 0.8311038017
	0.9567301273 0.9295380116 0.8318734765
	0.9569780231 0.9299438000 0.8326432109
	0.9572259188 0.9303495884 0.8334128261
	0.9574738145 0.9307553172 0.8341825008
	0.9577217102 0.9311472178 0.8349521756
	0.9579694867 0.9315264225 0.8357219100
	0.9582170844 0.9319056273 0.8364915252
	0.9584596753 0.9322847724 0.8372612000
	0.9587022066 0.9326639771 0.8380025029
	0.9589446783 0.9330431223 0.8387396932
	0.9591872096 0.9334223270 0.8394770026
	0.9594296813 0.9338014722 0.8402141929
	0.9596722126 0.9341806769 0.8409515023
	0.9599146843 0.9345543981 0.8416886926
	0.9601572156 0.9349225760 0.8424260020
	0.9603989124 0.9352908134 0.8431631923
	0.9606298208 0.9356588721 0.8439005017
	0.9608606100 0.9360271096 0.8446270823
	0.9610915184 0.9363952875 0.8453466296
	0.9613224268 0.9367635250 0.8460661769
	0.9615532756 0.9371317029 0.8467857838
	0.9617841840 0.9374998808 0.8475053906
	0.9620149732 0.9378612041 0.8482248783
	0.9622458816 0.9382085204 0.8489444852
	0.9624767900 0.9385557771 0.8496640921
	0.9627113938 0.9389030933 0.8503836989
	0.9629462957 0.9392504096 0.8510984778
	0.9631810784 0.9395977259 0.8517916203
	0.9634159207 0.9399449825 0.8524847031
	0.9636507034 0.9402922988 0.8531777263
	0.9638856053 0.9406396151 0.8538708091
	0.9641203880 0.9409868717 0.8545638919
	0.9643551707 0.9413303137 0.8552569151
	0.9645900726 0.9416738153 0.8559499979
	0.9648157954 0.9420171976 0.8566430211
	0.9650372267 0.9423606992 0.8573361039
	0.9652585983 0.9427040815 0.8580203056
	0.9654800892 0.9430475831 0.8586984873
	0.9657015204 0.9433910251 0.8593767285
	0.9659228921 0.9437345266 0.8600549102
	0.9661443233 0.9440779090 0.8607330918
	0.9663656950 0.9444156289 0.8614112735
	0.9665871263 0.9447482824 0.8620895147
	0.9668061733 0.9450809956 0.8627676964
	0.9670186043 0.9454137087 0.8634458780
	0.9672309160 0.9457464218 0.8641241193
	0.9674432278 0.9460790157 0.8647658229
	0.9676554799 0.9464117289 0.8654016256
	0.9678679109 0.9467443824 0.8660374284
	0.9680802226 0.9470770955 0.8666731715
	0.9682924747 0.9474098086 0.8673089743
