release/datafiles/colormanagement/luts/film_response/kodak_dscs_3152.spi1d
Version 1
From 0.0 1.0
Length 1024
Components 3
{
	0.0000000000 0.0000000000 0.0000000000
	0.0031291239 0.0033278200 0.0041153808
	0.0062582470 0.0066556409 0.0082307607
	0.0093873711 0.0099834614 0.0125252204
	0.0128003703 0.0136352098 0.0169547293
	0.0162824895 0.0172885899 0.0214768499
	0.0197646003 0.0210279003 0.0262027308
	0.0235934593 0.0250145998 0.0309809893
	0.0274474602 0.0290013105 0.0359734409
	0.0314300507 0.0332363509 0.0410094596
	0.0356648304 0.0375544094 0.0462271497
	0.0398996100 0.0420100689 0.0514931008
	0.0445012413 0.0466454811 0.0568850897
	0.0491117798 0.0513610095 0.0623264983
	0.0540077388 0.0562863797 0.0678355098
	0.0589718111 0.0612730384 0.0733793527
	0.0641835630 0.0664475709 0.0789457336
	0.0694600120 0.0716837272 0.0845116675
	0.0749636367 0.0770548731 0.0900767818
	0.0805091709 0.0824873224 0.0955895111
	0.0862180665 0.0879941806 0.1010826975
	0.0919598788 0.0935461521 0.1064976007
	0.0977663025 0.0991239473 0.1118654013
	0.1035818979 0.1047077999 0.1171469018
	0.1094032973 0.1102901995 0.1223551035
	0.1151698977 0.1158241034 0.1274771988
	0.1209099963 0.1213333011 0.1325096041
	0.1265448928 0.1267662942 0.1374547929
	0.1321122050 0.1321426034 0.1423096061
	0.1375723034 0.1374354064 0.1470683962
	0.1429159939 0.1426412016 0.1517543048
	0.1481667012 0.1477651000 0.1563231945
	0.1532676965 0.1527830958 0.1608552933
	0.1582884043 0.1577192992 0.1652355939
	0.1631516069 0.1625491977 0.1696159989
	0.1679333001 0.1672876030 0.1738290042
	0.1725793928 0.1719401926 0.1780259013
	0.1771221012 0.1764778048 0.1821296066
	0.1815796942 0.1809709072 0.1861504018
	0.1858897954 0.1853097975 0.1901641935
	0.1901896000 0.1896487027 0.1940180957
	0.1942777932 0.1938105971 0.1978719980
	0.1983660012 0.1979569942 0.2016555071
	0.2023289055 0.2020100057 0.2053523958
	0.2062083930 0.2059722990 0.2090492994
	0.2100834996 0.2099346966 0.2126373947
	0.2137690037 0.2137262970 0.2161877006
	0.2174544036 0.2175149024 0.2197380066
	0.2210844010 0.2212477028 0.2231622040
	0.2245907933 0.2248737961 0.2265762985
	0.2280972004 0.2284999043 0.2299904972
	0.2315285057 0.2320373952 0.2332790941
	0.2348707020 0.2355124056 0.2365673035
	0.2382130027 0.2389874011 0.2398556024
	0.2414855063 0.2423633039 0.2430329025
	0.2446777970 0.2456984967 0.2462050021
	0.2478702068 0.2490337044 0.2493772060
	0.2510173023 0.2522774041 0.2524636090
	0.2540734112 0.2554838061 0.2555291057
	0.2571294904 0.2586902976 0.2585946023
	0.2601780891 0.2618266940 0.2616071105
	0.2631106079 0.2649149001 0.2645747066
	0.2660430968 0.2680031061 0.2675423026
	0.2689755857 0.2710529864 0.2704944909
	0.2718352973 0.2740328908 0.2733725905
	0.2746559978 0.2770127952 0.2762506008
	0.2774766088 0.2799926102 0.2791286111
	0.2802866101 0.2828738093 0.2819496095
	0.2830061018 0.2857545912 0.2847456932
	0.2857257128 0.2886354923 0.2875418067
	0.2884452939 0.2914687991 0.2903288901
	0.2911258042 0.2942593992 0.2930502892
	0.2937541902 0.2970499098 0.2957716882
	0.2963826954 0.2998403907 0.2984930873
	0.2990111113 0.3025532961 0.3011840880
	0.3015882969 0.3052614927 0.3038372993
	0.3041346967 0.3079696894 0.3064906001
	0.3066810966 0.3106591105 0.3091438115
	0.3092274964 0.3132922947 0.3117550015
	0.3117223978 0.3159255981 0.3143461943
	0.3141950965 0.3185588121 0.3169373870
	0.3166677058 0.3211610913 0.3195286095
	0.3191402853 0.3237262070 0.3220736086
	0.3215698004 0.3262912929 0.3246082962
	0.3239761889 0.3288562894 0.3271430135
	0.3263826966 0.3313871026 0.3296777904
	0.3287890851 0.3338901997 0.3321677148
	0.3311660886 0.3363932967 0.3346511126
	0.3335132897 0.3388963938 0.3371345103
	0.3358604908 0.3413681090 0.3396179080
	0.3382078111 0.3438149989 0.3420617878
	0.3405424953 0.3462618887 0.3444986045
	0.3428367972 0.3487088084 0.3469353914
	0.3451310992 0.3511315882 0.3493720889
	0.3474254012 0.3535273969 0.3517774940
	0.3497197032 0.3559232950 0.3541719019
	0.3519726098 0.3583191037 0.3565663099
	0.3542197943 0.3607012033 0.3589606881
	0.3564670086 0.3630507886 0.3613333106
	0.3587141931 0.3654003143 0.3636893034
	0.3609434068 0.3677498996 0.3660452068
	0.3631486893 0.3700976968 0.3684011996
	0.3653540909 0.3724052906 0.3707458973
	0.3675594032 0.3747127950 0.3730669022
	0.3697646856 0.3770203888 0.3753877878
	0.3719370067 0.3793280125 0.3777087927
	0.3741051853 0.3816084862 0.3800294101
	0.3762735128 0.3838779926 0.3823184967
	0.3784418106 0.3861474097 0.3846076131
	0.3806008995 0.3884168863 0.3868967891
	0.3827365041 0.3906759024 0.3891859055
	0.3848721981 0.3929106891 0.3914563060
	0.3870078027 0.3951455057 0.3937163949
	0.3891434073 0.3973802924 0.3959765136
	0.3912619054 0.3996151090 0.3982365131
	0.3933688104 0.4018237889 0.4004907012
	0.3954758048 0.4040271044 0.4027242064
	0.3975827098 0.4062303007 0.4049575925
	0.3996897042 0.4084335864 0.4071910083
	0.4017753005 0.4106284976 0.4094245136
	0.4038572013 0.4128029048 0.4116396904
	0.4059390128 0.4149773121 0.4138484895
	0.4080209136 0.4171518087 0.4160574079
	0.4101017118 0.4193261862 0.4182662964
	0.4121617079 0.4214822948 0.4204702079
	0.4142217934 0.4236302078 0.4226562977
	0.4162817895 0.4257782102 0.4248422980
	0.4183419049 0.4279260933 0.4270282984
	0.4203982055 0.4300732017 0.4292142987
	0.4224393070 0.4321965873 0.4313865900
	0.4244804084 0.4343200028 0.4335511923
	0.4265213907 0.4364433885 0.4357157946
	0.4285624921 0.4385668933 0.4378803074
	0.4305987060 0.4406827986 0.4400444925
	0.4326233864 0.4427833855 0.4421885908
	0.4346480072 0.4448839128 0.4443328083
	0.4366726875 0.4469844997 0.4464769065
	0.4386973083 0.4490849972 0.4486210942
	0.4407168925 0.4511733949 0.4507581890
	0.4427272975 0.4532522857 0.4528825879
	0.4447377026 0.4553312063 0.4550068974
	0.4467481077 0.4574100971 0.4571312964
	0.4487585127 0.4594889879 0.4592556953
	0.4507640898 0.4615522921 0.4613674879
	0.4527620971 0.4636105001 0.4634723961
	0.4547601044 0.4656687081 0.4655773938
	0.4567581117 0.4677268863 0.4676823020
	0.4587559998 0.4697850943 0.4697872102
	0.4607498944 0.4718252122 0.4718747139
	0.4627369046 0.4738632143 0.4739601016
	0.4647239149 0.4759013057 0.4760456085
	0.4667108953 0.4779393077 0.4781309962
	0.4686979055 0.4799773097 0.4802143872
	0.4706814885 0.4819954932 0.4822798967
	0.4726586044 0.4840134084 0.4843454957
	0.4746356905 0.4860314131 0.4864110053
	0.4766128063 0.4880493879 0.4884765148
	0.4785900116 0.4900667071 0.4905366004
	0.4805643857 0.4920643866 0.4925814867
	0.4825324118 0.4940621853 0.4946263134
	0.4845002890 0.4960598946 0.4966711104
	0.4864681959 0.4980576038 0.4987159967
	0.4884361029 0.5000547767 0.5007526875
	0.4904021919 0.5020316839 0.5027757287
	0.4923611879 0.5040085912 0.5047987103
	0.4943202138 0.5059854984 0.5068216920
	0.4962792099 0.5079624057 0.5088446140
	0.4982382059 0.5099393129 0.5108575821
	0.5001962185 0.5118951201 0.5128573179
	0.5021461844 0.5138502121 0.5148568749
	0.5040960908 0.5158053041 0.5168566108
	0.5060459971 0.5177603960 0.5188562870
	0.5079959035 0.5197154880 0.5208451152
	0.5099458098 0.5216509104 0.5228195786
	0.5118862987 0.5235828757 0.5247941017
	0.5138264894 0.5255150199 0.5267686248
	0.5157666802 0.5274469852 0.5287430882
	0.5177068710 0.5293790102 0.5307077169
	0.5196471214 0.5312942863 0.5326548815
	0.5215784907 0.5332015157 0.5346019864
	0.5235080123 0.5351088047 0.5365492105
	0.5254374146 0.5370160937 0.5384963751
	0.5273668766 0.5389233828 0.5404369235
	0.5292963982 0.5408189893 0.5423542857
	0.5312179923 0.5426995754 0.5442718267
	0.5331351161 0.5445801020 0.5461893082
	0.5350522995 0.5464606881 0.5481067896
	0.5369694829 0.5483412743 0.5500237942
	0.5388866067 0.5502184033 0.5519090295
	0.5407978296 0.5520700216 0.5537940860
	0.5427005887 0.5539215803 0.5556792021
	0.5446034074 0.5557731986 0.5575643778
	0.5465062857 0.5576248169 0.5594494939
	0.5484091043 0.5594763756 0.5613096952
	0.5503091812 0.5613054037 0.5631597042
	0.5521953106 0.5631254911 0.5650097132
	0.5540813208 0.5649455786 0.5668596029
	0.5559673905 0.5667657256 0.5687096119
	0.5578534007 0.5685858130 0.5705479980
	0.5597394705 0.5703982711 0.5723599195
	0.5616086125 0.5721842051 0.5741717219
	0.5634748936 0.5739700794 0.5759835839
	0.5653412938 0.5757560730 0.5777953863
	0.5672075748 0.5775420070 0.5796073079
	0.5690739751 0.5793278813 0.5813869238
	0.5709286928 0.5810908079 0.5831577182
	0.5727720857 0.5828397274 0.5849283934
	0.5746154189 0.5845885873 0.5866991878
	0.5764586926 0.5863376260 0.5884699821
	0.5783020854 0.5880864859 0.5902346969
	0.5801432729 0.5898354053 0.5919613838
	0.5819600224 0.5915482044 0.5936880708
	0.5837767124 0.5932571888 0.5954148173
	0.5855932832 0.5949661732 0.5971413851
	0.5874099731 0.5966752172 0.5988680720
	0.5892267227 0.5983842015 0.6005786061
	0.5910258293 0.6000909209 0.6022583842
	0.5928118229 0.6017571092 0.6039381027
	0.5945978761 0.6034232974 0.6056178212
	0.5963839889 0.6050894856 0.6072975993
	0.5981701016 0.6067556739 0.6089773178
	0.5999560952 0.6084219217 0.6106376052
	0.6017082930 0.6100856066 0.6122676730
	0.6034597158 0.6117061973 0.6138976812
	0.6052110195 0.6133267879 0.6155278087
	0.6069623828 0.6149473190 0.6171578765
	0.6087138057 0.6165679097 0.6187878847
	0.6104547977 0.6181885004 0.6204046011
	0.6121671796 0.6198089719 0.6219825745
	0.6138796806 0.6213870049 0.6235604882
	0.6155921221 0.6229591966 0.6251384020
	0.6173046231 0.6245315075 0.6267163754
	0.6190170050 0.6261038184 0.6282942891
	0.6207110882 0.6276760101 0.6298722029
	0.6223804951 0.6292483211 0.6314002275
	0.6240499020 0.6307939887 0.6329237819
	0.6257191896 0.6323155761 0.6344473958
	0.6273885965 0.6338371038 0.6359710097
	0.6290580034 0.6353585720 0.6374946237
	0.6307067871 0.6368800998 0.6390182972
	0.6323291063 0.6384016275 0.6405218840
	0.6339514256 0.6399230957 0.6419894099
	0.6355736852 0.6413943768 0.6434568167
	0.6371960044 0.6428629756 0.6449242830
	0.6388183236 0.6443315744 0.6463916898
	0.6404266953 0.6458001733 0.6478592157
	0.6419981718 0.6472687721 0.6493266225
	0.6435695887 0.6487373710 0.6507629156
	0.6451410055 0.6501982808 0.6521728039
	0.6467124820 0.6516122222 0.6535826921
	0.6482838988 0.6530259848 0.6549925208
	0.6498553753 0.6544399261 0.6564024091
	0.6513776183 0.6558538079 0.6578121781
	0.6528947949 0.6572676897 0.6592221260
	0.6544119716 0.6586815119 0.6606057286
	0.6559292078 0.6600915790 0.6619569063
	0.6574463844 0.6614493132 0.6633082032
	0.6589636207 0.6628069878 0.6646593809
	0.6604626775 0.6641647220 0.6660106778
	0.6619228125 0.6655225158 0.6673619151
	0.6633828282 0.6668801904 0.6687130928
	0.6648429036 0.6682379246 0.6700615883
	0.6663029790 0.6695955992 0.6713535786
	0.6677629948 0.6709131002 0.6726456285
	0.6692231297 0.6722136736 0.6739376187
	0.6706553102 0.6735141873 0.6752296090
	0.6720557809 0.6748147011 0.6765217185
	0.6734563112 0.6761152148 0.6778137088
	0.6748567820 0.6774157286 0.6791056991
	0.6762573719 0.6787163019 0.6803793907
	0.6776579022 0.6800159812 0.6816120744
	0.6790583730 0.6812587976 0.6828446984
	0.6804388165 0.6825014949 0.6840773225
	0.6817780137 0.6837441921 0.6853098869
	0.6831172109 0.6849870086 0.6865425110
	0.6844564080 0.6862297058 0.6877751946
	0.6857956052 0.6874724030 0.6890078187
	0.6871348023 0.6887152195 0.6902288795
	0.6884739995 0.6899579167 0.6914023161
	0.6898130774 0.6911445856 0.6925758123
	0.6910985112 0.6923294067 0.6937493086
	0.6923751831 0.6935142279 0.6949226856
	0.6936519146 0.6946989894 0.6960961819
	0.6949285269 0.6958836913 0.6972696185
	0.6962051988 0.6970685124 0.6984431148
	0.6974818110 0.6982532740 0.6996166110
	0.6987584829 0.6994379759 0.7007505894
	0.7000334263 0.7005925179 0.7018656135
	0.7012469769 0.7017195225 0.7029805183
	0.7024605870 0.7028465867 0.7040954232
	0.7036740780 0.7039735913 0.7052103281
	0.7048876882 0.7051007152 0.7063252926
	0.7061012983 0.7062277198 0.7074401975
	0.7073147893 0.7073547244 0.7085551023
	0.7085283995 0.7084817886 0.7096700072
	0.7097420096 0.7096087933 0.7107443810
	0.7109059095 0.7106986046 0.7118018270
	0.7120562792 0.7117685080 0.7128592134
	0.7132068276 0.7128384709 0.7139164805
	0.7143573165 0.7139083743 0.7149739265
	0.7155078053 0.7149783969 0.7160311937
	0.7166582942 0.7160483003 0.7170885801
	0.7178087831 0.7171183228 0.7181460261
	0.7189592123 0.7181882262 0.7192032933
	0.7201038003 0.7192581296 0.7202467918
	0.7211917043 0.7203109264 0.7212479115
	0.7222797275 0.7213246822 0.7222489715
	0.7233676910 0.7223384976 0.7232500911
	0.7244557142 0.7233523130 0.7242512107
	0.7255436182 0.7243661284 0.7252522707
	0.7266315818 0.7253798842 0.7262532711
	0.7277196050 0.7263938189 0.7272543907
	0.7288076282 0.7274075747 0.7282555103
	0.7298954725 0.7284213901 0.7292565703
	0.7309280038 0.7294352055 0.7302436233
	0.7319545150 0.7304247022 0.7311900258
	0.7329810262 0.7313836813 0.7321363091
	0.7340075970 0.7323426008 0.7330827117
	0.7350341082 0.7333015800 0.7340291142
	0.7360606194 0.7342606187 0.7349753976
	0.7370871902 0.7352195978 0.7359218001
	0.7381137013 0.7361785173 0.7368682027
	0.7391402125 0.7371374965 0.7378144860
	0.7401570082 0.7380964756 0.7387608886
	0.7411236167 0.7390553951 0.7397072911
	0.7420902252 0.7400135994 0.7406170964
	0.7430567741 0.7409192920 0.7415105104
	0.7440233827 0.7418249249 0.7424039245
	0.7449899912 0.7427306175 0.7432973981
	0.7459564805 0.7436363101 0.7441908121
	0.7469230890 0.7445420027 0.7450842261
	0.7478896976 0.7454476953 0.7459775805
	0.7488563061 0.7463533282 0.7468711138
	0.7498229146 0.7472590208 0.7477645278
	0.7507420182 0.7481647134 0.7486578822
	0.7516505122 0.7490704060 0.7495512962
	0.7525590062 0.7499759793 0.7504193783
	0.7534675002 0.7508316040 0.7512617707
	0.7543759942 0.7516856790 0.7521042824
	0.7552844882 0.7525398731 0.7529466748
	0.7561929822 0.7533940077 0.7537891269
	0.7571014762 0.7542482018 0.7546315789
	0.7580100298 0.7551022768 0.7554739714
	0.7589185238 0.7559564710 0.7563164234
	0.7598270178 0.7568106055 0.7571588755
	0.7606902122 0.7576647997 0.7580013275
	0.7615427971 0.7585189939 0.7588437796
	0.7623953223 0.7593731284 0.7596861720
	0.7632479072 0.7602140903 0.7604979873
	0.7641004920 0.7610186934 0.7612915039
	0.7649530172 0.7618231773 0.7620850205
	0.7658056021 0.7626277804 0.7628785968
	0.7666581273 0.7634323835 0.7636721134
	0.7675107121 0.7642369866 0.7644655704
	0.7683631778 0.7650415897 0.7652592063
	0.7692158222 0.7658461928 0.7660527229
	0.7700641155 0.7666506767 0.7668461800
	0.7708631158 0.7674552798 0.7676398158
	0.7716619968 0.7682598829 0.7684332728
	0.7724609971 0.7690644860 0.7692267895
	0.7732599974 0.7698690891 0.7700191736
	0.7740589976 0.7706338763 0.7707660198
	0.7748579979 0.7713909745 0.7715128064
	0.7756569982 0.7721480131 0.7722595930
	0.7764559984 0.7729051113 0.7730063796
	0.7772548795 0.7736622095 0.7737532258
	0.7780538797 0.7744193077 0.7745000720
	0.7788528800 0.7751764059 0.7752469182
	0.7796518803 0.7759335041 0.7759937048
	0.7804220915 0.7766906023 0.7767404914
	0.7811700106 0.7774475813 0.7774872780
	0.7819179296 0.7782046795 0.7782341242
	0.7826659083 0.7789617777 0.7789809108
	0.7834138274 0.7797188759 0.7797278166
	0.7841616869 0.7804474831 0.7804462910
	0.7849097252 0.7811592221 0.7811486125
	0.7856575847 0.7818710208 0.7818508744
	0.7864055037 0.7825827003 0.7825533152
	0.7871534824 0.7832944989 0.7832555771
	0.7879014015 0.7840061784 0.7839578986
	0.7886493206 0.7847179770 0.7846602201
	0.7893972993 0.7854297161 0.7853626013
	0.7901358008 0.7861415148 0.7860649228
	0.7908353209 0.7868531942 0.7867671847
	0.7915347815 0.7875649929 0.7874695063
	0.7922343016 0.7882766724 0.7881718874
	0.7929338217 0.7889884710 0.7888742089
	0.7936332226 0.7897002101 0.7895764709
	0.7943326831 0.7903869748 0.7902621031
	0.7950322032 0.7910556793 0.7909221053
	0.7957317233 0.7917243242 0.7915822268
	0.7964311838 0.7923929095 0.7922422886
	0.7971307039 0.7930616140 0.7929024100
	0.7978302240 0.7937301993 0.7935624719
	0.7985296845 0.7943987846 0.7942225933
	0.7992292047 0.7950674891 0.7948827147
	0.7999287248 0.7957360744 0.7955427766
	0.8005871177 0.7964047194 0.7962027788
	0.8012408018 0.7970734239 0.7968629003
	0.8018944860 0.7977420092 0.7975230217
	0.8025482297 0.7984105945 0.7981830835
	0.8032019138 0.7990792990 0.7988432050
	0.8038555980 0.7997478843 0.7995033264
	0.8045094013 0.8003910780 0.8001534939
	0.8051630855 0.8010187745 0.8007736206
	0.8058168292 0.8016465902 0.8013936877
	0.8064705133 0.8022742867 0.8020138144
	0.8071241975 0.8029021025 0.8026338816
	0.8077778816 0.8035297990 0.8032540083
	0.8084316254 0.8041576147 0.8038740754
	0.8090854287 0.8047853112 0.8044942021
	0.8097391129 0.8054131269 0.8051143289
	0.8103669286 0.8060408235 0.8057343960
	0.8109775186 0.8066685796 0.8063545227
	0.8115881085 0.8072962761 0.8069745898
	0.8121985793 0.8079240918 0.8075947165
	0.8128092289 0.8085517883 0.8082147837
	0.8134198189 0.8091796041 0.8088349104
	0.8140304089 0.8098073006 0.8094549775
	0.8146409988 0.8104082942 0.8100705743
	0.8152515888 0.8109974265 0.8106529117
	0.8158621788 0.8115864992 0.8112351894
	0.8164728284 0.8121755719 0.8118175864
	0.8170834184 0.8127647042 0.8123999238
	0.8176940084 0.8133537173 0.8129822016
	0.8183045983 0.8139427900 0.8135645986
	0.8189151883 0.8145319223 0.8141468763
	0.8195257187 0.8151209950 0.8147292733
	0.8201273084 0.8157101274 0.8153116107
	0.8206974268 0.8162992001 0.8158938885
	0.8212674856 0.8168882728 0.8164762855
	0.8218376040 0.8174774051 0.8170586228
	0.8224077225 0.8180664778 0.8176409006
	0.8229777813 0.8186556101 0.8182232976
	0.8235478997 0.8192446828 0.8188055754
	0.8241178989 0.8198336959 0.8193879724
	0.8246880174 0.8203967214 0.8199703097
	0.8252580762 0.8209493160 0.8205189109
	0.8258281946 0.8215019107 0.8210656047
	0.8263983130 0.8220545053 0.8216122985
	0.8269683719 0.8226072192 0.8221591115
	0.8275384903 0.8231598139 0.8227058053
	0.8281086087 0.8237124085 0.8232526183
	0.8286787271 0.8242650032 0.8237993121
	0.8292487860 0.8248177171 0.8243461251
	0.8298189044 0.8253703117 0.8248928189
	0.8303630948 0.8259229064 0.8254395127
	0.8308951855 0.8264755011 0.8259863257
	0.8314273953 0.8270282149 0.8265330195
	0.8319594860 0.8275808096 0.8270797729
	0.8324916959 0.8281334043 0.8276265264
	0.8330239058 0.8286859989 0.8281732798
	0.8335559964 0.8292385936 0.8287199736
	0.8340882063 0.8297913074 0.8292667866
	0.8346202970 0.8303225040 0.8298134804
	0.8351525068 0.8308408260 0.8303381801
	0.8356845975 0.8313590884 0.8308513761
	0.8362168074 0.8318774104 0.8313646913
	0.8367488980 0.8323956728 0.8318778872
	0.8372811079 0.8329139948 0.8323912024
	0.8378131986 0.8334323168 0.8329045177
	0.8383454084 0.8339505792 0.8334177136
	0.8388774991 0.8344689012 0.8339310288
	0.8394097090 0.8349872231 0.8344442248
	0.8399417996 0.8355054855 0.8349574804
	0.8404424191 0.8360238075 0.8354706764
	0.8409391046 0.8365421295 0.8359839916
	0.8414357901 0.8370603919 0.8364971876
	0.8419324756 0.8375787139 0.8370105028
	0.8424291015 0.8380969763 0.8375238180
	0.8429257870 0.8386152983 0.8380370140
	0.8434224725 0.8391336203 0.8385503292
	0.8439192176 0.8396518826 0.8390635252
	0.8444159031 0.8401595950 0.8395767808
	0.8449125886 0.8406456113 0.8400844932
	0.8454092741 0.8411316872 0.8405662775
	0.8459059000 0.8416177034 0.8410481215
	0.8464025855 0.8421037793 0.8415299058
	0.8468992710 0.8425897956 0.8420116901
	0.8473960161 0.8430758119 0.8424934745
	0.8478927016 0.8435618877 0.8429753184
	0.8483893871 0.8440479040 0.8434571028
	0.8488860130 0.8445339799 0.8439388871
	0.8493826985 0.8450199962 0.8444206715
	0.8498793840 0.8455060720 0.8449025154
	0.8503509760 0.8459920883 0.8453842998
	0.8508145809 0.8464781046 0.8458660841
	0.8512781858 0.8469641805 0.8463479280
	0.8517417908 0.8474501967 0.8468297124
	0.8522053957 0.8479362726 0.8473114967
	0.8526690006 0.8484222889 0.8477932811
	0.8531326056 0.8489084244 0.8482751250
	0.8535962105 0.8493943810 0.8487569094
	0.8540596962 0.8498803973 0.8492386937
	0.8545233011 0.8503437042 0.8497204781
	0.8549869061 0.8507995009 0.8501899242
	0.8554505110 0.8512551785 0.8506422043
	0.8559141159 0.8517109752 0.8510944843
	0.8563777208 0.8521667719 0.8515468240
	0.8568413258 0.8526226282 0.8519991040
	0.8573048711 0.8530784249 0.8524513841
	0.8577684760 0.8535342216 0.8529037237
	0.8582320213 0.8539898992 0.8533560038
	0.8586956263 0.8544456959 0.8538082838
	0.8591591716 0.8549014926 0.8542606235
	0.8596227765 0.8553572893 0.8547129035
	0.8600807190 0.8558130860 0.8551651835
	0.8605133891 0.8562688828 0.8556174040
	0.8609461784 0.8567246795 0.8560696840
	0.8613789082 0.8571804166 0.8565220237
	0.8618116975 0.8576362133 0.8569743037
	0.8622444272 0.8580920100 0.8574265838
	0.8626772165 0.8585478067 0.8578789234
	0.8631098866 0.8590036035 0.8583312035
	0.8635426760 0.8594594002 0.8587834835
	0.8639754057 0.8599150777 0.8592358232
	0.8644081950 0.8603479266 0.8596881032
	0.8648409247 0.8607752919 0.8601318002
	0.8652737141 0.8612027168 0.8605564237
	0.8657063842 0.8616302013 0.8609811068
	0.8661391735 0.8620576262 0.8614056706
	0.8665719032 0.8624849916 0.8618304133
	0.8670045733 0.8629124761 0.8622549772
	0.8674374223 0.8633399010 0.8626796007
	0.8678700924 0.8637673855 0.8631042838
	0.8683028817 0.8641948104 0.8635289073
	0.8687356114 0.8646221757 0.8639535904
	0.8691684008 0.8650497198 0.8643782139
	0.8696010709 0.8654770851 0.8648027778
	0.8700317144 0.8659045100 0.8652275205
	0.8704357147 0.8663319945 0.8656520844
	0.8708397746 0.8667594194 0.8660768270
	0.8712437749 0.8671867847 0.8665013909
	0.8716478944 0.8676143289 0.8669260740
	0.8720518947 0.8680416942 0.8673506975
	0.8724560142 0.8684691191 0.8677753210
	0.8728600144 0.8688966036 0.8682000041
	0.8732640743 0.8693240285 0.8686246276
	0.8736680746 0.8697515130 0.8690493107
	0.8740721941 0.8701677918 0.8694738746
	0.8744761944 0.8705686927 0.8698986173
	0.8748803139 0.8709695935 0.8703035116
	0.8752843142 0.8713704944 0.8707023263
	0.8756883740 0.8717713952 0.8711010218
	0.8760923743 0.8721722960 0.8714997768
	0.8764964938 0.8725731969 0.8718984723
	0.8769004941 0.8729740977 0.8722972870
	0.8773046136 0.8733749986 0.8726959825
	0.8777086139 0.8737758994 0.8730947971
	0.8781126738 0.8741769195 0.8734936118
	0.8785166740 0.8745778203 0.8738923073
	0.8789207935 0.8749787211 0.8742911220
	0.8793247938 0.8753796220 0.8746898174
	0.8797289133 0.8757805228 0.8750885725
	0.8801240921 0.8761814237 0.8754873276
	0.8805015087 0.8765823245 0.8758860826
	0.8808789253 0.8769832253 0.8762847781
	0.8812562227 0.8773841262 0.8766835928
	0.8816335797 0.8777850270 0.8770824075
	0.8820109963 0.8781859279 0.8774811029
	0.8823882937 0.8785868287 0.8778799176
	0.8827657104 0.8789877295 0.8782786131
	0.8831431270 0.8793885708 0.8786774278
	0.8835204244 0.8797894716 0.8790761232
	0.8838977814 0.8801786900 0.8794748783
	0.8842751980 0.8805547953 0.8798736930
	0.8846524954 0.8809309006 0.8802558780
	0.8850299120 0.8813070059 0.8806303740
	0.8854073286 0.8816831112 0.8810049891
	0.8857846260 0.8820592165 0.8813794851
	0.8861619830 0.8824353218 0.8817539811
	0.8865392804 0.8828114271 0.8821285963
	0.8869166970 0.8831874728 0.8825030923
	0.8872941136 0.8835635781 0.8828777075
	0.8876714110 0.8839396834 0.8832522035
	0.8880488276 0.8843157887 0.8836268187
	0.8884261847 0.8846918941 0.8840013146
	0.8888034821 0.8850679994 0.8843758106
	0.8891808987 0.8854441047 0.8847504258
	0.8895583153 0.8858202100 0.8851249218
	0.8899356127 0.8861963153 0.8854994774
	0.8902924061 0.8865724206 0.8858739734
	0.8906450272 0.8869485259 0.8862485886
	0.8909975886 0.8873245716 0.8866230845
