release/datafiles/colormanagement/luts/film_response/kodak_dscs_3155.spi1d
Version 1
From 0.0 1.0
Length 1024
Components 3
{
	0.0000000000 0.0000000000 0.0000000000
	0.0048120469 0.0048120469 0.0048120469
	0.0096240947 0.0096240947 0.0096240947
	0.0145009197 0.0145009197 0.0145009197
	0.0193832405 0.0193832405 0.0193832405
	0.0242968407 0.0242968407 0.0242968407
	0.0292149596 0.0292149596 0.0292149596
	0.0341353305 0.0341353305 0.0341353305
	0.0390561298 0.0390561298 0.0390561298
	0.0439544208 0.0439544208 0.0439544208
	0.0488473810 0.0488473810 0.0488473810
	0.0536984690 0.0536984690 0.0536984690
	0.0585366711 0.0585366711 0.0585366711
	0.0633208230 0.0633208230 0.0633208230
	0.0680815428 0.0680815428 0.0680815428
	0.0727850720 0.0727850720 0.0727850720
	0.0774499997 0.0774499997 0.0774499997
	0.0820651725 0.0820651725 0.0820651725
	0.0866203383 0.0866203383 0.0866203383
	0.0911446288 0.0911446288 0.0911446288
	0.0955801234 0.0955801234 0.0955801234
	0.1000152007 0.1000152007 0.1000152007
	0.1043246016 0.1043246016 0.1043246016
	0.1086340994 0.1086340994 0.1086340994
	0.1128552034 0.1128552034 0.1128552034
	0.1170352995 0.1170352995 0.1170352995
	0.1211775988 0.1211775988 0.1211775988
	0.1252277046 0.1252277046 0.1252277046
	0.1292777061 0.1292777061 0.1292777061
	0.1332218945 0.1332218945 0.1332218945
	0.1371431053 0.1371431053 0.1371431053
	0.1410301030 0.1410301030 0.1410301030
	0.1448252946 0.1448252946 0.1448252946
	0.1486205012 0.1486205012 0.1486205012
	0.1523379982 0.1523379982 0.1523379982
	0.1560111046 0.1560111046 0.1560111046
	0.1596841961 0.1596841961 0.1596841961
	0.1632499993 0.1632499993 0.1632499993
	0.1668058038 0.1668058038 0.1668058038
	0.1703501940 0.1703501940 0.1703501940
	0.1737938970 0.1737938970 0.1737938970
	0.1772377044 0.1772377044 0.1772377044
	0.1806603968 0.1806603968 0.1806603968
	0.1839977056 0.1839977056 0.1839977056
	0.1873349994 0.1873349994 0.1873349994
	0.1906519979 0.1906519979 0.1906519979
	0.1938886046 0.1938886046 0.1938886046
	0.1971253008 0.1971253008 0.1971253008
	0.2003512979 0.2003512979 0.2003512979
	0.2034929991 0.2034929991 0.2034929991
	0.2066347003 0.2066347003 0.2066347003
	0.2097764015 0.2097764015 0.2097764015
	0.2128352970 0.2128352970 0.2128352970
	0.2158876956 0.2158876956 0.2158876956
	0.2189401984 0.2189401984 0.2189401984
	0.2219379991 0.2219379991 0.2219379991
	0.2249068022 0.2249068022 0.2249068022
	0.2278755009 0.2278755009 0.2278755009
	0.2308219969 0.2308219969 0.2308219969
	0.2337123007 0.2337123007 0.2337123007
	0.2366026938 0.2366026938 0.2366026938
	0.2394929975 0.2394929975 0.2394929975
	0.2423229069 0.2423229069 0.2423229069
	0.2451398969 0.2451398969 0.2451398969
	0.2479569018 0.2479569018 0.2479569018
	0.2507550120 0.2507550120 0.2507550120
	0.2535035014 0.2535035014 0.2535035014
	0.2562519908 0.2562519908 0.2562519908
	0.2590003908 0.2590003908 0.2590003908
	0.2617082000 0.2617082000 0.2617082000
	0.2643926144 0.2643926144 0.2643926144
	0.2670770884 0.2670770884 0.2670770884
	0.2697615027 0.2697615027 0.2697615027
	0.2723914981 0.2723914981 0.2723914981
	0.2750161886 0.2750161886 0.2750161886
	0.2776409090 0.2776409090 0.2776409090
	0.2802599967 0.2802599967 0.2802599967
	0.2828288972 0.2828288972 0.2828288972
	0.2853977978 0.2853977978 0.2853977978
	0.2879666984 0.2879666984 0.2879666984
	0.2905246913 0.2905246913 0.2905246913
	0.2930414975 0.2930414975 0.2930414975
	0.2955583036 0.2955583036 0.2955583036
	0.2980751097 0.2980751097 0.2980751097
	0.3005805016 0.3005805016 0.3005805016
	0.3030486107 0.3030486107 0.3030486107
	0.3055166900 0.3055166900 0.3055166900
	0.3079847991 0.3079847991 0.3079847991
	0.3104445040 0.3104445040 0.3104445040
	0.3128669858 0.3128669858 0.3128669858
	0.3152895868 0.3152895868 0.3152895868
	0.3177120984 0.3177120984 0.3177120984
	0.3201321959 0.3201321959 0.3201321959
	0.3225120902 0.3225120902 0.3225120902
	0.3248918951 0.3248918951 0.3248918951
	0.3272717893 0.3272717893 0.3272717893
	0.3296515942 0.3296515942 0.3296515942
	0.3319971859 0.3319971859 0.3319971859
	0.3343369961 0.3343369961 0.3343369961
	0.3366766870 0.3366766870 0.3366766870
	0.3390164971 0.3390164971 0.3390164971
	0.3413344026 0.3413344026 0.3413344026
	0.3436363935 0.3436363935 0.3436363935
	0.3459384143 0.3459384143 0.3459384143
	0.3482404947 0.3482404947 0.3482404947
	0.3505341113 0.3505341113 0.3505341113
	0.3528004885 0.3528004885 0.3528004885
	0.3550668955 0.3550668955 0.3550668955
	0.3573333025 0.3573333025 0.3573333025
	0.3595997095 0.3595997095 0.3595997095
	0.3618383110 0.3618383110 0.3618383110
	0.3640710115 0.3640710115 0.3640710115
	0.3663035929 0.3663035929 0.3663035929
	0.3685362935 0.3685362935 0.3685362935
	0.3707579076 0.3707579076 0.3707579076
	0.3729583919 0.3729583919 0.3729583919
	0.3751589060 0.3751589060 0.3751589060
	0.3773593903 0.3773593903 0.3773593903
	0.3795599043 0.3795599043 0.3795599043
	0.3817358911 0.3817358911 0.3817358911
	0.3839055896 0.3839055896 0.3839055896
	0.3860754073 0.3860754073 0.3860754073
	0.3882451952 0.3882451952 0.3882451952
	0.3904092908 0.3904092908 0.3904092908
	0.3925495148 0.3925495148 0.3925495148
	0.3946897089 0.3946897089 0.3946897089
	0.3968299031 0.3968299031 0.3968299031
	0.3989700973 0.3989700973 0.3989700973
	0.4010953903 0.4010953903 0.4010953903
	0.4032069147 0.4032069147 0.4032069147
	0.4053184092 0.4053184092 0.4053184092
	0.4074299037 0.4074299037 0.4074299037
	0.4095414877 0.4095414877 0.4095414877
	0.4116311073 0.4116311073 0.4116311073
	0.4137147069 0.4137147069 0.4137147069
	0.4157981873 0.4157981873 0.4157981873
	0.4178817868 0.4178817868 0.4178817868
	0.4199653864 0.4199653864 0.4199653864
	0.4220218956 0.4220218956 0.4220218956
	0.4240779877 0.4240779877 0.4240779877
	0.4261341095 0.4261341095 0.4261341095
	0.4281901121 0.4281901121 0.4281901121
	0.4302429855 0.4302429855 0.4302429855
	0.4322718084 0.4322718084 0.4322718084
	0.4343006909 0.4343006909 0.4343006909
	0.4363296032 0.4363296032 0.4363296032
	0.4383583963 0.4383583963 0.4383583963
	0.4403820932 0.4403820932 0.4403820932
	0.4423837960 0.4423837960 0.4423837960
	0.4443854988 0.4443854988 0.4443854988
	0.4463872015 0.4463872015 0.4463872015
	0.4483889043 0.4483889043 0.4483889043
	0.4503852129 0.4503852129 0.4503852129
	0.4523595870 0.4523595870 0.4523595870
	0.4543339908 0.4543339908 0.4543339908
	0.4563083053 0.4563083053 0.4563083053
	0.4582827091 0.4582827091 0.4582827091
	0.4602535069 0.4602535069 0.4602535069
	0.4622001946 0.4622001946 0.4622001946
	0.4641467929 0.4641467929 0.4641467929
	0.4660935104 0.4660935104 0.4660935104
	0.4680401981 0.4680401981 0.4680401981
	0.4699868858 0.4699868858 0.4699868858
	0.4719055891 0.4719055891 0.4719055891
	0.4738239944 0.4738239944 0.4738239944
	0.4757424891 0.4757424891 0.4757424891
	0.4776608944 0.4776608944 0.4776608944
	0.4795793891 0.4795793891 0.4795793891
	0.4814752936 0.4814752936 0.4814752936
	0.4833647907 0.4833647907 0.4833647907
	0.4852542877 0.4852542877 0.4852542877
	0.4871438146 0.4871438146 0.4871438146
	0.4890333116 0.4890333116 0.4890333116
	0.4909082949 0.4909082949 0.4909082949
	0.4927679002 0.4927679002 0.4927679002
	0.4946275949 0.4946275949 0.4946275949
	0.4964872897 0.4964872897 0.4964872897
	0.4983470142 0.4983470142 0.4983470142
	0.5002033114 0.5002033114 0.5002033114
	0.5020321012 0.5020321012 0.5020321012
	0.5038608909 0.5038608909 0.5038608909
	0.5056896806 0.5056896806 0.5056896806
	0.5075185895 0.5075185895 0.5075185895
	0.5093473792 0.5093473792 0.5093473792
	0.5111556053 0.5111556053 0.5111556053
	0.5129525065 0.5129525065 0.5129525065
	0.5147492886 0.5147492886 0.5147492886
	0.5165460706 0.5165460706 0.5165460706
	0.5183429122 0.5183429122 0.5183429122
	0.5201370716 0.5201370716 0.5201370716
	0.5219007134 0.5219007134 0.5219007134
	0.5236642957 0.5236642957 0.5236642957
	0.5254278183 0.5254278183 0.5254278183
	0.5271914005 0.5271914005 0.5271914005
	0.5289549232 0.5289549232 0.5289549232
	0.5307043791 0.5307043791 0.5307043791
	0.5324332714 0.5324332714 0.5324332714
	0.5341622829 0.5341622829 0.5341622829
	0.5358911753 0.5358911753 0.5358911753
	0.5376201868 0.5376201868 0.5376201868
	0.5393490791 0.5393490791 0.5393490791
	0.5410556197 0.5410556197 0.5410556197
	0.5427485704 0.5427485704 0.5427485704
	0.5444415212 0.5444415212 0.5444415212
	0.5461344719 0.5461344719 0.5461344719
	0.5478274226 0.5478274226 0.5478274226
	0.5495203733 0.5495203733 0.5495203733
	0.5511866212 0.5511866212 0.5511866212
	0.5528420806 0.5528420806 0.5528420806
	0.5544977188 0.5544977188 0.5544977188
	0.5561531782 0.5561531782 0.5561531782
	0.5578088164 0.5578088164 0.5578088164
	0.5594642758 0.5594642758 0.5594642758
	0.5610936284 0.5610936284 0.5610936284
	0.5627104044 0.5627104044 0.5627104044
	0.5643271208 0.5643271208 0.5643271208
	0.5659437776 0.5659437776 0.5659437776
	0.5675606132 0.5675606132 0.5675606132
	0.5691773295 0.5691773295 0.5691773295
	0.5707743168 0.5707743168 0.5707743168
	0.5723509192 0.5723509192 0.5723509192
	0.5739275217 0.5739275217 0.5739275217
	0.5755040050 0.5755040050 0.5755040050
	0.5770806074 0.5770806074 0.5770806074
	0.5786570907 0.5786570907 0.5786570907
	0.5802274942 0.5802274942 0.5802274942
	0.5817626119 0.5817626119 0.5817626119
	0.5832977295 0.5832977295 0.5832977295
	0.5848327279 0.5848327279 0.5848327279
	0.5863677859 0.5863677859 0.5863677859
	0.5879029036 0.5879029036 0.5879029036
	0.5894379020 0.5894379020 0.5894379020
	0.5909458995 0.5909458995 0.5909458995
	0.5924382806 0.5924382806 0.5924382806
	0.5939307213 0.5939307213 0.5939307213
	0.5954229832 0.5954229832 0.5954229832
	0.5969154239 0.5969154239 0.5969154239
	0.5984076858 0.5984076858 0.5984076858
	0.5999001265 0.5999001265 0.5999001265
	0.6013516188 0.6013516188 0.6013516188
	0.6028001904 0.6028001904 0.6028001904
	0.6042487025 0.6042487025 0.6042487025
	0.6056972742 0.6056972742 0.6056972742
	0.6071457863 0.6071457863 0.6071457863
	0.6085944176 0.6085944176 0.6085944176
	0.6100416183 0.6100416183 0.6100416183
	0.6114454269 0.6114454269 0.6114454269
	0.6128491759 0.6128491759 0.6128491759
	0.6142529845 0.6142529845 0.6142529845
	0.6156567931 0.6156567931 0.6156567931
	0.6170606017 0.6170606017 0.6170606017
	0.6184644103 0.6184644103 0.6184644103
	0.6198682785 0.6198682785 0.6198682785
	0.6212307811 0.6212307811 0.6212307811
	0.6225889921 0.6225889921 0.6225889921
	0.6239473224 0.6239473224 0.6239473224
	0.6253055930 0.6253055930 0.6253055930
	0.6266638041 0.6266638041 0.6266638041
	0.6280220747 0.6280220747 0.6280220747
	0.6293802857 0.6293802857 0.6293802857
	0.6307135224 0.6307135224 0.6307135224
	0.6320255995 0.6320255995 0.6320255995
	0.6333376765 0.6333376765 0.6333376765
	0.6346498132 0.6346498132 0.6346498132
	0.6359618902 0.6359618902 0.6359618902
	0.6372740269 0.6372740269 0.6372740269
	0.6385861039 0.6385861039 0.6385861039
	0.6398981810 0.6398981810 0.6398981810
	0.6411672831 0.6411672831 0.6411672831
	0.6424328089 0.6424328089 0.6424328089
	0.6436982751 0.6436982751 0.6436982751
	0.6449638009 0.6449638009 0.6449638009
	0.6462293863 0.6462293863 0.6462293863
	0.6474949121 0.6474949121 0.6474949121
	0.6487603784 0.6487603784 0.6487603784
	0.6500248909 0.6500248909 0.6500248909
	0.6512436271 0.6512436271 0.6512436271
	0.6524624228 0.6524624228 0.6524624228
	0.6536810994 0.6536810994 0.6536810994
	0.6548997760 0.6548997760 0.6548997760
	0.6561185122 0.6561185122 0.6561185122
	0.6573371887 0.6573371887 0.6573371887
	0.6585559249 0.6585559249 0.6585559249
	0.6597746015 0.6597746015 0.6597746015
	0.6609550714 0.6609550714 0.6609550714
	0.6621270180 0.6621270180 0.6621270180
	0.6632987857 0.6632987857 0.6632987857
	0.6644706726 0.6644706726 0.6644706726
	0.6656426191 0.6656426191 0.6656426191
	0.6668143868 0.6668143868 0.6668143868
	0.6679862738 0.6679862738 0.6679862738
	0.6691582203 0.6691582203 0.6691582203
	0.6703168750 0.6703168750 0.6703168750
	0.6714420915 0.6714420915 0.6714420915
	0.6725673079 0.6725673079 0.6725673079
	0.6736925244 0.6736925244 0.6736925244
	0.6748176813 0.6748176813 0.6748176813
	0.6759428978 0.6759428978 0.6759428978
	0.6770681143 0.6770681143 0.6770681143
	0.6781932712 0.6781932712 0.6781932712
	0.6793184876 0.6793184876 0.6793184876
	0.6804254055 0.6804254055 0.6804254055
	0.6815043092 0.6815043092 0.6815043092
	0.6825832129 0.6825832129 0.6825832129
	0.6836621165 0.6836621165 0.6836621165
	0.6847409010 0.6847409010 0.6847409010
	0.6858198047 0.6858198047 0.6858198047
	0.6868987083 0.6868987083 0.6868987083
	0.6879776120 0.6879776120 0.6879776120
	0.6890565157 0.6890565157 0.6890565157
	0.6901295781 0.6901295781 0.6901295781
	0.6911628246 0.6911628246 0.6911628246
	0.6921958923 0.6921958923 0.6921958923
	0.6932290196 0.6932290196 0.6932290196
	0.6942620873 0.6942620873 0.6942620873
	0.6952952147 0.6952952147 0.6952952147
	0.6963282824 0.6963282824 0.6963282824
	0.6973615289 0.6973615289 0.6973615289
	0.6983945966 0.6983945966 0.6983945966
	0.6994277239 0.6994277239 0.6994277239
	0.7004407048 0.7004407048 0.7004407048
	0.7014287710 0.7014287710 0.7014287710
	0.7024167776 0.7024167776 0.7024167776
	0.7034049034 0.7034049034 0.7034049034
	0.7043930292 0.7043930292 0.7043930292
	0.7053809762 0.7053809762 0.7053809762
	0.7063691020 0.7063691020 0.7063691020
	0.7073571086 0.7073571086 0.7073571086
	0.7083451748 0.7083451748 0.7083451748
	0.7093333006 0.7093333006 0.7093333006
	0.7103068829 0.7103068829 0.7103068829
	0.7112507820 0.7112507820 0.7112507820
	0.7121946812 0.7121946812 0.7121946812
	0.7131385207 0.7131385207 0.7131385207
	0.7140824199 0.7140824199 0.7140824199
	0.7150263190 0.7150263190 0.7150263190
	0.7159700990 0.7159700990 0.7159700990
	0.7169139981 0.7169139981 0.7169139981
	0.7178577781 0.7178577781 0.7178577781
	0.7188016772 0.7188016772 0.7188016772
	0.7197455764 0.7197455764 0.7197455764
	0.7206578851 0.7206578851 0.7206578851
	0.7215585113 0.7215585113 0.7215585113
	0.7224591970 0.7224591970 0.7224591970
	0.7233598828 0.7233598828 0.7233598828
	0.7242605090 0.7242605090 0.7242605090
	0.7251611948 0.7251611948 0.7251611948
	0.7260618806 0.7260618806 0.7260618806
	0.7269625068 0.7269625068 0.7269625068
	0.7278631926 0.7278631926 0.7278631926
	0.7287638783 0.7287638783 0.7287638783
	0.7296645045 0.7296645045 0.7296645045
	0.7305387855 0.7305387855 0.7305387855
	0.7313973904 0.7313973904 0.7313973904
	0.7322559953 0.7322559953 0.7322559953
	0.7331146002 0.7331146002 0.7331146002
	0.7339732051 0.7339732051 0.7339732051
	0.7348316908 0.7348316908 0.7348316908
	0.7356902957 0.7356902957 0.7356902957
	0.7365489006 0.7365489006 0.7365489006
	0.7374075055 0.7374075055 0.7374075055
	0.7382661104 0.7382661104 0.7382661104
	0.7391247153 0.7391247153 0.7391247153
	0.7399833202 0.7399833202 0.7399833202
	0.7408018112 0.7408018112 0.7408018112
	0.7416195273 0.7416195273 0.7416195273
	0.7424373031 0.7424373031 0.7424373031
	0.7432550192 0.7432550192 0.7432550192
	0.7440726757 0.7440726757 0.7440726757
	0.7448903918 0.7448903918 0.7448903918
	0.7457082272 0.7457082272 0.7457082272
	0.7465258837 0.7465258837 0.7465258837
	0.7473435998 0.7473435998 0.7473435998
	0.7481613755 0.7481613755 0.7481613755
	0.7489790916 0.7489790916 0.7489790916
	0.7497968078 0.7497968078 0.7497968078
	0.7505847812 0.7505847812 0.7505847812
	0.7513629794 0.7513629794 0.7513629794
	0.7521411777 0.7521411777 0.7521411777
	0.7529193759 0.7529193759 0.7529193759
	0.7536975145 0.7536975145 0.7536975145
	0.7544757128 0.7544757128 0.7544757128
	0.7552539110 0.7552539110 0.7552539110
	0.7560319901 0.7560319901 0.7560319901
	0.7568101883 0.7568101883 0.7568101883
	0.7575883865 0.7575883865 0.7575883865
	0.7583665848 0.7583665848 0.7583665848
	0.7591447234 0.7591447234 0.7591447234
	0.7599229217 0.7599229217 0.7599229217
	0.7606667280 0.7606667280 0.7606667280
	0.7614067197 0.7614067197 0.7614067197
	0.7621465921 0.7621465921 0.7621465921
	0.7628865838 0.7628865838 0.7628865838
	0.7636265755 0.7636265755 0.7636265755
	0.7643666267 0.7643666267 0.7643666267
	0.7651066184 0.7651066184 0.7651066184
	0.7658466101 0.7658466101 0.7658466101
	0.7665864825 0.7665864825 0.7665864825
	0.7673264742 0.7673264742 0.7673264742
	0.7680665255 0.7680665255 0.7680665255
	0.7688065171 0.7688065171 0.7688065171
	0.7695465088 0.7695465088 0.7695465088
	0.7702721953 0.7702721953 0.7702721953
	0.7709754109 0.7709754109 0.7709754109
	0.7716786265 0.7716786265 0.7716786265
	0.7723817825 0.7723817825 0.7723817825
	0.7730849981 0.7730849981 0.7730849981
	0.7737882733 0.7737882733 0.7737882733
	0.7744914889 0.7744914889 0.7744914889
	0.7751947045 0.7751947045 0.7751947045
	0.7758979201 0.7758979201 0.7758979201
	0.7766010761 0.7766010761 0.7766010761
	0.7773042917 0.7773042917 0.7773042917
	0.7780075073 0.7780075073 0.7780075073
	0.7787107229 0.7787107229 0.7787107229
	0.7794138789 0.7794138789 0.7794138789
	0.7801111937 0.7801111937 0.7801111937
	0.7807791233 0.7807791233 0.7807791233
	0.7814469934 0.7814469934 0.7814469934
	0.7821149230 0.7821149230 0.7821149230
	0.7827826738 0.7827826738 0.7827826738
	0.7834506035 0.7834506035 0.7834506035
	0.7841184735 0.7841184735 0.7841184735
	0.7847864032 0.7847864032 0.7847864032
	0.7854542136 0.7854542136 0.7854542136
	0.7861220837 0.7861220837 0.7861220837
	0.7867900133 0.7867900133 0.7867900133
	0.7874578834 0.7874578834 0.7874578834
	0.7881256938 0.7881256938 0.7881256938
	0.7887936234 0.7887936234 0.7887936234
	0.7894614935 0.7894614935 0.7894614935
	0.7901228070 0.7901228070 0.7901228070
	0.7907568216 0.7907568216 0.7907568216
	0.7913907766 0.7913907766 0.7913907766
	0.7920247912 0.7920247912 0.7920247912
	0.7926588058 0.7926588058 0.7926588058
	0.7932928801 0.7932928801 0.7932928801
	0.7939268947 0.7939268947 0.7939268947
	0.7945609093 0.7945609093 0.7945609093
	0.7951949239 0.7951949239 0.7951949239
	0.7958288789 0.7958288789 0.7958288789
	0.7964628935 0.7964628935 0.7964628935
	0.7970969081 0.7970969081 0.7970969081
	0.7977309227 0.7977309227 0.7977309227
	0.7983648777 0.7983648777 0.7983648777
	0.7989988923 0.7989988923 0.7989988923
	0.7996329069 0.7996329069 0.7996329069
	0.8002532721 0.8002532721 0.8002532721
	0.8008549213 0.8008549213 0.8008549213
	0.8014565110 0.8014565110 0.8014565110
	0.8020581007 0.8020581007 0.8020581007
	0.8026596904 0.8026596904 0.8026596904
	0.8032613993 0.8032613993 0.8032613993
	0.8038629889 0.8038629889 0.8038629889
	0.8044645786 0.8044645786 0.8044645786
	0.8050662279 0.8050662279 0.8050662279
	0.8056678176 0.8056678176 0.8056678176
	0.8062694073 0.8062694073 0.8062694073
	0.8068709970 0.8068709970 0.8068709970
	0.8074725866 0.8074725866 0.8074725866
	0.8080741763 0.8080741763 0.8080741763
	0.8086758256 0.8086758256 0.8086758256
	0.8092774153 0.8092774153 0.8092774153
	0.8098791242 0.8098791242 0.8098791242
	0.8104559183 0.8104559183 0.8104559183
	0.8110265732 0.8110265732 0.8110265732
	0.8115972877 0.8115972877 0.8115972877
	0.8121680021 0.8121680021 0.8121680021
	0.8127385974 0.8127385974 0.8127385974
	0.8133093119 0.8133093119 0.8133093119
	0.8138800263 0.8138800263 0.8138800263
	0.8144506216 0.8144506216 0.8144506216
	0.8150212765 0.8150212765 0.8150212765
	0.8155919909 0.8155919909 0.8155919909
	0.8161625862 0.8161625862 0.8161625862
	0.8167333007 0.8167333007 0.8167333007
	0.8173040152 0.8173040152 0.8173040152
	0.8178747296 0.8178747296 0.8178747296
	0.8184453249 0.8184453249 0.8184453249
	0.8190159798 0.8190159798 0.8190159798
	0.8195866942 0.8195866942 0.8195866942
	0.8201491833 0.8201491833 0.8201491833
	0.8206903934 0.8206903934 0.8206903934
	0.8212316036 0.8212316036 0.8212316036
	0.8217726946 0.8217726946 0.8217726946
	0.8223139048 0.8223139048 0.8223139048
	0.8228551149 0.8228551149 0.8228551149
	0.8233962059 0.8233962059 0.8233962059
	0.8239374161 0.8239374161 0.8239374161
	0.8244786263 0.8244786263 0.8244786263
	0.8250197768 0.8250197768 0.8250197768
	0.8255609274 0.8255609274 0.8255609274
	0.8261020780 0.8261020780 0.8261020780
	0.8266432881 0.8266432881 0.8266432881
	0.8271844983 0.8271844983 0.8271844983
	0.8277255893 0.8277255893 0.8277255893
	0.8282667994 0.8282667994 0.8282667994
	0.8288080096 0.8288080096 0.8288080096
	0.8293492198 0.8293492198 0.8293492198
	0.8298903108 0.8298903108 0.8298903108
	0.8304091096 0.8304091096 0.8304091096
	0.8309221864 0.8309221864 0.8309221864
	0.8314353228 0.8314353228 0.8314353228
	0.8319483995 0.8319483995 0.8319483995
	0.8324614763 0.8324614763 0.8324614763
	0.8329746127 0.8329746127 0.8329746127
	0.8334876895 0.8334876895 0.8334876895
	0.8340008259 0.8340008259 0.8340008259
	0.8345139027 0.8345139027 0.8345139027
	0.8350269794 0.8350269794 0.8350269794
	0.8355401158 0.8355401158 0.8355401158
	0.8360531926 0.8360531926 0.8360531926
	0.8365663290 0.8365663290 0.8365663290
	0.8370794058 0.8370794058 0.8370794058
	0.8375924826 0.8375924826 0.8375924826
	0.8381056190 0.8381056190 0.8381056190
	0.8386186957 0.8386186957 0.8386186957
	0.8391317725 0.8391317725 0.8391317725
	0.8396449089 0.8396449089 0.8396449089
	0.8401497006 0.8401497006 0.8401497006
	0.8406361938 0.8406361938 0.8406361938
	0.8411226273 0.8411226273 0.8411226273
	0.8416090012 0.8416090012 0.8416090012
	0.8420953751 0.8420953751 0.8420953751
	0.8425818086 0.8425818086 0.8425818086
	0.8430681825 0.8430681825 0.8430681825
	0.8435546160 0.8435546160 0.8435546160
	0.8440409899 0.8440409899 0.8440409899
	0.8445274234 0.8445274234 0.8445274234
	0.8450137973 0.8450137973 0.8450137973
	0.8455001712 0.8455001712 0.8455001712
	0.8459866047 0.8459866047 0.8459866047
	0.8464729786 0.8464729786 0.8464729786
	0.8469594121 0.8469594121 0.8469594121
	0.8474457860 0.8474457860 0.8474457860
	0.8479322195 0.8479322195 0.8479322195
	0.8484185934 0.8484185934 0.8484185934
	0.8489050269 0.8489050269 0.8489050269
	0.8493914008 0.8493914008 0.8493914008
	0.8498777747 0.8498777747 0.8498777747
	0.8503453135 0.8503453135 0.8503453135
	0.8508062959 0.8508062959 0.8508062959
	0.8512673974 0.8512673974 0.8512673974
	0.8517283797 0.8517283797 0.8517283797
	0.8521894813 0.8521894813 0.8521894813
	0.8526505828 0.8526505828 0.8526505828
	0.8531116247 0.8531116247 0.8531116247
	0.8535727262 0.8535727262 0.8535727262
	0.8540337086 0.8540337086 0.8540337086
	0.8544948101 0.8544948101 0.8544948101
	0.8549559116 0.8549559116 0.8549559116
	0.8554168940 0.8554168940 0.8554168940
	0.8558779955 0.8558779955 0.8558779955
	0.8563390970 0.8563390970 0.8563390970
	0.8568000793 0.8568000793 0.8568000793
	0.8572611809 0.8572611809 0.8572611809
	0.8577222228 0.8577222228 0.8577222228
	0.8581833243 0.8581833243 0.8581833243
	0.8586444259 0.8586444259 0.8586444259
	0.8591054082 0.8591054082 0.8591054082
	0.8595665097 0.8595665097 0.8595665097
	0.8600261211 0.8600261211 0.8600261211
	0.8604630828 0.8604630828 0.8604630828
	0.8609001040 0.8609001040 0.8609001040
	0.8613371849 0.8613371849 0.8613371849
	0.8617742062 0.8617742062 0.8617742062
	0.8622112274 0.8622112274 0.8622112274
	0.8626481891 0.8626481891 0.8626481891
	0.8630852103 0.8630852103 0.8630852103
	0.8635222912 0.8635222912 0.8635222912
	0.8639593124 0.8639593124 0.8639593124
	0.8643962741 0.8643962741 0.8643962741
	0.8648332953 0.8648332953 0.8648332953
	0.8652703166 0.8652703166 0.8652703166
	0.8657073975 0.8657073975 0.8657073975
	0.8661444187 0.8661444187 0.8661444187
	0.8665813804 0.8665813804 0.8665813804
	0.8670184016 0.8670184016 0.8670184016
	0.8674554229 0.8674554229 0.8674554229
	0.8678925037 0.8678925037 0.8678925037
	0.8683295250 0.8683295250 0.8683295250
	0.8687664866 0.8687664866 0.8687664866
	0.8692035079 0.8692035079 0.8692035079
	0.8696405888 0.8696405888 0.8696405888
