release/datafiles/colormanagement/luts/film_response/kodak_portra_100t.spi1d
Version 1
From 0.0 1.0
Length 1024
Components 3
{
	0.0000000000 0.0000000000 0.0000000000
	0.0078889886 0.0072905929 0.0057835742
	0.0155280400 0.0142424498 0.0110800304
	0.0223259609 0.0204148795 0.0157516599
	0.0282847900 0.0258345399 0.0199356508
	0.0338022411 0.0308287591 0.0238022301
	0.0387409404 0.0354198888 0.0274327602
	0.0434868000 0.0397184007 0.0308620799
	0.0479348600 0.0437957905 0.0341565795
	0.0521249995 0.0477067716 0.0373548716
	0.0560929887 0.0514680110 0.0404086895
	0.0599000603 0.0551049784 0.0433653891
	0.0636395887 0.0585507713 0.0462335311
	0.0673073381 0.0619252101 0.0490648411
	0.0708674565 0.0652377531 0.0518452115
	0.0742941722 0.0684634522 0.0545356311
	0.0776154101 0.0715824589 0.0571359284
	0.0808518305 0.0746066868 0.0596979707
	0.0840119570 0.0775315836 0.0622345991
	0.0870610103 0.0803711265 0.0647289529
	0.0900357366 0.0831752867 0.0671606734
	0.0929580331 0.0859571993 0.0695598572
	0.0958346874 0.0887065008 0.0719215125
	0.0986543819 0.0914179012 0.0742511526
	0.1014280990 0.0940862000 0.0765401274
	0.1041439995 0.0967277288 0.0788079128
	0.1068262011 0.0993322283 0.0810511932
	0.1094703972 0.1018816978 0.0832685530
	0.1121027023 0.1043870971 0.0854593366
	0.1147300974 0.1068421006 0.0876216292
	0.1173269004 0.1092239022 0.0897513777
	0.1198854968 0.1115904003 0.0918506086
	0.1224000975 0.1139374003 0.0939252079
	0.1248695031 0.1162879989 0.0959772170
	0.1273149997 0.1186162010 0.0980132222
	0.1297475994 0.1209222972 0.1000507995
	0.1321358979 0.1232006028 0.1020739973
	0.1344795972 0.1254397035 0.1040984020
	0.1368041933 0.1276575029 0.1060978994
	0.1391019970 0.1298466027 0.1080757976
	0.1413698047 0.1320064962 0.1100341976
	0.1435928941 0.1341473013 0.1119635031
	0.1457892954 0.1362611055 0.1138700023
	0.1479541063 0.1383730024 0.1157647967
	0.1501048058 0.1404493004 0.1176467985
	0.1522224993 0.1425213069 0.1195039973
	0.1543388963 0.1445824057 0.1213504001
	0.1564362943 0.1466197073 0.1231838018
	0.1585174948 0.1486462057 0.1250088066
	0.1605857015 0.1506392062 0.1268348992
	0.1626347005 0.1526177973 0.1286439002
	0.1646862030 0.1546075940 0.1304429024
	0.1667335927 0.1565793008 0.1322406977
	0.1687652022 0.1585436016 0.1340295970
	0.1707780957 0.1604935974 0.1357980967
	0.1727759987 0.1624072939 0.1375523061
	0.1747658998 0.1643151045 0.1393052936
	0.1767490953 0.1662092954 0.1410588026
	0.1787372977 0.1680783033 0.1427990049
	0.1807080060 0.1699371934 0.1445256025
	0.1826650947 0.1718004048 0.1462455988
	0.1846058965 0.1736536026 0.1479606032
	0.1865195930 0.1754879057 0.1496645957
	0.1884177029 0.1773201972 0.1513437033
	0.1903073043 0.1791377962 0.1530140042
	0.1921796948 0.1809280068 0.1546792984
	0.1940302998 0.1827086061 0.1563450992
	0.1958549023 0.1844934970 0.1580031067
	0.1976682991 0.1862594038 0.1596433967
	0.1994695961 0.1880051941 0.1612734050
	0.2012577057 0.1897480041 0.1628941000
	0.2030259073 0.1914830059 0.1645098031
	0.2047819048 0.1931872070 0.1661248058
	0.2065176964 0.1948740035 0.1677244008
	0.2082248926 0.1965582073 0.1693145037
	0.2099235952 0.1982422024 0.1708988994
	0.2116315067 0.1999278069 0.1724735051
	0.2133346945 0.2015964985 0.1740391999
	0.2150184065 0.2032589018 0.1755944937
	0.2167019993 0.2049262971 0.1771457046
	0.2183800042 0.2065898031 0.1786843985
	0.2200523019 0.2082391977 0.1802140027
	0.2217144072 0.2098809928 0.1817325056
	0.2233763039 0.2115218937 0.1832381040
	0.2250375003 0.2131509036 0.1847354025
	0.2266878933 0.2147578001 0.1862273067
	0.2283222973 0.2163494974 0.1877095997
	0.2299540937 0.2179363966 0.1891891062
	0.2315769047 0.2195288986 0.1906653941
	0.2331923991 0.2211087048 0.1921359003
	0.2347972989 0.2226725072 0.1936012954
	0.2363962978 0.2242244929 0.1950621009
	0.2379969060 0.2257725000 0.1965180039
	0.2395913005 0.2273270935 0.1979725063
	0.2411745936 0.2288744003 0.1994252056
	0.2427513003 0.2304067016 0.2008765042
	0.2443210930 0.2319256067 0.2023257017
	0.2458810061 0.2334371954 0.2037705034
	0.2474320978 0.2349530011 0.2052136958
	0.2489770949 0.2364764959 0.2066580951
	0.2505179048 0.2380003035 0.2081031054
	0.2520565093 0.2395125926 0.2095465064
	0.2535842061 0.2410165966 0.2109802067
	0.2551011145 0.2425200939 0.2124101967
	0.2566075027 0.2440229058 0.2138369977
	0.2581019104 0.2455164939 0.2152577937
	0.2595993876 0.2469965965 0.2166765928
	0.2610979974 0.2484685034 0.2180949003
	0.2625960112 0.2499337047 0.2195139974
	0.2640933990 0.2513996959 0.2209234983
	0.2655884027 0.2528609037 0.2223280966
	0.2670783103 0.2543111145 0.2237278074
	0.2685579062 0.2557500899 0.2251172066
	0.2700324059 0.2571833134 0.2265006006
	0.2715004086 0.2586081922 0.2278756052
	0.2729619145 0.2600342035 0.2292470932
	0.2744210064 0.2614606023 0.2306170017
	0.2758783996 0.2628875077 0.2319861054
	0.2773306072 0.2643063962 0.2333521992
	0.2787795067 0.2657200098 0.2347161025
	0.2802197933 0.2671194077 0.2360662967
	0.2816554010 0.2685183883 0.2374131978
	0.2830832005 0.2699165940 0.2387543023
	0.2845051885 0.2713209987 0.2400884926
	0.2859246135 0.2727270126 0.2414194047
	0.2873364091 0.2741222978 0.2427445948
	0.2887467146 0.2755121887 0.2440689951
	0.2901543975 0.2768926919 0.2453920990
	0.2915565968 0.2782715857 0.2467114031
	0.2929557860 0.2796497047 0.2480283976
	0.2943511903 0.2810314000 0.2493402064
	0.2957446873 0.2824105918 0.2506507039
	0.2971296012 0.2837719917 0.2519558966
	0.2985079885 0.2851282954 0.2532579899
	0.2998743057 0.2864750028 0.2545535862
	0.3012337983 0.2878203988 0.2558461130
	0.3025875092 0.2891646028 0.2571358085
	0.3039326966 0.2905083001 0.2584241033
	0.3052744865 0.2918517888 0.2597118020
	0.3066090047 0.2931913137 0.2609947026
	0.3079420924 0.2945300043 0.2622764111
	0.3092617095 0.2958604097 0.2635529041
	0.3105807900 0.2971901000 0.2648288012
	0.3119010031 0.2985129058 0.2660990953
	0.3132201135 0.2998352051 0.2673687041
	0.3145304024 0.3011538088 0.2686296105
	0.3158377111 0.3024721146 0.2698898911
	0.3171265125 0.3037881851 0.2711451054
	0.3184145093 0.3051016033 0.2723999918
	0.3196972907 0.3063997030 0.2736532986
	0.3209798932 0.3076966107 0.2749058902
	0.3222613931 0.3089852929 0.2761533856
	0.3235423863 0.3102742136 0.2774004936
	0.3248170912 0.3115651011 0.2786423862
	0.3260917962 0.3128559887 0.2798843086
	0.3273518085 0.3141461015 0.2811206877
	0.3286117911 0.3154362142 0.2823570967
	0.3298718929 0.3167093098 0.2835853994
	0.3311319947 0.3179805875 0.2848125100
	0.3323861063 0.3192439079 0.2860355973
	0.3336383998 0.3205048144 0.2872571945
	0.3348825872 0.3217664957 0.2884761989
	0.3361215889 0.3230285943 0.2896933854
	0.3373571038 0.3242911100 0.2909066081
	0.3385877907 0.3255540133 0.2921139002
	0.3398196995 0.3268145919 0.2933216989
	0.3410564065 0.3280658126 0.2945317924
	0.3422931135 0.3293170929 0.2957417965
	0.3435252011 0.3305566907 0.2969467938
	0.3447571099 0.3317956924 0.2981514931
	0.3459787965 0.3330340087 0.2993502021
	0.3471955061 0.3342720866 0.3005459011
	0.3484120071 0.3355073035 0.3017396927
	0.3496277034 0.3367376029 0.3029299974
	0.3508433104 0.3379676044 0.3041202128
	0.3520529866 0.3391881883 0.3053084910
	0.3532628119 0.3404087126 0.3064967096
	0.3544704020 0.3416185081 0.3076831102
	0.3556770086 0.3428226113 0.3088682890
	0.3568829894 0.3440254033 0.3100539148
	0.3580872118 0.3452241123 0.3112407029
	0.3592914045 0.3464227021 0.3124274015
	0.3604977131 0.3476234078 0.3136095107
	0.3617044985 0.3488247097 0.3147901893
	0.3629097939 0.3500243127 0.3159680068
	0.3641118109 0.3512204885 0.3171392083
	0.3653138876 0.3524166942 0.3183102906
	0.3665078878 0.3536022007 0.3194763064
	0.3677001894 0.3547854125 0.3206410110
	0.3688907921 0.3559671938 0.3218050003
	0.3700768948 0.3571453989 0.3229666948
	0.3712630868 0.3583235145 0.3241283894
	0.3724423051 0.3595018089 0.3252857924
	0.3736186028 0.3606801927 0.3264412880
	0.3747946024 0.3618564010 0.3275963068
	0.3759672940 0.3630137146 0.3287459016
	0.3771401048 0.3641709983 0.3298955858
	0.3783135116 0.3653210104 0.3310425878
	0.3794879019 0.3664624989 0.3321863115
	0.3806622028 0.3676039875 0.3333300054
	0.3818334043 0.3687413037 0.3344663978
	0.3830037117 0.3698773980 0.3356004953
	0.3841735125 0.3710137904 0.3367342949
	0.3853363097 0.3721551001 0.3378620148
	0.3864991069 0.3732962906 0.3389897943
	0.3876604140 0.3744358122 0.3401161134
	0.3888185024 0.3755710125 0.3412387073
	0.3899765909 0.3767063022 0.3423613906
	0.3911325037 0.3778327107 0.3434790969
	0.3922863007 0.3789506853 0.3445914984
	0.3934400976 0.3800686896 0.3457039893
	0.3945881128 0.3811818957 0.3468174934
	0.3957333863 0.3822929859 0.3479315042
	0.3968786001 0.3834039867 0.3490453959
	0.3980174065 0.3845176995 0.3501490057
	0.3991548121 0.3856320083 0.3512499034
	0.4002921879 0.3867461979 0.3523508012
	0.4014247954 0.3878605962 0.3534472883
	0.4025569856 0.3889749944 0.3545432985
	0.4036892951 0.3900893927 0.3556393087
	0.4048125148 0.3911888003 0.3567320108
	0.4059354067 0.3922877014 0.3578243852
	0.4070582986 0.3933865130 0.3589169085
	0.4081676006 0.3944776952 0.3600068986
	0.4092766047 0.3955687881 0.3610968888
	0.4103856981 0.3966597915 0.3621867895
	0.4114840925 0.3977529109 0.3632732928
	0.4125820994 0.3988460898 0.3643594980
	0.4136799872 0.3999392986 0.3654457033
	0.4147689044 0.4010387957 0.3665322065
	0.4158565998 0.4021390080 0.3676187098
	0.4169442952 0.4032391906 0.3687050939
	0.4180271924 0.4043292999 0.3697864115
	0.4191086888 0.4054166079 0.3708660007
	0.4201901853 0.4065037966 0.3719455004
	0.4212687910 0.4075860977 0.3730236888
	0.4223456979 0.4086655080 0.3741010129
	0.4234224856 0.4097448885 0.3751783073
	0.4244934916 0.4108251035 0.3762541115
	0.4255565107 0.4119066000 0.3773277998
	0.4266194999 0.4129880965 0.3784016073
	0.4276801050 0.4140700102 0.3794747889
	0.4287301898 0.4151534140 0.3805457950
	0.4297803044 0.4162367880 0.3816167116
	0.4308303893 0.4173201919 0.3826876879
	0.4318735898 0.4183954000 0.3837552965
	0.4329161942 0.4194698036 0.3848226070
	0.4339587092 0.4205440879 0.3858897984
	0.4349972010 0.4216128886 0.3869574070
	0.4360328019 0.4226776063 0.3880251944
	0.4370684922 0.4237422943 0.3890931010
	0.4381031096 0.4248071015 0.3901597857
	0.4391340017 0.4258719981 0.3912216127
	0.4401648939 0.4269368947 0.3922834098
	0.4411959052 0.4280017018 0.3933452070
	0.4422194064 0.4290623963 0.3943997025
	0.4432410896 0.4301218987 0.3954519928
	0.4442627132 0.4311814904 0.3965043128
	0.4452854097 0.4322386980 0.3975546062
	0.4463103116 0.4332911074 0.3986003101
	0.4473350942 0.4343433976 0.3996460140
	0.4483599067 0.4353958070 0.4006916881
	0.4493798018 0.4364373982 0.4017345905
	0.4503985941 0.4374763966 0.4027766883
	0.4514173865 0.4385155141 0.4038187861
	0.4524323940 0.4395537078 0.4048602879
	0.4534361959 0.4405891001 0.4059000015
	0.4544399977 0.4416244924 0.4069396853
	0.4554437995 0.4426599145 0.4079793990
	0.4564459026 0.4436990917 0.4090223908
	0.4574469030 0.4447405040 0.4100672901
	0.4584479928 0.4457817972 0.4111123085
	0.4594491124 0.4468230903 0.4121572077
	0.4604510069 0.4478600025 0.4131881893
	0.4614529908 0.4488969147 0.4142186940
	0.4624550045 0.4499337971 0.4152492881
	0.4634560049 0.4509662986 0.4162780941
	0.4644544125 0.4519883096 0.4173018932
	0.4654527009 0.4530102015 0.4183256924
	0.4664511085 0.4540322125 0.4193494916
	0.4674443901 0.4550513029 0.4203704000
	0.4684332907 0.4560678899 0.4213885963
	0.4694221020 0.4570845068 0.4224067032
	0.4704109132 0.4581010938 0.4234248996
	0.4714013934 0.4591206014 0.4244410992
	0.4723925889 0.4601413012 0.4254566133
	0.4733838141 0.4611620009 0.4264720976
	0.4743750095 0.4621827006 0.4274876118
	0.4753603935 0.4631980062 0.4285031855
	0.4763449132 0.4642125070 0.4295187891
	0.4773294032 0.4652270079 0.4305343926
	0.4783138931 0.4662415087 0.4315499961
	0.4792841971 0.4672405124 0.4325644970
	0.4802536964 0.4682387114 0.4335789979
	0.4812232852 0.4692369103 0.4345934987
	0.4821928144 0.4702351093 0.4356079996
	0.4831587970 0.4712263942 0.4366190135
	0.4841246903 0.4722175002 0.4376297891
	0.4850907028 0.4732086957 0.4386407137
	0.4860565960 0.4741998911 0.4396516085
	0.4870223999 0.4751932025 0.4406566024
	0.4879881144 0.4761866033 0.4416612983
	0.4889538884 0.4771799147 0.4426659942
	0.4899196029 0.4781732857 0.4436706901
	0.4908815026 0.4791612923 0.4446693063
	0.4918429852 0.4801487923 0.4456669092
	0.4928044081 0.4811362028 0.4466646016
	0.4937658906 0.4821236134 0.4476622045
	0.4947195053 0.4831021130 0.4486567080
	0.4956707954 0.4840778112 0.4496499896
	0.4966219962 0.4850535095 0.4506433010
	0.4975732863 0.4860292077 0.4516366124
	0.4985210896 0.4869993031 0.4526301026
	0.4994663000 0.4879654050 0.4536238015
	0.5004115105 0.4889315069 0.4546175897
	0.5013567209 0.4898976088 0.4556112885
	0.5022984147 0.4908634126 0.4566054046
	0.5032333732 0.4918287992 0.4576002955
	0.5041682720 0.4927941859 0.4585951865
	0.5051032901 0.4937596023 0.4595901966
	0.5060374737 0.4947249889 0.4605847895
	0.5069562197 0.4956893921 0.4615682960
	0.5078749061 0.4966539145 0.4625518024
	0.5087934732 0.4976184070 0.4635351896
	0.5097122192 0.4985828996 0.4645186961
	0.5106272101 0.4995400012 0.4654968977
	0.5115404725 0.5004938245 0.4664725959
	0.5124536753 0.5014476180 0.4674482942
	0.5133669972 0.5024012923 0.4684239030
	0.5142818093 0.5033521056 0.4693973958
	0.5152004957 0.5042945743 0.4703643918
	0.5161191821 0.5052371025 0.4713312984
	0.5170379281 0.5061795712 0.4722982943
	0.5179566145 0.5071220994 0.4732652009
	0.5188748837 0.5080627203 0.4742276073
	0.5197929740 0.5090026855 0.4751887023
	0.5207111835 0.5099428296 0.4761497974
	0.5216293931 0.5108827949 0.4771108925
	0.5225464106 0.5118234158 0.4780718088
	0.5234599113 0.5127655268 0.4790318906
	0.5243734121 0.5137075186 0.4799919128
	0.5252867937 0.5146496296 0.4809519947
	0.5262002945 0.5155916810 0.4819121063
	0.5271133780 0.5165237784 0.4828720093
	0.5280262232 0.5174506903 0.4838317931
	0.5289388895 0.5183774829 0.4847916067
	0.5298516750 0.5193043947 0.4857513011
	0.5307645202 0.5202311873 0.4867111146
	0.5316731930 0.5211473107 0.4876579940
	0.5325819254 0.5220631957 0.4886044860
	0.5334905982 0.5229790807 0.4895510077
	0.5343992710 0.5238950253 0.4904974997
	0.5353068709 0.5248103142 0.4914431870
	0.5362116098 0.5257238150 0.4923861027
	0.5371162891 0.5266373754 0.4933289886
	0.5380210280 0.5275508761 0.4942719936
	0.5389257073 0.5284643769 0.4952149093
	0.5398265719 0.5293797851 0.4961544871
	0.5407235026 0.5302973986 0.4970901012
	0.5416203141 0.5312148929 0.4980256855
	0.5425171256 0.5321325064 0.4989612997
	0.5434139967 0.5330500007 0.4998969138
	0.5443124175 0.5339617729 0.5008286834
	0.5452117920 0.5348700881 0.5017580986
	0.5461112261 0.5357784033 0.5026873946
	0.5470106006 0.5366867185 0.5036168098
	0.5479100943 0.5375949740 0.5045462251
	0.5488089919 0.5384951830 0.5054730773
	0.5497077107 0.5393918157 0.5063987970
	0.5506064892 0.5402885079 0.5073245764
	0.5515052080 0.5411852002 0.5082504153
	0.5524039268 0.5420818925 0.5091760755
	0.5533022285 0.5429762006 0.5100972056
	0.5542001724 0.5438696742 0.5110161901
	0.5550982952 0.5447632074 0.5119352937
	0.5559964180 0.5456566811 0.5128542781
	0.5568944216 0.5465502143 0.5137733221
	0.5577896833 0.5474457145 0.5146881938
	0.5586835146 0.5483422875 0.5156006813
	0.5595772862 0.5492389202 0.5165132880
	0.5604711175 0.5501356125 0.5174257755
	0.5613648891 0.5510321856 0.5183383822
	0.5622547269 0.5519235730 0.5192475915
	0.5631409883 0.5528106093 0.5201537013
	0.5640273094 0.5536975861 0.5210598111
	0.5649135709 0.5545846224 0.5219659209
	0.5657997727 0.5554715991 0.5228719711
	0.5666835904 0.5563544035 0.5237771869
	0.5675624013 0.5572292209 0.5246803164
	0.5684412718 0.5581040978 0.5255835056
	0.5693200827 0.5589789152 0.5264865756
	0.5701988935 0.5598536730 0.5273898244
	0.5710769296 0.5607281923 0.5282927155
	0.5719450116 0.5615991950 0.5291919112
	0.5728130937 0.5624700785 0.5300911069
	0.5736811757 0.5633410215 0.5309904218
	0.5745493174 0.5642119050 0.5318896174
	0.5754173994 0.5650827885 0.5327888131
	0.5762851238 0.5659552813 0.5336858034
	0.5771527290 0.5668284297 0.5345818996
	0.5780202746 0.5677015185 0.5354781151
	0.5788878798 0.5685747266 0.5363742113
	0.5797554851 0.5694478154 0.5372703075
	0.5806217790 0.5703194737 0.5381652713
	0.5814853907 0.5711885095 0.5390577912
	0.5823488832 0.5720576048 0.5399503112
	0.5832124949 0.5729265809 0.5408427119
	0.5840761065 0.5737956762 0.5417351723
	0.5849397182 0.5746647120 0.5426276922
	0.5858016014 0.5755252838 0.5435200930
	0.5866631269 0.5763844252 0.5444124937
	0.5875247121 0.5772435069 0.5453047752
	0.5883861780 0.5781025290 0.5461971760
	0.5892478228 0.5789616108 0.5470895171
	0.5901088119 0.5798196197 0.5479819179
	0.5909687281 0.5806747079 0.5488741994
	0.5918287039 0.5815299153 0.5497664213
	0.5926886201 0.5823850036 0.5506587029
	0.5935484767 0.5832400918 0.5515509844
	0.5944083929 0.5840952992 0.5524433255
	0.5952606797 0.5849506259 0.5533313751
	0.5961092114 0.5858058929 0.5542173982
	0.5969576836 0.5866612196 0.5551033020
	0.5978062153 0.5875164866 0.5559893250
	0.5986546874 0.5883718729 0.5568752289
	0.5995032191 0.5892271996 0.5577610731
	0.6003429294 0.5900741816 0.5586416721
	0.6011822820 0.5909208059 0.5595219135
	0.6020215750 0.5917673707 0.5604020953
	0.6028609872 0.5926139951 0.5612822771
	0.6037002802 0.5934606194 0.5621625185
	0.6045382023 0.5943056941 0.5630425215
	0.6053689718 0.5951434970 0.5639213920
	0.6061998010 0.5959812999 0.5648003221
	0.6070305705 0.5968191028 0.5656793118
	0.6078615189 0.5976567864 0.5665581822
	0.6086922884 0.5984945893 0.5674371123
	0.6095213890 0.5993313789 0.5683159828
	0.6103464961 0.6001660228 0.5691947937
	0.6111717224 0.6010006070 0.5700736046
	0.6119968891 0.6018350720 0.5709522963
	0.6128221154 0.6026697159 0.5718311071
	0.6136472821 0.6035043001 0.5727099180
	0.6144716144 0.6043398976 0.5735872984
	0.6152943969 0.6051772237 0.5744621754
	0.6161171794 0.6060143709 0.5753371716
	0.6169400215 0.6068516970 0.5762121081
	0.6177628040 0.6076890230 0.5770869851
	0.6185857058 0.6085262895 0.5779619813
	0.6194078922 0.6093611121 0.5788385272
	0.6202291846 0.6101909280 0.5797184110
	0.6210504770 0.6110206842 0.5805981755
	0.6218718290 0.6118505001 0.5814781189
	0.6226930022 0.6126803756 0.5823580027
	0.6235142946 0.6135101914 0.5832378268
	0.6243357062 0.6143385172 0.5841162801
	0.6251572967 0.6151615977 0.5849894285
	0.6259788871 0.6159847975 0.5858625770
	0.6268004775 0.6168079972 0.5867357254
	0.6276221275 0.6176310778 0.5876088738
	0.6284437180 0.6184542775 0.5884820223
	0.6292651892 0.6192772985 0.5893549919
	0.6300833821 0.6200963259 0.5902221799
	0.6309016943 0.6209151745 0.5910894275
	0.6317198873 0.6217342019 0.5919566154
	0.6325381994 0.6225532293 0.5928236842
	0.6333565116 0.6233721972 0.5936908722
	0.6341747046 0.6241912246 0.5945581198
	0.6349883080 0.6250126958 0.5954239964
	0.6358004212 0.6258351207 0.5962893963
	0.6366125941 0.6266574860 0.5971549153
	0.6374247074 0.6274797916 0.5980203152
	0.6382368207 0.6283022165 0.5988857746
	0.6390489936 0.6291245222 0.5997511744
	0.6398593783 0.6299480796 0.6006168723
	0.6406673789 0.6307734847 0.6014829874
	0.6414753199 0.6315988898 0.6023491025
	0.6422833204 0.6324242949 0.6032152176
	0.6430912018 0.6332497001 0.6040812731
	0.6438992023 0.6340751052 0.6049473882
	0.6447070837 0.6349005103 0.6058135033
	0.6455112100 0.6357209086 0.6066793203
	0.6463152170 0.6365411878 0.6075451970
	0.6471192241 0.6373614073 0.6084110141
	0.6479231119 0.6381816268 0.6092767715
	0.6487271190 0.6390019059 0.6101427078
	0.6495311260 0.6398221254 0.6110085249
	0.6503347754 0.6406397820 0.6118733883
	0.6511383057 0.6414539814 0.6127370000
	0.6519417763 0.6422681808 0.6136006117
	0.6527453065 0.6430823803 0.6144642234
	0.6535487771 0.6438966990 0.6153277755
	0.6543523073 0.6447108984 0.6161913872
	0.6551557779 0.6455250978 0.6170549989
	0.6559563279 0.6463404298 0.6179105043
	0.6567561030 0.6471558809 0.6187639832
	0.6575558782 0.6479713917 0.6196174026
	0.6583557129 0.6487870216 0.6204708219
	0.6591554880 0.6496024728 0.6213243008
	0.6599553227 0.6504179835 0.6221777201
	0.6607547998 0.6512334943 0.6230304241
	0.6615508795 0.6520485878 0.6238759756
	0.6623470187 0.6528638005 0.6247217059
	0.6631432176 0.6536788940 0.6255673170
	0.6639392972 0.6544939876 0.6264129281
	0.6647353768 0.6553090811 0.6272584796
	0.6655315161 0.6561242938 0.6281040907
	0.6663259268 0.6569358706 0.6289486289
	0.6671159267 0.6577392220 0.6297904253
	0.6679059863 0.6585425735 0.6306322813
	0.6686959863 0.6593459845 0.6314740777
	0.6694861054 0.6601492763 0.6323158741
	0.6702761054 0.6609526873 0.6331576705
	0.6710662246 0.6617559791 0.6339995265
	0.6718522906 0.6625568271 0.6348415017
	0.6726325750 0.6633538008 0.6356834769
	0.6734127998 0.6641507149 0.6365255713
	0.6741930842 0.6649476886 0.6373677254
	0.6749733090 0.6657446027 0.6382098198
	0.6757534742 0.6665415764 0.6390517950
	0.6765338182 0.6673386097 0.6398938894
	0.6773107052 0.6681358814 0.6407364011
	0.6780828834 0.6689336896 0.6415793896
	0.6788551211 0.6697314978 0.6424224973
	0.6796272993 0.6705293059 0.6432656050
	0.6803994775 0.6713271141 0.6441085935
	0.6811717153 0.6721249223 0.6449517012
	0.6819438934 0.6729226708 0.6457946897
	0.6827138066 0.6737201810 0.6466346979
	0.6834788918 0.6745169163 0.6474680901
	0.6842439771 0.6753137112 0.6483014226
	0.6850091219 0.6761105061 0.6491346955
	0.6857742071 0.6769071817 0.6499680281
	0.6865392923 0.6777039766 0.6508014202
	0.6873043776 0.6785007715 0.6516346931
	0.6880689263 0.6792957187 0.6524670720
	0.6888297200 0.6800801754 0.6532937884
	0.6895905137 0.6808646917 0.6541203856
	0.6903513074 0.6816490889 0.6549469829
	0.6911121011 0.6824336052 0.6557736993
	0.6918728948 0.6832181215 0.6566002965
	0.6926336884 0.6840025187 0.6574270129
	0.6933944821 0.6847869754 0.6582536101
	0.6941537261 0.6855652928 0.6590738297
	0.6949126720 0.6863427758 0.6598929167
	0.6956717968 0.6871201992 0.6607121229
	0.6964308023 0.6878976226 0.6615312099
	0.6971898079 0.6886749864 0.6623502970
	0.6979488134 0.6894524097 0.6631695032
	0.6987078190 0.6902298927 0.6639885902
	0.6994645000 0.6910073161 0.6648052931
	0.7002186179 0.6917846799 0.6656193733
	0.7009727955 0.6925622225 0.6664335132
	0.7017269731 0.6933395863 0.6672475934
	0.7024810910 0.6941171288 0.6680616140
	0.7032353282 0.6948944926 0.6688756943
	0.7039895058 0.6956719756 0.6696897745
	0.7047435045 0.6964492798 0.6705039144
	0.7054880261 0.6972190738 0.6713137031
	0.7062326074 0.6979889870 0.6721233726
	0.7069771290 0.6987587810 0.6729332209
	0.7077215910 0.6995285749 0.6737430096
	0.7084661722 0.7002984881 0.6745527983
	0.7092106938 0.7010682821 0.6753625274
	0.7099552751 0.7018380761 0.6761723161
	0.7106971145 0.7026013136 0.6769785881
	0.7114353776 0.7033559084 0.6777802110
	0.7121738195 0.7041105032 0.6785817742
	0.7129122019 0.7048650980 0.6793833971
	0.7136505246 0.7056195736 0.6801850200
	0.7143889070 0.7063742280 0.6809865236
	0.7151272893 0.7071288228 0.6817880869
	0.7158656120 0.7078834176 0.6825897098
	0.7165970206 0.7086318135 0.6833915710
	0.7173261046 0.7093781829 0.6841934919
	0.7180553079 0.7101244926 0.6849954128
	0.7187843919 0.7108709216 0.6857973933
	0.7195134759 0.7116172910 0.6865993142
	0.7202426791 0.7123637199 0.6874011755
	0.7209718227 0.7131100893 0.6882030964
	0.7217009068 0.7138565183 0.6890050769
	0.7224162817 0.7146016955 0.6897974014
	0.7231312990 0.7153468132 0.6905894279
	0.7238463163 0.7160919905 0.6913813949
