release/datafiles/colormanagement/luts/film_response/kodak_dscs_3154.spi1d
Version 1
From 0.0 1.0
Length 1024
Components 3
{
	0.0000000000 0.0000000000 0.0000000000
	0.0008270687 0.0012806139 0.0007092019
	0.0016541370 0.0025612270 0.0014184040
	0.0024812061 0.0038418409 0.0021276060
	0.0033082750 0.0051224548 0.0028368081
	0.0041353442 0.0064030681 0.0035460100
	0.0049624122 0.0076836818 0.0042552119
	0.0057894811 0.0089642964 0.0049644141
	0.0066165500 0.0102737201 0.0056736148
	0.0074436190 0.0117049702 0.0063828169
	0.0082706874 0.0131362099 0.0070920191
	0.0090977559 0.0145674599 0.0078012212
	0.0099248253 0.0159987099 0.0085104229
	0.0108320098 0.0174299609 0.0092196250
	0.0117472196 0.0188612100 0.0099288272
	0.0126624200 0.0203272700 0.0107055604
	0.0135776196 0.0219289195 0.0114898197
	0.0144928200 0.0235305596 0.0122740902
	0.0154080195 0.0251322109 0.0130583504
	0.0163232200 0.0267338492 0.0138426097
	0.0172384195 0.0283354893 0.0146268802
	0.0181536209 0.0299371406 0.0154111404
	0.0190688204 0.0317234285 0.0161953997
	0.0199840199 0.0335172787 0.0169796702
	0.0209966209 0.0353111215 0.0177639294
	0.0220109392 0.0371049605 0.0185481999
	0.0230252706 0.0388987996 0.0193324592
	0.0240395907 0.0407759696 0.0201293100
	0.0250539202 0.0427856296 0.0209981594
	0.0260682497 0.0447952896 0.0218669996
	0.0270825699 0.0468049496 0.0227358509
	0.0280968994 0.0488146096 0.0236046892
	0.0291112196 0.0509230010 0.0244735405
	0.0301393494 0.0531734005 0.0253423806
	0.0312651210 0.0554237999 0.0262112301
	0.0323909000 0.0576741993 0.0270800795
	0.0335166790 0.0599245988 0.0279489197
	0.0346424617 0.0624321401 0.0288177691
	0.0357682407 0.0649486035 0.0296866093
	0.0368940197 0.0674650520 0.0306164194
	0.0380197987 0.0699815080 0.0315806195
	0.0391455814 0.0727861822 0.0325448215
	0.0403015316 0.0755929798 0.0335090198
	0.0415524915 0.0783997923 0.0344732217
	0.0428034514 0.0813405216 0.0354374312
	0.0440544114 0.0844588801 0.0364016294
	0.0453053713 0.0875772387 0.0373658314
	0.0465563312 0.0907685384 0.0383300297
	0.0478072912 0.0942139179 0.0392942317
	0.0490582511 0.0976593122 0.0402872488
	0.0503439009 0.1012116969 0.0413589515
	0.0517351814 0.1049906015 0.0424306504
	0.0531264618 0.1087696031 0.0435023494
	0.0545177385 0.1127699018 0.0445740595
	0.0559090301 0.1168769971 0.0456457585
	0.0573003106 0.1210578978 0.0467174612
	0.0586915910 0.1254729033 0.0477891602
	0.0600922108 0.1298878938 0.0488608703
	0.0616402999 0.1345676035 0.0499325693
	0.0631883815 0.1392543018 0.0511177592
	0.0647364631 0.1441261023 0.0523105711
	0.0662845522 0.1490330994 0.0535033792
	0.0678326264 0.1540661007 0.0546961986
	0.0693807229 0.1591300964 0.0558890104
	0.0710334405 0.1642663032 0.0570818186
	0.0727559403 0.1694173962 0.0582746305
	0.0744784400 0.1745833009 0.0594674386
	0.0762009397 0.1797512025 0.0607356615
	0.0779234320 0.1848731041 0.0620646887
	0.0796459317 0.1899926066 0.0633937269
	0.0815215707 0.1950089037 0.0647227690
	0.0834368318 0.2000242025 0.0660518110
	0.0853521004 0.2048937976 0.0673808381
	0.0872673616 0.2097633928 0.0687098801
	0.0891826227 0.2144646943 0.0700433925
	0.0912189633 0.2191573977 0.0715252534
	0.0933454409 0.2236897051 0.0730071068
	0.0954719111 0.2281869054 0.0744889826
	0.0975983888 0.2325620949 0.0759708434
	0.0997248664 0.2368548959 0.0774526969
	0.1020506024 0.2410928011 0.0789345577
	0.1044057980 0.2451802045 0.0804644004
	0.1067610979 0.2492675036 0.0821170136
	0.1091163978 0.2531898916 0.0837696269
	0.1116243005 0.2570762932 0.0854222402
	0.1142238006 0.2609150112 0.0870748535
	0.1168233976 0.2646088004 0.0887274593
	0.1194228977 0.2683025002 0.0904237032
	0.1222214997 0.2718980014 0.0922659934
	0.1250769049 0.2754099071 0.0941082835
	0.1279322952 0.2789216936 0.0959505737
	0.1308598965 0.2823159099 0.0977928713
	0.1339771003 0.2856579125 0.0996351615
	0.1370943040 0.2889998853 0.1016450971
	0.1402291059 0.2922315896 0.1036963984
	0.1436063051 0.2954162955 0.1057477966
	0.1469835043 0.2986010015 0.1077990979
	0.1503873020 0.3017044067 0.1098503992
	0.1540133953 0.3047442138 0.1121131033
	0.1576395929 0.3077841103 0.1143923029
	0.1613450944 0.3107880056 0.1166715994
	0.1651988029 0.3136951029 0.1189509034
	0.1690524071 0.3166022003 0.1213624030
	0.1730536968 0.3195092976 0.1238868013
	0.1771031022 0.3223156929 0.1264111996
	0.1811967939 0.3251017034 0.1289356053
	0.1854016036 0.3278875947 0.1316096932
	0.1896062940 0.3306469023 0.1343929023
	0.1939094067 0.3333224058 0.1371762007
	0.1982226968 0.3359979987 0.1399594992
	0.2025707066 0.3386735022 0.1430062056
	0.2069430053 0.3412984908 0.1460568011
	0.2113184035 0.3438735902 0.1491073966
	0.2157011032 0.3464488089 0.1523478031
	0.2200832069 0.3490239978 0.1556666940
	0.2244319022 0.3515425920 0.1589855999
	0.2287805974 0.3540267050 0.1624847949
	0.2330776006 0.3565106988 0.1660633981
	0.2373543978 0.3589948118 0.1696420014
	0.2415924072 0.3614296019 0.1734369993
	0.2457672954 0.3638310134 0.1772560030
	0.2499420941 0.3662323952 0.1811341941
	0.2539947033 0.3686338067 0.1851633936
	0.2580456138 0.3710030019 0.1891925931
	0.2620247900 0.3733294904 0.1933576018
	0.2659370899 0.3756558895 0.1975566000
	0.2698495090 0.3779824078 0.2018067986
	0.2736209035 0.3802998960 0.2061281949
	0.2773866057 0.3825586140 0.2104569972
	0.2811067104 0.3848172128 0.2148493975
	0.2847231030 0.3870758116 0.2192417979
	0.2883394957 0.3893344998 0.2236506939
	0.2918758094 0.3915497959 0.2280631959
	0.2953441143 0.3937469125 0.2324603051
	0.2988123894 0.3959440887 0.2368455976
	0.3021861017 0.3981412947 0.2412119061
	0.3055104911 0.4003298879 0.2455295026
	0.3088349998 0.4024715126 0.2498470992
	0.3120698929 0.4046129882 0.2540681958
	0.3152567148 0.4067544937 0.2582857013
	0.3184433877 0.4088960886 0.2624298036
	0.3215635121 0.4110131860 0.2665235102
	0.3246200085 0.4131042957 0.2705960870
	0.3276765049 0.4151954055 0.2745501995
	0.3307037055 0.4172866046 0.2785041928
	0.3336381018 0.4193777144 0.2823660076
	0.3365724981 0.4214367867 0.2861714959
	0.3395070136 0.4234822094 0.2899771035
	0.3423467875 0.4255276918 0.2936319113
	0.3451676071 0.4275731146 0.2972859144
	0.3479883969 0.4296185970 0.3009010851
	0.3507789969 0.4316303134 0.3044045866
	0.3534946144 0.4336344004 0.3079079986
	0.3562101126 0.4356383979 0.3113526106
	0.3589256108 0.4376423955 0.3147099912
	0.3615824878 0.4396465123 0.3180673122
	0.3642010987 0.4416194856 0.3213653862
	0.3668195903 0.4435859025 0.3245829940
	0.3694381118 0.4455522895 0.3278006911
	0.3719865084 0.4475187063 0.3309766054
	0.3745158017 0.4494850039 0.3340623081
	0.3770450950 0.4514260888 0.3371481001
	0.3795743883 0.4533582032 0.3402245045
	0.3820356131 0.4552902877 0.3431868851
	0.3844830990 0.4572224021 0.3461492956
	0.3869304955 0.4591544867 0.3491117060
	0.3893780112 0.4610689878 0.3519938886
	0.3917695880 0.4629696906 0.3548417091
	0.3941422105 0.4648705125 0.3576894999
	0.3965147138 0.4667713046 0.3605172932
	0.3988873065 0.4686720073 0.3632592857
	0.4012235105 0.4705640972 0.3660013080
	0.4035275877 0.4724361002 0.3687433004
	0.4058316052 0.4743080139 0.3714326024
	0.4081357121 0.4761799872 0.3740772903
	0.4104278982 0.4780519009 0.3767220080
	0.4126693010 0.4799239039 0.3793666065
	0.4149107933 0.4817703068 0.3819434941
	0.4171522856 0.4836156964 0.3844990134
	0.4193938076 0.4854609966 0.3870545030
	0.4215936065 0.4873062968 0.3896099925
	0.4237779975 0.4891516864 0.3920964897
	0.4259622991 0.4909836054 0.3945704997
	0.4281466901 0.4928041101 0.3970445096
	0.4303230941 0.4946246147 0.3995184898
	0.4324553013 0.4964450002 0.4019325972
	0.4345873892 0.4982655048 0.4043321908
	0.4367195070 0.5000848770 0.4067319036
	0.4388515949 0.5018820167 0.4091314971
	0.4409618080 0.5036790967 0.4114879966
	0.4430460930 0.5054761171 0.4138199091
	0.4451304972 0.5072731972 0.4161519110
	0.4472149014 0.5090702772 0.4184837937
	0.4492993057 0.5108565092 0.4207941890
	0.4513547122 0.5126311779 0.4230645001
	0.4533953965 0.5144059062 0.4253348112
	0.4554361105 0.5161805749 0.4276050925
	0.4574767947 0.5179553032 0.4298754930
	0.4595173895 0.5197299719 0.4320927858
	0.4615274966 0.5214862823 0.4343070984
	0.4635280967 0.5232393146 0.4365214109
	0.4655286074 0.5249922872 0.4387356937
	0.4675292075 0.5267453194 0.4409281015
	0.4695298076 0.5284982920 0.4430915117
	0.4715020955 0.5302482843 0.4452548027
	0.4734657109 0.5319799185 0.4474182129
	0.4754293859 0.5337114930 0.4495815039
	0.4773930013 0.5354431868 0.4517075121
	0.4793567061 0.5371748209 0.4538244009
	0.4812973142 0.5389063954 0.4559414089
	0.4832268059 0.5406302214 0.4580583870
	0.4851562977 0.5423403978 0.4601719081
	0.4870857894 0.5440505743 0.4622465968
	0.4890153110 0.5457608104 0.4643214047
	0.4909291863 0.5474711061 0.4663960934
	0.4928269088 0.5491812825 0.4684709013
	0.4947246015 0.5508800745 0.4705354869
	0.4966222942 0.5525686145 0.4725716114
	0.4985199869 0.5542569757 0.4746077955
	0.5004112124 0.5559453964 0.4766440094
	0.5022791028 0.5576338172 0.4786801040
	0.5041469932 0.5593221784 0.4807038903
	0.5060148835 0.5609971285 0.4827046990
	0.5078828931 0.5626630187 0.4847055078
	0.5097507834 0.5643289089 0.4867062867
	0.5115942955 0.5659946799 0.4887070954
	0.5134339929 0.5676606297 0.4906964004
	0.5152738094 0.5693264008 0.4926646054
	0.5171135068 0.5709782243 0.4946328104
	0.5189533234 0.5726205111 0.4966011047
	0.5207813978 0.5742626786 0.4985693097
	0.5225942135 0.5759049058 0.5005292892
	0.5244070292 0.5775471926 0.5024672747
	0.5262197852 0.5791894197 0.5044053197
	0.5280326009 0.5808190107 0.5063433051
	0.5298454762 0.5824362040 0.5082812905
	0.5316343904 0.5840533972 0.5102161169
	0.5334210992 0.5856705904 0.5121259093
	0.5352079272 0.5872877836 0.5140355825
	0.5369945765 0.5889049768 0.5159453154
	0.5387812853 0.5905135870 0.5178549886
	0.5405598879 0.5921041965 0.5197647810
	0.5423210263 0.5936946869 0.5216510296
	0.5440822244 0.5952851772 0.5235339999
	0.5458433032 0.5968757272 0.5254169106
	0.5476043820 0.5984662175 0.5272998810
	0.5493655801 0.6000556946 0.5291827917
	0.5511103868 0.6016175747 0.5310512185
	0.5528460741 0.6031795144 0.5329084992
	0.5545817018 0.6047413945 0.5347657800
	0.5563173890 0.6063032746 0.5366231203
	0.5580530763 0.6078652143 0.5384802818
	0.5597887039 0.6094270945 0.5403330922
	0.5615018010 0.6109694839 0.5421653986
	0.5632117987 0.6125006080 0.5439975858
	0.5649217963 0.6140317917 0.5458298922
	0.5666316748 0.6155629158 0.5476621985
	0.5683416724 0.6170939803 0.5494945049
	0.5700508952 0.6186252236 0.5513088703
	0.5717346072 0.6201528907 0.5531163812
	0.5734183192 0.6216509938 0.5549240112
	0.5751019120 0.6231490970 0.5567315221
	0.5767856240 0.6246472001 0.5585390925
	0.5784692764 0.6261453032 0.5603417754
	0.5801506042 0.6276432872 0.5621244907
	0.5818070769 0.6291413903 0.5639072061
	0.5834636092 0.6306244135 0.5656898022
	0.5851200819 0.6320869923 0.5674725175
	0.5867766142 0.6335496902 0.5692551136
	0.5884330869 0.6350123286 0.5710229874
	0.5900881290 0.6364750266 0.5727801919
	0.5917161703 0.6379376054 0.5745375156
	0.5933442712 0.6394003034 0.5762947202
	0.5949723721 0.6408405900 0.5780519247
	0.5966004729 0.6422653794 0.5798091292
	0.5982285738 0.6436902285 0.5815427899
	0.5998566747 0.6451150179 0.5832737088
	0.6014575958 0.6465398073 0.5850045085
	0.6030557752 0.6479645967 0.5867353082
	0.6046540737 0.6493893862 0.5884662271
	0.6062523127 0.6507912278 0.5901939273
	0.6078504920 0.6521757841 0.5918970108
	0.6094486713 0.6535604000 0.5936000943
	0.6110262275 0.6549450159 0.5953032970
	0.6125928164 0.6563295126 0.5970063806
	0.6141594052 0.6577141285 0.5987095237
	0.6157259941 0.6590986848 0.6004055142
	0.6172925830 0.6604683995 0.6020792723
	0.6188592911 0.6618105173 0.6037530899
	0.6204167008 0.6631525755 0.6054267883
	0.6219497919 0.6644946933 0.6071006060
	0.6234828234 0.6658368111 0.6087743044
	0.6250159144 0.6671789289 0.6104397178
	0.6265488863 0.6685209274 0.6120821238
	0.6280819774 0.6698629856 0.6137245297
	0.6296150088 0.6711651087 0.6153669953
	0.6311213970 0.6724625826 0.6170094013
	0.6326187849 0.6737599969 0.6186518073
	0.6341162920 0.6750574708 0.6202881932
	0.6356136799 0.6763550043 0.6218971014
	0.6371111274 0.6776524782 0.6235058904
	0.6386085153 0.6789500117 0.6251147985
	0.6401032805 0.6802387238 0.6267235875
	0.6415628791 0.6814897060 0.6283324957
	0.6430225968 0.6827408075 0.6299412847
	0.6444821954 0.6839917898 0.6315155029
	0.6459417939 0.6852428913 0.6330882907
	0.6474015117 0.6864938736 0.6346611977
	0.6488611102 0.6877449751 0.6362339854
	0.6503120065 0.6889960170 0.6378068924
	0.6517316103 0.6902375817 0.6393796802
	0.6531512737 0.6914405823 0.6409292221
	0.6545709968 0.6926437020 0.6424635053
	0.6559906006 0.6938467026 0.6439977884
	0.6574103236 0.6950497031 0.6455320716
	0.6588299274 0.6962528229 0.6470664144
	0.6602421999 0.6974558234 0.6486006975
	0.6616197824 0.6986588836 0.6501314044
	0.6629973054 0.6998618841 0.6516245008
	0.6643748879 0.7010213137 0.6531175971
	0.6657524109 0.7021750808 0.6546106935
	0.6671299934 0.7033289075 0.6561039090
	0.6685075164 0.7044826746 0.6575970054
	0.6698850989 0.7056365013 0.6590901017
	0.6712222099 0.7067903280 0.6605660915
	0.6725556254 0.7079440951 0.6620154977
	0.6738889813 0.7090979218 0.6634649038
	0.6752223969 0.7102407813 0.6649141908
	0.6765558124 0.7113444209 0.6663635969
	0.6778892279 0.7124481201 0.6678130031
	0.6792225838 0.7135518193 0.6692622900
	0.6805368066 0.7146555185 0.6706889868
	0.6818242073 0.7157592177 0.6720920801
	0.6831117272 0.7168627977 0.6734951735
	0.6843991280 0.7179664969 0.6748983264
	0.6856865287 0.7190701962 0.6763014197
	0.6869739294 0.7201659083 0.6777045727
	0.6882612705 0.7212188840 0.6791077256
	0.6895486712 0.7222719789 0.6804931164
	0.6908051968 0.7233250737 0.6818476915
	0.6920449734 0.7243781090 0.6832023263
	0.6932848096 0.7254312038 0.6845569015
	0.6945245862 0.7264842987 0.6859114766
	0.6957643032 0.7275372744 0.6872661114
	0.6970040798 0.7285904288 0.6886206269
	0.6982439160 0.7296434045 0.6899752021
	0.6994836926 0.7306630015 0.6912801862
	0.7006949186 0.7316653132 0.6925842166
	0.7018857002 0.7326676250 0.6938881874
	0.7030766010 0.7336698771 0.6951922178
	0.7042673826 0.7346723080 0.6964963078
	0.7054582238 0.7356746197 0.6978002787
	0.7066490054 0.7366768718 0.6991043091
	0.7078399062 0.7376793027 0.7003920078
	0.7090306878 0.7386816144 0.7016437054
	0.7102121711 0.7396839261 0.7028955221
	0.7113531232 0.7406517267 0.7041472197
	0.7124938965 0.7416034937 0.7053989768
	0.7136347294 0.7425553799 0.7066507936
	0.7147756219 0.7435072064 0.7079024911
	0.7159163952 0.7444590926 0.7091543078
	0.7170572281 0.7454109192 0.7103886008
	0.7181981206 0.7463628054 0.7115867734
	0.7193388939 0.7473145723 0.7127850056
	0.7204583883 0.7482665181 0.7139831781
	0.7215486169 0.7492182851 0.7151812911
	0.7226387858 0.7501612902 0.7163795233
	0.7237290144 0.7510632277 0.7175776958
	0.7248191237 0.7519652247 0.7187758088
	0.7259092927 0.7528672218 0.7199739814
	0.7269995213 0.7537690997 0.7211189270
	0.7280896902 0.7546710968 0.7222625017
	0.7291797996 0.7555730939 0.7234061956
	0.7302573919 0.7564749718 0.7245498896
	0.7312965989 0.7573770285 0.7256935835
	0.7323358059 0.7582790256 0.7268372178
	0.7333750129 0.7591809034 0.7279809117
	0.7344142199 0.7600783706 0.7291246057
	0.7354534268 0.7609313726 0.7302554250
	0.7364925742 0.7617843747 0.7313441038
	0.7375317812 0.7626373768 0.7324327826
	0.7385709882 0.7634903789 0.7335215211
	0.7396101952 0.7643433809 0.7346101999
	0.7406175137 0.7651963830 0.7356988788
	0.7416058183 0.7660493851 0.7367876172
	0.7425940037 0.7669023871 0.7378762960
	0.7435823083 0.7677553892 0.7389649749
	0.7445706129 0.7686083913 0.7400509715
	0.7455587983 0.7694613934 0.7410846949
	0.7465471029 0.7702968121 0.7421182990
	0.7475354075 0.7711020112 0.7431520224
	0.7485235929 0.7719072104 0.7441856861
	0.7495118976 0.7727124095 0.7452194095
	0.7504745722 0.7735176086 0.7462530732
	0.7514122725 0.7743229270 0.7472867966
	0.7523499727 0.7751281261 0.7483205199
	0.7532876730 0.7759333253 0.7493541837
	0.7542254925 0.7767385244 0.7503672838
	0.7551631927 0.7775437236 0.7513464093
	0.7561008930 0.7783489823 0.7523254156
	0.7570385933 0.7791541815 0.7533044815
	0.7579764128 0.7799593806 0.7542834878
	0.7589141130 0.7807205915 0.7552626133
	0.7598518133 0.7814794779 0.7562416792
	0.7607476115 0.7822383046 0.7572206855
	0.7616354823 0.7829971910 0.7581998110
	0.7625234127 0.7837560773 0.7591788173
	0.7634112835 0.7845150232 0.7601491809
	0.7642992139 0.7852737904 0.7610744238
	0.7651870847 0.7860326767 0.7619994879
	0.7660750151 0.7867916226 0.7629246712
	0.7669628859 0.7875505090 0.7638499141
	0.7678508162 0.7883092761 0.7647750974
	0.7687386870 0.7890682220 0.7657002807
	0.7696266174 0.7898271084 0.7666255236
	0.7704861760 0.7905514240 0.7675507069
	0.7713252902 0.7912656069 0.7684757710
	0.7721645236 0.7919796705 0.7694010139
	0.7730035782 0.7926939130 0.7703076005
	0.7738426924 0.7934079766 0.7711800933
	0.7746818066 0.7941222191 0.7720525265
	0.7755209208 0.7948362827 0.7729249001
	0.7763599753 0.7955505252 0.7737973928
	0.7771990895 0.7962645888 0.7746698260
	0.7780382037 0.7969787717 0.7755423188
	0.7788773179 0.7976928949 0.7764146924
	0.7797163725 0.7984070778 0.7772871852
	0.7805240154 0.7991213202 0.7781596184
	0.7813156247 0.7998353839 0.7790321112
	0.7821071744 0.8005164862 0.7799044847
	0.7828987241 0.8011876941 0.7807313204
	0.7836902738 0.8018589020 0.7815523744
	0.7844818830 0.8025301099 0.7823736072
	0.7852734923 0.8032013178 0.7831947207
	0.7860651016 0.8038725853 0.7840157747
	0.7868565917 0.8045437932 0.7848370075
	0.7876482010 0.8052150011 0.7856581211
	0.7884398103 0.8058862090 0.7864792943
	0.7892314196 0.8065574169 0.7873004079
	0.7900215983 0.8072286248 0.7881215811
	0.7907671928 0.8078997731 0.7889426947
	0.7915127277 0.8085709810 0.7897638083
	0.7922583222 0.8092421889 0.7905495763
	0.7930037975 0.8099133968 0.7913212180
	0.7937493920 0.8105489016 0.7920926809
	0.7944949269 0.8111789823 0.7928642035
	0.7952405214 0.8118091822 0.7936357856
	0.7959859967 0.8124393821 0.7944073081
	0.7967315912 0.8130695224 0.7951787710
	0.7974771261 0.8136997223 0.7959504128
	0.7982227206 0.8143298030 0.7967218757
	0.7989683151 0.8149600029 0.7974933982
	0.7997137904 0.8155900836 0.7982649803
	0.8004320264 0.8162202835 0.7990365028
	0.8011332154 0.8168504238 0.7998080254
	0.8018345237 0.8174806237 0.8005437255
	0.8025357127 0.8181107044 0.8012676239
	0.8032369018 0.8187409043 0.8019914031
	0.8039380908 0.8193711042 0.8027151823
	0.8046392798 0.8200011253 0.8034390807
	0.8053405285 0.8205922246 0.8041629195
	0.8060417175 0.8211833239 0.8048866987
	0.8067429066 0.8217743039 0.8056105971
	0.8074440956 0.8223654032 0.8063343763
	0.8081452847 0.8229563832 0.8070582151
	0.8088464737 0.8235474825 0.8077819943
	0.8095477223 0.8241385818 0.8085058928
	0.8102337718 0.8247296214 0.8092296720
	0.8108925223 0.8253207207 0.8099535108
	0.8115512133 0.8259118199 0.8106346130
	0.8122099042 0.8265028000 0.8113127947
	0.8128685951 0.8270938993 0.8119909763
	0.8135272264 0.8276848793 0.8126692176
	0.8141859174 0.8282759786 0.8133473992
	0.8148446083 0.8288670778 0.8140255809
	0.8155032992 0.8294581175 0.8147038221
	0.8161619902 0.8300461173 0.8153820038
	0.8168206215 0.8306000829 0.8160601258
	0.8174793124 0.8311539888 0.8167383075
	0.8181380033 0.8317080140 0.8174164891
	0.8187966943 0.8322619796 0.8180946708
	0.8194553852 0.8328160048 0.8187729120
	0.8201069832 0.8333699107 0.8194510937
	0.8207250834 0.8339238763 0.8201209903
	0.8213431239 0.8344779015 0.8207557201
	0.8219612241 0.8350318074 0.8213903904
	0.8225793242 0.8355857730 0.8220251203
	0.8231973052 0.8361397982 0.8226597905
	0.8238154054 0.8366938233 0.8232945204
	0.8244335055 0.8372477293 0.8239293098
	0.8250514865 0.8378016949 0.8245639801
	0.8256695867 0.8383557200 0.8251987100
	0.8262876868 0.8389096260 0.8258333802
	0.8269057274 0.8394635916 0.8264681101
	0.8275238276 0.8400164843 0.8271027803
	0.8281419277 0.8405354023 0.8277375102
	0.8287599087 0.8410543203 0.8283722997
	0.8293780088 0.8415731192 0.8290070295
	0.8299961090 0.8420919776 0.8296416998
	0.8305758238 0.8426108956 0.8302584291
	0.8311551809 0.8431298137 0.8308519125
	0.8317345977 0.8436486721 0.8314453959
	0.8323140740 0.8441675901 0.8320388794
	0.8328934908 0.8446865082 0.8326324224
	0.8334729075 0.8452054262 0.8332257867
	0.8340523839 0.8457242846 0.8338193297
	0.8346318007 0.8462432027 0.8344128132
	0.8352112174 0.8467620015 0.8350062966
	0.8357906938 0.8472809196 0.8355997205
	0.8363701105 0.8477997780 0.8361932039
	0.8369495273 0.8483186960 0.8367866874
	0.8375290036 0.8488376141 0.8373801708
	0.8381084204 0.8493564725 0.8379737139
	0.8386877775 0.8498753905 0.8385670781
	0.8392673135 0.8503690958 0.8391606212
	0.8398466706 0.8508548737 0.8397541046
	0.8403992057 0.8513407111 0.8403248191
	0.8409420252 0.8518266082 0.8408793211
	0.8414847851 0.8523123860 0.8414338231
	0.8420276046 0.8527982235 0.8419883251
	0.8425704837 0.8532840014 0.8425428271
	0.8431133032 0.8537697792 0.8430973291
	0.8436561227 0.8542556167 0.8436517715
	0.8441988826 0.8547413945 0.8442062736
	0.8447417021 0.8552271724 0.8447607756
	0.8452845216 0.8557130098 0.8453152776
	0.8458272815 0.8561987877 0.8458697796
	0.8463702202 0.8566846251 0.8464242816
	0.8469129801 0.8571704030 0.8469787836
	0.8474557996 0.8576561809 0.8475332856
	0.8479986191 0.8581420183 0.8480879068
	0.8485413790 0.8586277962 0.8486424088
	0.8490841985 0.8591135740 0.8491969109
	0.8496270180 0.8595994115 0.8497514129
	0.8501589894 0.8600798249 0.8502855897
	0.8506671786 0.8605344296 0.8508033752
	0.8511754274 0.8609890938 0.8513212204
	0.8516836166 0.8614438176 0.8518390059
	0.8521918058 0.8618984818 0.8523567915
	0.8526999950 0.8623532057 0.8528745770
	0.8532081842 0.8628078103 0.8533924222
	0.8537163734 0.8632624745 0.8539102077
	0.8542246819 0.8637171984 0.8544279933
	0.8547328711 0.8641719222 0.8549457788
	0.8552411199 0.8646265268 0.8554636240
	0.8557493091 0.8650811911 0.8559814095
	0.8562574983 0.8655359149 0.8564991951
	0.8567656875 0.8659905791 0.8570169806
	0.8572738767 0.8664453030 0.8575347066
	0.8577821255 0.8668999076 0.8580524921
	0.8582903147 0.8673545718 0.8585702777
	0.8587985039 0.8678092957 0.8590881228
	0.8593066931 0.8682640195 0.8596059084
	0.8598148823 0.8687186241 0.8601155281
	0.8603023887 0.8691732883 0.8605988026
	0.8607779741 0.8696280122 0.8610820770
	0.8612535000 0.8700773716 0.8615654111
	0.8617290854 0.8705028296 0.8620486856
	0.8622046709 0.8709282875 0.8625320196
	0.8626803160 0.8713536859 0.8630152941
	0.8631559014 0.8717792034 0.8634986281
	0.8636314869 0.8722046018 0.8639819026
	0.8641070724 0.8726301193 0.8644651771
	0.8645827174 0.8730555177 0.8649485111
	0.8650581837 0.8734809756 0.8654317856
	0.8655338287 0.8739064932 0.8659151793
	0.8660094142 0.8743318915 0.8663985133
	0.8664849997 0.8747574091 0.8668817878
	0.8669605851 0.8751828074 0.8673651218
	0.8674361706 0.8756083250 0.8678483963
	0.8679118156 0.8760337234 0.8683316708
	0.8683874011 0.8764591813 0.8688150048
	0.8688629866 0.8768845797 0.8692982793
	0.8693385124 0.8773100972 0.8697816133
	0.8698140979 0.8777354956 0.8702471852
	0.8702710271 0.8781610131 0.8706982136
	0.8707159758 0.8785864711 0.8711491823
	0.8711609244 0.8790119290 0.8716002107
	0.8716058135 0.8794373870 0.8720511198
	0.8720507026 0.8798627853 0.8725020885
	0.8724955916 0.8802697062 0.8729531169
	0.8729405999 0.8806678057 0.8734040856
	0.8733854890 0.8810659051 0.8738551140
	0.8738303781 0.8814638853 0.8743060827
