release/datafiles/colormanagement/luts/film_response/kodak_kodachrome_64.spi1d
Version 1
From 0.0 1.0
Length 1024
Components 3
{
	0.0000000000 0.0000000000 0.0000000000
	0.0001951461 0.0001957432 0.0001951461
	0.0003971827 0.0004013765 0.0003971827
	0.0006093314 0.0006168035 0.0006093314
	0.0008331265 0.0008421433 0.0008331265
	0.0010693250 0.0010800430 0.0010693250
	0.0013165741 0.0013327420 0.0013165741
	0.0015723180 0.0015964990 0.0015723180
	0.0018371070 0.0018691909 0.0018371070
	0.0021111390 0.0021534991 0.0021111390
	0.0023975959 0.0024501081 0.0023975959
	0.0026947369 0.0027620669 0.0026947369
	0.0030043761 0.0030861360 0.0030043761
	0.0033243729 0.0034196740 0.0033243729
	0.0036564060 0.0037631679 0.0036564060
	0.0040000519 0.0041189152 0.0040000519
	0.0043583522 0.0044872048 0.0043583522
	0.0047301622 0.0048662322 0.0047301622
	0.0051159370 0.0052598631 0.0051159370
	0.0055168238 0.0056668199 0.0055168238
	0.0059318189 0.0060855579 0.0059318189
	0.0063606128 0.0065190848 0.0063606128
	0.0068039121 0.0069621201 0.0068039121
	0.0072610150 0.0074171298 0.0072610150
	0.0077324822 0.0078812325 0.0077324822
	0.0082186935 0.0083566681 0.0082186935
	0.0087195607 0.0088426983 0.0087195607
	0.0092373807 0.0093412735 0.0092373807
	0.0097713200 0.0098493528 0.0097713200
	0.0103215296 0.0103719197 0.0103215296
	0.0108859697 0.0109069496 0.0108859697
	0.0114682503 0.0114534898 0.0114682503
	0.0120688202 0.0120149804 0.0120688202
	0.0126871103 0.0125900703 0.0126871103
	0.0133261904 0.0131813204 0.0133261904
	0.0139810601 0.0137880603 0.0139810601
	0.0146569004 0.0144142900 0.0146569004
	0.0153518198 0.0150552802 0.0153518198
	0.0160680693 0.0157083794 0.0160680693
	0.0168081895 0.0163766202 0.0168081895
	0.0175653305 0.0170597993 0.0175653305
	0.0183405094 0.0177551508 0.0183405094
	0.0191343091 0.0184656195 0.0191343091
	0.0199443996 0.0191936009 0.0199443996
	0.0207724404 0.0199350491 0.0207724404
	0.0216247104 0.0206901692 0.0216247104
	0.0224967394 0.0214668401 0.0224967394
	0.0233900901 0.0222598594 0.0233900901
	0.0243038405 0.0230733994 0.0243038405
	0.0252429191 0.0239060391 0.0252429191
	0.0262041409 0.0247574691 0.0262041409
	0.0271870699 0.0256274194 0.0271870699
	0.0281923302 0.0265152995 0.0281923302
	0.0292217396 0.0274243094 0.0292217396
	0.0302699897 0.0283501595 0.0302699897
	0.0313403010 0.0292933993 0.0313403010
	0.0324379094 0.0302557293 0.0324379094
	0.0335581601 0.0312350094 0.0335581601
	0.0347037092 0.0322324112 0.0347037092
	0.0358735509 0.0332520008 0.0358735509
	0.0370708592 0.0342949703 0.0370708592
	0.0382963195 0.0353550985 0.0382963195
	0.0395508707 0.0364397392 0.0395508707
	0.0408340394 0.0375451893 0.0408340394
	0.0421415716 0.0386712812 0.0421415716
	0.0434691012 0.0398181006 0.0434691012
	0.0448197499 0.0409855917 0.0448197499
	0.0461917110 0.0421767011 0.0461917110
	0.0475859195 0.0433861688 0.0475859195
	0.0489974618 0.0446146913 0.0489974618
	0.0504221395 0.0458587706 0.0504221395
	0.0518664904 0.0471218303 0.0518664904
	0.0533314086 0.0484039001 0.0533314086
	0.0548129790 0.0497035906 0.0548129790
	0.0563097298 0.0510205887 0.0563097298
	0.0578255616 0.0523589589 0.0578255616
	0.0593563803 0.0537226684 0.0593563803
	0.0609117001 0.0551059917 0.0609117001
	0.0624887496 0.0565031916 0.0624887496
	0.0640849099 0.0579188913 0.0640849099
	0.0657032207 0.0593533292 0.0657032207
	0.0673418716 0.0608051494 0.0673418716
	0.0690022632 0.0622783490 0.0690022632
	0.0706820935 0.0637728870 0.0706820935
	0.0723833889 0.0652925819 0.0723833889
	0.0741088763 0.0668374375 0.0741088763
	0.0758581236 0.0684004799 0.0758581236
	0.0776309818 0.0699783191 0.0776309818
	0.0794283003 0.0715712607 0.0794283003
	0.0812476426 0.0731753632 0.0812476426
	0.0830830187 0.0747953877 0.0830830187
	0.0849313214 0.0764375329 0.0849313214
	0.0867945403 0.0780991465 0.0867945403
	0.0886720195 0.0797795132 0.0886720195
	0.0905641615 0.0814804882 0.0905641615
	0.0924730599 0.0832031295 0.0924730599
	0.0944008604 0.0849441215 0.0944008604
	0.0963497087 0.0866999105 0.0963497087
	0.0983169824 0.0884718299 0.0983169824
	0.1002992019 0.0902594104 0.1002992019
	0.1022920981 0.0920619667 0.1022920981
	0.1043059006 0.0938806906 0.1043059006
	0.1063338965 0.0957234576 0.1063338965
	0.1083754003 0.0975851119 0.1083754003
	0.1104298979 0.0994653329 0.1104298979
	0.1125015020 0.1013638005 0.1125015020
	0.1145863980 0.1032824963 0.1145863980
	0.1166832000 0.1052192971 0.1166832000
	0.1187919974 0.1071742028 0.1187919974
	0.1209281981 0.1091483980 0.1209281981
	0.1230840012 0.1111427024 0.1230840012
	0.1252560019 0.1131450012 0.1252560019
	0.1274449974 0.1151549965 0.1274449974
	0.1296389997 0.1171758026 0.1296389997
	0.1318369955 0.1192134991 0.1318369955
	0.1340391934 0.1212674007 0.1340391934
	0.1362587065 0.1233419999 0.1362587065
	0.1384842992 0.1254397035 0.1384842992
	0.1407155991 0.1275476962 0.1407155991
	0.1429519951 0.1296651959 0.1429519951
	0.1451932937 0.1317926049 0.1451932937
	0.1474387050 0.1339260936 0.1474387050
	0.1496894062 0.1360657066 0.1496894062
	0.1519508958 0.1382188946 0.1519508958
	0.1542215943 0.1403802931 0.1542215943
	0.1564984024 0.1425506026 0.1564984024
	0.1587806046 0.1447318047 0.1587806046
	0.1610693038 0.1469233930 0.1610693038
	0.1633670926 0.1491298974 0.1633670926
	0.1656686068 0.1513458043 0.1656686068
	0.1679760069 0.1535694003 0.1679760069
	0.1702944934 0.1558119059 0.1702944934
	0.1726182997 0.1580559015 0.1726182997
	0.1749459952 0.1603008062 0.1749459952
	0.1772750020 0.1625521928 0.1772750020
	0.1796054989 0.1648124009 0.1796054989
	0.1819469035 0.1670871973 0.1819469035
	0.1842930019 0.1693769991 0.1842930019
	0.1866527051 0.1716732979 0.1866527051
	0.1890151054 0.1739847064 0.1890151054
	0.1913814992 0.1763011068 0.1913814992
	0.1937530041 0.1786264926 0.1937530041
	0.1961268932 0.1809585989 0.1961268932
	0.1984995008 0.1832942963 0.1984995008
	0.2008748949 0.1856396049 0.2008748949
	0.2032615989 0.1879891008 0.2032615989
	0.2056463957 0.1903553009 0.2056463957
	0.2080287933 0.1927254945 0.2080287933
	0.2104109973 0.1951016933 0.2104109973
	0.2127932012 0.1974837035 0.2127932012
	0.2151795030 0.1998693049 0.2151795030
	0.2175665051 0.2022628039 0.2175665051
	0.2199523002 0.2046581060 0.2199523002
	0.2223390937 0.2070544064 0.2223390937
	0.2247312069 0.2094524950 0.2247312069
	0.2271240950 0.2118602991 0.2271240950
	0.2295188010 0.2142691016 0.2295188010
	0.2319131047 0.2166801989 0.2319131047
	0.2343070954 0.2190932930 0.2343070954
	0.2366984040 0.2215093970 0.2366984040
	0.2390874028 0.2239297926 0.2390874028
	0.2414730936 0.2263545990 0.2414730936
	0.2438565046 0.2287807018 0.2438565046
	0.2462437004 0.2312079072 0.2462437004
	0.2486331016 0.2336384058 0.2486331016
	0.2510172129 0.2360707074 0.2510172129
	0.2533988059 0.2385022044 0.2533988059
	0.2557758093 0.2409331948 0.2557758093
	0.2581504881 0.2433750033 0.2581504881
	0.2605293095 0.2458223999 0.2605293095
	0.2629100978 0.2482777983 0.2629100978
	0.2652882934 0.2507374883 0.2652882934
	0.2676649988 0.2532019913 0.2676649988
	0.2700409889 0.2556692958 0.2700409889
	0.2724165916 0.2581461072 0.2724165916
	0.2747870982 0.2606298029 0.2747870982
	0.2771523893 0.2631142139 0.2771523893
	0.2795102894 0.2655993104 0.2795102894
	0.2818570137 0.2680785954 0.2818570137
	0.2842001915 0.2705487907 0.2842001915
	0.2865338027 0.2730177939 0.2865338027
	0.2888650894 0.2754839063 0.2888650894
	0.2911804914 0.2779509127 0.2911804914
	0.2934958041 0.2804240882 0.2934958041
	0.2957996130 0.2828972936 0.2957996130
	0.2981027961 0.2853642106 0.2981027961
	0.3004046082 0.2878307104 0.3004046082
	0.3027057946 0.2902925909 0.3027057946
	0.3050028980 0.2927531898 0.3050028980
	0.3072963953 0.2952114940 0.3072963953
	0.3095870912 0.2976680100 0.3095870912
	0.3118711114 0.3001233041 0.3118711114
	0.3141548038 0.3025760055 0.3141548038
	0.3164271116 0.3050285876 0.3164271116
	0.3186993897 0.3074803948 0.3186993897
	0.3209618926 0.3099322915 0.3209618926
	0.3232209980 0.3123745024 0.3232209980
	0.3254742026 0.3148137033 0.3254742026
	0.3277195096 0.3172554970 0.3277195096
	0.3299638033 0.3197003901 0.3299638033
	0.3321967125 0.3221448064 0.3321967125
	0.3344297111 0.3245866895 0.3344297111
	0.3366633058 0.3270285130 0.3366633058
	0.3388971984 0.3294712901 0.3388971984
	0.3411270976 0.3319145143 0.3411270976
	0.3433490098 0.3343560100 0.3433490098
	0.3455708921 0.3367947936 0.3455708921
	0.3477726877 0.3392334878 0.3477726877
	0.3499726951 0.3416740894 0.3499726951
	0.3521771133 0.3441148996 0.3521771133
	0.3543866873 0.3465546072 0.3543866873
	0.3565962017 0.3489935100 0.3565962017
	0.3587929904 0.3514319956 0.3587929904
	0.3609898984 0.3538624048 0.3609898984
	0.3631897867 0.3562928140 0.3631897867
	0.3653928041 0.3587242961 0.3653928041
	0.3675957918 0.3611567020 0.3675957918
	0.3697830141 0.3635889888 0.3697830141
	0.3719697893 0.3660191894 0.3719697893
	0.3741520047 0.3684493899 0.3741520047
	0.3763279915 0.3708696961 0.3763279915
	0.3785040975 0.3732793927 0.3785040975
	0.3806638122 0.3756890893 0.3806638122
	0.3828206062 0.3780809045 0.3828206062
	0.3849751055 0.3804706931 0.3849751055
	0.3871222138 0.3828578889 0.3871222138
	0.3892692924 0.3852390945 0.3892692924
	0.3914063871 0.3876202106 0.3914063871
	0.3935371041 0.3899951875 0.3935371041
	0.3956677020 0.3923670948 0.3956677020
	0.3977789879 0.3947389126 0.3977789879
	0.3998892009 0.3970890045 0.3998892009
	0.4019930959 0.3994390965 0.4019930959
	0.4040785134 0.4017911851 0.4040785134
	0.4061638117 0.4041475952 0.4061638117
	0.4082497060 0.4065040052 0.4082497060
	0.4103358984 0.4088486135 0.4103358984
	0.4124220908 0.4111852944 0.4124220908
	0.4144963026 0.4135220051 0.4144963026
	0.4165670872 0.4158436060 0.4165670872
	0.4186378121 0.4181624949 0.4186378121
	0.4206883013 0.4204812944 0.4206883013
	0.4227387011 0.4227986038 0.4227387011
	0.4247851968 0.4251160026 0.4247851968
	0.4268149137 0.4274305999 0.4268149137
	0.4288446903 0.4297378063 0.4288446903
	0.4308727980 0.4320450127 0.4308727980
	0.4328976870 0.4343562126 0.4328976870
	0.4349226058 0.4366728067 0.4349226058
	0.4369452894 0.4389894009 0.4369452894
	0.4389654100 0.4412983954 0.4389654100
	0.4409855008 0.4436013103 0.4409855008
	0.4429948926 0.4459043145 0.4429948926
	0.4449959099 0.4482020140 0.4449959099
	0.4469969869 0.4504969120 0.4469969869
	0.4489865005 0.4527918994 0.4489865005
	0.4509691894 0.4550856948 0.4509691894
	0.4529519081 0.4573791921 0.4529519081
	0.4549242854 0.4596726894 0.4549242854
	0.4568913877 0.4619601071 0.4568913877
	0.4588586092 0.4642454982 0.4588586092
	0.4608167112 0.4665308893 0.4608167112
	0.4627703130 0.4688045979 0.4627703130
	0.4647239149 0.4710747004 0.4647239149
	0.4666719139 0.4733447134 0.4666719139
	0.4686164856 0.4756112993 0.4686164856
	0.4705610871 0.4778766036 0.4705610871
	0.4724955857 0.4801419973 0.4724955857
	0.4744223058 0.4823893905 0.4744223058
	0.4763489962 0.4846282899 0.4763489962
	0.4782694876 0.4868671000 0.4782694876
	0.4801832139 0.4890891910 0.4801832139
	0.4820967913 0.4912990928 0.4820967913
	0.4840039015 0.4935089946 0.4840039015
	0.4858981967 0.4957109988 0.4858981967
	0.4877924025 0.4979032874 0.4877924025
	0.4896839857 0.5000956059 0.4896839857
	0.4915628135 0.5022779703 0.4915628135
	0.4934414923 0.5044360161 0.4934414923
	0.4953202009 0.5065940022 0.4953202009
	0.4971916080 0.5087499022 0.4971916080
	0.4990628064 0.5108857751 0.4990628064
	0.5009341240 0.5130217075 0.5009341240
	0.5027933121 0.5151576996 0.5027933121
	0.5046482086 0.5172629952 0.5046482086
	0.5065031052 0.5193634033 0.5065031052
	0.5083466172 0.5214638710 0.5083466172
	0.5101770759 0.5235527754 0.5101770759
	0.5120074749 0.5256341100 0.5120074749
	0.5138359070 0.5277153850 0.5138359070
	0.5156533122 0.5297918916 0.5156533122
	0.5174707174 0.5318573117 0.5174707174
	0.5192881227 0.5339226127 0.5192881227
	0.5211005211 0.5359879732 0.5211005211
	0.5229117274 0.5380240083 0.5229117274
	0.5247228742 0.5400587916 0.5247228742
	0.5265293121 0.5420935750 0.5265293121
	0.5283294916 0.5441210866 0.5283294916
	0.5301296711 0.5461434126 0.5301296711
	0.5319293737 0.5481657982 0.5319293737
	0.5337138772 0.5501838923 0.5337138772
	0.5354983807 0.5521820784 0.5354983807
	0.5372828841 0.5541803241 0.5372828841
	0.5390647054 0.5561785102 0.5390647054
	0.5408445001 0.5581638813 0.5408445001
	0.5426242948 0.5601447225 0.5426242948
	0.5444021821 0.5621253848 0.5444021821
	0.5461611152 0.5640997291 0.5461611152
	0.5479199290 0.5660542846 0.5479199290
	0.5496788025 0.5680087805 0.5496788025
	0.5514246821 0.5699632764 0.5514246821
	0.5531604886 0.5718948841 0.5531604886
	0.5548964143 0.5738177896 0.5548964143
	0.5566322207 0.5757405758 0.5566322207
	0.5583571196 0.5776597857 0.5583571196
	0.5600818992 0.5795599818 0.5600818992
	0.5618067980 0.5814602971 0.5618067980
	0.5635148287 0.5833604932 0.5635148287
	0.5651975274 0.5852445960 0.5651975274
	0.5668801069 0.5871161819 0.5668801069
	0.5685628057 0.5889877081 0.5685628057
	0.5702366233 0.5908592939 0.5702366233
	0.5719075203 0.5926998258 0.5719075203
	0.5735784769 0.5945379734 0.5735784769
	0.5752487183 0.5963761210 0.5752487183
	0.5769106746 0.5982087851 0.5769106746
	0.5785726905 0.6000252962 0.5785726905
	0.5802345872 0.6018419266 0.5802345872
	0.5818874240 0.6036584973 0.5818874240
	0.5835233927 0.6054543257 0.5835233927
	0.5851594210 0.6072319746 0.5851594210
	0.5867953897 0.6090096831 0.5867953897
	0.5884160995 0.6107872725 0.5884160995
	0.5900263786 0.6125335097 0.5900263786
	0.5916365981 0.6142706275 0.5916365981
	0.5932468176 0.6160078049 0.5932468176
	0.5948414207 0.6177449226 0.5948414207
	0.5964319110 0.6194577217 0.5964319110
	0.5980222821 0.6211699843 0.5980222821
	0.5996127725 0.6228823066 0.5996127725
	0.6011689901 0.6245880127 0.6011689901
	0.6027231812 0.6262522936 0.6027231812
	0.6042773724 0.6279166937 0.6042773724
	0.6058307290 0.6295809746 0.6058307290
	0.6073688269 0.6312366724 0.6073688269
	0.6089069843 0.6328672767 0.6089069843
	0.6104450822 0.6344978213 0.6104450822
	0.6119816899 0.6361284256 0.6119816899
	0.6135081053 0.6377481818 0.6135081053
	0.6150345206 0.6393465996 0.6150345206
	0.6165608764 0.6409450173 0.6165608764
	0.6180859804 0.6425433755 0.6180859804
	0.6196045876 0.6441305876 0.6196045876
	0.6211233139 0.6456986070 0.6211233139
	0.6226419210 0.6472666860 0.6226419210
	0.6241582036 0.6488348246 0.6241582036
	0.6256613135 0.6503942013 0.6256613135
	0.6271644831 0.6519383788 0.6271644831
	0.6286675930 0.6534824967 0.6286675930
	0.6301684976 0.6550266743 0.6301684976
	0.6316462159 0.6565703154 0.6316462159
	0.6331238747 0.6581128836 0.6331238747
	0.6346017122 0.6596555114 0.6346017122
	0.6360793710 0.6611980796 0.6360793710
	0.6375383735 0.6627355218 0.6375383735
	0.6389971972 0.6642531753 0.6389971972
	0.6404560208 0.6657708883 0.6404560208
	0.6419147849 0.6672887206 0.6419147849
	0.6433644891 0.6688051224 0.6433644891
	0.6448125243 0.6703053713 0.6448125243
	0.6462605000 0.6718056202 0.6462605000
	0.6477084756 0.6733058095 0.6477084756
	0.6491544247 0.6748061180 0.6491544247
	0.6505993009 0.6762984991 0.6505993009
	0.6520441771 0.6777899265 0.6520441771
	0.6534891129 0.6792812943 0.6534891129
	0.6549304724 0.6807727218 0.6549304724
	0.6563671231 0.6822533011 0.6563671231
	0.6578037143 0.6837282181 0.6578037143
	0.6592403054 0.6852030158 0.6592403054
	0.6606746912 0.6866778731 0.6606746912
	0.6620953083 0.6881393194 0.6620953083
	0.6635159254 0.6895787120 0.6635159254
	0.6649364829 0.6910182238 0.6649364829
	0.6663571000 0.6924576163 0.6663571000
	0.6677600145 0.6938955784 0.6677600145
	0.6691588163 0.6953092813 0.6691588163
	0.6705574989 0.6967229843 0.6705574989
	0.6719563007 0.6981366873 0.6719563007
	0.6733427048 0.6995503902 0.6733427048
	0.6747133136 0.7009537220 0.6747133136
	0.6760839224 0.7023522854 0.6760839224
	0.6774544120 0.7037507892 0.6774544120
	0.6788250208 0.7051494122 0.6788250208
	0.6801913977 0.7065389752 0.6801913977
	0.6815578938 0.7079041004 0.6815578938
	0.6829243898 0.7092692852 0.6829243898
	0.6842908859 0.7106345296 0.6842908859
	0.6856526136 0.7119995952 0.6856526136
	0.6870101094 0.7133480906 0.6870101094
	0.6883677244 0.7146925926 0.6883677244
	0.6897252202 0.7160370946 0.6897252202
	0.6910821199 0.7173815966 0.6910821199
	0.6924132109 0.7187203765 0.6924132109
	0.6937443018 0.7200453877 0.6937443018
	0.6950753927 0.7213705182 0.6950753927
	0.6964064837 0.7226955295 0.6964064837
	0.6977304816 0.7240206003 0.6977304816
	0.6990460753 0.7253168225 0.6990460753
	0.7003617287 0.7266023755 0.7003617287
	0.7016773224 0.7278879881 0.7016773224
	0.7029929161 0.7291736007 0.7029929161
	0.7043045759 0.7304561734 0.7043045759
	0.7056154013 0.7317163944 0.7056154013
	0.7069262266 0.7329766154 0.7069262266
	0.7082371116 0.7342368960 0.7082371116
	0.7095441818 0.7354971170 0.7095441818
	0.7108336091 0.7367405891 0.7108336091
	0.7121229768 0.7379640937 0.7121229768
	0.7134124041 0.7391875982 0.7134124041
	0.7147017717 0.7404111028 0.7147017717
	0.7159798741 0.7416346073 0.7159798741
	0.7172445059 0.7428414226 0.7172445059
	0.7185090184 0.7440423965 0.7185090184
	0.7197735906 0.7452433705 0.7197735906
	0.7210381031 0.7464445233 0.7210381031
	0.7222943902 0.7476454973 0.7222943902
	0.7235469222 0.7488263845 0.7235469222
	0.7247992754 0.7500069737 0.7247992754
	0.7260518074 0.7511875033 0.7260518074
	0.7273042202 0.7523680925 0.7273042202
	0.7285580039 0.7535430193 0.7285580039
	0.7298120260 0.7546893954 0.7298120260
	0.7310661077 0.7558357120 0.7310661077
	0.7323200703 0.7569820881 0.7323200703
	0.7335740924 0.7581285238 0.7335740924
	0.7348139286 0.7592620850 0.7348139286
	0.7360535264 0.7603654861 0.7360535264
	0.7372931838 0.7614690065 0.7372931838
	0.7385329008 0.7625724077 0.7385329008
	0.7397707105 0.7636758089 0.7397707105
	0.7409819961 0.7647761106 0.7409819961
	0.7421932817 0.7658712268 0.7421932817
	0.7434046865 0.7669662833 0.7434046865
	0.7446159720 0.7680615187 0.7446159720
	0.7458249927 0.7691565752 0.7458249927
	0.7470089793 0.7702389956 0.7470089793
	0.7481930852 0.7713027000 0.7481930852
	0.7493770719 0.7723662853 0.7493770719
	0.7505611181 0.7734299898 0.7505611181
	0.7517436147 0.7744936943 0.7517436147
	0.7528991103 0.7755483985 0.7528991103
	0.7540546060 0.7765882015 0.7540546060
	0.7552101016 0.7776281238 0.7552101016
	0.7563655972 0.7786679268 0.7563655972
	0.7575210929 0.7797077894 0.7575210929
	0.7586535215 0.7807422280 0.7586535215
	0.7597848773 0.7817639112 0.7597848773
	0.7609164119 0.7827855945 0.7609164119
	0.7620478868 0.7838072181 0.7620478868
	0.7631794214 0.7848289013 0.7631794214
	0.7643039823 0.7858467102 0.7643039823
	0.7654271126 0.7868434787 0.7654271126
	0.7665501833 0.7878404260 0.7665501833
	0.7676733136 0.7888373137 0.7676733136
	0.7687965035 0.7898342013 0.7687965035
	0.7699062824 0.7908310890 0.7699062824
	0.7710080147 0.7917973995 0.7710080147
	0.7721098065 0.7927626967 0.7721098065
	0.7732115984 0.7937279940 0.7732115984
	0.7743132710 0.7946931720 0.7743132710
	0.7754092216 0.7956585288 0.7754092216
	0.7764948010 0.7966089845 0.7764948010
	0.7775803804 0.7975537777 0.7775803804
	0.7786660790 0.7984985113 0.7786660790
	0.7797517180 0.7994433045 0.7797517180
	0.7808365822 0.8003879786 0.7808365822
	0.7819091082 0.8013278842 0.7819091082
	0.7829815745 0.8022608757 0.7829815745
	0.7840539813 0.8031939268 0.7840539813
	0.7851265073 0.8041269183 0.7851265073
	0.7861989737 0.8050599098 0.7861989737
	0.7872558832 0.8059914708 0.7872558832
	0.7883058190 0.8068947196 0.7883058190
	0.7893555760 0.8077979088 0.7893555760
	0.7904053926 0.8087010980 0.7904053926
	0.7914553285 0.8096042871 0.7914553285
	0.7924997807 0.8105074763 0.7924997807
	0.7935289741 0.8113902807 0.7935289741
	0.7945582867 0.8122608066 0.7945582867
	0.7955874801 0.8131312728 0.7955874801
	0.7966167927 0.8140019178 0.7966167927
	0.7976459861 0.8148723841 0.7976459861
	0.7986531258 0.8157399297 0.7986531258
	0.7996534705 0.8165895939 0.7996534705
	0.8006538749 0.8174393773 0.8006538749
	0.8016542792 0.8182891011 0.8016542792
	0.8026548028 0.8191388249 0.8026548028
	0.8036468029 0.8199884892 0.8036468029
	0.8046095967 0.8208152056 0.8046095967
	0.8055725098 0.8216269016 0.8055725098
	0.8065354228 0.8224384785 0.8065354228
	0.8074982762 0.8232501745 0.8074982762
	0.8084611893 0.8240618110 0.8084611893
	0.8094077110 0.8248733878 0.8094077110
	0.8103441000 0.8256731033 0.8103441000
	0.8112804890 0.8264726996 0.8112804890
	0.8122168779 0.8272724152 0.8122168779
	0.8131533265 0.8280720711 0.8131533265
	0.8140897155 0.8288717270 0.8140897155
	0.8150094748 0.8296630979 0.8150094748
	0.8159283996 0.8304389119 0.8159283996
	0.8168473244 0.8312146068 0.8168473244
	0.8177661896 0.8319904208 0.8177661896
	0.8186851144 0.8327661157 0.8186851144
	0.8195986152 0.8335418105 0.8195986152
	0.8204926848 0.8343117237 0.8204926848
	0.8213868737 0.8350778818 0.8213868737
	0.8222811222 0.8358440995 0.8222811222
	0.8231751919 0.8366103768 0.8231751919
	0.8240693808 0.8373765945 0.8240693808
	0.8249509931 0.8381428719 0.8249509931
	0.8258157969 0.8389006257 0.8258157969
	0.8266806006 0.8396567106 0.8266806006
	0.8275455236 0.8404127955 0.8275455236
	0.8284103274 0.8411688805 0.8284103274
	0.8292750716 0.8419250250 0.8292750716
	0.8301308751 0.8426809907 0.8301308751
	0.8309800029 0.8434000015 0.8309800029
	0.8318290710 0.8441187143 0.8318290710
	0.8326780796 0.8448373079 0.8326780796
	0.8335272074 0.8455560207 0.8335272074
	0.8343762755 0.8462746143 0.8343762755
	0.8352112174 0.8469917774 0.8352112174
	0.8360387087 0.8476917148 0.8360387087
	0.8368662000 0.8483915925 0.8368662000
	0.8376936913 0.8490914702 0.8376936913
	0.8385211825 0.8497914076 0.8385211825
	0.8393486738 0.8504914045 0.8393486738
	0.8401600718 0.8511893749 0.8401600718
	0.8409640193 0.8518716097 0.8409640193
	0.8417677879 0.8525537848 0.8417677879
	0.8425716162 0.8532360196 0.8425716162
	0.8433753848 0.8539181948 0.8433753848
	0.8441792130 0.8546004295 0.8441792130
	0.8449677825 0.8552805781 0.8449677825
	0.8457477093 0.8559337258 0.8457477093
	0.8465275764 0.8565866947 0.8465275764
	0.8473075032 0.8572397828 0.8473075032
	0.8480873704 0.8578928709 0.8480873704
	0.8488671780 0.8585458994 0.8488671780
	0.8496319056 0.8591989875 0.8496319056
	0.8503823876 0.8598427773 0.8503823876
	0.8511329889 0.8604860902 0.8511329889
	0.8518834710 0.8611295223 0.8518834710
	0.8526340723 0.8617728949 0.8526340723
	0.8533846736 0.8624163270 0.8533846736
	0.8541216850 0.8630596995 0.8541216850
	0.8548328876 0.8636872172 0.8548328876
	0.8555439711 0.8643105030 0.8555439711
	0.8562551737 0.8649337888 0.8562551737
	0.8569663167 0.8655570149 0.8569663167
	0.8576774001 0.8661803007 0.8576774001
	0.8583872914 0.8668035865 0.8583872914
	0.8590850830 0.8674191236 0.8590850830
	0.8597828150 0.8680282831 0.8597828150
	0.8604806066 0.8686373830 0.8604806066
	0.8611783981 0.8692466021 0.8611783981
	0.8618761897 0.8698558211 0.8618761897
	0.8625739813 0.8704649806 0.8625739813
	0.8632513881 0.8710712790 0.8632513881
	0.8639233112 0.8716691136 0.8639233112
	0.8645951748 0.8722668886 0.8645951748
	0.8652670979 0.8728647232 0.8652670979
	0.8659390211 0.8734624982 0.8659390211
	0.8666108847 0.8740602732 0.8666108847
	0.8672788739 0.8746581078 0.8672788739
	0.8679410815 0.8752396703 0.8679410815
	0.8686032891 0.8758190274 0.8686032891
	0.8692653775 0.8763983250 0.8692653775
	0.8699275851 0.8769776225 0.8699275851
	0.8705897927 0.8775568008 0.8705897927
	0.8712518811 0.8781360984 0.8712518811
	0.8719059825 0.8787040114 0.8719059825
