release/datafiles/colormanagement/luts/film_response/kodak_ektachrome_320t.spi1d
Version 1
From 0.0 1.0
Length 1024
Components 3
{
	0.0000000000 0.0000000000 0.0000000000
	0.0002252978 0.0001790309 0.0001295420
	0.0004642465 0.0003632053 0.0002623819
	0.0007179323 0.0005541568 0.0004006781
	0.0009859804 0.0007514893 0.0005452139
	0.0012678721 0.0009573574 0.0006973416
	0.0015588400 0.0011699020 0.0008563135
	0.0018630330 0.0013911340 0.0010223610
	0.0021819880 0.0016211460 0.0011926870
	0.0025155889 0.0018565780 0.0013685439
	0.0028599249 0.0021005161 0.0015487690
	0.0032150650 0.0023508291 0.0017341210
	0.0035848729 0.0026105260 0.0019261140
	0.0039705001 0.0028831610 0.0021247759
	0.0043733879 0.0031664821 0.0023306201
	0.0047887620 0.0034602690 0.0025444049
	0.0052145422 0.0037645160 0.0027661640
	0.0056500668 0.0040802141 0.0029950261
	0.0061007268 0.0044055800 0.0032312879
	0.0065691760 0.0047432170 0.0034755419
	0.0070610601 0.0050931652 0.0037271639
	0.0075698970 0.0054551372 0.0039859852
	0.0080941729 0.0058285771 0.0042510540
	0.0086274194 0.0062132268 0.0045252559
	0.0091798287 0.0066124098 0.0048091090
	0.0097458120 0.0070239422 0.0051020859
	0.0103271501 0.0074481708 0.0054048309
	0.0109248599 0.0078837927 0.0057164561
	0.0115405796 0.0083313556 0.0060368772
	0.0121761197 0.0087913852 0.0063676350
	0.0128270397 0.0092629055 0.0067081312
	0.0134987198 0.0097476542 0.0070575029
	0.0141942296 0.0102479504 0.0074174819
	0.0149099398 0.0107645998 0.0077879899
	0.0156464409 0.0112993503 0.0081683872
	0.0164025500 0.0118529601 0.0085596293
	0.0171775799 0.0124243395 0.0089649754
	0.0179736298 0.0130097996 0.0093868207
	0.0187904108 0.0136122899 0.0098197656
	0.0196329206 0.0142326104 0.0102641098
	0.0205026697 0.0148694804 0.0107198805
	0.0213967599 0.0155238304 0.0111865401
	0.0223194696 0.0161926802 0.0116670104
	0.0232650694 0.0168744400 0.0121609699
	0.0242343191 0.0175730493 0.0126681803
	0.0252331793 0.0182904303 0.0131873302
	0.0262477491 0.0190270096 0.0137195401
	0.0272829495 0.0197816994 0.0142644998
	0.0283390097 0.0205556992 0.0148215797
	0.0294161700 0.0213519502 0.0153918499
	0.0305210594 0.0221705697 0.0159767196
	0.0316550806 0.0230139699 0.0165775400
	0.0328192115 0.0238830894 0.0171922501
	0.0340085700 0.0247773398 0.0178213306
	0.0352222398 0.0256955195 0.0184620898
	0.0364655294 0.0266327392 0.0191150103
	0.0377436206 0.0275894795 0.0197834391
	0.0390567891 0.0285663195 0.0204676799
	0.0404002182 0.0295625906 0.0211681798
	0.0417738296 0.0305766594 0.0218840092
	0.0431732200 0.0316094011 0.0226133801
	0.0445903614 0.0326650515 0.0233574491
	0.0460246801 0.0337462984 0.0241182297
	0.0474831313 0.0348512717 0.0248960592
	0.0489709415 0.0359775797 0.0256870594
	0.0504862815 0.0371238813 0.0264920406
	0.0520257801 0.0382876694 0.0273139309
	0.0535882413 0.0394724905 0.0281523801
	0.0551759303 0.0406848602 0.0290120896
	0.0567948110 0.0419235602 0.0298898704
	0.0584423989 0.0431861505 0.0307816397
	0.0601175204 0.0444719717 0.0316898413
	0.0618218705 0.0457797199 0.0326160900
	0.0635616332 0.0471059717 0.0335598104
	0.0653382763 0.0484526493 0.0345212892
	0.0671429336 0.0498179607 0.0355015099
	0.0689680427 0.0512084812 0.0364993811
	0.0708093792 0.0526283309 0.0375161916
	0.0726710036 0.0540754311 0.0385530815
	0.0745575577 0.0555453300 0.0396075509
	0.0764711723 0.0570352189 0.0406817608
	0.0784109309 0.0585439503 0.0417732410
	0.0803771317 0.0600703284 0.0428790301
	0.0823737681 0.0616120808 0.0439984985
	0.0844059363 0.0631667823 0.0451391600
	0.0864771232 0.0647454932 0.0462969095
	0.0885818601 0.0663540736 0.0474717803
	0.0907145590 0.0679863468 0.0486642793
	0.0928772986 0.0696446896 0.0498744808
	0.0950741023 0.0713270679 0.0511019900
	0.0973075032 0.0730293319 0.0523469895
	0.0995769203 0.0747480765 0.0536088012
	0.1018780991 0.0764901415 0.0548868291
	0.1042044014 0.0782487020 0.0561818182
	0.1065538973 0.0800288767 0.0574982315
	0.1089283004 0.0818311423 0.0588314198
	0.1113215014 0.0836538672 0.0601810999
	0.1137316003 0.0854980275 0.0615520887
	0.1161573976 0.0873684287 0.0629485399
	0.1185979992 0.0892611369 0.0643650293
	0.1210614964 0.0911754370 0.0658011809
	0.1235487014 0.0931112692 0.0672666430
	0.1260568053 0.0950720683 0.0687462613
	0.1285867989 0.0970498696 0.0702391118
	0.1311426014 0.0990442634 0.0717507899
	0.1337202042 0.1010560021 0.0732835308
	0.1363096982 0.1031069979 0.0748315826
	0.1389120072 0.1051762030 0.0763994083
	0.1415282041 0.1072625965 0.0779832006
	0.1441825926 0.1093714982 0.0795782432
	0.1468576044 0.1115005016 0.0811884925
	0.1495531946 0.1136446968 0.0828164518
	0.1522718966 0.1158049032 0.0844542831
	0.1550171971 0.1179929972 0.0861058980
	0.1577734947 0.1201986000 0.0877750516
	0.1605415046 0.1224215031 0.0894542485
	0.1633353978 0.1246768013 0.0911507979
	0.1661441028 0.1269477010 0.0928589627
	0.1689610034 0.1292310059 0.0945746303
	0.1717838943 0.1315293014 0.0963099599
	0.1746120006 0.1338451058 0.0980574191
	0.1774456948 0.1361752003 0.0998183563
	0.1802875996 0.1385367960 0.1016084999
	0.1831531972 0.1409143060 0.1034116000
	0.1860264987 0.1433060020 0.1052436978
	0.1889072955 0.1457217932 0.1070917994
	0.1918103993 0.1481487006 0.1089527979
	0.1947200000 0.1505914032 0.1108305007
	0.1976352930 0.1530454010 0.1127144024
	0.2005549073 0.1555085927 0.1146150976
	0.2034773976 0.1579966992 0.1165283024
	0.2064062953 0.1605020016 0.1184550002
	0.2093463987 0.1630198956 0.1204015985
	0.2122935951 0.1655519009 0.1223547012
	0.2152556032 0.1680873036 0.1243321002
	0.2182167023 0.1706292033 0.1263145953
	0.2211762965 0.1731802970 0.1283138990
	0.2241538018 0.1757373065 0.1303219944
	0.2271365970 0.1783048064 0.1323408037
	0.2301204056 0.1808757931 0.1343753040
	0.2331143022 0.1834571958 0.1364185959
	0.2361201942 0.1860488951 0.1384806037
	0.2391359061 0.1886530071 0.1405466050
	0.2421551943 0.1912735999 0.1426350027
	0.2451844066 0.1939011961 0.1447259039
	0.2482129037 0.1965422034 0.1468326002
	0.2512401044 0.1991859972 0.1489423960
	0.2542673051 0.2018409967 0.1510629058
	0.2572943866 0.2045024037 0.1531887054
	0.2603251040 0.2071764022 0.1553260982
	0.2633563876 0.2098606974 0.1574766040
	0.2663846016 0.2125551999 0.1596474946
	0.2694126070 0.2152567953 0.1618286073
	0.2724404037 0.2179622054 0.1640225053
	0.2754598856 0.2206754982 0.1662251055
	0.2784681916 0.2233911008 0.1684374958
	0.2814692855 0.2261153013 0.1706584990
	0.2844651043 0.2288406044 0.1728888005
	0.2874703109 0.2315697968 0.1751244962
	0.2904790938 0.2343001068 0.1773661971
	0.2934839129 0.2370491028 0.1796108931
	0.2964878976 0.2397976965 0.1818595976
	0.2994953096 0.2425439954 0.1841097027
	0.3025026917 0.2452909946 0.1863622963
	0.3054913878 0.2480435967 0.1886177063
	0.3084802032 0.2507981956 0.1908794940
	0.3114694059 0.2535662055 0.1931429952
	0.3144572079 0.2563355863 0.1954129934
	0.3174341023 0.2591148913 0.1976844966
	0.3204114139 0.2618939877 0.1999710053
	0.3233911097 0.2646703124 0.2022576034
	0.3263702095 0.2674466074 0.2045578957
	0.3293448985 0.2702299058 0.2068590969
	0.3323191106 0.2730130851 0.2091719061
	0.3352886140 0.2757953107 0.2114882022
	0.3382574916 0.2785772979 0.2138084024
	0.3412111998 0.2813608050 0.2161314934
	0.3441649079 0.2841446996 0.2184565067
	0.3471063972 0.2869217098 0.2207846045
	0.3500475883 0.2896957994 0.2231137007
	0.3529730141 0.2924658060 0.2254499942
	0.3558960855 0.2952325046 0.2277863026
	0.3588060141 0.2979984879 0.2301243991
	0.3617117107 0.3007633984 0.2324627936
	0.3645960987 0.3035242856 0.2348098010
	0.3674674034 0.3062672913 0.2371633947
	0.3703210056 0.3090102971 0.2395182997
	0.3731533885 0.3117265999 0.2418767959
	0.3759778142 0.3144418001 0.2442353964
	0.3787800074 0.3171553910 0.2465995997
	0.3815816045 0.3198683858 0.2489643991
	0.3843731880 0.3225778937 0.2513361871
	0.3871648014 0.3252829909 0.2537139058
	0.3899506927 0.3279863000 0.2560917139
	0.3927353919 0.3306789994 0.2584705949
	0.3955127001 0.3333716094 0.2608495951
	0.3982842863 0.3360339999 0.2632276118
	0.4010469019 0.3386904001 0.2656053007
	0.4037859142 0.3413349092 0.2679820061
	0.4065249860 0.3439669013 0.2703562975
	0.4092408121 0.3465988040 0.2727305889
	0.4119558036 0.3492295146 0.2751063108
	0.4146685004 0.3518601954 0.2774823904
	0.4173798859 0.3544926047 0.2798556983
	0.4200862050 0.3571256995 0.2822236121
	0.4227792919 0.3597556055 0.2845914066
	0.4254722893 0.3623783886 0.2869648039
	0.4281426072 0.3650011122 0.2893395126
	0.4308102131 0.3676072955 0.2917163968
	0.4334703088 0.3702105880 0.2940998971
	0.4361222088 0.3728044033 0.2964833975
	0.4387736022 0.3753828108 0.2988683879
	0.4414154887 0.3779611886 0.3012540936
	0.4440574050 0.3805244863 0.3036401868
	0.4466896951 0.3830857873 0.3060306907
	0.4493151903 0.3856397867 0.3084211946
	0.4519402087 0.3881801963 0.3108114004
	0.4545603991 0.3907206953 0.3132013977
	0.4571805894 0.3932437003 0.3155913949
	0.4597933888 0.3957622051 0.3179830909
	0.4624007940 0.3982788026 0.3203752935
	0.4650070071 0.4007883966 0.3227669895
	0.4675796926 0.4032979906 0.3251537979
	0.4701522887 0.4057931900 0.3275406957
	0.4727115929 0.4082787931 0.3299230933
	0.4752551019 0.4107643068 0.3322981000
	0.4777986109 0.4132384062 0.3346731067
	0.4803014100 0.4157119989 0.3370327055
	0.4827977121 0.4181810915 0.3393830955
	0.4852870107 0.4206390083 0.3417334855
	0.4877533019 0.4230970144 0.3440715075
	0.4902195036 0.4255495965 0.3464072049
	0.4926728904 0.4279986918 0.3487423956
	0.4951168895 0.4304477870 0.3510628939
	0.4975608885 0.4328849018 0.3533833921
	0.4999994040 0.4353202879 0.3556984961
	0.5024372935 0.4377534091 0.3579910994
	0.5048713088 0.4401684999 0.3602836132
	0.5072880983 0.4425837100 0.3625684083
	0.5097048879 0.4449890852 0.3648371100
	0.5121037960 0.4473744929 0.3671058118
	0.5144798160 0.4497599006 0.3693706095
	0.5168557167 0.4521426857 0.3716300130
	0.5192152858 0.4545232058 0.3738893867
	0.5215666294 0.4569036067 0.3761452138
	0.5239177942 0.4592863917 0.3783971071
	0.5262326002 0.4616703987 0.3806490004
	0.5285415053 0.4640542865 0.3828856945
	0.5308492184 0.4664343894 0.3851085007
	0.5331150889 0.4688135087 0.3873313069
	0.5353810191 0.4711925089 0.3895424902
	0.5376406908 0.4735459089 0.3917432129
	0.5398690104 0.4758956134 0.3939439058
	0.5420972705 0.4782454073 0.3961327970
	0.5443140864 0.4805634022 0.3983095884
	0.5464997292 0.4828793108 0.4004862905
	0.5486851931 0.4851951003 0.4026562870
	0.5508528948 0.4874885082 0.4048171043
	0.5529860854 0.4897811115 0.4069780111
	0.5551192164 0.4920735955 0.4091326892
	0.5572410822 0.4943391979 0.4112750888
	0.5593448877 0.4966034889 0.4134174883
	0.5614485741 0.4988678992 0.4155569077
	0.5635406971 0.5010880828 0.4176844060
	0.5656147003 0.5033046007 0.4198119938
	0.5676888227 0.5055211186 0.4219393134
	0.5697504878 0.5077061057 0.4240606129
	0.5717914104 0.5098856091 0.4261820018
	0.5738322139 0.5120651722 0.4283033907
	0.5758668780 0.5142083168 0.4304130077
	0.5778881907 0.5163393021 0.4325203001
	0.5799093843 0.5184702277 0.4346275926
	0.5819228292 0.5205832124 0.4367291033
	0.5839092731 0.5226848125 0.4388267994
	0.5858957171 0.5247864127 0.4409244955
	0.5878791809 0.5268790722 0.4430136979
	0.5898365974 0.5289608240 0.4450865090
	0.5917940140 0.5310423970 0.4471594095
	0.5937513709 0.5331161022 0.4492312074
	0.5956690907 0.5351639986 0.4512765110
	0.5975846052 0.5372117758 0.4533218145
	0.5995001197 0.5392596722 0.4553669989
	0.6013880968 0.5412784815 0.4573917985
	0.6032671928 0.5432971716 0.4594076872
	0.6051464081 0.5453159213 0.4614236057
	0.6070122123 0.5473181009 0.4634315073
	0.6088663936 0.5493139029 0.4654226899
	0.6107205153 0.5513098240 0.4674139023
	0.6125701070 0.5532947779 0.4694051147
	0.6144073009 0.5552641749 0.4713697135
	0.6162444949 0.5572335720 0.4733316898
	0.6180818081 0.5592026711 0.4752937853
	0.6199104190 0.5611671209 0.4772514999
	0.6217387915 0.5631313920 0.4792042077
	0.6235671043 0.5650957823 0.4811568856
	0.6253790855 0.5670524836 0.4831095934
	0.6271820068 0.5690057278 0.4850563109
	0.6289849281 0.5709587932 0.4870027900
	0.6307768226 0.5729085207 0.4889493883
	0.6325399876 0.5748482943 0.4908913076
	0.6343032122 0.5767881870 0.4928275049
	0.6360663772 0.5787280798 0.4947637022
	0.6378102899 0.5806527734 0.4966998994
	0.6395515203 0.5825737715 0.4986213148
	0.6412925720 0.5844948292 0.5005409122
	0.6430225968 0.5864080787 0.5024604797
	0.6447380185 0.5883042812 0.5043705106
	0.6464533806 0.5902004242 0.5062571168
	0.6481688023 0.5920965075 0.5081436038
	0.6498512030 0.5939829946 0.5100302100
	0.6515321136 0.5958667994 0.5119035840
	0.6532130241 0.5977506042 0.5137699842
	0.6548699141 0.5996311903 0.5156363249
	0.6564965248 0.6014996767 0.5175027251
	0.6581230760 0.6033681035 0.5193520188
	0.6597496867 0.6052364707 0.5212007165
	0.6613441706 0.6070837975 0.5230494738
	0.6629346013 0.6089169979 0.5248932838
	0.6645249724 0.6107501984 0.5267223120
	0.6661086082 0.6125832796 0.5285513997
	0.6676759124 0.6143841743 0.5303804278
	0.6692432761 0.6161835194 0.5322028995
	0.6708106995 0.6179828048 0.5340183973
	0.6723604202 0.6197698712 0.5358340144
	0.6739010811 0.6215232015 0.5376495123
	0.6754419208 0.6232764721 0.5394585729
	0.6769825816 0.6250298023 0.5412647724
	0.6784970164 0.6267579794 0.5430709720
	0.6800110936 0.6284642816 0.5448771119
	0.6815252900 0.6301707029 0.5466737747
	0.6830374002 0.6318771243 0.5484687090
	0.6845443249 0.6335585117 0.5502635837
	0.6860511899 0.6352325082 0.5520585775
	0.6875581145 0.6369063854 0.5538393855
	0.6890510917 0.6385803223 0.5556197762
	0.6905319095 0.6402255893 0.5574001074
	0.6920126081 0.6418696046 0.5591800213
	0.6934934258 0.6435136199 0.5609490871
	0.6949405074 0.6451522708 0.5627182126
	0.6963760257 0.6467463970 0.5644872189
	0.6978114843 0.6483405232 0.5662546158
	0.6992468834 0.6499347091 0.5680006146
	0.7006595135 0.6515222788 0.5697466135
	0.7020696998 0.6530866027 0.5714926720
	0.7034800053 0.6546509266 0.5732375979
	0.7048898935 0.6562151909 0.5749657750
	0.7062891126 0.6577690244 0.5766940713
	0.7076883912 0.6592959762 0.5784224272
	0.7090877295 0.6608229876 0.5801504254
	0.7104840875 0.6623499990 0.5818541050
	0.7118595243 0.6638725996 0.5835577846
	0.7132350206 0.6653854251 0.5852615237
	0.7146103978 0.6668980718 0.5869652033
	0.7159860134 0.6684108973 0.5886417031
	0.7173621058 0.6699141264 0.5903154016
	0.7187381983 0.6713935733 0.5919892192
	0.7201142907 0.6728730798 0.5936629772
	0.7214856148 0.6743525863 0.5953096747
	0.7228314281 0.6758230925 0.5969482064
	0.7241771221 0.6772614717 0.5985866785
	0.7255228758 0.6786999702 0.6002252102
	0.7268646955 0.6801384091 0.6018486023
	0.7281752825 0.6815736294 0.6034609079
	0.7294859290 0.6829831004 0.6050732136
	0.7307965159 0.6843926907 0.6066855192
	0.7321065068 0.6858022213 0.6082887053
	0.7333903909 0.6872118115 0.6098747253
	0.7346742749 0.6885958910 0.6114608049
	0.7359582782 0.6899790168 0.6130468249
	0.7372422218 0.6913622022 0.6146309972
	0.7385115027 0.6927453279 0.6161890030
	0.7397789955 0.6941304803 0.6177470088
	0.7410464883 0.6955162883 0.6193048954
	0.7423139811 0.6969019771 0.6208629012
	0.7435634732 0.6982877851 0.6223968267
	0.7448058128 0.6996648908 0.6239222288
	0.7460480928 0.7010340095 0.6254476905
	0.7472903728 0.7024030089 0.6269730926
	0.7485197783 0.7037721276 0.6284868121
	0.7497360110 0.7051346898 0.6299803257
	0.7509521842 0.7064757943 0.6314738989
	0.7521684170 0.7078167796 0.6329674721
	0.7533807158 0.7091578841 0.6344609857
	0.7545793056 0.7104989886 0.6359264851
	0.7557778955 0.7118229270 0.6373904943
	0.7569764256 0.7131447792 0.6388545036
	0.7581750154 0.7144666910 0.6403185129
	0.7593536973 0.7157886028 0.6417623162
	0.7605302930 0.7170932889 0.6431841850
	0.7617068887 0.7183820009 0.6446061730
	0.7628834844 0.7196707129 0.6460281014
	0.7640433908 0.7209593058 0.6474500895
	0.7651894093 0.7222459912 0.6488506198
	0.7663354278 0.7235112786 0.6502503753
	0.7674813867 0.7247765064 0.6516500711
	0.7686260939 0.7260417938 0.6530498266
	0.7697625160 0.7273070812 0.6544442773
	0.7708989978 0.7285519838 0.6558309197
	0.7720354795 0.7297835946 0.6572173834
	0.7731719017 0.7310153246 0.6586040258
	0.7742877007 0.7322468758 0.6599906087
	0.7753937244 0.7334775925 0.6613616943
	0.7764996886 0.7346972227 0.6627286077
	0.7776057124 0.7359166741 0.6640955210
	0.7787057161 0.7371363044 0.6654623747
	0.7797777057 0.7383558154 0.6668282747
	0.7808495760 0.7395550013 0.6681864858
	0.7819216251 0.7407342792 0.6695446968
	0.7829934955 0.7419134974 0.6709029078
	0.7840589285 0.7430927753 0.6722611785
	0.7851203084 0.7442719936 0.6736127734
	0.7861816883 0.7454271913 0.6749550104
	0.7872430086 0.7465791702 0.6762971282
	0.7883045077 0.7477310896 0.6776393056
	0.7893705964 0.7488831282 0.6789814234
	0.7904366851 0.7500287294 0.6803113818
	0.7915027738 0.7511497736 0.6816344857
	0.7925689220 0.7522708774 0.6829575896
	0.7936292291 0.7533919811 0.6842806935
	0.7946795225 0.7545130849 0.6856039166
	0.7957298160 0.7556204796 0.6869193912
	0.7967801094 0.7567132115 0.6882331967
	0.7978304029 0.7578058243 0.6895471215
	0.7988722920 0.7588983774 0.6908609867
	0.7999097109 0.7599909902 0.6921749115
	0.8009471893 0.7610651851 0.6934753060
	0.8019847274 0.7621316910 0.6947749853
	0.8030220866 0.7631980777 0.6960747838
	0.8040328026 0.7642645240 0.6973745227
	0.8050405979 0.7653309107 0.6986737847
	0.8060483932 0.7663741708 0.6999592781
	0.8070561886 0.7674140930 0.7012447715
	0.8080614805 0.7684540153 0.7025303245
	0.8090434074 0.7694938779 0.7038156986
	0.8100252748 0.7705338001 0.7050995827
	0.8110070825 0.7715379000 0.7063539028
	0.8119890094 0.7725417018 0.7076082230
	0.8129674792 0.7735455036 0.7088624835
	0.8139352798 0.7745493054 0.7101168036
	0.8149030805 0.7755506039 0.7113707066
	0.8158710003 0.7765091062 0.7126060128
	0.8168388009 0.7774677277 0.7138411999
	0.8177986741 0.7784262896 0.7150765061
	0.8187428117 0.7793847919 0.7163118124
	0.8196867704 0.7803425789 0.7175469995
	0.8206307888 0.7812892795 0.7187737226
	0.8215748072 0.7822360992 0.7199997902
	0.8225091100 0.7831827998 0.7212259173
	0.8234264851 0.7841296196 0.7224519849
	0.8243438005 0.7850759029 0.7236781120
	0.8252611756 0.7860084176 0.7248950005
	0.8261786103 0.7869408727 0.7261095047
	0.8270888925 0.7878733873 0.7273240089
	0.8279858232 0.7888059020 0.7285385728
	0.8288828135 0.7897384167 0.7297530770
	0.8297798038 0.7906383872 0.7309511900
	0.8306767941 0.7915360928 0.7321383953
	0.8315675855 0.7924336791 0.7333257198
	0.8324421048 0.7933313847 0.7345129251
	0.8333166242 0.7942289710 0.7357000709
	0.8341910839 0.7951080203 0.7368817925
	0.8350657225 0.7959815860 0.7380530834
	0.8359373212 0.7968552709 0.7392244935
	0.8367924094 0.7977288961 0.7403959036
	0.8376473784 0.7986025810 0.7415671945
	0.8385024071 0.7994632721 0.7427378297
	0.8393573761 0.8003144264 0.7438889742
	0.8402125239 0.8011655211 0.7450402975
	0.8410465717 0.8020166159 0.7461915016
	0.8418799043 0.8028677106 0.7473427057
	0.8427131772 0.8037161231 0.7484940290
	0.8435465097 0.8045580983 0.7496194839
	0.8443799019 0.8054001927 0.7507324815
	0.8452067971 0.8062422276 0.7518454194
	0.8460311890 0.8070843220 0.7529584169
	0.8468557000 0.8079264164 0.7540712953
	0.8476800919 0.8087493777 0.7551763058
	0.8485044837 0.8095721006 0.7562569976
	0.8493136764 0.8103948832 0.7573378086
	0.8501023054 0.8112176061 0.7584185004
	0.8508908749 0.8120403886 0.7594993114
	0.8516795039 0.8128635883 0.7605800033
	0.8524680734 0.8136872053 0.7616460919
	0.8532543182 0.8145108223 0.7627075911
	0.8540086150 0.8153343797 0.7637690902
	0.8547629714 0.8161579967 0.7648305893
	0.8555173278 0.8169798255 0.7658920884
	0.8562716842 0.8177930117 0.7669504285
	0.8570259809 0.8186061978 0.7679973245
	0.8577690721 0.8194193840 0.7690442204
	0.8585063815 0.8202325106 0.7700911164
	0.8592435718 0.8210456967 0.7711378932
	0.8599808812 0.8218513727 0.7721847892
	0.8607181907 0.8226534724 0.7732229233
	0.8614515066 0.8234555125 0.7742553949
	0.8621680737 0.8242576122 0.7752879858
	0.8628845811 0.8250595927 0.7763205171
	0.8636012077 0.8258600831 0.7773531079
	0.8643177748 0.8266490102 0.7783856988
	0.8650344014 0.8274379969 0.7793797255
	0.8657494187 0.8282269239 0.7803717256
	0.8664636016 0.8290157914 0.7813637853
	0.8671777844 0.8298047185 0.7823559046
	0.8678920269 0.8305819035 0.7833480239
	0.8686062098 0.8313472867 0.7843325734
	0.8693193793 0.8321127295 0.7852917910
	0.8700184822 0.8328779936 0.7862508893
	0.8707175851 0.8336433768 0.7872101068
	0.8714166880 0.8344088197 0.7881693244
	0.8721157908 0.8351647258 0.7891284227
	0.8728148937 0.8359184861 0.7900806069
	0.8734970093 0.8366723061 0.7910240293
	0.8741555810 0.8374261856 0.7919672728
	0.8748142123 0.8381800056 0.7929106951
	0.8754727840 0.8389329910 0.7938539982
	0.8761314750 0.8396766782 0.7947974205
	0.8767901063 0.8404204249 0.7957333922
	0.8774240017 0.8411641121 0.7966641784
	0.8780478835 0.8419076800 0.7975950241
	0.8786717057 0.8426514268 0.7985258102
	0.8792955279 0.8433899879 0.7994565964
	0.8799194098 0.8441156745 0.8003873825
	0.8805431724 0.8448413014 0.8012884855
	0.8811553121 0.8455669880 0.8021752238
	0.8817664981 0.8462926149 0.8030619025
	0.8823778033 0.8470183015 0.8039487004
	0.8829889894 0.8477351069 0.8048353791
	0.8836002946 0.8484396935 0.8057221174
	0.8842098713 0.8491442800 0.8065841794
	0.8848046064 0.8498489261 0.8074355125
	0.8853992820 0.8505535126 0.8082867861
	0.8859940171 0.8512580991 0.8091381192
	0.8865886927 0.8519487977 0.8099893928
	0.8871833086 0.8526254892 0.8108407259
	0.8877705932 0.8533021212 0.8116824031
	0.8883280158 0.8539788127 0.8125190139
	0.8888853788 0.8546553850 0.8133556247
	0.8894428015 0.8553320169 0.8141922951
	0.8900002241 0.8560088277 0.8150289059
	0.8905575871 0.8566855788 0.8158655167
	0.8911083937 0.8573625088 0.8166936040
	0.8916376829 0.8580393195 0.8175144792
	0.8921670914 0.8587161899 0.8183354735
	0.8926963806 0.8593930006 0.8191564083
	0.8932257295 0.8600615859 0.8199774027
	0.8937550783 0.8607198000 0.8207982779
	0.8942791820 0.8613780141 0.8216099739
	0.8947834969 0.8620361090 0.8224058747
	0.8952878118 0.8626943231 0.8232018948
	0.8957921863 0.8633524776 0.8239977956
	0.8962965012 0.8640044928 0.8247938156
	0.8968008161 0.8646433949 0.8255897760
	0.8973022103 0.8652822971 0.8263819218
	0.8977811933 0.8659210801 0.8271486163
	0.8982601166 0.8665599823 0.8279151917
	0.8987389803 0.8671988845 0.8286818862
	0.8992179036 0.8678355217 0.8294485211
	0.8996968865 0.8684571981 0.8302152157
	0.9001758099 0.8690788746 0.8309819102
	0.9006456137 0.8697006106 0.8317354918
	0.9011150002 0.8703222871 0.8324862123
	0.9015843272 0.8709440827 0.8332368731
	0.9020537138 0.8715658188 0.8339877129
	0.9025231004 0.8721610904 0.8347383738
	0.9029924273 0.8727529049 0.8354892135
	0.9034619927 0.8733446002 0.8362295032
	0.9039316773 0.8739364147 0.8369569182
	0.9044014812 0.8745281100 0.8376842737
	0.9048712254 0.8751199245 0.8384116888
	0.9053409100 0.8756937981 0.8391389847
	0.9058105946 0.8762534857 0.8398663998
	0.9062727094 0.8768131137 0.8405938148
	0.9067248106 0.8773728013 0.8413041234
	0.9071769118 0.8779324889 0.8420143127
	0.9076290131 0.8784921169 0.8427246213
	0.9080811143 0.8790519238 0.8434348702
	0.9085332751 0.8796120286 0.8441451192
	0.9089835286 0.8801720738 0.8448554277
	0.9094098210 0.8807322979 0.8455566764
	0.9098359942 0.8812924027 0.8462482095
	0.9102622867 0.8818526268 0.8469398022
	0.9106885791 0.8824126720 0.8476313949
	0.9111148119 0.8829627037 0.8483229876
	0.9115411043 0.8835083246 0.8490145206
