release/datafiles/colormanagement/luts/film_response/kodak_kaf-2001.spi1d
Version 1
From 0.0 1.0
Length 1024
Components 1
{
	0.0000000000
	0.0007931371
	0.0016355170
	0.0025503801
	0.0035146240
	0.0045273229
	0.0055715218
	0.0066442778
	0.0077339248
	0.0088365739
	0.0099448124
	0.0110545401
	0.0121633904
	0.0132660801
	0.0143607901
	0.0154447202
	0.0165135600
	0.0175563600
	0.0185688492
	0.0195335001
	0.0204569604
	0.0213513691
	0.0222338792
	0.0231126193
	0.0239920896
	0.0248705894
	0.0257443301
	0.0266080908
	0.0274574608
	0.0282867905
	0.0290999208
	0.0299087707
	0.0307223909
	0.0315502807
	0.0323930904
	0.0332537815
	0.0341344401
	0.0350381099
	0.0359668396
	0.0369246788
	0.0379154012
	0.0389400795
	0.0400040112
	0.0411124304
	0.0422693789
	0.0434693992
	0.0447056293
	0.0459665395
	0.0472429208
	0.0485244282
	0.0498028807
	0.0510769486
	0.0523513183
	0.0536344387
	0.0549293309
	0.0562351793
	0.0575465411
	0.0588550903
	0.0601528510
	0.0614360608
	0.0626917332
	0.0639152676
	0.0650884286
	0.0662079304
	0.0672680065
	0.0682774335
	0.0692317113
	0.0701425374
	0.0710024387
	0.0718212798
	0.0725976974
	0.0733437091
	0.0740561932
	0.0747447014
	0.0754096508
	0.0760633573
	0.0767156705
	0.0773765966
	0.0780583993
	0.0787628815
	0.0794979781
	0.0802626163
	0.0810654610
	0.0819049180
	0.0827899724
	0.0837192386
	0.0847032070
	0.0857442319
	0.0868611634
	0.0880450904
	0.0892995670
	0.0906111673
	0.0919737294
	0.0933712497
	0.0947946832
	0.0962312222
	0.0976707786
	0.0991016179
	0.1005088016
	0.1018795967
	0.1031991988
	0.1044576988
	0.1056412980
	0.1067342982
	0.1077463999
	0.1087004021
	0.1096137986
	0.1104959026
	0.1113545969
	0.1121921018
	0.1130077988
	0.1137992963
	0.1145685986
	0.1153163984
	0.1160470024
	0.1167626977
	0.1174698994
	0.1181747988
	0.1188858002
	0.1196158975
	0.1203754023
	0.1211868003
	0.1220536008
	0.1229866967
	0.1239702031
	0.1250043064
	0.1260707974
	0.1271626055
	0.1282667071
	0.1293743998
	0.1304752976
	0.1315566003
	0.1326127052
	0.1336387992
	0.1346348971
	0.1355908066
	0.1365199983
	0.1374216974
	0.1383025050
	0.1391607970
	0.1400025934
	0.1408285946
	0.1416438073
	0.1424539983
	0.1432684958
	0.1440957040
	0.1449375004
	0.1457988024
	0.1466775984
	0.1475750059
	0.1484851986
	0.1494164020
	0.1503666043
	0.1513417959
	0.1523495018
	0.1534101069
	0.1545234025
	0.1556780040
	0.1568565965
	0.1580476016
	0.1592365056
	0.1604065001
	0.1615456045
	0.1626373976
	0.1636672020
	0.1646257043
	0.1655281931
	0.1663973033
	0.1672482938
	0.1680918038
	0.1689291000
	0.1697597057
	0.1705808938
	0.1713818014
	0.1721594036
	0.1729159951
	0.1736537963
	0.1743783057
	0.1750947982
	0.1758113056
	0.1765365005
	0.1772823930
	0.1780716032
	0.1789128035
	0.1798152030
	0.1807664931
	0.1817689985
	0.1828158051
	0.1839095950
	0.1850427985
	0.1862190962
	0.1874303073
	0.1886713058
	0.1899241060
	0.1911779046
	0.1924244016
	0.1936572939
	0.1948782951
	0.1960881054
	0.1972880065
	0.1984702945
	0.1996252984
	0.2007281035
	0.2017628998
	0.2027094960
	0.2036039978
	0.2044609040
	0.2053059042
	0.2061520070
	0.2070064992
	0.2078751028
	0.2087562978
	0.2096406966
	0.2105236948
	0.2113939971
	0.2122493982
	0.2130886018
	0.2139182985
	0.2147479951
	0.2155908048
	0.2164690942
	0.2174035013
	0.2184235007
	0.2195228934
	0.2206815928
	0.2218745053
	0.2230865955
	0.2243078947
	0.2255353034
	0.2267691046
	0.2280129045
	0.2292630970
	0.2305141985
	0.2317567021
	0.2329764068
	0.2341637015
	0.2353121042
	0.2364190072
	0.2374805957
	0.2384950072
	0.2394600958
	0.2403741032
	0.2412285060
	0.2420233935
	0.2427742034
	0.2434999943
	0.2442153990
	0.2449319065
	0.2456566989
	0.2463952005
	0.2471493930
	0.2479220033
	0.2487130016
	0.2495251000
	0.2503561974
	0.2512075901
	0.2520760000
	0.2529664040
	0.2538853884
	0.2548437119
	0.2558579147
	0.2569623888
	0.2581419051
	0.2593897879
	0.2606801093
	0.2619997859
	0.2633245885
	0.2646321058
	0.2659066021
	0.2671222091
	0.2682681084
	0.2693215907
	0.2703152001
	0.2712577879
	0.2721709907
	0.2730554938
	0.2739250958
	0.2747743130
	0.2756054997
	0.2764146030
	0.2772051990
	0.2779743075
	0.2787271142
	0.2794634998
	0.2801890969
	0.2809084058
	0.2816320062
	0.2823747098
	0.2831506133
	0.2839820981
	0.2848649919
	0.2858025134
	0.2867873013
	0.2878226936
	0.2889021933
	0.2900269926
	0.2911930978
	0.2923978865
	0.2936300933
	0.2948761880
	0.2961241901
	0.2973628938
	0.2985885143
	0.2998012006
	0.3010047972
	0.3021970987
	0.3033716977
	0.3045161963
	0.3056159914
	0.3066501915
	0.3076123893
	0.3085128963
	0.3093748093
	0.3102149069
	0.3110443950
	0.3118737936
	0.3127109110
	0.3135589957
	0.3144189119
	0.3152843118
	0.3161520958
	0.3170174956
	0.3178755939
	0.3187314868
	0.3195927143
	0.3204680979
	0.3213739991
	0.3223293126
	0.3233569860
	0.3244507909
	0.3255977035
	0.3267756999
	0.3279756904
	0.3291803002
	0.3303748071
	0.3315485120
	0.3326843977
	0.3337798119
	0.3348152936
	0.3358032107
	0.3367348909
	0.3376190960
	0.3384444118
	0.3392320871
	0.3399783969
	0.3406944871
	0.3413780928
	0.3420386910
	0.3426808119
	0.3433162868
	0.3439547122
	0.3446053863
	0.3452802002
	0.3459802866
	0.3467136025
	0.3474789858
	0.3482855856
	0.3491322994
	0.3500328958
	0.3509812057
	0.3519834876
	0.3530359864
	0.3541389108
	0.3552891910
	0.3564738035
	0.3576740026
	0.3588739932
	0.3600645959
	0.3612402976
	0.3623969853
	0.3635292947
	0.3646346033
	0.3657099903
	0.3667556047
	0.3677704930
	0.3687556982
	0.3697125912
	0.3706437945
	0.3715595901
	0.3724690080
	0.3733772933
	0.3742752969
	0.3751674891
	0.3760527074
	0.3769319057
	0.3778083026
	0.3786880076
	0.3795790076
	0.3804906011
	0.3814407885
	0.3824321926
	0.3834637105
	0.3845176101
	0.3855882883
	0.3866708875
	0.3877635002
	0.3888686001
	0.3899909854
	0.3911277056
	0.3922775984
	0.3934313059
	0.3945826888
	0.3957261145
	0.3968504965
	0.3979482055
	0.3990120888
	0.4000467956
	0.4010437131
	0.4020088017
	0.4029388130
	0.4038451016
	0.4047274888
	0.4055930078
	0.4064427018
	0.4072813094
	0.4081071913
	0.4089260995
	0.4097451866
	0.4105694890
	0.4114066064
	0.4122569859
	0.4131241143
	0.4140050113
	0.4148985147
	0.4158008993
	0.4167236090
	0.4176675081
	0.4186491966
	0.4196803868
	0.4207774997
	0.4219251871
	0.4231063128
	0.4243052900
	0.4255081117
	0.4267005026
	0.4278686941
	0.4290013015
	0.4300687015
	0.4310568869
	0.4319736958
	0.4328454137
	0.4336949885
	0.4345388114
	0.4353840053
	0.4362317026
	0.4370762110
	0.4379085898
	0.4387196004
	0.4395040870
	0.4402616024
	0.4409970045
	0.4417150915
	0.4424203932
	0.4431223869
	0.4438334107
	0.4445698857
	0.4453583956
	0.4462080896
	0.4471251965
	0.4480918944
	0.4491102993
	0.4501725137
	0.4512811005
	0.4524315000
	0.4536258876
	0.4548498988
	0.4561010897
	0.4573644996
	0.4586338103
	0.4599033892
	0.4611744881
	0.4624508917
	0.4637391865
	0.4650414884
	0.4663577974
	0.4676811099
	0.4690015018
	0.4703139961
	0.4716050029
	0.4728696048
	0.4740908146
	0.4752691984
	0.4763813913
	0.4774327874
	0.4784271121
	0.4793924987
	0.4803338945
	0.4812591970
	0.4821656942
	0.4830561876
	0.4839268029
	0.4847800136
	0.4856149852
	0.4864366055
	0.4872506857
	0.4880648851
	0.4888868928
	0.4897224009
	0.4905739129
	0.4914413095
	0.4923292100
	0.4932385087
	0.4941751063
	0.4951438010
	0.4961484075
	0.4971834123
	0.4982456863
	0.4993270040
	0.5004199147
	0.5015118122
	0.5025907755
	0.5036478043
	0.5046734214
	0.5056589842
	0.5065951943
	0.5074753761
	0.5082963705
	0.5090649724
	0.5098019242
	0.5105221868
	0.5112395287
	0.5119636059
	0.5126994252
	0.5134509206
	0.5142197013
	0.5150089860
	0.5158177018
	0.5166478157
	0.5174968243
	0.5183656812
	0.5192511082
	0.5201653838
	0.5211125016
	0.5221105218
	0.5231735706
	0.5243276954
	0.5255516171
	0.5268324018
	0.5281450152
	0.5294731259
	0.5307943225
	0.5320841074
	0.5333306789
	0.5345025063
	0.5355963111
	0.5366004109
	0.5375565886
	0.5384708047
	0.5393584967
	0.5402259827
	0.5410857797
	0.5419417024
	0.5427981019
	0.5436624289
	0.5445290208
	0.5453966260
	0.5462577939
	0.5471146107
	0.5479719043
	0.5488393903
	0.5497273803
	0.5506578088
	0.5516471267
	0.5527126789
	0.5538355112
	0.5549985170
	0.5561832786
	0.5573828816
	0.5585942864
	0.5598186255
	0.5610554814
	0.5623052716
	0.5635616183
	0.5648146272
	0.5660511851
	0.5672566295
	0.5684217215
	0.5695446134
	0.5706257820
	0.5716617107
	0.5726498961
	0.5735875964
	0.5744670033
	0.5752794743
	0.5760352015
	0.5767551064
	0.5774592161
	0.5781627893
	0.5788754821
	0.5796039104
	0.5803539157
	0.5811277032
	0.5819321871
	0.5827584863
	0.5836037993
	0.5844542980
	0.5853049755
	0.5861505866
	0.5869960189
	0.5878553987
	0.5887522101
	0.5897055268
	0.5907446146
	0.5918523073
	0.5930091739
	0.5941920877
	0.5953928828
	0.5965957046
	0.5977848172
	0.5989491940
	0.6000605226
	0.6011224985
	0.6021242142
	0.6030789018
	0.6039801836
	0.6048383713
	0.6056500077
	0.6064301133
	0.6071758270
	0.6078960896
	0.6085894704
	0.6092637181
	0.6099225283
	0.6105781794
	0.6112405062
	0.6119177938
	0.6126191020
	0.6133441925
	0.6141006947
	0.6148883104
	0.6157158017
	0.6165835857
	0.6175035834
	0.6184763908
	0.6195145249
	0.6206189990
	0.6218029857
	0.6230565906
	0.6243699789
	0.6257280111
	0.6271185279
	0.6285330057
	0.6299641132
	0.6314023137
	0.6328353286
	0.6342498064
	0.6356307864
	0.6369662285
	0.6382427216
	0.6394453049
	0.6405580044
	0.6415867805
	0.6425542831
	0.6434767246
	0.6443691254
	0.6452344060
	0.6460803747
	0.6469035745
	0.6477041245
	0.6484807730
	0.6492365003
	0.6499711871
	0.6506897807
	0.6513956785
	0.6520953774
	0.6527956128
	0.6535081267
	0.6542478800
	0.6550295949
	0.6558724046
	0.6567714214
	0.6577283144
	0.6587334871
	0.6597931981
	0.6608967781
	0.6620492935
	0.6632428169
	0.6644775271
	0.6657373905
	0.6670100093
	0.6682801247
	0.6695359945
	0.6707767248
	0.6719986200
	0.6732079983
	0.6743972898
	0.6755645871
	0.6766923070
	0.6777756810
	0.6787837744
	0.6797292233
	0.6806203127
	0.6814811826
	0.6823214889
	0.6831535101
	0.6839842200
	0.6848192215
	0.6856622100
	0.6865146756
	0.6873624921
	0.6882051826
	0.6890435219
	0.6898779273
	0.6907151937
	0.6915640235
	0.6924375296
	0.6933465004
	0.6943172812
	0.6953549981
	0.6964592934
	0.6976081729
	0.6987894177
	0.6999887824
	0.7011907101
	0.7023807764
	0.7035446763
	0.7046695948
	0.7057371736
	0.7067508101
	0.7077292204
	0.7086814046
	0.7096115947
	0.7105264068
	0.7114247084
	0.7123047709
	0.7131667137
	0.7140098214
	0.7148374915
	0.7156537771
	0.7164676785
	0.7172846794
	0.7181128860
	0.7189571261
	0.7198163867
	0.7206944227
	0.7215924859
	0.7225160003
	0.7234672904
	0.7244563103
	0.7254763842
	0.7265270948
	0.7275997996
	0.7286885977
	0.7297828197
	0.7308688164
	0.7319386005
	0.7329788804
	0.7339875102
	0.7349454761
	0.7358558774
	0.7367025018
	0.7374975085
	0.7382442951
	0.7389717102
	0.7396886945
	0.7404084206
	0.7411383986
	0.7418810129
	0.7426424026
	0.7434210181
	0.7442209125
	0.7450360060
	0.7458639741
	0.7466968894
	0.7475343943
	0.7483779788
	0.7492403984
	0.7501326203
	0.7510781288
	0.7520893216
	0.7531732917
	0.7543053031
	0.7554739714
	0.7566642761
	0.7578607798
	0.7590482831
	0.7602115273
	0.7613403201
	0.7624225020
	0.7634521127
	0.7644327283
	0.7653704882
	0.7662618756
	0.7671076059
	0.7679154277
	0.7686895132
	0.7694332004
	0.7701491714
	0.7708417177
	0.7715176940
	0.7721850276
	0.7728537917
	0.7735335827
	0.7742335796
	0.7749583125
	0.7757118940
	0.7764955759
	0.7773144841
	0.7781693935
	0.7790681720
	0.7800117135
	0.7810093164
	0.7820671797
	0.7831969857
	0.7843930721
	0.7856580019
	0.7869743705
	0.7883390784
	0.7897359133
	0.7911605239
	0.7926027179
	0.7940539122
	0.7954995036
	0.7969205976
	0.7983062267
	0.7996307015
	0.8008906841
	0.8020377755
	0.8030900955
	0.8040465713
	0.8049607873
	0.8058419228
	0.8067098856
	0.8075734973
	0.8084387779
	0.8093091846
	0.8101882935
	0.8110724092
	0.8119565248
	0.8128302097
	0.8136907816
	0.8145390153
	0.8153827786
	0.8162342906
	0.8171085715
	0.8180341125
	0.8190286756
	0.8201074004
	0.8212432861
	0.8224158287
	0.8236094713
	0.8248127103
	0.8260108232
	0.8271877766
	0.8283281922
	0.8294121027
	0.8304437995
	0.8314198852
	0.8323469162
	0.8332254887
	0.8340582848
	0.8348531723
	0.8356149197
	0.8363471031
	0.8370530009
	0.8377360106
	0.8384007215
	0.8390572071
	0.8397147059
	0.8403840065
	0.8410733938
	0.8417865038
	0.8425278068
	0.8432993889
	0.8441076279
	0.8449550271
	0.8458499908
	0.8467941880
	0.8477939963
	0.8488482833
	0.8499671817
	0.8511453867
	0.8523722291
	0.8536306024
	0.8549143076
	0.8562114239
	0.8575189710
	0.8588296771
	0.8601360917
	0.8614333272
	0.8627083898
	0.8639556766
	0.8651599884
	0.8663218021
	0.8674148917
	0.8684523106
	0.8694357276
	0.8703922033
	0.8713268042
	0.8722450137
	0.8731473088
	0.8740348220
	0.8749024868
	0.8757532239
	0.8765848875
	0.8774042130
	0.8782153726
	0.8790270090
	0.8798487186
	0.8806846738
	0.8815388083
	0.8824067116
	0.8832883239
	0.8841770291
	0.8850684762
	0.8859568238
	0.8868265748
	0.8876711726
	0.8884992003
	0.8893253803
	0.8901607990
	0.8910120130
	0.8918834925
	0.8927683234
	0.8936566114
	0.8945342898
	0.8953920007
	0.8962271810
	0.8970484138
	0.8978644013
	0.8986830711
	0.8995125890
	0.9003558159
	0.9012147188
	0.9020918012
	0.9029911757
	0.9039173126
	0.9048787951
	0.9058734775
	0.9069008231
	0.9079614282
	0.9090539217
	0.9101731777
	0.9113155007
	0.9124684930
	0.9136266112
	0.9147831798
	0.9159303904
	0.9170637727
	0.9181826115
	0.9192898273
	0.9203851819
	0.9214702845
	0.9225413203
	0.9235910773
	0.9246032834
	0.9255704284
	0.9264910221
	0.9273847938
	0.9282647967
	0.9291424155
	0.9300234914
	0.9309046865
	0.9317824841
	0.9326478243
	0.9334927201
	0.9343230128
	0.9351406097
	0.9359554052
	0.9367738962
	0.9376012087
	0.9384446144
	0.9393029213
	0.9401808977
	0.9410789013
	0.9420050979
	0.9429584146
	0.9439467192
	0.9449679255
	0.9460309148
	0.9471349120
	0.9482825994
	0.9494689107
	0.9506921768
	0.9519376755
	0.9531915188
	0.9544414282
	0.9556764960
	0.9568939209
	0.9580923915
	0.9592747092
	0.9604387283
	0.9615803957
	0.9626855850
	0.9637448192
	0.9647368789
	0.9656659961
	0.9665510058
	0.9674115777
	0.9682607055
	0.9691076875
	0.9699587822
	0.9708169103
	0.9716814160
	0.9725438952
	0.9734039903
	0.9742600918
	0.9751064181
	0.9759439826
	0.9767826200
	0.9776347280
	0.9785134792
	0.9794371724
	0.9804236293
	0.9814878702
	0.9826123118
	0.9837834239
	0.9849817157
	0.9861915708
	0.9873952866
	0.9885756969
	0.9897236228
	0.9908238053
	0.9918766022
	0.9928745031
	0.9938510060
	0.9947990775
	0.9957082272
	0.9965645075
	0.9973732829
	0.9981198907
	0.9988123775
	0.9994353056
	1.0000000000
}
