release/datafiles/colormanagement/luts/film_response/kodak_dscs_3151.spi1d
Version 1
From 0.0 1.0
Length 1024
Components 3
{
	0.0000000000 0.0000000000 0.0000000000
	0.0037204761 0.0029971090 0.0034317160
	0.0074409521 0.0059942179 0.0068634320
	0.0112108104 0.0089913281 0.0103168199
	0.0150894802 0.0121837398 0.0140005304
	0.0189681500 0.0154752200 0.0176842492
	0.0229456108 0.0187666994 0.0214565806
	0.0269588791 0.0222466905 0.0253789201
	0.0309982002 0.0258396305 0.0293012708
	0.0351190008 0.0294325706 0.0334015414
	0.0392398089 0.0332778692 0.0375403687
	0.0434244089 0.0371704884 0.0417546108
	0.0476234518 0.0411414988 0.0460793190
	0.0518433899 0.0453211293 0.0504178591
	0.0560905896 0.0495007597 0.0548906699
	0.0603392683 0.0539112613 0.0593634807
	0.0646051764 0.0583530813 0.0639266223
	0.0688710883 0.0629366115 0.0685047507
	0.0731304884 0.0676036403 0.0731234923
	0.0773875490 0.0723571181 0.0777619109
	0.0816316605 0.0772018284 0.0824085474
	0.0858552009 0.0820983425 0.0870628431
	0.0900777131 0.0870656669 0.0917078033
	0.0942465588 0.0920592695 0.0963367820
	0.0984154195 0.0970907733 0.1009529978
	0.1025395989 0.1021251008 0.1055205986
	0.1066365018 0.1071633995 0.1100865975
	0.1107179970 0.1121815965 0.1145633981
	0.1147293970 0.1171742007 0.1190401986
	0.1187407970 0.1221275032 0.1234276965
	0.1226869002 0.1270297021 0.1277907938
	0.1266030073 0.1318825036 0.1320898980
	0.1305056065 0.1366591007 0.1363231987
	0.1343199015 0.1413903981 0.1405382007
	0.1381341964 0.1460158974 0.1446315050
	0.1418946981 0.1506181061 0.1487247944
	0.1456034929 0.1550758928 0.1527182013
	0.1493123025 0.1595336050 0.1566662937
	0.1529341042 0.1638332009 0.1605917066
	0.1565361023 0.1681143939 0.1643936932
	0.1601340026 0.1722953022 0.1681956053
	0.1636296958 0.1763972044 0.1719217002
	0.1671254039 0.1804776043 0.1755793989
	0.1706026942 0.1844025999 0.1792372018
	0.1739941984 0.1883275062 0.1827841997
	0.1773857027 0.1921540052 0.1863020957
	0.1807540953 0.1959075928 0.1898200065
	0.1840445995 0.1996611059 0.1932110041
	0.1873351038 0.2032658011 0.1965949982
	0.1906071007 0.2068558931 0.1999790967
	0.1938004941 0.2104267031 0.2032371014
	0.1969940066 0.2138625979 0.2064943016
	0.2001820058 0.2172984928 0.2097516060
	0.2032828927 0.2207036018 0.2128987014
	0.2063837051 0.2239954025 0.2160367072
	0.2094846070 0.2272873074 0.2191746980
	0.2125124037 0.2305555940 0.2222305983
	0.2155255973 0.2337138951 0.2252573073
	0.2185387015 0.2368721068 0.2282838970
	0.2215092927 0.2400290966 0.2312657982
	0.2244399041 0.2430640012 0.2341890037
	0.2273703963 0.2460989058 0.2371121943
	0.2302929014 0.2491337955 0.2400342971
	0.2331458032 0.2520878017 0.2428618073
	0.2359987050 0.2550094128 0.2456893027
	0.2388516068 0.2579309940 0.2485169023
	0.2416612059 0.2608223855 0.2513025105
	0.2444415987 0.2636403143 0.2540419102
	0.2472219020 0.2664583027 0.2567811906
	0.2500022054 0.2692762017 0.2595205903
	0.2527149916 0.2720237970 0.2621931136
	0.2554276884 0.2747471035 0.2648515105
	0.2581403852 0.2774704993 0.2675099075
	0.2608334124 0.2801876962 0.2701635957
	0.2634831965 0.2828249037 0.2727478147
	0.2661330998 0.2854621112 0.2753320038
	0.2687830031 0.2880992889 0.2779161930
	0.2714012861 0.2907147110 0.2804872990
	0.2739928961 0.2932738066 0.2830036879
	0.2765845060 0.2958329022 0.2855201960
	0.2791759968 0.2983919084 0.2880367041
	0.2817308009 0.3009246886 0.2905395031
	0.2842684984 0.3034130037 0.2929942906
	0.2868061066 0.3059012890 0.2954489887
	0.2893437147 0.3083896041 0.2979038060
	0.2918444872 0.3108552992 0.3003503084
	0.2943322957 0.3132796884 0.3027490079
	0.2968201041 0.3157039881 0.3051475883
	0.2993079126 0.3181284070 0.3075462878
	0.3017626107 0.3205395937 0.3099448979
	0.3042044938 0.3229064047 0.3122938871
	0.3066464067 0.3252730966 0.3146417141
	0.3090882897 0.3276399076 0.3169896007
	0.3115035892 0.3300065100 0.3193373978
	0.3139032125 0.3323214948 0.3216522038
	0.3163028061 0.3346365094 0.3239541054
	0.3187023997 0.3369514942 0.3262560070
	0.3210841119 0.3392665088 0.3285579085
	0.3234448135 0.3415498137 0.3308443129
	0.3258054852 0.3438183963 0.3331047893
	0.3281661868 0.3460870087 0.3353652954
	0.3305189013 0.3483555913 0.3376257122
	0.3328438103 0.3506127894 0.3398861885
	0.3351686895 0.3528400064 0.3421114087
	0.3374935985 0.3550671935 0.3443346918
	0.3398185074 0.3572942913 0.3465578854
	0.3421131074 0.3595215082 0.3487811983
	0.3444052041 0.3617197871 0.3509894013
	0.3466972113 0.3639101088 0.3531793952
	0.3489891887 0.3661004007 0.3553692997
	0.3512642980 0.3682906926 0.3575592935
	0.3535260856 0.3704738915 0.3597491980
	0.3557879031 0.3726314902 0.3619127870
	0.3580496907 0.3747890890 0.3640730083
	0.3603076935 0.3769468069 0.3662331998
	0.3625417054 0.3791044056 0.3683933914
	0.3647755980 0.3812451065 0.3705467880
	0.3670096099 0.3833738863 0.3726806045
	0.3692435026 0.3855026960 0.3748143017
	0.3714604974 0.3876315057 0.3769479990
	0.3736687899 0.3897601962 0.3790816963
	0.3758769929 0.3918665051 0.3812020123
	0.3780852854 0.3939698935 0.3833121955
	0.3802903891 0.3960733116 0.3854224086
	0.3824748993 0.3981766999 0.3875325918
	0.3846592903 0.4002771080 0.3896428049
	0.3868438005 0.4023582935 0.3917357028
	0.3890283108 0.4044393897 0.3938251138
	0.3912005126 0.4065206051 0.3959144950
	0.3933627903 0.4086017013 0.3980039060
	0.3955250978 0.4106765091 0.4000923932
	0.3976874053 0.4127382934 0.4021633863
	0.3998498023 0.4148001075 0.4042344093
	0.4019927979 0.4168618023 0.4063053131
	0.4041343033 0.4189235866 0.4083763063
	0.4062758982 0.4209772944 0.4104438126
	0.4084174931 0.4230220914 0.4124985039
	0.4105539024 0.4250670075 0.4145531058
	0.4126757979 0.4271118045 0.4166077971
	0.4147978127 0.4291566908 0.4186624885
	0.4169197083 0.4311929047 0.4207122028
	0.4190416038 0.4332230985 0.4227524102
	0.4211533070 0.4352532029 0.4247925878
	0.4232563972 0.4372833967 0.4268329144
	0.4253596067 0.4393135011 0.4288730919
	0.4274626970 0.4413351119 0.4309074879
	0.4295659065 0.4433524013 0.4329349101
	0.4316546023 0.4453696907 0.4349622130
	0.4337396026 0.4473870099 0.4369894862
	0.4358245134 0.4494042993 0.4390167892
	0.4379095137 0.4514135122 0.4410381019
	0.4399943948 0.4534195065 0.4430536926
	0.4420616031 0.4554254115 0.4450694025
	0.4441286922 0.4574314058 0.4470849931
	0.4461956918 0.4594373107 0.4491006136
	0.4482628107 0.4614359140 0.4511103034
	0.4503270090 0.4634316862 0.4531151056
	0.4523763061 0.4654273987 0.4551199973
	0.4544255137 0.4674232006 0.4571247995
	0.4564746916 0.4694189131 0.4591296911
	0.4585238993 0.4714080989 0.4611288011
	0.4605681002 0.4733943939 0.4631234109
	0.4625990987 0.4753808081 0.4651181102
	0.4646301866 0.4773671925 0.4671126902
	0.4666613042 0.4793536067 0.4691073895
	0.4686923921 0.4813339114 0.4710964859
	0.4707168043 0.4833112955 0.4730812013
	0.4727292955 0.4852887094 0.4750658870
	0.4747416973 0.4872662127 0.4770506024
	0.4767540991 0.4892435968 0.4790352881
	0.4787665009 0.4912154973 0.4810147882
	0.4807713032 0.4931839108 0.4829894006
	0.4827642143 0.4951524138 0.4849640131
	0.4847570956 0.4971208870 0.4869385958
	0.4867500067 0.4990893006 0.4889132082
	0.4887427986 0.5010527968 0.4908829927
	0.4907281101 0.5030118823 0.4928469956
	0.4927003086 0.5049710274 0.4948109984
	0.4946725965 0.5069301128 0.4967750013
	0.4966447949 0.5088893175 0.4987390041
	0.4986169934 0.5108439922 0.5006989241
	0.5005825758 0.5127928853 0.5026513934
	0.5025327802 0.5147417784 0.5046039224
	0.5044829845 0.5166907907 0.5065565109
	0.5064331293 0.5186396837 0.5085089803
	0.5083832741 0.5205851197 0.5104585290
	0.5103294253 0.5225226283 0.5123981833
	0.5122557878 0.5244600177 0.5143380165
	0.5141823292 0.5263975263 0.5162776709
	0.5161086917 0.5283349156 0.5182175040
	0.5180351138 0.5302705169 0.5201560855
	0.5199615955 0.5321947932 0.5220813751
	0.5218629241 0.5341190100 0.5240067244
	0.5237637162 0.5360432863 0.5259320140
	0.5256645083 0.5379675031 0.5278573036
	0.5275653005 0.5398917198 0.5297827125
	0.5294660926 0.5418013930 0.5316932797
	0.5313469172 0.5437102914 0.5336021781
	0.5332199931 0.5456190705 0.5355110168
	0.5350930095 0.5475279093 0.5374197960
	0.5369660854 0.5494368076 0.5393285751
	0.5388391018 0.5513328910 0.5412250757
	0.5407006741 0.5532237291 0.5431150198
	0.5425437093 0.5551146269 0.5450049043
	0.5443866849 0.5570054054 0.5468947887
	0.5462297201 0.5588961840 0.5487846732
	0.5480726957 0.5607783198 0.5506668091
	0.5499156117 0.5626481175 0.5525349975
	0.5517275929 0.5645177960 0.5544031262
	0.5535380840 0.5663875937 0.5562713146
	0.5553485155 0.5682573915 0.5581395030
	0.5571590066 0.5701255202 0.5600075126
	0.5589694977 0.5719708800 0.5618509054
	0.5607649088 0.5738161802 0.5636942983
	0.5625402927 0.5756615996 0.5655375719
	0.5643156767 0.5775070190 0.5673810244
	0.5660911202 0.5793523192 0.5692244172
	0.5678665042 0.5811793804 0.5710514784
	0.5696418881 0.5829967260 0.5728666782
	0.5713872910 0.5848138928 0.5746818781
	0.5731251240 0.5866311789 0.5764971972
	0.5748628974 0.5884484053 0.5783123970
	0.5766006112 0.5902609825 0.5801253915
	0.5783383846 0.5920462012 0.5819090009
	0.5800744295 0.5938314199 0.5836926103
	0.5817720294 0.5956165791 0.5854762197
	0.5834695101 0.5974019170 0.5872597098
	0.5851671100 0.5991870761 0.5890433192
	0.5868647099 0.6009526253 0.5908104777
	0.5885621905 0.6027017832 0.5925588012
	0.5902531743 0.6044508815 0.5943070054
	0.5919080973 0.6062000990 0.5960553288
	0.5935629010 0.6079491973 0.5978035927
	0.5952177048 0.6096982956 0.5995517969
	0.5968725085 0.6114141941 0.6012710929
	0.5985273123 0.6131231785 0.6029803753
	0.6001772285 0.6148322225 0.6046897173
	0.6017869115 0.6165410876 0.6063989997
	0.6033965945 0.6182500720 0.6081082821
	0.6050062776 0.6199591160 0.6098175049
	0.6066160202 0.6216248870 0.6114888191
	0.6082255840 0.6232897043 0.6131554842
	0.6098353267 0.6249545217 0.6148222089
	0.6114025116 0.6266192198 0.6164888144
	0.6129649282 0.6282839775 0.6181554794
	0.6145272255 0.6299487948 0.6198222041
	0.6160895824 0.6315670013 0.6214476824
	0.6176518798 0.6331837177 0.6230683923
	0.6192142963 0.6348004937 0.6246889830
	0.6207520962 0.6364172101 0.6263095737
	0.6222651005 0.6380339265 0.6279302239
	0.6237781048 0.6396507025 0.6295508146
	0.6252911091 0.6412270069 0.6311358213
	0.6268041134 0.6427921057 0.6327071190
	0.6283171177 0.6443573236 0.6342784762
	0.6298301220 0.6459224224 0.6358497739
	0.6312978268 0.6474875808 0.6374210715
	0.6327596903 0.6490526795 0.6389924288
	0.6342216730 0.6505963206 0.6405450106
	0.6356835961 0.6521067023 0.6420642138
	0.6371455789 0.6536170840 0.6435832977
	0.6386075020 0.6551274061 0.6451023817
	0.6400669813 0.6566377878 0.6466215849
	0.6414763927 0.6581482291 0.6481407285
	0.6428859234 0.6596586108 0.6496598125
	0.6442952752 0.6611245275 0.6511365175
	0.6457048059 0.6625775099 0.6526008844
	0.6471142769 0.6640303731 0.6540653110
	0.6485236883 0.6654832959 0.6555296779
	0.6499332190 0.6669362783 0.6569941044
	0.6512916088 0.6683892012 0.6584585905
	0.6526474953 0.6698421240 0.6599230170
	0.6540033817 0.6712418795 0.6613336205
	0.6553593278 0.6726351976 0.6627411842
	0.6567150950 0.6740285158 0.6641489267
	0.6580709815 0.6754218936 0.6655564904
	0.6594269276 0.6768152118 0.6669641733
	0.6607514024 0.6782084703 0.6683717966
	0.6620529890 0.6796017885 0.6697794795
	0.6633545756 0.6809514165 0.6711379290
	0.6646561027 0.6822834015 0.6724871993
	0.6659576893 0.6836155057 0.6738365293
	0.6672592163 0.6849476099 0.6751857996
	0.6685608029 0.6862797141 0.6765351295
	0.6698623896 0.6876118183 0.6778843999
	0.6711149812 0.6889439225 0.6792336702
	0.6723617911 0.6902630925 0.6805573106
	0.6736087203 0.6915329099 0.6818472147
	0.6748554707 0.6928027868 0.6831371188
	0.6761022806 0.6940726042 0.6844270229
	0.6773492098 0.6953424811 0.6857169271
	0.6785960197 0.6966122985 0.6870067716
	0.6798428893 0.6978821754 0.6882966161
	0.6810417771 0.6991519928 0.6895865202
	0.6822339296 0.7004011273 0.6908357143
	0.6834260225 0.7016083002 0.6920655966
	0.6846179962 0.7028154731 0.6932954788
	0.6858100891 0.7040227056 0.6945254803
	0.6870021820 0.7052298784 0.6957554221
	0.6881942153 0.7064371109 0.6969853044
	0.6893863082 0.7076442838 0.6982151866
	0.6905518770 0.7088515162 0.6994451880
	0.6916894913 0.7100557089 0.7006422281
	0.6928271055 0.7112004161 0.7018120885
	0.6939646006 0.7123451233 0.7029820085
	0.6951022148 0.7134897709 0.7041519284
	0.6962398291 0.7146344781 0.7053217888
	0.6973773837 0.7157791853 0.7064917088
	0.6985148787 0.7169238925 0.7076616883
	0.6996524930 0.7180685997 0.7088316083
	0.7007526159 0.7192133069 0.7100014091
	0.7018362880 0.7203385830 0.7111117244
	0.7029200196 0.7214214802 0.7122220993
	0.7040035725 0.7225043178 0.7133324146
	0.7050873041 0.7235872149 0.7144426703
	0.7061709762 0.7246699929 0.7155529857
	0.7072547078 0.7257528901 0.7166634202
	0.7083383203 0.7268357873 0.7177736759
	0.7094219923 0.7279186249 0.7188839912
	0.7104809284 0.7290015221 0.7199943066
	0.7115116119 0.7300795913 0.7210462093
	0.7125421762 0.7311016917 0.7220978141
	0.7135729194 0.7321239114 0.7231494188
	0.7146034837 0.7331460118 0.7242009044
	0.7156342268 0.7341681719 0.7252525091
	0.7166647911 0.7351902723 0.7263041139
	0.7176954746 0.7362124920 0.7273557186
	0.7187260985 0.7372345924 0.7284073234
	0.7197567225 0.7382566929 0.7294588089
	0.7207477093 0.7392789125 0.7304825187
	0.7217264771 0.7402836084 0.7314764857
	0.7227051854 0.7412465811 0.7324705720
	0.7236840129 0.7422094941 0.7334647179
	0.7246627808 0.7431725264 0.7344586849
	0.7256414890 0.7441354990 0.7354527712
	0.7266203165 0.7450984120 0.7364467978
	0.7275990248 0.7460613847 0.7374408841
	0.7285777926 0.7470242977 0.7384349704
	0.7295565009 0.7479872704 0.7394289970
	0.7305076122 0.7489503026 0.7403993011
	0.7314357758 0.7499132156 0.7413372993
	0.7323639989 0.7508239746 0.7422754169
	0.7332922220 0.7517297268 0.7432134748
	0.7342203856 0.7526353002 0.7441515923
	0.7351486087 0.7535409927 0.7450897098
	0.7360768914 0.7544466257 0.7460278273
	0.7370051146 0.7553523183 0.7469658852
	0.7379332781 0.7562578917 0.7479040027
	0.7388615012 0.7571635842 0.7488421202
	0.7397897243 0.7580692172 0.7497801781
	0.7406799793 0.7589749098 0.7506768107
	0.7415592074 0.7598804832 0.7515608072
	0.7424383759 0.7607383132 0.7524446845
	0.7433176041 0.7615888119 0.7533286810
	0.7441967130 0.7624391913 0.7542126179
	0.7450758815 0.7632896900 0.7550964952
	0.7459551096 0.7641401887 0.7559804916
	0.7468342781 0.7649906874 0.7568644285
	0.7477135062 0.7658411264 0.7577484250
	0.7485926747 0.7666916251 0.7586323023
	0.7494719028 0.7675421238 0.7595162988
	0.7503321767 0.7683925033 0.7603765726
	0.7511640787 0.7692430019 0.7612084746
	0.7519959211 0.7700877190 0.7620403171
	0.7528278232 0.7708852887 0.7628720999
	0.7536597252 0.7716829181 0.7637040019
	0.7544915080 0.7724806070 0.7645357847
	0.7553234100 0.7732781768 0.7653676271
	0.7561553121 0.7740758061 0.7661995292
	0.7569870949 0.7748734951 0.7670313120
	0.7578189969 0.7756711245 0.7678630948
	0.7586507797 0.7764686942 0.7686949968
	0.7594826818 0.7772663832 0.7695267797
	0.7602974176 0.7780640125 0.7703371048
	0.7610837221 0.7788615823 0.7711189985
	0.7618700266 0.7796592712 0.7719008923
	0.7626562715 0.7804281116 0.7726829052
	0.7634426951 0.7811753154 0.7734647989
	0.7642289996 0.7819225788 0.7742466927
	0.7650153041 0.7826699018 0.7750285864
	0.7658017278 0.7834171057 0.7758104801
	0.7665879726 0.7841644287 0.7765923738
	0.7673742771 0.7849116921 0.7773743272
	0.7681607008 0.7856588960 0.7781562805
	0.7689470053 0.7864062190 0.7789381742
	0.7697333097 0.7871534824 0.7797201276
	0.7704908252 0.7879006863 0.7804713845
	0.7712334991 0.7886480093 0.7812057137
	0.7719761729 0.7893952727 0.7819399834
	0.7727187872 0.7901334167 0.7826743126
	0.7734615207 0.7908328772 0.7834085822
	0.7742041945 0.7915323973 0.7841429114
	0.7749469280 0.7922317982 0.7848771811
	0.7756894827 0.7929313183 0.7856115103
	0.7764322162 0.7936307788 0.7863457799
	0.7771748900 0.7943302989 0.7870801091
	0.7779176235 0.7950296998 0.7878143787
	0.7786601782 0.7957292199 0.7885487080
	0.7794029117 0.7964286804 0.7892829776
	0.7801374197 0.7971280813 0.7900161743
	0.7808383703 0.7978276014 0.7907052040
	0.7815393209 0.7985271215 0.7913942933
	0.7822402716 0.7992265224 0.7920833230
	0.7829412222 0.7999259830 0.7927722931
	0.7836421728 0.8005850911 0.7934613824
	0.7843431234 0.8012393117 0.7941504121
	0.7850440741 0.8018935919 0.7948395014
	0.7857450843 0.8025478721 0.7955284715
	0.7864459753 0.8032020926 0.7962175012
	0.7871469855 0.8038563728 0.7969065905
	0.7878478765 0.8045107126 0.7975956202
	0.7885488868 0.8051649928 0.7982845902
	0.7892497778 0.8058192134 0.7989736795
	0.7899507880 0.8064734936 0.7996627092
	0.7906147838 0.8071277738 0.8003299236
	0.7912759781 0.8077819943 0.8009759784
	0.7919371128 0.8084362745 0.8016222119
	0.7925983071 0.8090906143 0.8022683859
	0.7932595015 0.8097448945 0.8029146194
	0.7939206958 0.8103731275 0.8035606742
	0.7945818901 0.8109847903 0.8042069077
	0.7952430844 0.8115965128 0.8048530817
	0.7959042788 0.8122081757 0.8054991961
	0.7965654731 0.8128197789 0.8061454296
	0.7972267270 0.8134315014 0.8067916036
	0.7978879213 0.8140432239 0.8074377775
	0.7985491157 0.8146548271 0.8080838919
	0.7992103100 0.8152664900 0.8087301254
	0.7998715043 0.8158782125 0.8093762994
	0.8005021811 0.8164898157 0.8100209832
	0.8011255860 0.8171014786 0.8106266856
	0.8017489910 0.8177132010 0.8112323880
	0.8023723960 0.8183249235 0.8118380904
	0.8029958010 0.8189365268 0.8124437928
	0.8036192060 0.8195481896 0.8130494952
	0.8042424917 0.8201494217 0.8136551976
	0.8048658967 0.8207209706 0.8142609000
	0.8054893017 0.8212926984 0.8148664832
	0.8061127067 0.8218643069 0.8154721856
	0.8067361116 0.8224359155 0.8160778880
	0.8073595166 0.8230075836 0.8166835904
	0.8079829216 0.8235791922 0.8172892928
	0.8086063266 0.8241508007 0.8178949952
	0.8092296720 0.8247225285 0.8185006976
	0.8098530769 0.8252940774 0.8191064000
	0.8104491234 0.8258656859 0.8197119832
	0.8110365868 0.8264374137 0.8202977180
	0.8116241097 0.8270090222 0.8208652735
	0.8122116923 0.8275805712 0.8214328289
	0.8127992153 0.8281521797 0.8220003843
	0.8133867979 0.8287239075 0.8225678802
	0.8139743209 0.8292955160 0.8231354952
	0.8145617843 0.8298671246 0.8237029910
	0.8151494265 0.8304100037 0.8242706060
	0.8157368898 0.8309440017 0.8248381019
	0.8163244724 0.8314781189 0.8254057169
	0.8169119954 0.8320121765 0.8259732127
	0.8174995184 0.8325462937 0.8265408278
	0.8180871010 0.8330804110 0.8271083236
	0.8186746240 0.8336145282 0.8276758790
	0.8192622066 0.8341485858 0.8282433748
	0.8198497295 0.8346827030 0.8288109899
	0.8204119802 0.8352168202 0.8293784857
	0.8209655881 0.8357508779 0.8299461007
	0.8215191960 0.8362848759 0.8304811716
	0.8220728040 0.8368189931 0.8310129046
	0.8226264119 0.8373531103 0.8315445781
	0.8231800199 0.8378872275 0.8320763111
	0.8237336278 0.8384212852 0.8326079845
	0.8242871761 0.8389554024 0.8331397176
	0.8248407841 0.8394895196 0.8336713910
	0.8253943920 0.8400220275 0.8342031240
	0.8259480000 0.8405209780 0.8347347975
	0.8265016079 0.8410199881 0.8352664709
	0.8270552158 0.8415188789 0.8357982039
	0.8276088238 0.8420178890 0.8363298774
	0.8281623721 0.8425168991 0.8368616104
	0.8287159801 0.8430157900 0.8373932838
	0.8292695880 0.8435148001 0.8379250169
	0.8298231959 0.8440138102 0.8384566903
	0.8303549886 0.8445127010 0.8389884233
	0.8308765292 0.8450117111 0.8395200968
	0.8313980103 0.8455106020 0.8400486112
	0.8319196105 0.8460096121 0.8405466080
	0.8324410915 0.8465086222 0.8410447240
	0.8329625726 0.8470075130 0.8415427804
	0.8334841132 0.8475065231 0.8420407772
	0.8340057135 0.8480054736 0.8425388932
	0.8345271945 0.8485044241 0.8430370092
	0.8350486755 0.8490033746 0.8435351253
	0.8355702758 0.8495023847 0.8440331221
	0.8360918164 0.8500012159 0.8445311785
	0.8366132975 0.8504673839 0.8450292945
	0.8371348977 0.8509336114 0.8455272913
	0.8376563787 0.8513997197 0.8460254073
	0.8381779194 0.8518658876 0.8465235233
	0.8386995196 0.8523319960 0.8470215201
	0.8392210007 0.8527982235 0.8475195765
	0.8397424817 0.8532642722 0.8480176926
	0.8402487040 0.8537304997 0.8485158086
	0.8407400250 0.8541966081 0.8490138054
	0.8412312865 0.8546627760 0.8495119214
	0.8417226076 0.8551290035 0.8500093222
	0.8422138095 0.8555951118 0.8504759073
	0.8427050710 0.8560612798 0.8509424925
	0.8431963921 0.8565273881 0.8514090180
	0.8436875939 0.8569936156 0.8518756032
	0.8441789150 0.8574597239 0.8523421884
	0.8446701765 0.8579258919 0.8528087735
	0.8451614976 0.8583920002 0.8532752991
	0.8456526995 0.8588582277 0.8537418842
	0.8461440206 0.8593243957 0.8542085290
	0.8466352820 0.8597905040 0.8546749949
	0.8471266031 0.8602398038 0.8551415801
	0.8476178050 0.8606753945 0.8556082249
	0.8481091261 0.8611109257 0.8560746908
	0.8486003876 0.8615465164 0.8565412760
	0.8490915895 0.8619819880 0.8570079207
	0.8495829105 0.8624175787 0.8574743867
	0.8500698805 0.8628532290 0.8579409719
	0.8505327106 0.8632887006 0.8584076166
	0.8509954214 0.8637242913 0.8588742018
	0.8514581919 0.8641598225 0.8593407273
	0.8519209027 0.8645954132 0.8598073125
	0.8523836732 0.8650308847 0.8602566123
	0.8528465033 0.8654664755 0.8606936932
	0.8533092141 0.8659020066 0.8611307740
	0.8537719846 0.8663375974 0.8615679145
	0.8542348146 0.8667731285 0.8620049953
	0.8546975255 0.8672087193 0.8624420762
	0.8551602960 0.8676443100 0.8628792167
	0.8556230068 0.8680797815 0.8633162975
	0.8560857773 0.8685153723 0.8637533784
	0.8565486073 0.8689509034 0.8641905189
	0.8570113182 0.8693864942 0.8646275997
	0.8574740887 0.8698220253 0.8650646806
	0.8579369187 0.8702406883 0.8655018210
	0.8583996296 0.8706477880 0.8659389019
	0.8588624001 0.8710548282 0.8663759828
	0.8593251705 0.8714619279 0.8668131232
	0.8597878814 0.8718689084 0.8672502041
	0.8602361083 0.8722760081 0.8676872849
	0.8606721163 0.8726829886 0.8681244254
	0.8611080050 0.8730900884 0.8685615063
	0.8615438938 0.8734971285 0.8689985871
	0.8619799018 0.8739041090 0.8694357276
	0.8624157906 0.8743112087 0.8698728085
	0.8628516793 0.8747181892 0.8702903986
	0.8632876873 0.8751252890 0.8706998825
	0.8637235761 0.8755323291 0.8711094856
	0.8641595244 0.8759394288 0.8715190887
	0.8645954728 0.8763464093 0.8719285727
	0.8650314212 0.8767535090 0.8723381758
	0.8654673100 0.8771604896 0.8727477789
	0.8659031987 0.8775675893 0.8731573224
	0.8663392067 0.8779746294 0.8735669255
	0.8667750955 0.8783817291 0.8739765286
	0.8672109842 0.8787887096 0.8743860126
	0.8676469922 0.8791958094 0.8747956157
	0.8680828810 0.8796027899 0.8752052188
	0.8685188293 0.8800091743 0.8756147027
	0.8689547777 0.8803896904 0.8760243058
	0.8693907261 0.8807702065 0.8764339089
	0.8698266149 0.8811507821 0.8768433928
	0.8702474236 0.8815312982 0.8772529960
	0.8706580997 0.8819118142 0.8776625991
	0.8710687757 0.8822922707 0.8780720830
	0.8714795113 0.8826727867 0.8784816861
	0.8718901873 0.8830533028 0.8788912892
	0.8723009229 0.8834338188 0.8793007731
	0.8727115989 0.8838143945 0.8797103763
	0.8731222749 0.8841949105 0.8801124096
	0.8735330105 0.8845754266 0.8804963231
	0.8739436865 0.8849558830 0.8808801770
	0.8743544221 0.8853363991 0.8812639713
	0.8747650981 0.8857169151 0.8816478848
	0.8751757741 0.8860973716 0.8820317984
	0.8755865097 0.8864778876 0.8824155927
	0.8759971857 0.8868585229 0.8827995062
	0.8764079213 0.8872389793 0.8831834197
	0.8768185973 0.8876194954 0.8835672140
	0.8772292733 0.8880000114 0.8839511275
	0.8776400089 0.8883805275 0.8843349218
	0.8780506849 0.8887609839 0.8847187757
