release/datafiles/colormanagement/luts/film_response/kodak_ektachrome_64t.spi1d
Version 1
From 0.0 1.0
Length 1024
Components 3
{
	0.0000000000 0.0000000000 0.0000000000
	0.0007026231 0.0005291322 0.0003438386
	0.0014857050 0.0011212280 0.0007142003
	0.0023536440 0.0017713160 0.0011152170
	0.0033091281 0.0024790310 0.0015472880
	0.0043581589 0.0032436289 0.0020068779
	0.0055047469 0.0040647909 0.0024986709
	0.0067437058 0.0049467869 0.0030213159
	0.0080656186 0.0058862939 0.0035776510
	0.0094755674 0.0068916250 0.0041668881
	0.0109947799 0.0079634041 0.0047885012
	0.0125997197 0.0091056926 0.0054450892
	0.0142905395 0.0103072003 0.0061361468
	0.0160812791 0.0115757296 0.0068590711
	0.0179866701 0.0129182898 0.0076176482
	0.0199946500 0.0143368002 0.0084124254
	0.0220939498 0.0158436093 0.0092439801
	0.0242956392 0.0174334496 0.0101133203
	0.0266019199 0.0191023294 0.0110254698
	0.0290070400 0.0208547898 0.0119773299
	0.0315142386 0.0226893406 0.0129693104
	0.0341268592 0.0246077292 0.0140018696
	0.0368515886 0.0266096294 0.0150737204
	0.0396952704 0.0286963899 0.0161837209
	0.0426549911 0.0308631808 0.0173352305
	0.0457203016 0.0331055112 0.0185222793
	0.0488859490 0.0354270898 0.0197516698
	0.0521433800 0.0378220901 0.0210211892
	0.0554969683 0.0402937494 0.0223336108
	0.0589461401 0.0428398289 0.0236905906
	0.0624969490 0.0454611294 0.0250933897
	0.0661549270 0.0481612310 0.0265355706
	0.0699189603 0.0509477705 0.0280245394
	0.0737859830 0.0538181216 0.0295602791
	0.0777632222 0.0567707308 0.0311385598
	0.0818370879 0.0598130785 0.0327619798
	0.0860176310 0.0629488677 0.0344315693
	0.0903011784 0.0661693737 0.0361473896
	0.0946921036 0.0694710910 0.0379051082
	0.0991754308 0.0728540421 0.0397059508
	0.1037482023 0.0763145164 0.0415495113
	0.1084047034 0.0798475519 0.0434369706
	0.1131415963 0.0834460035 0.0453708693
	0.1179561019 0.0871294513 0.0473461710
	0.1228469983 0.0908933803 0.0493673384
	0.1278257072 0.0947273821 0.0514261499
	0.1328838021 0.0986372530 0.0535301305
	0.1380223036 0.1026311964 0.0556773506
	0.1432214975 0.1067062020 0.0578665212
	0.1484941989 0.1108566970 0.0601071604
	0.1538525969 0.1150842011 0.0623893999
	0.1592795998 0.1193784997 0.0647117496
	0.1647690982 0.1237355024 0.0670745894
	0.1703308970 0.1281584054 0.0694851503
	0.1759331971 0.1326268017 0.0719340369
	0.1815855950 0.1371477991 0.0744230300
	0.1872842014 0.1417109966 0.0769482180
	0.1930216998 0.1463264972 0.0795174912
	0.1988134980 0.1509988010 0.0821337178
	0.2046463042 0.1557403058 0.0847895518
	0.2105436027 0.1605253071 0.0874943137
	0.2164897025 0.1653804928 0.0902354270
	0.2224933952 0.1702827066 0.0930147171
	0.2285283953 0.1752299964 0.0958402529
	0.2345996946 0.1802355051 0.0987048224
	0.2407190949 0.1852916926 0.1016040966
	0.2468644977 0.1903931051 0.1045442000
	0.2530235052 0.1955378056 0.1075213999
	0.2591835856 0.2007202953 0.1105407029
	0.2653717995 0.2059361935 0.1135976985
	0.2715786099 0.2111911029 0.1166936010
	0.2777847946 0.2164549977 0.1198228002
	0.2839922011 0.2217417061 0.1229953989
	0.2902092040 0.2270426005 0.1262023002
	0.2964079082 0.2323473990 0.1294420958
	0.3025959134 0.2376510054 0.1327183992
	0.3087722957 0.2429573983 0.1360210031
	0.3149321079 0.2482704073 0.1393564939
	0.3210678101 0.2535850108 0.1427318007
	0.3272047043 0.2589012980 0.1461382955
	0.3333187997 0.2642197907 0.1495731026
	0.3394154012 0.2695527971 0.1530420035
	0.3454918861 0.2748903036 0.1565402001
	0.3515484929 0.2802191973 0.1600638032
	0.3576078117 0.2855531871 0.1636112034
	0.3636479080 0.2909021080 0.1671815962
	0.3696722090 0.2962611914 0.1707742065
	0.3756689131 0.3016174138 0.1743832976
	0.3816395998 0.3069770932 0.1780118048
	0.3875685036 0.3123393059 0.1816574037
	0.3934744000 0.3176954985 0.1853218973
	0.3993682861 0.3230510056 0.1890095025
	0.4052383006 0.3284165859 0.1927215010
	0.4110727012 0.3337813914 0.1964581013
	0.4168589115 0.3391354084 0.2002173960
	0.4226124883 0.3444840014 0.2039882988
	0.4283437133 0.3498201966 0.2077811956
	0.4340476990 0.3551411927 0.2115973979
	0.4397180080 0.3604322970 0.2154300958
	0.4453499019 0.3657175899 0.2192791998
	0.4509378076 0.3709863126 0.2231477052
	0.4564813077 0.3762353063 0.2270365059
	0.4619686007 0.3814581037 0.2309399992
	0.4674080908 0.3866479099 0.2348691970
	0.4728043079 0.3918175101 0.2388215065
	0.4781545103 0.3969655931 0.2427939028
	0.4834581017 0.4020648003 0.2467841059
	0.4887135029 0.4071336091 0.2507896125
	0.4939058125 0.4121663868 0.2548081875
	0.4990504086 0.4171527028 0.2588363886
	0.5041617155 0.4221054912 0.2628706992
	0.5092216134 0.4270165861 0.2669112086
	0.5142281055 0.4319120049 0.2709617913
	0.5191956758 0.4367876947 0.2750129104
	0.5241003036 0.4416337907 0.2790606022
	0.5289487243 0.4464288056 0.2831023932
	0.5337404013 0.4511983097 0.2871333063
	0.5384750962 0.4559360147 0.2911599874
	0.5431362987 0.4606370032 0.2951760888
	0.5477464795 0.4652822018 0.2991817892
	0.5523136854 0.4699006975 0.3031803966
	0.5568382740 0.4744859934 0.3071657121
	0.5613049269 0.4790317118 0.3111445010
	0.5657191277 0.4835188091 0.3151197135
	0.5700793862 0.4879747033 0.3190810978
	0.5743808150 0.4923951924 0.3230370879
	0.5786144733 0.4967536032 0.3269884884
	0.5828108191 0.5010759830 0.3309372962
	0.5869714022 0.5053607821 0.3348788023
	0.5910838246 0.5095916986 0.3388131857
	0.5951429009 0.5137745738 0.3427393138
	0.5991551280 0.5179340243 0.3466500044
	0.6030982733 0.5220689774 0.3505468071
	0.6069651246 0.5261592269 0.3544330001
	0.6107723713 0.5302231908 0.3583126962
	0.6144962907 0.5342565775 0.3621850014
	0.6181483865 0.5382382274 0.3660446107
	0.6217647195 0.5421987772 0.3698979020
	0.6253350973 0.5461328030 0.3737412989
	0.6288506985 0.5500105023 0.3775792122
	0.6323326230 0.5538635254 0.3814140856
	0.6357542872 0.5576797724 0.3852416873
	0.6391350031 0.5614629984 0.3890604079
	0.6424909234 0.5652248263 0.3928706050
	0.6457951069 0.5689184070 0.3966498971
	0.6490675807 0.5725790858 0.4004212022
	0.6523084044 0.5761985779 0.4041798115
	0.6554991007 0.5797787905 0.4079318047
	0.6586679220 0.5833429098 0.4116778970
	0.6617909074 0.5868695974 0.4154145122
	0.6648769975 0.5903773904 0.4191451073
	0.6679384708 0.5938647985 0.4228456020
	0.6709473133 0.5972957015 0.4265331924
	0.6739342213 0.6007062197 0.4302001894
	0.6768646836 0.6040558815 0.4338527918
	0.6797602177 0.6073855162 0.4374971986
	0.6826251745 0.6106783748 0.4411129951
	0.6854385138 0.6139551997 0.4447222054
	0.6882362962 0.6172215939 0.4483056068
	0.6909871101 0.6204239726 0.4518764913
	0.6937232018 0.6236106753 0.4554122090
	0.6964259148 0.6267350912 0.4589309096
	0.6990894079 0.6298514009 0.4624271989
	0.7017171979 0.6329439878 0.4658999145
	0.7042943835 0.6360031962 0.4693557024
	0.7068523169 0.6390181780 0.4727905095
	0.7093623877 0.6420083046 0.4762170017
	0.7118644714 0.6449810863 0.4796274900
	0.7143244743 0.6479082704 0.4830344915
	0.7167754769 0.6508182287 0.4864130020
	0.7191916108 0.6536681056 0.4897888005
	0.7215893865 0.6565065980 0.4931452870
	0.7239490151 0.6593149900 0.4965006113
	0.7262917757 0.6621205807 0.4998255074
	0.7286117077 0.6648774147 0.5031486154
	0.7308964729 0.6676303744 0.5064402819
	0.7331464291 0.6703311205 0.5097302794
	0.7353671193 0.6730266809 0.5129926205
	0.7375649214 0.6756759286 0.5162526965
	0.7397302985 0.6783176064 0.5194661021
	0.7418738008 0.6808996201 0.5226792097
	0.7439814806 0.6834768057 0.5258497000
	0.7460665703 0.6860129833 0.5290201902
	0.7481163740 0.6885464191 0.5321524143
	0.7501432896 0.6910448074 0.5352824926
	0.7521458268 0.6935424209 0.5383893847
	0.7541307211 0.6960023046 0.5414927006
	0.7560967207 0.6984623075 0.5445662737
	0.7580459714 0.7008609176 0.5476304889
	0.7599691153 0.7032560110 0.5506601930
	0.7618615031 0.7055974007 0.5536696911
	0.7637408972 0.7079290748 0.5566582084
	0.7655979991 0.7102227807 0.5596238971
	0.7674412727 0.7125021815 0.5625798106
	0.7692431808 0.7147536278 0.5655139089
	0.7710394859 0.7169851065 0.5684432983
	0.7727897167 0.7192016244 0.5713353753
	0.7745398879 0.7213971019 0.5742275119
	0.7762631774 0.7235780954 0.5770719051
	0.7779850960 0.7257089019 0.5799102783
	0.7796735764 0.7278391123 0.5827142000
	0.7813516259 0.7299191952 0.5854988098
	0.7830191255 0.7319993973 0.5882691145
	0.7846779227 0.7340465784 0.5910149813
	0.7863258123 0.7360842228 0.5937579870
	0.7879499197 0.7381075025 0.5964655280
	0.7895722985 0.7401170731 0.5991730094
	0.7911682725 0.7421147823 0.6018517017
	0.7927643061 0.7440714836 0.6045210958
	0.7943251133 0.7460281849 0.6071749926
	0.7958757281 0.7479510903 0.6098067760
	0.7974109054 0.7498708963 0.6124358773
	0.7989286184 0.7517752051 0.6150038242
	0.8004400134 0.7536681890 0.6175717711
	0.8019111753 0.7555513978 0.6200997233
	0.8033823967 0.7573989034 0.6226056814
	0.8048381209 0.7592465281 0.6251029968
	0.8062893748 0.7610545754 0.6275702119
	0.8077279925 0.7628545165 0.6300374269
	0.8091471791 0.7646414042 0.6324740052
	0.8105664849 0.7664098144 0.6349017024
	0.8119462729 0.7681781054 0.6373167038
	0.8133255243 0.7698963284 0.6397023201
	0.8146849871 0.7716131806 0.6420879960
	0.8160281777 0.7733101845 0.6444455981
	0.8173695207 0.7749879956 0.6467962861
	0.8186913133 0.7766653895 0.6491395235
	0.8200129867 0.7783104777 0.6514626145
	0.8213170171 0.7799556255 0.6537855864
	0.8226091266 0.7815762162 0.6560755968
	0.8238981962 0.7831717730 0.6583523750
	0.8251538873 0.7847673893 0.6606240273
	0.8264095783 0.7863461971 0.6628612876
	0.8276506066 0.7879241705 0.6650987267
	0.8288792968 0.7894842029 0.6673101187
	0.8301079869 0.7910140753 0.6694974899
	0.8313009739 0.7925441265 0.6716848016
	0.8324930072 0.7940390110 0.6738216877
	0.8336700201 0.7955235243 0.6759517193
	0.8348218799 0.7970044017 0.6780722141
	0.8359737992 0.7984637022 0.6801573038
	0.8371133804 0.7999228835 0.6822422743
	0.8382487893 0.8013638258 0.6843022108
	0.8393824100 0.8027846813 0.6863384247
	0.8404983878 0.8042055964 0.6883745193
	0.8416143060 0.8055989742 0.6903743148
	0.8427138925 0.8069851995 0.6923640966
	0.8437898159 0.8083692193 0.6943526864
	0.8448657990 0.8097262979 0.6963012815
	0.8459321260 0.8110834956 0.6982498765
	0.8469941020 0.8124284744 0.7001879215
	0.8480560780 0.8137484789 0.7020930052
	0.8491019011 0.8150684834 0.7039980888
	0.8501470089 0.8163607121 0.7058871984
	0.8511853814 0.8176304102 0.7077549100
	0.8521944284 0.8189001083 0.7096226215
	0.8532034159 0.8201503158 0.7114666104
	0.8542025089 0.8213939071 0.7132933736
	0.8551856279 0.8226374984 0.7151201963
	0.8561686873 0.8238468766 0.7169187069
	0.8571283221 0.8250527978 0.7187049985
	0.8580685258 0.8262571096 0.7204912901
	0.8590087295 0.8274198174 0.7222427130
	0.8599494100 0.8285825253 0.7239848971
	0.8608903289 0.8297395110 0.7257270217
	0.8618311882 0.8308607936 0.7274336815
	0.8627600074 0.8319821954 0.7291340828
	0.8636854887 0.8330979943 0.7308344841
	0.8646110892 0.8341925740 0.7325049043
	0.8655208945 0.8352872729 0.7341710925
	0.8664281964 0.8363729715 0.7358372808
	0.8673354983 0.8374316096 0.7374768853
	0.8682217002 0.8384901285 0.7391127944
	0.8691056967 0.8395386934 0.7407485843
	0.8699898124 0.8405579925 0.7423660159
	0.8708515763 0.8415772915 0.7439796925
	0.8717116117 0.8425924182 0.7455934882
	0.8725715280 0.8435931206 0.7471752763
	0.8734114170 0.8445938230 0.7487472296
	0.8742489219 0.8455908895 0.7503191829
	0.8750864267 0.8465701938 0.7518702149
	0.8759170175 0.8475493789 0.7534102798
	0.8767464161 0.8485258222 0.7549505234
	0.8775756955 0.8494656086 0.7564716935
	0.8783869743 0.8504052758 0.7579756975
	0.8791924715 0.8513450027 0.7594797015
	0.8799980283 0.8522825241 0.7609726191
	0.8807792068 0.8532198071 0.7624449730
	0.8815463185 0.8541572094 0.7639175057
	0.8823133707 0.8550791144 0.7653834224
	0.8830744028 0.8559969068 0.7668110132
	0.8838288188 0.8569146991 0.7682386041
	0.8845831156 0.8578169942 0.7696663141
	0.8853343725 0.8587086201 0.7710726857
	0.8860781193 0.8596001863 0.7724769711
	0.8868216872 0.8604816794 0.7738813162
	0.8875637054 0.8613451123 0.7752763033
	0.8882815242 0.8622086048 0.7766659856
	0.8889992833 0.8630689979 0.7780556083
	0.8897172213 0.8639014959 0.7794315815
	0.8904141784 0.8647338748 0.7807787061
	0.8911063075 0.8655663729 0.7821257710
	0.8917983770 0.8663951159 0.7834728956
	0.8924919963 0.8672229052 0.7847924829
	0.8931869864 0.8680506945 0.7861111760
	0.8938819766 0.8688691258 0.7874299884
	0.8945751190 0.8696764112 0.7887393832
	0.8952596188 0.8704836965 0.7900424004
	0.8959441185 0.8712878227 0.7913452983
	0.8966286182 0.8720598817 0.7926430702
	0.8972942233 0.8728318810 0.7939155102
	0.8979557157 0.8736039996 0.7951877713
	0.8986173272 0.8743599057 0.7964602113
	0.8992745876 0.8751083016 0.7977172136
	0.8999263048 0.8758566976 0.7989680767
	0.9005779028 0.8766024709 0.8002188802
	0.9012296200 0.8773398995 0.8014593720
	0.9018729925 0.8780772090 0.8026626706
	0.9025161862 0.8788145781 0.8038660288
	0.9031593800 0.8795428872 0.8050693274
	0.9037922025 0.8802682757 0.8062509894
	0.9044145942 0.8809937239 0.8074226975
	0.9050371051 0.8817160130 0.8085945249
	0.9056594968 0.8824285269 0.8097618222
	0.9062777162 0.8831409812 0.8108941913
	0.9068958759 0.8838534951 0.8120266199
	0.9075139761 0.8845480084 0.8131589890
	0.9081308842 0.8852338791 0.8142759204
	0.9087464213 0.8859198093 0.8153775930
	0.9093617797 0.8866025805 0.8164793253
	0.9099771976 0.8872501254 0.8175811172
	0.9105805159 0.8878976703 0.8186519146
	0.9111816287 0.8885452151 0.8197175860
	0.9117826819 0.8891865015 0.8207833171
	0.9123781919 0.8898199797 0.8218469024
	0.9129536748 0.8904533982 0.8229005933
	0.9135290980 0.8910868764 0.8239542246
	0.9141045809 0.8917121887 0.8250077963
	0.9146608114 0.8923351169 0.8260518909
	0.9152011871 0.8929579854 0.8270838261
	0.9157415032 0.8935797215 0.8281157017
	0.9162818789 0.8941801190 0.8291476965
	0.9168179035 0.8947805762 0.8301671743
	0.9173532128 0.8953809738 0.8311806917
	0.9178884029 0.8959742785 0.8321940899
	0.9184231758 0.8965504169 0.8332076073
	0.9189543128 0.8971264958 0.8341963291
	0.9194852710 0.8977025747 0.8351811171
	0.9200162888 0.8982679844 0.8361659050
	0.9205431938 0.8988227844 0.8371505141
	0.9210606217 0.8993775249 0.8381142020
	0.9215779901 0.8999322057 0.8390778899
	0.9220954180 0.9004656076 0.8400415778
	0.9226071239 0.9009882212 0.8410019279
	0.9231125712 0.9015107751 0.8419361115
	0.9236180782 0.9020333290 0.8428702950
	0.9241235256 0.9025334716 0.8438045979
	0.9246153235 0.9030274749 0.8447362781
	0.9250978231 0.9035214782 0.8456568718
	0.9255803227 0.9040154815 0.8465775847
	0.9260628223 0.9045063853 0.8474981785
	0.9265328050 0.9049968123 0.8484144211
	0.9269970059 0.9054871798 0.8493136764
	0.9274612069 0.9059776068 0.8502129912
	0.9279254079 0.9064562917 0.8511123061
	0.9283785820 0.9069336057 0.8520066738
	0.9288275838 0.9074109793 0.8528792262
	0.9292767048 0.9078882933 0.8537517190
	0.9297257066 0.9083464146 0.8546240926
	0.9301574826 0.9088020921 0.8554927111
	0.9305828214 0.9092578888 0.8563321233
	0.9310081005 0.9097136259 0.8571714759
	0.9314333797 0.9101629257 0.8580110073
	0.9318456054 0.9106109142 0.8588501811
	0.9322518110 0.9110590219 0.8596740961
	0.9326580763 0.9115070105 0.8604980111
	0.9330642819 0.9119517207 0.8613219261
	0.9334682822 0.9123954177 0.8621457815
	0.9338707924 0.9128389955 0.8629440069
	0.9342733026 0.9132825732 0.8637380004
	0.9346758127 0.9137256145 0.8645321131
	0.9350727201 0.9141682982 0.8653261065
	0.9354630113 0.9146109819 0.8661041856
	0.9358533025 0.9150536060 0.8668742180
	0.9362437129 0.9154921770 0.8676440716
	0.9366282821 0.9159253836 0.8684141040
	0.9369992018 0.9163584709 0.8691806197
	0.9373700023 0.9167916179 0.8699421883
	0.9377409220 0.9172230959 0.8707038164
	0.9381108284 0.9176480174 0.8714653850
	0.9384678006 0.9180728793 0.8722239733
	0.9388247728 0.9184976816 0.8729615808
	0.9391818047 0.9189226031 0.8736993074
	0.9395387769 0.9193425775 0.8744369149
	0.9398884177 0.9197623134 0.8751745820
	0.9402360916 0.9201819897 0.8758922219
	0.9405838847 0.9206016064 0.8766046166
	0.9409316182 0.9210132957 0.8773170114
	0.9412720203 0.9214196801 0.8780294061
	0.9416047931 0.9218261838 0.8787423968
	0.9419375062 0.9222326279 0.8794564009
	0.9422702193 0.9226341248 0.8801705241
	0.9426016808 0.9230197072 0.8808845282
	0.9429249763 0.9234051704 0.8815984726
	0.9432482719 0.9237906933 0.8823022246
	0.9435716271 0.9241762161 0.8830056190
	0.9438948035 0.9245483875 0.8837090731
	0.9442144036 0.9249175191 0.8844125271
	0.9445325136 0.9252867103 0.8851082921
	0.9448506236 0.9256557822 0.8857964277
	0.9451687932 0.9260243177 0.8864845037
	0.9454866052 0.9263916016 0.8871726990
	0.9458038807 0.9267588258 0.8878607750
	0.9461210966 0.9271261096 0.8885198236
	0.9464383721 0.9274932742 0.8891779184
	0.9467555881 0.9278637767 0.8898360729
	0.9470669031 0.9282348752 0.8904942274
	0.9473763108 0.9286059737 0.8911436796
	0.9476857185 0.9289770126 0.8917800188
	0.9479951262 0.9293472171 0.8924162984
	0.9483039975 0.9297147989 0.8930525780
	0.9486111999 0.9300825000 0.8936889172
	0.9489184022 0.9304502010 0.8942996860
	0.9492256045 0.9308179021 0.8949031234
	0.9495326877 0.9311780930 0.8955063820
	0.9498348832 0.9315345883 0.8961097002
	0.9501338005 0.9318912029 0.8967118263
	0.9504327774 0.9322476983 0.8973019719
	0.9507316947 0.9326038957 0.8978921175
	0.9510306716 0.9329422712 0.8984823227
	0.9513161778 0.9332805872 0.8990725279
	0.9516012073 0.9336189032 0.8996539712
	0.9518861771 0.9339572787 0.9002208710
	0.9521712065 0.9342914224 0.9007877707
	0.9524512291 0.9346157908 0.9013546109
	0.9527168274 0.9349402189 0.9019215107
	0.9529824257 0.9352647066 0.9024795890
	0.9532480240 0.9355890751 0.9030315876
	0.9535136223 0.9359090924 0.9035837054
	0.9537726045 0.9362252951 0.9041357040
	0.9540249705 0.9365414977 0.9046877027
	0.9542772770 0.9368577003 0.9052293897
	0.9545297027 0.9371739030 0.9057677984
	0.9547821283 0.9374797940 0.9063060880
	0.9550374746 0.9377818108 0.9068444967
	0.9552941918 0.9380838871 0.9073829055
	0.9555509090 0.9383859038 0.9079146981
	0.9558076262 0.9386879206 0.9084457159
	0.9560642838 0.9389883280 0.9089766145
	0.9563276768 0.9392884970 0.9095075727
	0.9565923810 0.9395886064 0.9100385904
	0.9568570852 0.9398887157 0.9105516076
	0.9571216702 0.9401888251 0.9110634923
	0.9573863745 0.9404814839 0.9115753770
	0.9576531053 0.9407737255 0.9120873809
	0.9579198956 0.9410659075 0.9125993252
	0.9581868052 0.9413580894 0.9130939245
	0.9584535956 0.9416502714 0.9135876894
	0.9587203860 0.9419289231 0.9140815139
	0.9589838982 0.9422072768 0.9145752788
	0.9592472911 0.9424856901 0.9150691032
	0.9595106244 0.9427641034 0.9155386090
	0.9597740173 0.9430423975 0.9160056710
	0.9600374103 0.9433137178 0.9164727926
	0.9602922201 0.9435846806 0.9169399142
	0.9605466127 0.9438555837 0.9174069762
	0.9608010054 0.9441264868 0.9178671837
	0.9610555172 0.9443975091 0.9183259010
	0.9613099098 0.9446647167 0.9187846184
	0.9615522027 0.9449313283 0.9192432165
	0.9617928863 0.9451979995 0.9197018743
	0.9620336294 0.9454646707 0.9201496840
	0.9622743130 0.9457312822 0.9205917716
	0.9625151157 0.9459909201 0.9210339785
	0.9627497196 0.9462481141 0.9214761853
	0.9629824162 0.9465051889 0.9219183922
	0.9632151127 0.9467623830 0.9223541021
	0.9634478092 0.9470195174 0.9227821827
	0.9636805058 0.9472687244 0.9232103229
	0.9639062881 0.9475113153 0.9236382842
	0.9641271234 0.9477539062 0.9240664244
	0.9643478990 0.9479964972 0.9244915843
	0.9645686746 0.9482392073 0.9249045253
	0.9647895098 0.9484791160 0.9253175259
	0.9650083780 0.9487127066 0.9257304072
	0.9652239084 0.9489462972 0.9261432886
	0.9654393196 0.9491798878 0.9265562296
	0.9656546712 0.9494134784 0.9269577861
	0.9658702016 0.9496471286 0.9273576736
	0.9660856128 0.9498767257 0.9277576208
	0.9663015008 0.9501063228 0.9281575084
	0.9665173888 0.9503358006 0.9285573959
	0.9667332768 0.9505653977 0.9289472103
	0.9669492245 0.9507949948 0.9293261766
	0.9671651125 0.9510244727 0.9297050834
	0.9673789144 0.9512541294 0.9300841093
	0.9675917029 0.9514836073 0.9304630756
	0.9678044915 0.9517130852 0.9308412075
	0.9680173993 0.9519426823 0.9312015176
	0.9682301879 0.9521713257 0.9315618277
	0.9684410095 0.9523969293 0.9319220185
	0.9686465859 0.9526224732 0.9322823286
	0.9688522816 0.9528480172 0.9326425791
	0.9690579176 0.9530736208 0.9330028892
	0.9692634940 0.9532991052 0.9333631992
	0.9694690704 0.9535260201 0.9337235093
	0.9696654081 0.9537532926 0.9340837002
	0.9698594809 0.9539806843 0.9344440103
	0.9700536728 0.9542080164 0.9348043203
	0.9702479243 0.9544352889 0.9351575971
	0.9704419971 0.9546620846 0.9355108738
	0.9706341028 0.9548869133 0.9358642101
	0.9708212018 0.9551116228 0.9362174273
	0.9710081816 0.9553362727 0.9365707040
	0.9711952806 0.9555611014 0.9369189143
	0.9713823795 0.9557858109 0.9372587800
	0.9715694189 0.9560061097 0.9375988245
	0.9717484713 0.9562234282 0.9379386902
	0.9719241261 0.9564408064 0.9382786155
	0.9720997214 0.9566581845 0.9386184812
	0.9722753167 0.9568755031 0.9389562011
	0.9724509120 0.9570928812 0.9392927885
	0.9726263285 0.9572992921 0.9396293759
	0.9727976918 0.9575052261 0.9399660826
	0.9729689956 0.9577109814 0.9403027296
	0.9731404185 0.9579169154 0.9406393766
	0.9733117223 0.9581226707 0.9409670830
	0.9734830856 0.9583271146 0.9412943721
	0.9736548066 0.9585263133 0.9416217208
	0.9738274217 0.9587255120 0.9419491291
	0.9739999175 0.9589247108 0.9422764182
	0.9741724133 0.9591240287 0.9426026940
	0.9743450284 0.9593232274 0.9429237247
	0.9745175242 0.9595177770 0.9432445765
	0.9746888876 0.9597066045 0.9435654879
	0.9748594165 0.9598953724 0.9438865185
	0.9750298858 0.9600841999 0.9442073703
	0.9752004147 0.9602730274 0.9445272088
	0.9753708839 0.9604617953 0.9448443055
	0.9755414724 0.9606478810 0.9451612830
	0.9757080078 0.9608321786 0.9454783201
	0.9758731723 0.9610164762 0.9457954168
	0.9760383964 0.9612007737 0.9461123943
	0.9762036204 0.9613850713 0.9464284778
	0.9763687849 0.9615694284 0.9467430115
	0.9765340090 0.9617481232 0.9470574856
	0.9766919017 0.9619243741 0.9473719001
	0.9768484235 0.9621006846 0.9476863742
	0.9770050049 0.9622771144 0.9480009079
	0.9771615267 0.9624534249 0.9483118057
	0.9773181081 0.9626296759 0.9486168027
	0.9774745703 0.9628033042 0.9489219189
	0.9776207805 0.9629759192 0.9492269158
	0.9777655005 0.9631485939 0.9495319128
	0.9779102802 0.9633212090 0.9498370290
	0.9780550003 0.9634938240 0.9501398802
	0.9781997800 0.9636663795 0.9504382014
	0.9783445001 0.9638398290 0.9507365227
	0.9784767032 0.9640133977 0.9510347843
	0.9786067009 0.9641870856 0.9513331056
	0.9787368178 0.9643607736 0.9516314268
	0.9788668752 0.9645345211 0.9519273043
	0.9789968729 0.9647082090 0.9522131085
	0.9791269898 0.9648808241 0.9524989128
	0.9792442918 0.9650526047 0.9527845979
	0.9793577790 0.9652245045 0.9530704021
	0.9794713259 0.9653962851 0.9533562064
	0.9795848131 0.9655681849 0.9536418915
	0.9796983004 0.9657400250 0.9539101720
	0.9798117280 0.9659097195 0.9541785121
	0.9799193740 0.9660761952 0.9544466734
	0.9800233841 0.9662427902 0.9547150135
	0.9801273942 0.9664093852 0.9549832940
	0.9802314043 0.9665759802 0.9552515745
	0.9803354144 0.9667425752 0.9555094838
	0.9804394245 0.9669076800 0.9557638168
	0.9805418849 0.9670665264 0.9560182095
	0.9806420207 0.9672253132 0.9562726021
	0.9807420969 0.9673839808 0.9565269947
	0.9808421731 0.9675428271 0.9567813873
	0.9809423089 0.9677016139 0.9570345283
	0.9810423851 0.9678602815 0.9572860003
	0.9811419249 0.9680219889 0.9575374126
	0.9812365174 0.9681841135 0.9577888250
