release/datafiles/colormanagement/luts/film_response/kodak_portra_160vc.spi1d
Version 1
From 0.0 1.0
Length 1024
Components 3
{
	0.0000000000 0.0000000000 0.0000000000
	0.0077699851 0.0072091222 0.0057455739
	0.0153281903 0.0140618198 0.0110133700
	0.0220492706 0.0201340895 0.0156183802
	0.0279948898 0.0255677104 0.0198130608
	0.0334264189 0.0305160508 0.0236329101
	0.0383813009 0.0350662991 0.0272729397
	0.0430751182 0.0393643305 0.0306853205
	0.0474476218 0.0434310399 0.0339677408
	0.0515641496 0.0472853705 0.0371497907
	0.0555446185 0.0509948209 0.0402266905
	0.0594275706 0.0545908697 0.0432020612
	0.0631866604 0.0580725186 0.0460699908
	0.0668074489 0.0614085086 0.0488363616
	0.0702805966 0.0646550804 0.0515515506
	0.0736529976 0.0678500831 0.0542215705
	0.0769146830 0.0709684193 0.0568457693
	0.0801084563 0.0739683583 0.0594256707
	0.0832033977 0.0768856406 0.0619675815
	0.0862210765 0.0797707886 0.0644541681
	0.0891883075 0.0826155171 0.0668781176
	0.0921097621 0.0853902176 0.0692649484
	0.0950033367 0.0881099030 0.0716069788
	0.0978709385 0.0907903165 0.0739388466
	0.1006767005 0.0934374928 0.0762372017
	0.1034490988 0.0960375518 0.0785102323
	0.1061699986 0.0985936001 0.0807417631
	0.1088621020 0.1011143997 0.0829524100
	0.1115100011 0.1035860032 0.0851420909
	0.1141035035 0.1060298979 0.0873048082
	0.1166575998 0.1084465012 0.0894576833
	0.1191660017 0.1108224019 0.0915750787
	0.1216190010 0.1131646037 0.0936675370
	0.1240210012 0.1154721975 0.0957391188
	0.1263785958 0.1177325025 0.0977701619
	0.1287032962 0.1199773997 0.0997919589
	0.1309965998 0.1222233996 0.1018017009
	0.1332729012 0.1244523004 0.1037892997
	0.1355164945 0.1266828030 0.1057759970
	0.1377673000 0.1288989931 0.1077485010
	0.1400064975 0.1310786009 0.1096967012
	0.1422519982 0.1332331002 0.1116394028
	0.1444955021 0.1353804022 0.1135682017
	0.1467241049 0.1374987066 0.1154882982
	0.1489524990 0.1396068931 0.1173892990
	0.1511590034 0.1416790038 0.1192753017
	0.1533526033 0.1437290013 0.1211493984
	0.1555102021 0.1457712948 0.1229984984
	0.1576402932 0.1477762014 0.1248319969
	0.1597459018 0.1497581005 0.1266517043
	0.1618217975 0.1517187059 0.1284562945
	0.1638692021 0.1536567956 0.1302371025
	0.1658921987 0.1555901021 0.1320014000
	0.1678850949 0.1574811935 0.1337444037
	0.1698528975 0.1593548954 0.1354825944
	0.1718069017 0.1612353027 0.1372071058
	0.1737360060 0.1631090939 0.1389127970
	0.1756428927 0.1649706960 0.1406110972
	0.1775456071 0.1668394953 0.1423041970
	0.1794250011 0.1687040031 0.1439954042
	0.1812936962 0.1705541015 0.1456899941
	0.1831597984 0.1724057049 0.1473833025
	0.1850039065 0.1742419004 0.1490696967
	0.1868477017 0.1760638058 0.1507641971
	0.1886914074 0.1778782010 0.1524640024
	0.1905229986 0.1796796024 0.1541469991
	0.1923421025 0.1814686954 0.1558177024
	0.1941601038 0.1832399964 0.1574839056
	0.1959781945 0.1850111932 0.1591470987
	0.1978068054 0.1867780983 0.1608041972
	0.1996330023 0.1885201037 0.1624432057
	0.2014473975 0.1902448982 0.1640713960
	0.2032514960 0.1919703931 0.1656913012
	0.2050576061 0.1936956942 0.1672880948
	0.2068455070 0.1953990012 0.1688698977
	0.2086115927 0.1970870048 0.1704351008
	0.2103770971 0.1987718940 0.1719868034
	0.2121285051 0.2004460990 0.1735249013
	0.2138638943 0.2020982951 0.1750528961
	0.2155895978 0.2037346959 0.1765847057
	0.2173081934 0.2053682953 0.1781219989
	0.2190068960 0.2069963962 0.1796503961
	0.2206840962 0.2086153030 0.1811677068
	0.2223511040 0.2102248967 0.1826826036
	0.2240124047 0.2118259966 0.1841962934
	0.2256612033 0.2134266943 0.1857064962
	0.2272907943 0.2150333971 0.1872134954
	0.2289057970 0.2166189998 0.1887131035
	0.2305078059 0.2181905061 0.1902053952
	0.2321005017 0.2197569013 0.1916909963
	0.2336920053 0.2213245928 0.1931720972
	0.2352899015 0.2228953987 0.1946519017
	0.2368838936 0.2244486064 0.1961286962
	0.2384622991 0.2259978950 0.1976062059
	0.2400310934 0.2275449038 0.1990849972
	0.2415942997 0.2290931940 0.2005598992
	0.2431554943 0.2306476980 0.2020221055
	0.2447042018 0.2321884036 0.2034724057
	0.2462362051 0.2337166965 0.2049137056
	0.2477615029 0.2352366000 0.2063475996
	0.2492882013 0.2367514074 0.2077756971
	0.2508074939 0.2382549047 0.2092022002
	0.2523134053 0.2397526950 0.2106287032
	0.2538112998 0.2412422001 0.2120527029
	0.2553072870 0.2427164018 0.2134691030
	0.2568025887 0.2441851944 0.2148848027
	0.2582916915 0.2456547022 0.2162963003
	0.2597728968 0.2471264005 0.2177021056
	0.2612324953 0.2485917062 0.2190997005
	0.2626926899 0.2500481904 0.2204964012
	0.2641533017 0.2514964044 0.2218922973
	0.2656058967 0.2529383004 0.2232878953
	0.2670469880 0.2543821037 0.2246783972
	0.2684782147 0.2558273077 0.2260642052
	0.2699055076 0.2572557926 0.2274404019
	0.2713302076 0.2586747110 0.2288105041
	0.2727521956 0.2600823939 0.2301730961
	0.2741548121 0.2614834905 0.2315272987
	0.2755548060 0.2628856003 0.2328795046
	0.2769533098 0.2642917037 0.2342298031
	0.2783550918 0.2656919062 0.2355791926
	0.2797575891 0.2670885921 0.2369273007
	0.2811529040 0.2684741020 0.2382656932
	0.2825410068 0.2698574066 0.2396034002
	0.2839199007 0.2712377012 0.2409401983
	0.2853043079 0.2726213932 0.2422693074
	0.2866902053 0.2740063071 0.2435951978
	0.2880729139 0.2753944993 0.2449122965
	0.2894502878 0.2767789960 0.2462285012
	0.2908177972 0.2781563997 0.2475429028
	0.2921772897 0.2795270979 0.2488564998
	0.2935316861 0.2808933854 0.2501694858
	0.2948884964 0.2822520137 0.2514741123
	0.2962454855 0.2836092114 0.2527768016
	0.2975969017 0.2849698961 0.2540780902
	0.2989454865 0.2863264978 0.2553772032
	0.3002853096 0.2876687944 0.2566682100
	0.3016225100 0.2890065014 0.2579559088
	0.3029560149 0.2903367877 0.2592380047
	0.3042886853 0.2916674018 0.2605186999
	0.3056207895 0.2929981947 0.2617981136
	0.3069526851 0.2943269908 0.2630766928
	0.3082844913 0.2956545949 0.2643547952
	0.3096182942 0.2969661951 0.2656278014
	0.3109529912 0.2982715070 0.2668986917
	0.3122856021 0.2995666862 0.2681745887
	0.3136177063 0.3008590043 0.2694520056
	0.3149411976 0.3021504879 0.2707208097
	0.3162628114 0.3034417927 0.2719872892
	0.3175767064 0.3047347069 0.2732458115
	0.3188889921 0.3060280085 0.2745023072
	0.3202066123 0.3073163033 0.2757557929
	0.3215256035 0.3086032867 0.2770085931
	0.3228304088 0.3098782003 0.2782612145
	0.3241305947 0.3111487925 0.2795138955
	0.3254284859 0.3124164939 0.2807643116
	0.3267253041 0.3136827946 0.2820135057
	0.3280225098 0.3149532080 0.2832610905
	0.3293201029 0.3162268996 0.2845073938
	0.3306170106 0.3174982071 0.2857488990
	0.3319132030 0.3187662959 0.2869836092
	0.3332048953 0.3200294971 0.2882154882
	0.3344849050 0.3212794960 0.2894394994
	0.3357647061 0.3225289881 0.2906630933
	0.3370434046 0.3237726986 0.2918823063
	0.3383221924 0.3250164092 0.2931014895
	0.3395951092 0.3262596130 0.2943179011
	0.3408671021 0.3275027871 0.2955336869
	0.3421292007 0.3287386000 0.2967428863
	0.3433851898 0.3299694955 0.2979474962
	0.3446362913 0.3311983943 0.2991509140
	0.3458774090 0.3324227929 0.3003517985
	0.3471182883 0.3336473107 0.3015527129
	0.3483507931 0.3348652124 0.3027420044
	0.3495832980 0.3360829949 0.3039312065
	0.3508102000 0.3373039961 0.3051137030
	0.3520343006 0.3385266066 0.3062925041
	0.3532547951 0.3397471011 0.3074702024
	0.3544664085 0.3409624100 0.3086448014
	0.3556779921 0.3421775997 0.3098194897
	0.3568766117 0.3433755934 0.3109912872
	0.3580735922 0.3445712030 0.3121627867
	0.3592629135 0.3457629979 0.3133305013
	0.3604426980 0.3469501138 0.3144932091
	0.3616225123 0.3481371999 0.3156560063
	0.3627896905 0.3493269086 0.3168224096
	0.3639565110 0.3505167067 0.3179889917
	0.3651241064 0.3517034054 0.3191502094
	0.3662925065 0.3528864980 0.3203046918
	0.3674609065 0.3540695012 0.3214592934
	0.3686209023 0.3552398086 0.3226110041
	0.3697803020 0.3564088047 0.3237625062
	0.3709327877 0.3575739861 0.3249132931
	0.3720724881 0.3587315083 0.3260628879
	0.3732121885 0.3598890007 0.3272125125
	0.3743419051 0.3610461056 0.3283613026
	0.3754678965 0.3622029126 0.3295099139
	0.3765943944 0.3633604050 0.3306581080
	0.3777253032 0.3645246029 0.3318021894
	0.3788562119 0.3656888902 0.3329462111
	0.3799856901 0.3668493927 0.3340887129
	0.3811131120 0.3680044115 0.3352287114
	0.3822405040 0.3691594899 0.3363687098
	0.3833586872 0.3703058958 0.3375062048
	0.3844727874 0.3714483976 0.3386425078
	0.3855867982 0.3725908995 0.3397788107
	0.3867011964 0.3737317026 0.3409082890
	0.3878157139 0.3748725057 0.3420371115
	0.3889299929 0.3760136962 0.3431653976
	0.3900434077 0.3771579862 0.3442898989
	0.3911567926 0.3783023059 0.3454144001
	0.3922654092 0.3794414103 0.3465386033
	0.3933632076 0.3805679977 0.3476622999
	0.3944610059 0.3816947043 0.3487859070
	0.3955565989 0.3828161955 0.3499088883
	0.3966492116 0.3839308023 0.3510310948
	0.3977417946 0.3850454092 0.3521533012
	0.3988339901 0.3861593008 0.3532767892
	0.3999255896 0.3872723877 0.3544014096
	0.4010173082 0.3883855045 0.3555260003
	0.4021055102 0.3894925117 0.3566437066
	0.4031910896 0.3905951083 0.3577559888
	0.4042766988 0.3916975856 0.3588683009
	0.4053548872 0.3927960992 0.3599740863
	0.4064280987 0.3938918114 0.3610751033
	0.4075013101 0.3949874938 0.3621760905
	0.4085747004 0.3960804939 0.3632729053
	0.4096482992 0.3971712887 0.3643661141
	0.4107218087 0.3982622027 0.3654592037
	0.4117960930 0.3993507028 0.3665483892
	0.4128710926 0.4004369974 0.3676328957
	0.4139460921 0.4015232921 0.3687174916
	0.4150182009 0.4026117027 0.3698010147
	0.4160853922 0.4037036896 0.3708826005
	0.4171527028 0.4047957063 0.3719643056
	0.4182184935 0.4058865011 0.3730461895
	0.4192796946 0.4069728851 0.3741292059
	0.4203408957 0.4080593884 0.3752123117
	0.4214020073 0.4091454148 0.3762952089
	0.4224613011 0.4102149904 0.3773654103
	0.4235205054 0.4112845063 0.3784357011
	0.4245797992 0.4123539925 0.3795059025
	0.4256359935 0.4134182930 0.3805727065
	0.4266915023 0.4144811928 0.3816384077
	0.4277468920 0.4155440927 0.3827041090
	0.4287993014 0.4166063070 0.3837668896
	0.4298486114 0.4176676869 0.3848268092
	0.4308980107 0.4187290967 0.3858866096
	0.4319469929 0.4197882116 0.3869450092
	0.4329943061 0.4208357930 0.3879956901
	0.4340417087 0.4218834043 0.3890464008
	0.4350889921 0.4229309857 0.3900969923
	0.4361298084 0.4239682853 0.3911440074
	0.4371689856 0.4250029922 0.3921900094
	0.4382081926 0.4260376990 0.3932358921
	0.4392425120 0.4270702899 0.3942803144
	0.4402691126 0.4280996025 0.3953221142
	0.4412955940 0.4291290045 0.3963639140
	0.4423221946 0.4301582873 0.3974055946
	0.4433423877 0.4311893880 0.3984431028
	0.4443620145 0.4322207868 0.3994801044
	0.4453817010 0.4332520962 0.4005171955
	0.4464051127 0.4342832863 0.4015508890
	0.4474340975 0.4353140891 0.4025794864
	0.4484629929 0.4363448918 0.4036081135
	0.4494918883 0.4373758137 0.4046367109
	0.4505175948 0.4384073019 0.4056606889
	0.4515425861 0.4394389093 0.4066838920
	0.4525676072 0.4404704869 0.4077070057
	0.4535906017 0.4415003955 0.4087300897
	0.4546070099 0.4425247014 0.4097532928
	0.4556233883 0.4435490072 0.4107764065
	0.4566397965 0.4445734024 0.4117994905
	0.4576533139 0.4455991089 0.4128246903
	0.4586645961 0.4466257989 0.4138514996
	0.4596759081 0.4476524889 0.4148781896
	0.4606871903 0.4486792088 0.4159049988
	0.4616912901 0.4497005045 0.4169327021
	0.4626944065 0.4507211149 0.4179604948
	0.4636974931 0.4517416060 0.4189884067
	0.4646998942 0.4527609050 0.4200156033
	0.4656972885 0.4537692964 0.4210371971
	0.4666947126 0.4547776878 0.4220587909
	0.4676921070 0.4557861090 0.4230804145
	0.4686877131 0.4567916095 0.4241015017
	0.4696792960 0.4577902853 0.4251210093
	0.4706709981 0.4587889910 0.4261406064
	0.4716626108 0.4597877860 0.4271601140
	0.4726535082 0.4607864022 0.4281783998
	0.4736435115 0.4617848992 0.4291948974
	0.4746335149 0.4627833962 0.4302113950
	0.4756234884 0.4637818933 0.4312278926
	0.4766106009 0.4647786915 0.4322431087
	0.4775952101 0.4657739997 0.4332571924
	0.4785799086 0.4667693079 0.4342711866
	0.4795644879 0.4677644968 0.4352853000
	0.4805473983 0.4687533975 0.4362984002
	0.4815289080 0.4697372913 0.4373108149
	0.4825105071 0.4707211852 0.4383231103
	0.4834921062 0.4717051089 0.4393354952
	0.4844721854 0.4726847112 0.4403477013
	0.4854511917 0.4736607075 0.4413597882
	0.4864301980 0.4746366143 0.4423719049
	0.4874091148 0.4756126106 0.4433839917
	0.4883851111 0.4765883088 0.4443916976
	0.4893577993 0.4775637090 0.4453943074
	0.4903304875 0.4785391092 0.4463968873
	0.4913032055 0.4795145094 0.4473994076
	0.4922738075 0.4804913104 0.4484009147
	0.4932405055 0.4814707935 0.4494000971
	0.4942072034 0.4824503064 0.4503993094
	0.4951739907 0.4834297895 0.4513984025
	0.4961400926 0.4844071865 0.4523966908
	0.4971033931 0.4853728116 0.4533889890
	0.4980666041 0.4863384068 0.4543812871
	0.4990297854 0.4873039126 0.4553737044
	0.4999929965 0.4882695079 0.4563660026
	0.5009500980 0.4892266095 0.4573510885
	0.5019065142 0.4901829064 0.4583353102
	0.5028629899 0.4911391139 0.4593194127
	0.5038195252 0.4920954108 0.4603036046
	0.5047739148 0.4930514991 0.4612889886
	0.5057268739 0.4940074086 0.4622752070
	0.5066800117 0.4949632883 0.4632613957
	0.5076330900 0.4959192872 0.4642477036
	0.5085847974 0.4968729913 0.4652321041
	0.5095326900 0.4978204072 0.4662106931
	0.5104805231 0.4987677932 0.4671893120
	0.5114284158 0.4997152090 0.4681679010
	0.5123761892 0.5006626248 0.4691464901
	0.5133184791 0.5016015172 0.4701164067
	0.5142596960 0.5025386214 0.4710843861
	0.5152009130 0.5034757853 0.4720525146
	0.5161420703 0.5044130087 0.4730204940
	0.5170794725 0.5053501725 0.4739845991
	0.5180101991 0.5062875152 0.4749414027
	0.5189409852 0.5072247982 0.4758982956
	0.5198717117 0.5081620812 0.4768550992
	0.5208024979 0.5090993047 0.4778119028
	0.5217247009 0.5100327730 0.4787622094
	0.5226451755 0.5109654069 0.4797109962
	0.5235655904 0.5118979812 0.4806598127
	0.5244860053 0.5128306150 0.4816085100
	0.5254061222 0.5137627125 0.4825567007
	0.5263252258 0.5146926045 0.4835023880
	0.5272442102 0.5156226158 0.4844481051
	0.5281633139 0.5165526271 0.4853937924
	0.5290824175 0.5174825191 0.4863395095
	0.5299966931 0.5184153914 0.4872838855
	0.5309072733 0.5193507075 0.4882271886
	0.5318177938 0.5202859044 0.4891706109
	0.5327283740 0.5212211013 0.4901140034
	0.5336390138 0.5221564174 0.4910573065
	0.5345441103 0.5230833292 0.4919950068
	0.5354480147 0.5240085125 0.4929313958
	0.5363519788 0.5249336958 0.4938678145
	0.5372558832 0.5258588791 0.4948042035
	0.5381596088 0.5267838836 0.4957407117
	0.5390570760 0.5277035236 0.4966802001
	0.5399546027 0.5286231041 0.4976195991
	0.5408521295 0.5295426846 0.4985590875
	0.5417495966 0.5304622054 0.4994986057
	0.5426462889 0.5313823819 0.5004374981
	0.5435394049 0.5323048830 0.5013735890
	0.5444325805 0.5332273841 0.5023097992
	0.5453258157 0.5341498852 0.5032458901
	0.5462188721 0.5350723863 0.5041819811
	0.5471100807 0.5359948874 0.5051165819
	0.5479956269 0.5369172096 0.5060467720
	0.5488811731 0.5378395915 0.5069770217
	0.5497667789 0.5387619138 0.5079072118
	0.5506523848 0.5396841764 0.5088372827
	0.5515369177 0.5406029820 0.5097665787
	0.5524184704 0.5415124297 0.5106934905
	0.5533000827 0.5424216986 0.5116204023
	0.5541815758 0.5433310866 0.5125473142
	0.5550631881 0.5442404747 0.5134742260
	0.5559430122 0.5451484919 0.5144008994
	0.5568165183 0.5460516214 0.5153269768
	0.5576900840 0.5469545722 0.5162531734
	0.5585635900 0.5478577018 0.5171793103
	0.5594370961 0.5487607121 0.5181055069
	0.5603092909 0.5496640205 0.5190312862
	0.5611693859 0.5505691171 0.5199540257
	0.5620294809 0.5514742732 0.5208765864
	0.5628895760 0.5523794293 0.5217992067
	0.5637496710 0.5532845855 0.5227218866
	0.5646098852 0.5541896820 0.5236445069
	0.5654671192 0.5550884008 0.5245587230
	0.5663241148 0.5559865236 0.5254719853
	0.5671809912 0.5568845272 0.5263851881
	0.5680379868 0.5577825904 0.5272983909
	0.5688949227 0.5586807132 0.5282117128
	0.5697519183 0.5595684052 0.5291250944
	0.5706089139 0.5604503751 0.5300387144
	0.5714659095 0.5613324046 0.5309522748
	0.5723227859 0.5622143745 0.5318658948
	0.5731797814 0.5630964041 0.5327795148
	0.5740355849 0.5639759898 0.5336920023
	0.5748888254 0.5648500919 0.5346015096
	0.5757420063 0.5657241940 0.5355110765
	0.5765951872 0.5665982962 0.5364207029
	0.5774484873 0.5674723983 0.5373303294
	0.5783017278 0.5683465004 0.5382397771
	0.5791468024 0.5692207813 0.5391464233
	0.5799911022 0.5700951219 0.5400525928
	0.5808354020 0.5709695220 0.5409587026
	0.5816797018 0.5718438029 0.5418648720
	0.5825240016 0.5727180839 0.5427711010
	0.5833687782 0.5735895038 0.5436769128
	0.5842140913 0.5744568110 0.5445824265
	0.5850595236 0.5753241181 0.5454878807
	0.5859047771 0.5761914253 0.5463933945
	0.5867500901 0.5770586729 0.5472989082
	0.5875955224 0.5779259801 0.5482044220
	0.5884351730 0.5787826777 0.5491033792
	0.5892739892 0.5796378255 0.5500012040
	0.5901129246 0.5804927945 0.5508990288
	0.5909516811 0.5813478231 0.5517967939
	0.5917904973 0.5822029114 0.5526946187
	0.5926260948 0.5830556154 0.5535923243
	0.5934513211 0.5839005113 0.5544894934
	0.5942764282 0.5847454071 0.5553867221
	0.5951015949 0.5855903029 0.5562840104
	0.5959268212 0.5864353180 0.5571811795
	0.5967519283 0.5872802138 0.5580784082
	0.5975750089 0.5881240964 0.5589731932
	0.5983961225 0.5889670253 0.5598654747
	0.5992172956 0.5898098946 0.5607578158
	0.6000384092 0.5906528234 0.5616500974
	0.6008595824 0.5914956927 0.5625423789
	0.6016806960 0.5923386216 0.5634347200
	0.6025013924 0.5931785107 0.5643216968
	0.6033217907 0.5940173864 0.5652067065
	0.6041421890 0.5948563218 0.5660917163
	0.6049627066 0.5956951976 0.5669767261
	0.6057831049 0.5965340734 0.5678616762
	0.6066035032 0.5973730087 0.5687466860
	0.6074202061 0.5982081890 0.5696277022
	0.6082363725 0.5990427732 0.5705081224
	0.6090525985 0.5998774171 0.5713884830
	0.6098688245 0.6007121205 0.5722689033
	0.6106849909 0.6015467048 0.5731493235
	0.6115012169 0.6023812890 0.5740296841
	0.6123086214 0.6032109857 0.5749081969
	0.6131153107 0.6040402055 0.5757864714
	0.6139221191 0.6048694849 0.5766646862
	0.6147289276 0.6056988239 0.5775430202
	0.6155356765 0.6065281034 0.5784212947
	0.6163424850 0.6073573232 0.5792995095
	0.6171492934 0.6081854105 0.5801749825
	0.6179562211 0.6090133786 0.5810500979
	0.6187630296 0.6098414063 0.5819252133
	0.6195698977 0.6106693745 0.5828003287
	0.6203767061 0.6114974022 0.5836755037
	0.6211835742 0.6123253107 0.5845506191
	0.6219863296 0.6131554246 0.5854259729
	0.6227880716 0.6139858961 0.5863015056
	0.6235898733 0.6148164272 0.5871769786
	0.6243916750 0.6156468987 0.5880525112
	0.6251934767 0.6164774895 0.5889279842
	0.6259952784 0.6173080206 0.5898035169
	0.6267918944 0.6181306243 0.5906723738
	0.6275851727 0.6189482212 0.5915369987
	0.6283785105 0.6197658777 0.5924015045
	0.6291717887 0.6205834746 0.5932661295
	0.6299651265 0.6214010715 0.5941306949
	0.6307584047 0.6222187877 0.5949952006
	0.6315498948 0.6230332851 0.5958583951
	0.6323379278 0.6238421202 0.5967187881
	0.6331260204 0.6246507764 0.5975791812
	0.6339139938 0.6254594922 0.5984395146
	0.6347020268 0.6262683272 0.5992999077
	0.6354900002 0.6270769835 0.6001603007
	0.6362780929 0.6278856993 0.6010206938
	0.6370700002 0.6286913753 0.6018776298
	0.6378619075 0.6294969916 0.6027345061
	0.6386538148 0.6303027272 0.6035913825
	0.6394457817 0.6311082840 0.6044483185
	0.6402376890 0.6319140196 0.6053051949
	0.6410297155 0.6327196956 0.6061620116
	0.6418200135 0.6335238814 0.6070173979
	0.6426091194 0.6343269944 0.6078712940
	0.6433981061 0.6351301074 0.6087253094
	0.6441872120 0.6359332204 0.6095792055
	0.6449761987 0.6367362738 0.6104332209
	0.6457653046 0.6375393867 0.6112871170
	0.6465541720 0.6383423209 0.6121410131
	0.6473349929 0.6391350031 0.6129897237
	0.6481158733 0.6399276853 0.6138383746
	0.6488966942 0.6407204270 0.6146870852
	0.6496775150 0.6415132284 0.6155357957
	0.6504582763 0.6423059106 0.6163845062
	0.6512390971 0.6430985928 0.6172332168
	0.6520215869 0.6438899040 0.6180806756
	0.6528064013 0.6446790099 0.6189264059
	0.6535912752 0.6454681754 0.6197721958
	0.6543760896 0.6462572813 0.6206179261
	0.6551610231 0.6470463872 0.6214635968
	0.6559458971 0.6478356123 0.6223093271
	0.6567307115 0.6486247182 0.6231549978
	0.6575127840 0.6494132280 0.6240007281
	0.6582934856 0.6502012014 0.6248463988
	0.6590741873 0.6509892941 0.6256921291
	0.6598550081 0.6517773867 0.6265377998
	0.6606357098 0.6525654793 0.6273834109
	0.6614164114 0.6533535719 0.6282290816
	0.6621971726 0.6541417241 0.6290748119
	0.6629760265 0.6549354196 0.6299114823
	0.6637545228 0.6557300091 0.6307469010
	0.6645330787 0.6565244794 0.6315823197
	0.6653115749 0.6573191285 0.6324176788
	0.6660900712 0.6581135988 0.6332530975
	0.6668686867 0.6589081883 0.6340885758
	0.6676471829 0.6597027183 0.6349239945
	0.6684235930 0.6604955792 0.6357483864
	0.6691998839 0.6612884998 0.6365724802
	0.6699762940 0.6620813012 0.6373966932
	0.6707525849 0.6628742218 0.6382207870
	0.6715289950 0.6636670232 0.6390450001
	0.6723052859 0.6644598842 0.6398692131
	0.6730816960 0.6652526855 0.6406933069
	0.6738588214 0.6660354733 0.6415144801
	0.6746358275 0.6668183208 0.6423355937
	0.6754128933 0.6676011086 0.6431567073
	0.6761900187 0.6683838964 0.6439778209
	0.6769670844 0.6691666842 0.6447988749
	0.6777442098 0.6699494123 0.6456201077
	0.6785212159 0.6707322001 0.6464412212
	0.6792948246 0.6715126038 0.6472591758
	0.6800680757 0.6722927094 0.6480770111
	0.6808413863 0.6730728745 0.6488947272
	0.6816146970 0.6738529801 0.6497125030
	0.6823881269 0.6746330857 0.6505302191
	0.6831613779 0.6754133105 0.6513479948
	0.6839346886 0.6761934161 0.6521657705
	0.6847041249 0.6769770980 0.6529843807
	0.6854723096 0.6777619720 0.6538034081
	0.6862404943 0.6785469055 0.6546223760
	0.6870086193 0.6793317199 0.6554414034
	0.6877768040 0.6801165938 0.6562603116
	0.6885449886 0.6809015274 0.6570792794
	0.6893131137 0.6816864014 0.6578983068
	0.6900815964 0.6824722290 0.6587166190
	0.6908504963 0.6832591295 0.6595342159
	0.6916193962 0.6840459108 0.6603516936
	0.6923881769 0.6848328114 0.6611691713
	0.6931570768 0.6856197119 0.6619867086
	0.6939259768 0.6864064932 0.6628043056
	0.6946948171 0.6871933937 0.6636217833
	0.6954628825 0.6879794002 0.6644390821
	0.6962239146 0.6887571216 0.6652535796
	0.6969848275 0.6895347238 0.6660680771
	0.6977458000 0.6903123856 0.6668826938
	0.6985067725 0.6910901070 0.6676971912
	0.6992678046 0.6918678284 0.6685116887
	0.7000287175 0.6926453710 0.6693261862
	0.7007896900 0.6934230924 0.6701408029
	0.7015470862 0.6941987276 0.6709529757
	0.7023022771 0.6949729919 0.6717637181
	0.7030575275 0.6957471967 0.6725745201
	0.7038127184 0.6965215206 0.6733852029
	0.7045679092 0.6972957850 0.6741960049
	0.7053231001 0.6980701089 0.6750066876
	0.7060784101 0.6988443136 0.6758173704
	0.7068333030 0.6996185780 0.6766281128
	0.7075828910 0.7003933787 0.6774358153
	0.7083325982 0.7011681199 0.6782433987
	0.7090821862 0.7019429207 0.6790511012
	0.7098318934 0.7027176023 0.6798588037
	0.7105816007 0.7034922838 0.6806665063
	0.7113311887 0.7042670846 0.6814742088
	0.7120808959 0.7050418258 0.6822819114
	0.7128294110 0.7058115005 0.6830887198
	0.7135760784 0.7065724730 0.6838940978
	0.7143228054 0.7073335052 0.6846994758
	0.7150694132 0.7080944777 0.6855047941
	0.7158160806 0.7088556290 0.6863101721
	0.7165628076 0.7096166015 0.6871154904
	0.7173094749 0.7103775740 0.6879209280
	0.7180560827 0.7111386061 0.6887263060
	0.7187995911 0.7118936777 0.6895337105
	0.7195408940 0.7126445174 0.6903426051
	0.7202820778 0.7133952975 0.6911514997
