release/datafiles/colormanagement/luts/film_response/kodak_kodachrome_25.spi1d
Version 1
From 0.0 1.0
Length 1024
Components 3
{
	0.0000000000 0.0000000000 0.0000000000
	0.0001187211 0.0001161198 0.0001305900
	0.0002416660 0.0002335670 0.0002639299
	0.0003686174 0.0003530100 0.0003996764
	0.0004986166 0.0004744168 0.0005390237
	0.0006320932 0.0005989556 0.0006801367
	0.0007689670 0.0007275027 0.0008226076
	0.0009098884 0.0008590615 0.0009674262
	0.0010546240 0.0009952968 0.0011148060
	0.0012056520 0.0011357040 0.0012659699
	0.0013610790 0.0012804960 0.0014208819
	0.0015210240 0.0014290370 0.0015805050
	0.0016857639 0.0015831300 0.0017423360
	0.0018555140 0.0017423540 0.0019072110
	0.0020300581 0.0019068220 0.0020741550
	0.0022078981 0.0020767010 0.0022443461
	0.0023916010 0.0022511871 0.0024184019
	0.0025805370 0.0024301831 0.0025977520
	0.0027740600 0.0026134001 0.0027815269
	0.0029722259 0.0028022721 0.0029672419
	0.0031753390 0.0029984950 0.0031548510
	0.0033845089 0.0032002409 0.0033454280
	0.0036013669 0.0034078530 0.0035393371
	0.0038235600 0.0036215940 0.0037365381
	0.0040512760 0.0038406281 0.0039370959
	0.0042870231 0.0040662498 0.0041424572
	0.0045294450 0.0042975969 0.0043519312
	0.0047791190 0.0045345472 0.0045640962
	0.0050357901 0.0047785440 0.0047785449
	0.0052975160 0.0050289081 0.0049969312
	0.0055647590 0.0052849171 0.0052185720
	0.0058401441 0.0055476031 0.0054451409
	0.0061251819 0.0058162622 0.0056769978
	0.0064190081 0.0060910610 0.0059134620
	0.0067208251 0.0063716578 0.0061544981
	0.0070298752 0.0066589769 0.0064014881
	0.0073465379 0.0069537512 0.0066520870
	0.0076715760 0.0072558299 0.0069075110
	0.0080045266 0.0075645968 0.0071683591
	0.0083457762 0.0078814235 0.0074348552
	0.0086941188 0.0082036890 0.0077047022
	0.0090481956 0.0085330773 0.0079792934
	0.0094094584 0.0088689746 0.0082590310
	0.0097797252 0.0092114061 0.0085430183
	0.0101604396 0.0095595680 0.0088318810
	0.0105508799 0.0099120708 0.0091247372
	0.0109501397 0.0102693997 0.0094229234
	0.0113572897 0.0106335897 0.0097273486
	0.0117729101 0.0110058896 0.0100365505
	0.0121964402 0.0113846296 0.0103524001
	0.0126260100 0.0117704803 0.0106731104
	0.0130626997 0.0121654198 0.0109990695
	0.0135076502 0.0125680296 0.0113301203
	0.0139606902 0.0129768401 0.0116658099
	0.0144202998 0.0133933499 0.0120067801
	0.0148866000 0.0138179902 0.0123553397
	0.0153607102 0.0142508997 0.0127089303
	0.0158437602 0.0146913100 0.0130658597
	0.0163364708 0.0151374601 0.0134272100
	0.0168359205 0.0155895501 0.0137940804
	0.0173442401 0.0160493609 0.0141672902
	0.0178608205 0.0165161695 0.0145466598
	0.0183882900 0.0169901606 0.0149336299
	0.0189235695 0.0174715705 0.0153278597
	0.0194664709 0.0179615095 0.0157276094
	0.0200162604 0.0184623506 0.0161328409
	0.0205752291 0.0189736001 0.0165440794
	0.0211429205 0.0194928199 0.0169631094
	0.0217175093 0.0200189203 0.0173870400
	0.0222972203 0.0205519404 0.0178171601
	0.0228821803 0.0210929699 0.0182553697
	0.0234732702 0.0216418691 0.0187003091
	0.0240713898 0.0221973900 0.0191515498
	0.0246774498 0.0227600299 0.0196103808
	0.0252923407 0.0233312007 0.0200770292
	0.0259165801 0.0239111893 0.0205497108
	0.0265481994 0.0245017596 0.0210285001
	0.0271885395 0.0251027998 0.0215149205
	0.0278372504 0.0257091504 0.0220096204
	0.0284956601 0.0263228696 0.0225120597
	0.0291631296 0.0269445796 0.0230217203
	0.0298364591 0.0275744200 0.0235392991
	0.0305197891 0.0282128304 0.0240652803
	0.0312113408 0.0288609006 0.0246002506
	0.0319130905 0.0295199603 0.0251446608
	0.0326239392 0.0301856901 0.0256962199
	0.0333417691 0.0308586191 0.0262538604
	0.0340690203 0.0315388404 0.0268181600
	0.0347989090 0.0322262309 0.0273908004
	0.0355309397 0.0329242386 0.0279702805
	0.0362654515 0.0336307585 0.0285563804
	0.0370042995 0.0343444385 0.0291495994
	0.0377499983 0.0350654498 0.0297501199
	0.0385023095 0.0357952416 0.0303586796
	0.0392612107 0.0365385190 0.0309723206
	0.0400277786 0.0372893997 0.0315904692
	0.0408011489 0.0380479097 0.0322141387
	0.0415779687 0.0388149507 0.0328444093
	0.0423575304 0.0395870805 0.0334823392
	0.0431431308 0.0403656401 0.0341259614
	0.0439345613 0.0411506817 0.0347744413
	0.0447305702 0.0419436581 0.0354271904
	0.0455311611 0.0427440405 0.0360897183
	0.0463386402 0.0435508788 0.0367595218
	0.0471522398 0.0443644710 0.0374358408
	0.0479747392 0.0451885909 0.0381190106
	0.0488112308 0.0460180305 0.0388101190
	0.0496566407 0.0468529202 0.0395072289
	0.0505135618 0.0476984307 0.0402105600
	0.0513870418 0.0485514998 0.0409212708
	0.0522648282 0.0494111106 0.0416350588
	0.0531454012 0.0502829701 0.0423520505
	0.0540309697 0.0511616506 0.0430774391
	0.0549204089 0.0520450994 0.0438090898
	0.0558179915 0.0529359803 0.0445459113
	0.0567257814 0.0538352691 0.0452902392
	0.0576398782 0.0547406413 0.0460413806
	0.0585679710 0.0556575507 0.0467979498
	0.0595032796 0.0565782711 0.0475642905
	0.0604466088 0.0575027503 0.0483360402
	0.0614023097 0.0584334396 0.0491129309
	0.0623621605 0.0593668409 0.0499006808
	0.0633294508 0.0603048317 0.0506933182
	0.0643018410 0.0612500012 0.0514932014
	0.0652783364 0.0621989109 0.0522950403
	0.0662618205 0.0631573200 0.0530990995
	0.0672477037 0.0641201437 0.0539113805
	0.0682398304 0.0650890917 0.0547297895
	0.0692377687 0.0660655573 0.0555534288
	0.0702422187 0.0670448914 0.0563857108
	0.0712599233 0.0680295005 0.0572213605
	0.0722822472 0.0690181032 0.0580649488
	0.0733231679 0.0700139031 0.0589125901
	0.0743673295 0.0710175782 0.0597636290
	0.0754222274 0.0720258802 0.0606212094
	0.0764820576 0.0730462894 0.0614807904
	0.0775483102 0.0740699619 0.0623459816
	0.0786194429 0.0751056671 0.0632140934
	0.0796934590 0.0761416107 0.0640869290
	0.0807745531 0.0771779865 0.0649647191
	0.0818573833 0.0782172531 0.0658454672
	0.0829574317 0.0792589337 0.0667318478
	0.0840600133 0.0803091377 0.0676197112
	0.0851803720 0.0813626423 0.0685161799
	0.0863037184 0.0824246481 0.0694149882
	0.0874389708 0.0834880322 0.0703213289
	0.0885784179 0.0845618397 0.0712313801
	0.0897280127 0.0856374800 0.0721469596
	0.0908830017 0.0867242888 0.0730709806
	0.0920473710 0.0878123492 0.0740019605
	0.0932181776 0.0889043733 0.0749416873
	0.0943980217 0.0899982378 0.0758856833
	0.0955819637 0.0910960734 0.0768347234
	0.0967710093 0.0921994597 0.0777852014
	0.0979645699 0.0933120996 0.0787435994
	0.0991635621 0.0944301113 0.0797032714
	0.1003675982 0.0955557898 0.0806734487
	0.1015781984 0.0966856703 0.0816444829
	0.1027939990 0.0978211835 0.0826287419
	0.1040176004 0.0989596322 0.0836134627
	0.1052478999 0.1001020968 0.0846056491
	0.1064907983 0.1012483984 0.0855979323
	0.1077373996 0.1024006978 0.0865952373
	0.1089940965 0.1035557985 0.0875926092
	0.1102522984 0.1047163978 0.0886019021
	0.1115181968 0.1058802009 0.0896116272
	0.1127844006 0.1070526987 0.0906278268
	0.1140555963 0.1082267985 0.0916445777
	0.1153267995 0.1094079986 0.0926688984
	0.1166016012 0.1105891988 0.0936945230
	0.1178767011 0.1117718965 0.0947236270
	0.1191575974 0.1129546016 0.0957538188
	0.1204406992 0.1141434982 0.0967877209
	0.1217328012 0.1153329015 0.0978235975
	0.1230328009 0.1165269986 0.0988596827
	0.1243387014 0.1177226007 0.0998959318
	0.1256576031 0.1189235002 0.1009349972
	0.1269775033 0.1201286018 0.1019790992
	0.1283123046 0.1213376969 0.1030249000
	0.1296471059 0.1225541010 0.1040780023
	0.1309920996 0.1237716004 0.1051312014
	0.1323397011 0.1249968037 0.1061976030
	0.1336949021 0.1262219995 0.1072641984
	0.1350574046 0.1274487972 0.1083405018
	0.1364232004 0.1286759973 0.1094200984
	0.1378028989 0.1299048960 0.1105057970
	0.1391825974 0.1311350018 0.1115979999
	0.1405749023 0.1323675066 0.1126938015
	0.1419695020 0.1336061060 0.1138031036
	0.1433696002 0.1348447949 0.1149123013
	0.1447755992 0.1360920966 0.1160330996
	0.1461827010 0.1373400986 0.1171550006
	0.1476009935 0.1385940015 0.1182890981
	0.1490193009 0.1398521960 0.1194318980
	0.1504455954 0.1411112994 0.1205772012
	0.1518757045 0.1423743069 0.1217304021
	0.1533088982 0.1436371952 0.1228836030
	0.1547531039 0.1449093074 0.1240445971
	0.1561972052 0.1461839974 0.1252069026
	0.1576558948 0.1474615037 0.1263778955
	0.1591195017 0.1487443000 0.1275596023
	0.1605871022 0.1500270963 0.1287415028
	0.1620666981 0.1513230950 0.1299324036
	0.1635462940 0.1526210010 0.1311233938
	0.1650296003 0.1539209038 0.1323246062
	0.1665142030 0.1552240998 0.1335338056
	0.1680004001 0.1565274000 0.1347434968
	0.1694938987 0.1578350067 0.1359594017
	0.1709873974 0.1591434032 0.1371753067
	0.1724853069 0.1604537964 0.1383929998
	0.1739861071 0.1617684960 0.1396120936
	0.1754869968 0.1630831063 0.1408315003
	0.1769933999 0.1644009054 0.1420598030
	0.1784998029 0.1657195985 0.1432881951
	0.1800076067 0.1670403928 0.1445214003
	0.1815180033 0.1683724970 0.1457598060
	0.1830282956 0.1697044969 0.1469981968
	0.1845442951 0.1710446030 0.1482491940
	0.1860629022 0.1723918021 0.1495018005
	0.1875815988 0.1737388968 0.1507571042
	0.1891085953 0.1750912964 0.1520196050
	0.1906356961 0.1764443964 0.1532821953
	0.1921654046 0.1777988970 0.1545532942
	0.1937022060 0.1791588962 0.1558299065
	0.1952389926 0.1805189997 0.1571063995
	0.1967843026 0.1818803996 0.1583925039
	0.1983377039 0.1832433045 0.1596792042
	0.1998911053 0.1846061945 0.1609704942
	0.2014496028 0.1859742999 0.1622772068
	0.2030100971 0.1873442978 0.1635839045
	0.2045706064 0.1887143999 0.1648986936
	0.2061385065 0.1900894940 0.1662220061
	0.2077071965 0.1914649010 0.1675451994
	0.2092768997 0.1928412020 0.1688794047
	0.2108619064 0.1942230016 0.1702177972
	0.2124470025 0.1956048012 0.1715561002
	0.2140337974 0.1969860941 0.1729072928
	0.2156284004 0.1983664036 0.1742596030
	0.2172230035 0.1997465938 0.1756128073
	0.2188204974 0.2011310011 0.1769745052
	0.2204252034 0.2025205046 0.1783363074
	0.2220298946 0.2039099038 0.1797029972
	0.2236385942 0.2053045928 0.1810847074
	0.2252545953 0.2067034990 0.1824664026
	0.2268707007 0.2081024051 0.1838538945
	0.2284909934 0.2095097005 0.1852518022
	0.2301183045 0.2109221071 0.1866496950
	0.2317456007 0.2123343945 0.1880539954
	0.2333762050 0.2137437016 0.1894665956
	0.2350125015 0.2151515931 0.1908791959
	0.2366486937 0.2165593952 0.1922982931
	0.2382874936 0.2179677039 0.1937243044
	0.2399311960 0.2193762958 0.1951504052
	0.2415750027 0.2207849026 0.1965806931
	0.2432212979 0.2221989036 0.1980153024
	0.2448745072 0.2236157060 0.1994500011
	0.2465275973 0.2250325978 0.2008942068
	0.2481831014 0.2264544070 0.2023486942
	0.2498493940 0.2278795987 0.2038031965
	0.2515155971 0.2293048054 0.2052644044
	0.2531822920 0.2307375968 0.2067341059
	0.2548569143 0.2321777046 0.2082037032
	0.2565315068 0.2336179018 0.2096809000
	0.2582060993 0.2350665033 0.2111717016
	0.2598899007 0.2365286052 0.2126623988
	0.2615750134 0.2379907966 0.2141568065
	0.2632600963 0.2394558936 0.2156627029
	0.2649540901 0.2409311980 0.2171684951
	0.2666524947 0.2424065024 0.2186762989
	0.2683508992 0.2438821048 0.2202025950
	0.2700530887 0.2453690022 0.2217289060
	0.2717601955 0.2468558997 0.2232550979
	0.2734673023 0.2483427972 0.2247944027
	0.2751758993 0.2498389930 0.2263347954
	0.2768929005 0.2513372898 0.2278753072
	0.2786099911 0.2528356910 0.2294308990
	0.2803269923 0.2543384135 0.2309931070
	0.2820504904 0.2558448911 0.2325553000
	0.2837752998 0.2573513091 0.2341264933
	0.2854999900 0.2588596940 0.2357089967
	0.2872273922 0.2603740990 0.2372916043
	0.2889575064 0.2618885040 0.2388751954
	0.2906875908 0.2634029090 0.2404648066
	0.2924185097 0.2649247050 0.2420545071
	0.2941546142 0.2664470971 0.2436441034
	0.2958906889 0.2679696083 0.2452432960
	0.2976269126 0.2694908977 0.2468443960
	0.2993660867 0.2710112929 0.2484454066
	0.3011066020 0.2725316882 0.2500450909
	0.3028470874 0.2740519941 0.2516433001
	0.3045875132 0.2755717933 0.2532413900
	0.3063274026 0.2770917118 0.2548404038
	0.3080672026 0.2786116004 0.2564507127
	0.3098070920 0.2801361978 0.2580609918
	0.3115398884 0.2816629112 0.2596713006
	0.3132705092 0.2831897140 0.2612847984
	0.3150011003 0.2847178876 0.2629001141
	0.3167325854 0.2862516940 0.2645153999
	0.3184674084 0.2877854109 0.2661319077
	0.3202022016 0.2893190980 0.2677547932
	0.3219369948 0.2908464968 0.2693777084
	0.3236666918 0.2923713028 0.2710005045
	0.3253937066 0.2938959897 0.2726289034
	0.3271206915 0.2954205871 0.2742598951
	0.3288466036 0.2969438136 0.2758910060
	0.3305548131 0.2984670103 0.2775225043
	0.3322629035 0.2999902070 0.2791568041
	0.3339709938 0.3015184104 0.2807911932
	0.3356797099 0.3030506968 0.2824254930
	0.3373891115 0.3045830131 0.2840622962
	0.3390985131 0.3061152101 0.2857011855
	0.3408079147 0.3076440990 0.2873399854
	0.3425270021 0.3091726899 0.2889789045
	0.3442499042 0.3107013106 0.2906231880
	0.3459726870 0.3122313023 0.2922680080
	0.3476955891 0.3137654960 0.2939127982
	0.3494232893 0.3152998090 0.2955600917
	0.3511509895 0.3168340027 0.2972145975
	0.3528788090 0.3183681071 0.2988691032
	0.3546074033 0.3199020922 0.3005236089
	0.3563388884 0.3214359879 0.3021857142
	0.3580704033 0.3229700029 0.3038538992
	0.3598020077 0.3245058954 0.3055221140
	0.3615402877 0.3260425031 0.3071902990
	0.3632878065 0.3275789917 0.3088661134
	0.3650352955 0.3291155100 0.3105435967
	0.3667826951 0.3306686878 0.3122211099
	0.3685362041 0.3322221935 0.3138988018
	0.3702940941 0.3337756097 0.3155812025
	0.3720518947 0.3353295028 0.3172636032
	0.3738098145 0.3368858099 0.3189460039
	0.3755826056 0.3384419978 0.3206303120
	0.3773621023 0.3399981856 0.3223223090
	0.3791415989 0.3415560126 0.3240141869
	0.3809210956 0.3431178033 0.3257062137
	0.3827106953 0.3446795046 0.3274028003
	0.3845036030 0.3462412059 0.3291088939
	0.3862965107 0.3478037119 0.3308149874
	0.3880893886 0.3493674099 0.3325211108
	0.3898766935 0.3509311080 0.3342320919
	0.3916623890 0.3524948061 0.3359496891
	0.3934481144 0.3540599942 0.3376674056
	0.3952338099 0.3556275070 0.3393850923
	0.3970318139 0.3571951091 0.3411099911
	0.3988335133 0.3587625921 0.3428429961
	0.4006352127 0.3603334129 0.3445760012
	0.4024369121 0.3619092107 0.3463088870
	0.4042539001 0.3634850085 0.3480437994
	0.4060774148 0.3650608063 0.3497805893
	0.4079008996 0.3666354120 0.3515174985
	0.4097244143 0.3682079017 0.3532544076
	0.4115552008 0.3697803915 0.3549940884
	0.4133909941 0.3713529110 0.3567374945
	0.4152266979 0.3729279935 0.3584809899
	0.4170624912 0.3745107949 0.3602243960
	0.4189001918 0.3760935962 0.3619695008
	0.4207401872 0.3776763082 0.3637174964
	0.4225800931 0.3792597950 0.3654656112
	0.4244200885 0.3808481097 0.3672136962
	0.4262587130 0.3824365139 0.3689666986
	0.4280926883 0.3840247989 0.3707352877
	0.4299268126 0.3856132030 0.3725039065
	0.4317609072 0.3872022033 0.3742724061
	0.4335947931 0.3887912929 0.3760411143
	0.4354149997 0.3903804123 0.3778105080
	0.4372350872 0.3919695020 0.3795798123
	0.4390552044 0.3935660124 0.3813492060
	0.4408754110 0.3951654136 0.3831185997
	0.4426893890 0.3967649043 0.3848997056
	0.4445011020 0.3983643949 0.3866828084
	0.4463126957 0.3999699950 0.3884659111
	0.4481244087 0.4015834928 0.3902488947
	0.4499397874 0.4031969011 0.3920351863
	0.4517613053 0.4048103988 0.3938237131
	0.4535827041 0.4064252973 0.3956122100
	0.4554041922 0.4080508053 0.3974005878
	0.4572255909 0.4096763134 0.3991900980
	0.4590497911 0.4113017917 0.4009819925
	0.4608739018 0.4129272997 0.4027737975
	0.4626981020 0.4145581126 0.4045656919
	0.4645222127 0.4161905944 0.4063574970
	0.4663369954 0.4178231061 0.4081600904
	0.4681450129 0.4194557071 0.4099633992
	0.4699530005 0.4210889935 0.4117667079
	0.4717608988 0.4227238894 0.4135699868
	0.4735681117 0.4243587852 0.4153786004
	0.4753684103 0.4259937108 0.4171918035
	0.4771685898 0.4276286066 0.4190050066
	0.4789687991 0.4292654097 0.4208182096
	0.4807690084 0.4309025109 0.4226312041
	0.4825682044 0.4325394928 0.4244414866
	0.4843665957 0.4341765046 0.4262517989
	0.4861649871 0.4358190894 0.4280619919
	0.4879634082 0.4374710917 0.4298723042
	0.4897617102 0.4391230941 0.4316802025
	0.4915564060 0.4407750964 0.4334864914
	0.4933511019 0.4424270988 0.4352926910
	0.4951457083 0.4440836906 0.4370990098
	0.4969404042 0.4457412958 0.4389046133
	0.4987323880 0.4473989010 0.4406982064
	0.5005198121 0.4490565062 0.4424918890
	0.5023072958 0.4507141113 0.4442855120
	0.5040947795 0.4523720145 0.4460791945
	0.5058822036 0.4540297985 0.4478673041
	0.5076612830 0.4556876123 0.4496487081
	0.5094367862 0.4573453963 0.4514302015
	0.5112122893 0.4589950144 0.4532116055
	0.5129877925 0.4606379867 0.4549930990
	0.5147632957 0.4622808993 0.4567654133
	0.5165187120 0.4639238119 0.4585354924
	0.5182737112 0.4655668139 0.4603056014
	0.5200287104 0.4672066867 0.4620757997
	0.5217838287 0.4688459933 0.4638450146
	0.5235412717 0.4704853892 0.4656072855
	0.5253081918 0.4721247852 0.4673697054
	0.5270751119 0.4737643003 0.4691320062
	0.5288419724 0.4754061103 0.4708943069
	0.5306090117 0.4770478904 0.4726507962
	0.5323774219 0.4786897004 0.4743973911
	0.5341482759 0.4803315997 0.4761438966
	0.5359191895 0.4819717109 0.4778904021
	0.5376901031 0.4836075008 0.4796369076
	0.5394610167 0.4852432907 0.4813722968
	0.5412335992 0.4868789911 0.4830994010
	0.5430079103 0.4885148108 0.4848263860
	0.5447822213 0.4901467860 0.4865534008
	0.5465564728 0.4917733967 0.4882805049
	0.5483307838 0.4934000075 0.4900054038
	0.5500996709 0.4950265884 0.4917294979
	0.5518643856 0.4966531992 0.4934537113
	0.5536291003 0.4982692897 0.4951778054
	0.5553938746 0.4998747110 0.4969018996
	0.5571585894 0.5014801025 0.4986188114
	0.5589029789 0.5030853748 0.5003340244
	0.5606324077 0.5046908259 0.5020492077
	0.5623617768 0.5062916875 0.5037645102
	0.5640913248 0.5078886151 0.5054796934
	0.5658206940 0.5094854236 0.5071663260
	0.5675324798 0.5110822916 0.5088484883
	0.5692291260 0.5126792192 0.5105305910
	0.5709257126 0.5142681003 0.5122128129
	0.5726222992 0.5158489943 0.5138949156
	0.5743188858 0.5174300075 0.5155733228
	0.5760101080 0.5190109015 0.5172510743
	0.5776947141 0.5205919147 0.5189288259
	0.5793792009 0.5221624970 0.5206065774
	0.5810636878 0.5237188935 0.5222843289
	0.5827482939 0.5252754092 0.5239499807
	0.5844303966 0.5268318057 0.5256124735
	0.5861067772 0.5283882022 0.5272750854
	0.5877830982 0.5299438238 0.5289375782
	0.5894594789 0.5314972997 0.5306000710
	0.5911359191 0.5330507159 0.5322602987
	0.5928109884 0.5346041918 0.5339192748
	0.5944728255 0.5361576080 0.5355783105
	0.5961346030 0.5377094746 0.5372374058
	0.5977964997 0.5392475128 0.5388963819
	0.5994582772 0.5407854915 0.5405499935
	0.6011201143 0.5423235297 0.5421981215
	0.6027656794 0.5438615084 0.5438463092
	0.6044077277 0.5453994274 0.5454944968
	0.6060497165 0.5469250083 0.5471426845
	0.6076918244 0.5484485030 0.5487864017
	0.6093338132 0.5499718785 0.5504183173
	0.6109706163 0.5514953732 0.5520501733
	0.6126019955 0.5530188084 0.5536820292
	0.6142334938 0.5545319915 0.5553138852
	0.6158648729 0.5560368896 0.5569456816
	0.6174963713 0.5575417876 0.5585566759
	0.6191260219 0.5590466857 0.5601673126
	0.6207424998 0.5605515838 0.5617777705
	0.6223589182 0.5620545745 0.5633884072
	0.6239753962 0.5635496974 0.5649989843
	0.6255918741 0.5650447011 0.5666049719
	0.6272084117 0.5665397048 0.5682082772
	0.6288107038 0.5680348277 0.5698117018
	0.6304064989 0.5695297718 0.5714150071
	0.6320024133 0.5710126162 0.5730183125
	0.6335982084 0.5724920034 0.5746158957
	0.6351940036 0.5739712715 0.5761947036
	0.6367834806 0.5754505992 0.5777735114
	0.6383458972 0.5769299269 0.5793523788
	0.6399083138 0.5784004927 0.5809311867
	0.6414706707 0.5798507929 0.5825099945
	0.6430330873 0.5813010931 0.5840647817
	0.6445955038 0.5827513933 0.5856127143
	0.6461372972 0.5842016935 0.5871605873
	0.6476672888 0.5856518745 0.5887084007
	0.6491973996 0.5870863795 0.5902562737
	0.6507273912 0.5885158777 0.5917943120
	0.6522575021 0.5899453759 0.5933035016
	0.6537867785 0.5913748741 0.5948126912
	0.6552811861 0.5928043723 0.5963220000
	0.6567755938 0.5942304730 0.5978311896
	0.6582700014 0.5956394076 0.5993403792
	0.6597645283 0.5970482826 0.6008219123
	0.6612588763 0.5984572768 0.6022902131
	0.6627463102 0.5998662114 0.6037583947
	0.6642202735 0.6012750864 0.6052265763
	0.6656942964 0.6026799083 0.6066948771
	0.6671683192 0.6040807962 0.6081615090
	0.6686422825 0.6054816842 0.6095842719
	0.6701163054 0.6068825722 0.6110069752
	0.6715676188 0.6082835793 0.6124296784
	0.6730042100 0.6096845269 0.6138523817
	0.6744406819 0.6110807061 0.6152750850
	0.6758772135 0.6124755740 0.6166884899
	0.6773136854 0.6138706207 0.6180831194
	0.6787502170 0.6152656078 0.6194776297
	0.6801577210 0.6166605949 0.6208721995
	0.6815580130 0.6180554032 0.6222668290
	0.6829584241 0.6194347143 0.6236612797
	0.6843587160 0.6208140254 0.6250466704
	0.6857591271 0.6221933961 0.6264250875
	0.6871594191 0.6235727072 0.6278035045
	0.6885198951 0.6249520779 0.6291819215
	0.6898779273 0.6263288856 0.6305602789
	0.6912357807 0.6276934147 0.6319386959
	0.6925938129 0.6290578842 0.6332967877
	0.6939517856 0.6304224133 0.6346477866
	0.6953091025 0.6317868829 0.6359987855
	0.6966227889 0.6331512928 0.6373497844
	0.6979364753 0.6345124841 0.6387007833
	0.6992502213 0.6358644962 0.6400517821
	0.7005639076 0.6372163892 0.6413751841
	0.7018774748 0.6385684013 0.6426938176
	0.7031903863 0.6399202943 0.6440123916
	0.7044675946 0.6412723064 0.6453310251
	0.7057446837 0.6426153183 0.6466495991
	0.7070218921 0.6439368129 0.6479681730
	0.7082989812 0.6452583075 0.6492698789
	0.7095761895 0.6465796828 0.6505696774
	0.7108533978 0.6479011774 0.6518694162
	0.7121080160 0.6492226720 0.6531692147
	0.7133617997 0.6505348086 0.6544690132
	0.7146157026 0.6518198252 0.6557686925
	0.7158694863 0.6531049013 0.6570504904
	0.7171233296 0.6543899179 0.6583297849
	0.7183771133 0.6556748748 0.6596090198
	0.7195919752 0.6569600105 0.6608883142
	0.7207996845 0.6582419872 0.6621676087
	0.7220073938 0.6595075130 0.6634469032
	0.7232151031 0.6607730985 0.6647216082
	0.7244228721 0.6620386243 0.6659951806
	0.7256305814 0.6633040905 0.6672688723
	0.7268121243 0.6645696759 0.6685425043
	0.7279800177 0.6658352017 0.6698160768
	0.7291477919 0.6670749784 0.6710897088
	0.7303156257 0.6683145165 0.6723518968
	0.7314835191 0.6695539951 0.6736078858
	0.7326512933 0.6707934737 0.6748638749
	0.7338057160 0.6720330119 0.6761198044
	0.7349399924 0.6732723713 0.6773757935
	0.7360742092 0.6744793057 0.6786317229
	0.7372084260 0.6756755710 0.6798825264
	0.7383427024 0.6768718958 0.6811262965
	0.7394769192 0.6780682206 0.6823701859
	0.7406092882 0.6792644858 0.6836140156
	0.7417197227 0.6804608107 0.6848577857
	0.7428302169 0.6816480756 0.6861016750
	0.7439405918 0.6828244925 0.6873413920
	0.7450510263 0.6840010285 0.6885573864
	0.7461614013 0.6851773858 0.6897733212
	0.7472717762 0.6863538027 0.6909891963
	0.7483662963 0.6875302196 0.6922051907
	0.7494534254 0.6887052059 0.6934211254
	0.7505404949 0.6898639202 0.6946370006
	0.7516276240 0.6910225153 0.6958392859
	0.7527148128 0.6921812296 0.6970379949
	0.7538018823 0.6933398843 0.6982367039
	0.7548860908 0.6944984794 0.6994354129
	0.7559602857 0.6956571937 0.7006341219
	0.7570344210 0.6968036890 0.7018327713
	0.7581086159 0.6979433894 0.7030227184
	0.7591826916 0.6990832090 0.7041977048
	0.7602568865 0.7002230287 0.7053728104
	0.7613310218 0.7013627291 0.7065479159
	0.7623906136 0.7025024891 0.7077229023
	0.7634438276 0.7036383748 0.7088980079
	0.7644969225 0.7047494054 0.7100731134
	0.7655500174 0.7058604956 0.7112265229
	0.7666031122 0.7069715858 0.7123770118
	0.7676562071 0.7080826759 0.7135276198
	0.7687063813 0.7091938257 0.7146781087
