release/datafiles/colormanagement/luts/film_response/kodak_ektachrome_e100s.spi1d
Version 1
From 0.0 1.0
Length 1024
Components 3
{
	0.0000000000 0.0000000000 0.0000000000
	0.0003622885 0.0002231146 0.0002231146
	0.0007382494 0.0004596260 0.0004596260
	0.0011324980 0.0007107497 0.0007107497
	0.0015447290 0.0009748340 0.0009748340
	0.0019822840 0.0012541140 0.0012541140
	0.0024496829 0.0015510730 0.0015510730
	0.0029426741 0.0018673710 0.0018673710
	0.0034610520 0.0022024000 0.0022024000
	0.0040061148 0.0025572821 0.0025572821
	0.0045792251 0.0029304300 0.0029304300
	0.0051838872 0.0033235741 0.0033235741
	0.0058237561 0.0037373570 0.0037373570
	0.0064960350 0.0041693011 0.0041693011
	0.0072039221 0.0046230098 0.0046230098
	0.0079505397 0.0050979760 0.0050979760
	0.0087367687 0.0055915830 0.0055915830
	0.0095584840 0.0061070491 0.0061070491
	0.0104124900 0.0066442229 0.0066442229
	0.0112989703 0.0071999640 0.0071999640
	0.0122200102 0.0077770371 0.0077770371
	0.0131755099 0.0083772372 0.0083772372
	0.0141713005 0.0089993617 0.0089993617
	0.0152068604 0.0096444618 0.0096444618
	0.0162801705 0.0103151305 0.0103151305
	0.0173835605 0.0110131698 0.0110131698
	0.0185210407 0.0117386896 0.0117386896
	0.0196854398 0.0124893300 0.0124893300
	0.0208813995 0.0132624302 0.0132624302
	0.0221185796 0.0140622798 0.0140622798
	0.0234044399 0.0148894899 0.0148894899
	0.0247398503 0.0157391094 0.0157391094
	0.0261158608 0.0166204907 0.0166204907
	0.0275394097 0.0175324902 0.0175324902
	0.0290060304 0.0184764005 0.0184764005
	0.0305129606 0.0194491595 0.0194491595
	0.0320634693 0.0204504505 0.0204504505
	0.0336536989 0.0214823205 0.0214823205
	0.0352861397 0.0225437600 0.0225437600
	0.0369675495 0.0236390196 0.0236390196
	0.0386981517 0.0247705802 0.0247705802
	0.0404745191 0.0259348303 0.0259348303
	0.0422977097 0.0271375105 0.0271375105
	0.0441726409 0.0283817798 0.0283817798
	0.0460996106 0.0296590906 0.0296590906
	0.0480887406 0.0309759099 0.0309759099
	0.0501275212 0.0323227607 0.0323227607
	0.0522207692 0.0337067991 0.0337067991
	0.0543671884 0.0351255499 0.0351255499
	0.0565663688 0.0365805998 0.0365805998
	0.0588187315 0.0380711295 0.0380711295
	0.0611272007 0.0396083593 0.0396083593
	0.0634748489 0.0411784090 0.0411784090
	0.0658760667 0.0427908003 0.0427908003
	0.0683400705 0.0444480814 0.0444480814
	0.0708511695 0.0461456515 0.0461456515
	0.0734233931 0.0478809699 0.0478809699
	0.0760477036 0.0496524908 0.0496524908
	0.0787281767 0.0514654815 0.0514654815
	0.0814533383 0.0533178188 0.0533178188
	0.0842291415 0.0552090518 0.0552090518
	0.0870640278 0.0571336001 0.0571336001
	0.0899450928 0.0590961091 0.0590961091
	0.0928783119 0.0610942282 0.0610942282
	0.0958742201 0.0631353706 0.0631353706
	0.0989081487 0.0652145892 0.0652145892
	0.1019897982 0.0673257634 0.0673257634
	0.1051272005 0.0694703013 0.0694703013
	0.1083052009 0.0716492608 0.0716492608
	0.1115389019 0.0738634914 0.0738634914
	0.1148212031 0.0761086568 0.0761086568
	0.1181529984 0.0783852488 0.0783852488
	0.1215258017 0.0806891099 0.0806891099
	0.1249411032 0.0830274820 0.0830274820
	0.1283981055 0.0854015574 0.0854015574
	0.1318998039 0.0878068879 0.0878068879
	0.1354435980 0.0902427882 0.0902427882
	0.1390310973 0.0927055702 0.0927055702
	0.1426659971 0.0952004492 0.0952004492
	0.1463364065 0.0977323800 0.0977323800
	0.1500398070 0.1002930999 0.1002930999
	0.1537826061 0.1028838009 0.1028838009
	0.1575697958 0.1055003032 0.1055003032
	0.1613817066 0.1081380993 0.1081380993
	0.1652164012 0.1108009964 0.1108009964
	0.1690932959 0.1134867966 0.1134867966
	0.1729968935 0.1161940992 0.1161940992
	0.1769410968 0.1189275980 0.1189275980
	0.1809352040 0.1216920018 0.1216920018
	0.1849523038 0.1244781017 0.1244781017
	0.1889985055 0.1272816956 0.1272816956
	0.1930781007 0.1301010996 0.1301010996
	0.1971940994 0.1329389066 0.1329389066
	0.2013469040 0.1358011961 0.1358011961
	0.2055312991 0.1386940926 0.1386940926
	0.2097439021 0.1416130960 0.1416130960
	0.2139831036 0.1445533037 0.1445533037
	0.2182556987 0.1475161016 0.1475161016
	0.2225302011 0.1505060941 0.1505060941
	0.2268306017 0.1535229981 0.1535229981
	0.2311580926 0.1565562934 0.1565562934
	0.2355093956 0.1596101969 0.1596101969
	0.2398717999 0.1626808047 0.1626808047
	0.2442272007 0.1657689065 0.1657689065
	0.2485899031 0.1688731015 0.1688731015
	0.2529604137 0.1719909012 0.1719909012
	0.2573277056 0.1751365066 0.1751365066
	0.2616989017 0.1782941073 0.1782941073
	0.2660799026 0.1814624071 0.1814624071
	0.2704606056 0.1846423000 0.1846423000
	0.2748312056 0.1878450066 0.1878450066
	0.2791987956 0.1910510063 0.1910510063
	0.2835668027 0.1942614019 0.1942614019
	0.2879388928 0.1974803954 0.1974803954
	0.2923108041 0.2007077038 0.2007077038
	0.2966752946 0.2039379030 0.2039379030
	0.3010303974 0.2071726024 0.2071726024
	0.3053742945 0.2104312927 0.2104312927
	0.3097003102 0.2136991024 0.2136991024
	0.3140352070 0.2169768065 0.2169768065
	0.3183707893 0.2202724963 0.2202724963
	0.3226906061 0.2235676050 0.2235676050
	0.3270021975 0.2268693000 0.2268693000
	0.3313120902 0.2301850021 0.2301850021
	0.3356218934 0.2334984988 0.2334984988
	0.3399325907 0.2368156016 0.2368156016
	0.3442339897 0.2401401997 0.2401401997
	0.3485251963 0.2434774041 0.2434774041
	0.3527927101 0.2468263060 0.2468263060
	0.3570409119 0.2501969039 0.2501969039
	0.3612729013 0.2535721958 0.2535721958
	0.3654753864 0.2569538951 0.2569538951
	0.3696604967 0.2603574097 0.2603574097
	0.3738316894 0.2637628019 0.2637628019
	0.3779726923 0.2671697140 0.2671697140
	0.3820927143 0.2705962062 0.2705962062
	0.3861967027 0.2740235031 0.2740235031
	0.3902786970 0.2774519026 0.2774519026
	0.3943498135 0.2808937132 0.2808937132
	0.3984076083 0.2843413949 0.2843413949
	0.4024240077 0.2878027856 0.2878027856
	0.4064257145 0.2912661135 0.2912661135
	0.4104036987 0.2947317958 0.2947317958
	0.4143416882 0.2981860042 0.2981860042
	0.4182564914 0.3016363978 0.3016363978
	0.4221282005 0.3050855994 0.3050855994
	0.4259957075 0.3085319102 0.3085319102
	0.4298554957 0.3119722009 0.3119722009
	0.4336968064 0.3154138923 0.3154138923
	0.4375284910 0.3188566864 0.3188566864
	0.4413171113 0.3222773075 0.3222773075
	0.4450969100 0.3256925941 0.3256925941
	0.4488551915 0.3290956020 0.3290956020
	0.4526067972 0.3324885964 0.3324885964
	0.4563522935 0.3358506858 0.3358506858
	0.4600827098 0.3392089009 0.3392089009
	0.4638085067 0.3425619900 0.3425619900
	0.4674848914 0.3459056914 0.3459056914
	0.4711487889 0.3492426872 0.3492426872
	0.4747653008 0.3525683880 0.3525683880
	0.4783576131 0.3558900058 0.3558900058
	0.4819136858 0.3591865897 0.3591865897
	0.4854589999 0.3624787927 0.3624787927
	0.4889962077 0.3657391071 0.3657391071
	0.4925225973 0.3689970076 0.3689970076
	0.4960449040 0.3722279966 0.3722279966
	0.4995129108 0.3754577041 0.3754577041
	0.5029718280 0.3786748946 0.3786748946
	0.5064191222 0.3818857074 0.3818857074
	0.5098642111 0.3850541115 0.3850541115
	0.5132802725 0.3882220984 0.3882220984
	0.5166903138 0.3913877010 0.3913877010
	0.5200588107 0.3945508003 0.3945508003
	0.5234236717 0.3976989985 0.3976989985
	0.5267717838 0.4008451104 0.4008451104
	0.5301045775 0.4039750993 0.4039750993
	0.5333794951 0.4071030021 0.4071030021
	0.5366390944 0.4102006853 0.4102006853
	0.5398436189 0.4132984877 0.4132984877
	0.5430372953 0.4163655937 0.4163655937
	0.5461881757 0.4194326997 0.4194326997
	0.5493322015 0.4224604964 0.4224604964
	0.5524412990 0.4254842997 0.4254842997
	0.5555446744 0.4284946918 0.4284946918
	0.5586010814 0.4315015972 0.4315015972
	0.5616549253 0.4344901145 0.4344901145
	0.5646228194 0.4374687970 0.4374687970
	0.5675905943 0.4404281080 0.4404281080
	0.5705261230 0.4433673024 0.4433673024
	0.5734590292 0.4462912083 0.4462912083
	0.5763446093 0.4491803050 0.4491803050
	0.5792183876 0.4520643055 0.4520643055
	0.5820407867 0.4549018145 0.4549018145
	0.5848355889 0.4577394128 0.4577394128
	0.5875927210 0.4605427086 0.4605427086
	0.5903086066 0.4633406997 0.4633406997
	0.5930045843 0.4661261141 0.4661261141
	0.5956503153 0.4689033926 0.4689033926
	0.5982949138 0.4716737866 0.4716737866
	0.6009235978 0.4744301140 0.4744301140
	0.6035524011 0.4771854877 0.4771854877
	0.6061716080 0.4799031019 0.4799031019
	0.6087887883 0.4826206863 0.4826206863
	0.6113740206 0.4853239954 0.4853239954
	0.6139330864 0.4880208969 0.4880208969
	0.6164814830 0.4907048047 0.4907048047
	0.6189994812 0.4933629036 0.4933629036
	0.6215174794 0.4960210919 0.4960210919
	0.6240079999 0.4986290932 0.4986290932
	0.6264969110 0.5012347102 0.5012347102
	0.6289771795 0.5038244128 0.5038244128
	0.6314516068 0.5064008236 0.5064008236
	0.6339148283 0.5089727044 0.5089727044
	0.6363407969 0.5115088224 0.5115088224
	0.6387668252 0.5140448213 0.5140448213
	0.6411426067 0.5165610909 0.5165610909
	0.6435087919 0.5190668106 0.5190668106
	0.6458575130 0.5215663910 0.5215663910
	0.6481820941 0.5240356922 0.5240356922
	0.6505066752 0.5265049934 0.5265049934
	0.6528093815 0.5289555192 0.5289555192
	0.6551114917 0.5313962102 0.5313962102
	0.6573888063 0.5338327885 0.5338327885
	0.6596413255 0.5362383723 0.5362383723
	0.6618937254 0.5386438966 0.5386438966
	0.6641113162 0.5410385132 0.5410385132
	0.6663289070 0.5434240103 0.5434240103
	0.6685289741 0.5458095074 0.5458095074
	0.6707097888 0.5481578112 0.5481578112
	0.6728904843 0.5505042076 0.5505042076
	0.6750382781 0.5528417826 0.5528417826
	0.6771832705 0.5551611185 0.5551611185
	0.6793134809 0.5574803948 0.5574803948
	0.6814150810 0.5597792864 0.5597792864
	0.6835166812 0.5620682836 0.5620682836
	0.6855754852 0.5643572211 0.5643572211
	0.6876184940 0.5665962100 0.5665962100
	0.6896557808 0.5688347220 0.5688347220
	0.6916378736 0.5710633993 0.5710633993
	0.6936199069 0.5732669830 0.5732669830
	0.6955876946 0.5754706860 0.5754706860
	0.6975364089 0.5776560903 0.5776560903
	0.6994851232 0.5798259974 0.5798259974
	0.7013980150 0.5819959044 0.5819959044
	0.7032977939 0.5841305852 0.5841305852
	0.7051973939 0.5862547755 0.5862547755
	0.7070760727 0.5883789062 0.5883789062
	0.7089548111 0.5904625058 0.5904625058
	0.7108243704 0.5925447941 0.5925447941
	0.7126672864 0.5946221948 0.5946221948
	0.7145102024 0.5966691971 0.5966691971
	0.7163286209 0.5987161994 0.5987161994
	0.7181193829 0.6007555127 0.6007555127
	0.7199102044 0.6027747989 0.6027747989
	0.7216753960 0.6047940254 0.6047940254
	0.7234271765 0.6068055034 0.6068055034
	0.7251790166 0.6088048220 0.6088048220
	0.7269017100 0.6108040214 0.6108040214
	0.7286177278 0.6127884984 0.6127884984
	0.7303336263 0.6147556901 0.6147556901
	0.7319886088 0.6167228818 0.6167228818
	0.7336395979 0.6186692119 0.6186692119
	0.7352887988 0.6205952168 0.6205952168
	0.7368847132 0.6225212216 0.6225212216
	0.7384806275 0.6244304776 0.6244304776
	0.7400730848 0.6263242960 0.6263242960
	0.7416328788 0.6282181740 0.6282181740
	0.7431927919 0.6301015019 0.6301015019
	0.7447494268 0.6319742799 0.6319742799
	0.7462829947 0.6338471174 0.6338471174
	0.7478165030 0.6356995106 0.6356995106
	0.7493439913 0.6375269890 0.6375269890
	0.7508273125 0.6393544078 0.6393544078
	0.7523106933 0.6411694288 0.6411694288
	0.7537910938 0.6429628134 0.6429628134
	0.7552406788 0.6447560787 0.6447560787
	0.7566903234 0.6465445161 0.6465445161
	0.7581396103 0.6483175755 0.6483175755
	0.7595729828 0.6500906944 0.6500906944
	0.7610062957 0.6518586874 0.6518586874
	0.7624397278 0.6535770297 0.6535770297
	0.7638341784 0.6552951932 0.6552951932
	0.7652254105 0.6570134759 0.6570134759
	0.7666165233 0.6587092280 0.6587092280
	0.7679901719 0.6604024768 0.6604024768
	0.7693589926 0.6620957851 0.6620957851
	0.7707278728 0.6637632847 0.6637632847
	0.7720705867 0.6654189229 0.6654189229
	0.7733970284 0.6670743823 0.6670743823
	0.7747234702 0.6687203050 0.6687203050
	0.7760393023 0.6703534126 0.6703534126
	0.7773399949 0.6719865203 0.6719865203
	0.7786408067 0.6736162901 0.6736162901
	0.7799372077 0.6752253771 0.6752253771
	0.7812135220 0.6768345833 0.6768345833
	0.7824897170 0.6784437895 0.6784437895
	0.7837659717 0.6800181270 0.6800181270
	0.7850177884 0.6815842986 0.6815842986
	0.7862669826 0.6831504703 0.6831504703
	0.7875161767 0.6846908927 0.6846908927
	0.7887520194 0.6861993074 0.6861993074
	0.7899786830 0.6877077222 0.6877077222
	0.7912054062 0.6892145872 0.6892145872
	0.7924262285 0.6906890869 0.6906890869
	0.7936294079 0.6921635866 0.6921635866
	0.7948325872 0.6936382055 0.6936382055
	0.7960357070 0.6950960159 0.6950960159
	0.7972220778 0.6965432167 0.6965432167
	0.7984061241 0.6979902983 0.6979902983
	0.7995899916 0.6994342804 0.6994342804
	0.8007580042 0.7008578181 0.7008578181
	0.8019068241 0.7022812963 0.7022812963
	0.8030557036 0.7037047744 0.7037047744
	0.8042045236 0.7051180005 0.7051180005
	0.8053393960 0.7065249085 0.7065249085
	0.8064743876 0.7079318166 0.7079318166
	0.8076093793 0.7093364000 0.7093364000
	0.8087307215 0.7107117772 0.7107117772
	0.8098388910 0.7120870948 0.7120870948
	0.8109471798 0.7134624124 0.7134624124
	0.8120555282 0.7148199081 0.7148199081
	0.8131191134 0.7161585093 0.7161585093
	0.8141819239 0.7174972296 0.7174972296
	0.8152446747 0.7188357711 0.7188357711
	0.8162903190 0.7201492190 0.7201492190
	0.8173117042 0.7214584947 0.7214584947
	0.8183330894 0.7227677703 0.7227677703
	0.8193544149 0.7240737081 0.7240737081
	0.8203511238 0.7253654003 0.7253654003
	0.8213419914 0.7266569734 0.7266569734
	0.8223329186 0.7279486060 0.7279486060
	0.8233172894 0.7292181849 0.7292181849
	0.8242688179 0.7304645777 0.7304645777
	0.8252202272 0.7317109704 0.7317109704
	0.8261716962 0.7329574227 0.7329574227
	0.8271054029 0.7341820002 0.7341820002
	0.8280197978 0.7353988290 0.7353988290
	0.8289341927 0.7366157174 0.7366157174
	0.8298485875 0.7378326058 0.7378326058
	0.8307464719 0.7390285134 0.7390285134
	0.8316389918 0.7402232885 0.7402232885
	0.8325315118 0.7414181828 0.7414181828
	0.8334239721 0.7426074743 0.7426074743
	0.8342829943 0.7437586784 0.7437586784
	0.8351417184 0.7449098229 0.7449098229
	0.8360003829 0.7460609078 0.7460609078
	0.8368576169 0.7472000122 0.7472000122
	0.8377087116 0.7483038902 0.7483038902
	0.8385598063 0.7494078875 0.7494078875
	0.8394109011 0.7505118251 0.7505118251
	0.8402518034 0.7516049743 0.7516049743
	0.8410723209 0.7526779175 0.7526779175
	0.8418927789 0.7537506819 0.7537506819
	0.8427134156 0.7548235059 0.7548235059
	0.8435238004 0.7558841705 0.7558841705
	0.8443217278 0.7569258809 0.7569258809
	0.8451194763 0.7579675913 0.7579675913
	0.8459174037 0.7590093017 0.7590093017
	0.8467006087 0.7600433230 0.7600433230
	0.8474699259 0.7610656023 0.7610656023
	0.8482393026 0.7620878220 0.7620878220
	0.8490086198 0.7631099820 0.7631099820
	0.8497787714 0.7641208768 0.7641208768
	0.8505498171 0.7651112080 0.7651112080
	0.8513206840 0.7661014795 0.7661014795
	0.8520916104 0.7670918107 0.7670918107
	0.8528512120 0.7680724263 0.7680724263
	0.8536006212 0.7690268159 0.7690268159
	0.8543499708 0.7699812055 0.7699812055
	0.8550993800 0.7709355950 0.7709355950
	0.8558359146 0.7718878984 0.7718878984
	0.8565574884 0.7728270292 0.7728270292
	0.8572790027 0.7737662196 0.7737662196
	0.8580005765 0.7747054100 0.7747054100
	0.8587099910 0.7756444812 0.7756444812
	0.8593978286 0.7765566707 0.7765566707
	0.8600856066 0.7774680257 0.7774680257
	0.8607733846 0.7783793211 0.7783793211
	0.8614575863 0.7792906165 0.7792906165
	0.8621283770 0.7801936865 0.7801936865
	0.8627992272 0.7810940146 0.7810940146
	0.8634700179 0.7819942832 0.7819942832
	0.8641406894 0.7828946114 0.7828946114
	0.8648099899 0.7837845087 0.7837845087
	0.8654794097 0.7846636772 0.7846636772
	0.8661487103 0.7855427861 0.7855427861
	0.8668180108 0.7864218950 0.7864218950
	0.8674687743 0.7872971892 0.7872971892
	0.8681142926 0.7881550193 0.7881550193
	0.8687598109 0.7890126705 0.7890126705
	0.8694053292 0.7898705006 0.7898705006
	0.8700295091 0.7907282114 0.7907282114
	0.8706318736 0.7915742993 0.7915742993
	0.8712342978 0.7924178839 0.7924178839
	0.8718366027 0.7932615280 0.7932615280
	0.8724340200 0.7941049933 0.7941049933
	0.8730055094 0.7949374914 0.7949374914
	0.8735769987 0.7957543135 0.7957543135
	0.8741484880 0.7965711951 0.7965711951
	0.8747199774 0.7973880172 0.7973880172
	0.8752837777 0.7982048988 0.7982048988
	0.8758454919 0.7989869118 0.7989869118
	0.8764070868 0.7997676134 0.7997676134
	0.8769688010 0.8005483150 0.8005483150
	0.8775206208 0.8013290167 0.8013290167
	0.8780546188 0.8021016717 0.8021016717
	0.8785886765 0.8028652072 0.8028652072
	0.8791226745 0.8036286831 0.8036286831
	0.8796567917 0.8043922186 0.8043922186
	0.8801620007 0.8051556945 0.8051556945
	0.8806633949 0.8058984876 0.8058984876
	0.8811649084 0.8066393733 0.8066393733
	0.8816663027 0.8073803186 0.8073803186
	0.8821567297 0.8081210852 0.8081210852
	0.8826276064 0.8088607192 0.8088607192
	0.8830984831 0.8095976114 0.8095976114
	0.8835694194 0.8103343844 0.8103343844
	0.8840402961 0.8110712171 0.8110712171
	0.8845028877 0.8118081093 0.8118081093
	0.8849632740 0.8125373125 0.8125373125
	0.8854237199 0.8132628202 0.8132628202
	0.8858841062 0.8139883280 0.8139883280
	0.8863461018 0.8147137761 0.8147137761
	0.8868156075 0.8154392838 0.8154392838
	0.8872851133 0.8161317110 0.8161317110
	0.8877546191 0.8168231845 0.8168231845
	0.8882240057 0.8175147176 0.8175147176
	0.8886895180 0.8182061911 0.8182061911
	0.8891507983 0.8188943863 0.8188943863
	0.8896121979 0.8195710182 0.8195710182
	0.8900735974 0.8202475905 0.8202475905
	0.8905348778 0.8209241033 0.8209241033
	0.8909785748 0.8216006756 0.8216006756
	0.8914170861 0.8222699761 0.8222699761
	0.8918557167 0.8229292035 0.8229292035
	0.8922942281 0.8235884905 0.8235884905
	0.8927327991 0.8242477179 0.8242477179
	0.8931676149 0.8249068856 0.8249068856
	0.8936023712 0.8255603909 0.8255603909
	0.8940371871 0.8262094259 0.8262094259
	0.8944720030 0.8268585205 0.8268585205
	0.8949096203 0.8275076151 0.8275076151
	0.8953595161 0.8281567097 0.8281567097
	0.8958094716 0.8287855983 0.8287855983
	0.8962594271 0.8294041753 0.8294041753
	0.8967093825 0.8300228119 0.8300228119
	0.8971595168 0.8306415081 0.8306415081
	0.8976098895 0.8312600851 0.8312600851
	0.8980603218 0.8318728209 0.8318728209
	0.8985106945 0.8324831128 0.8324831128
	0.8989611268 0.8330934048 0.8330934048
	0.8994054198 0.8337035775 0.8337035775
	0.8998395801 0.8343139291 0.8343139291
	0.9002736807 0.8349158764 0.8349158764
	0.9007077813 0.8355141878 0.8355141878
	0.9011420012 0.8361124992 0.8361124992
	0.9015651941 0.8367106915 0.8367106915
	0.9019711018 0.8373090029 0.8373090029
	0.9023771286 0.8378884792 0.8378884792
	0.9027829766 0.8384566903 0.8384566903
	0.9031888843 0.8390247822 0.8390247822
	0.9035964012 0.8395929933 0.8395929933
	0.9040068984 0.8401612043 0.8401612043
	0.9044172764 0.8407253027 0.8407253027
	0.9048277140 0.8412854075 0.8412854075
	0.9052380919 0.8418455124 0.8418455124
	0.9056466222 0.8424056768 0.8424056768
	0.9060494900 0.8429657817 0.8429657817
	0.9064524770 0.8435230255 0.8435230255
	0.9068554044 0.8440740705 0.8440740705
	0.9072582722 0.8446251750 0.8446251750
	0.9076607823 0.8451762795 0.8451762795
	0.9080597162 0.8457275033 0.8457275033
	0.9084585905 0.8462774158 0.8462774158
	0.9088575244 0.8468161225 0.8468161225
	0.9092563987 0.8473547101 0.8473547101
	0.9096552730 0.8478932977 0.8478932977
	0.9100391865 0.8484320045 0.8484320045
	0.9104216099 0.8489705920 0.8489705920
	0.9108039141 0.8494958878 0.8494958878
	0.9111862779 0.8500180244 0.8500180244
	0.9115687013 0.8505399823 0.8505399823
	0.9119420052 0.8510619998 0.8510619998
	0.9123104215 0.8515840173 0.8515840173
	0.9126788974 0.8521022201 0.8521022201
	0.9130473137 0.8526157737 0.8526157737
	0.9134156704 0.8531293273 0.8531293273
	0.9137811065 0.8536428809 0.8536428809
	0.9141399860 0.8541564941 0.8541564941
	0.9144989848 0.8546689749 0.8546689749
	0.9148579240 0.8551610112 0.8551610112
	0.9152169228 0.8556529880 0.8556529880
	0.9155759215 0.8561450243 0.8561450243
	0.9159141779 0.8566370010 0.8566370010
	0.9162515998 0.8571289182 0.8571289182
	0.9165889025 0.8576136231 0.8576136231
	0.9169263244 0.8580930233 0.8580930233
	0.9172636867 0.8585724235 0.8585724235
	0.9175904989 0.8590518832 0.8590518832
	0.9179077148 0.8595312834 0.8595312834
	0.9182248116 0.8600099087 0.8600099087
	0.9185420275 0.8604763150 0.8604763150
	0.9188591242 0.8609427810 0.8609427810
	0.9191758037 0.8614091873 0.8614091873
	0.9194787145 0.8618755937 0.8618755937
	0.9197816253 0.8623420000 0.8623420000
	0.9200844169 0.8628141284 0.8628141284
	0.9203873277 0.8632925153 0.8632925153
	0.9206901789 0.8637707829 0.8637707829
	0.9209961295 0.8642491102 0.8642491102
	0.9213051796 0.8647273779 0.8647273779
	0.9216142893 0.8652058244 0.8652058244
	0.9219235182 0.8656808734 0.8656808734
	0.9222326279 0.8661553860 0.8661553860
	0.9225417972 0.8666298985 0.8666298985
	0.9228463769 0.8671044111 0.8671044111
	0.9231504202 0.8675789237 0.8675789237
	0.9234544039 0.8680508733 0.8680508733
	0.9237583876 0.8685060740 0.8685060740
	0.9240623713 0.8689612746 0.8689612746
	0.9243630767 0.8694164753 0.8694164753
	0.9246509075 0.8698716164 0.8698716164
	0.9249386787 0.8703268170 0.8703268170
	0.9252265096 0.8707792163 0.8707792163
	0.9255142212 0.8712267280 0.8712267280
	0.9258019924 0.8716741204 0.8716741204
	0.9260783792 0.8721215725 0.8721215725
	0.9263415933 0.8725690246 0.8725690246
	0.9266049266 0.8730164766 0.8730164766
	0.9268680811 0.8734666109 0.8734666109
	0.9271314144 0.8739191890 0.8739191890
	0.9273946285 0.8743718266 0.8743718266
	0.9276558757 0.8748244047 0.8748244047
	0.9279161096 0.8752769232 0.8752769232
	0.9281764030 0.8757295012 0.8757295012
	0.9284366965 0.8761757016 0.8761757016
	0.9286969900 0.8766183257 0.8766183257
	0.9289572835 0.8770608902 0.8770608902
	0.9292187095 0.8775033951 0.8775033951
	0.9294803143 0.8779460192 0.8779460192
	0.9297419190 0.8783885837 0.8783885837
	0.9300035238 0.8788154125 0.8788154125
	0.9302651286 0.8792347908 0.8792347908
	0.9305267930 0.8796542287 0.8796542287
	0.9307944179 0.8800736070 0.8800736070
	0.9310628176 0.8804931045 0.8804931045
	0.9313312173 0.8809124827 0.8809124827
	0.9315996170 0.8813328147 0.8813328147
	0.9318680167 0.8817536831 0.8817536831
	0.9321364164 0.8821746111 0.8821746111
	0.9324026108 0.8825954199 0.8825954199
	0.9326686263 0.8830162883 0.8830162883
	0.9329345822 0.8834370971 0.8834370971
	0.9332005978 0.8838580251 0.8838580251
	0.9334664941 0.8842790127 0.8842790127
	0.9337325096 0.8846998811 0.8846998811
	0.9339888096 0.8851209283 0.8851209283
	0.9342433810 0.8855419159 0.8855419159
	0.9344980121 0.8859627843 0.8859627843
	0.9347525835 0.8863782883 0.8863782883
	0.9350072145 0.8867862821 0.8867862821
	0.9352617860 0.8871942759 0.8871942759
	0.9355120063 0.8876023293 0.8876023293
	0.9357606769 0.8880103230 0.8880103230
	0.9360094070 0.8884181976 0.8884181976
	0.9362581968 0.8888232708 0.8888232708
	0.9365069270 0.8892168999 0.8892168999
	0.9367555976 0.8896105289 0.8896105289
	0.9369971156 0.8900040984 0.8900040984
	0.9372326732 0.8903976083 0.8903976083
	0.9374684095 0.8907911777 0.8907911777
	0.9377040267 0.8911848068 0.8911848068
	0.9379395843 0.8915761113 0.8915761113
	0.9381753206 0.8919671178 0.8919671178
	0.9384089708 0.8923581839 0.8923581839
	0.9386385083 0.8927491903 0.8927491903
	0.9388679266 0.8931403160 0.8931403160
	0.9390972853 0.8935313225 0.8935313225
	0.9393268228 0.8939135075 0.8939135075
	0.9395561814 0.8942884803 0.8942884803
	0.9397855997 0.8946635723 0.8946635723
	0.9400131106 0.8950387239 0.8950387239
	0.9402405024 0.8954138160 0.8954138160
	0.9404678941 0.8957887888 0.8957887888
