release/datafiles/colormanagement/luts/film_response/kodak_ektachrome_100.spi1d
Version 1
From 0.0 1.0
Length 1024
Components 3
{
	0.0000000000 0.0000000000 0.0000000000
	0.0004029108 0.0002821621 0.0001828344
	0.0008352380 0.0005855577 0.0003765924
	0.0012884660 0.0009102127 0.0005832637
	0.0017661640 0.0012608080 0.0008021335
	0.0022727679 0.0016344450 0.0010323920
	0.0028016400 0.0020279640 0.0012744220
	0.0033602209 0.0024469071 0.0015256481
	0.0039473702 0.0028940800 0.0017888939
	0.0045624170 0.0033709989 0.0020655000
	0.0052064499 0.0038755860 0.0023565269
	0.0058913450 0.0044098911 0.0026614380
	0.0066106170 0.0049738358 0.0029808299
	0.0073703690 0.0055717099 0.0033126650
	0.0081646843 0.0062076761 0.0036578199
	0.0090046516 0.0068754591 0.0040169759
	0.0098797111 0.0075756288 0.0043923021
	0.0108015500 0.0083136391 0.0047826152
	0.0117765898 0.0090896897 0.0051890090
	0.0128089404 0.0099051362 0.0056110788
	0.0138962502 0.0107623404 0.0060491539
	0.0150366900 0.0116626900 0.0065042591
	0.0162367094 0.0126068601 0.0069758608
	0.0174948201 0.0135949403 0.0074637011
	0.0188118201 0.0146293398 0.0079666628
	0.0201881006 0.0157077797 0.0084832394
	0.0216275994 0.0168280900 0.0090179667
	0.0231346209 0.0179986991 0.0095704449
	0.0247129407 0.0192209203 0.0101442495
	0.0263695195 0.0204982292 0.0107389204
	0.0280960202 0.0218272507 0.0113510201
	0.0298976302 0.0232012607 0.0119804395
	0.0317782089 0.0246255603 0.0126269804
	0.0337512381 0.0260962192 0.0132909399
	0.0358026214 0.0276108794 0.0139709497
	0.0379312597 0.0291825198 0.0146665303
	0.0401499309 0.0308093708 0.0153818596
	0.0424532183 0.0324951895 0.0161184706
	0.0448440388 0.0342448987 0.0168759096
	0.0473214611 0.0360610783 0.0176607408
	0.0498819388 0.0379341505 0.0184673797
	0.0525423586 0.0398601405 0.0192978401
	0.0553006493 0.0418499894 0.0201489609
	0.0581430085 0.0438929684 0.0210218206
	0.0610603690 0.0459916182 0.0219117906
	0.0640591532 0.0481535792 0.0228250604
	0.0671426877 0.0503738187 0.0237576701
	0.0703096837 0.0526381992 0.0247094091
	0.0735653490 0.0549571402 0.0256804898
	0.0769181773 0.0573286191 0.0266711209
	0.0803592205 0.0597677194 0.0276827496
	0.0838969871 0.0622712001 0.0287114196
	0.0875223130 0.0648275465 0.0297578406
	0.0912306681 0.0674386173 0.0308247507
	0.0950332806 0.0701159835 0.0319116488
	0.0989207476 0.0728433207 0.0330191404
	0.1029006988 0.0756310001 0.0341475010
	0.1069691032 0.0784748793 0.0352968313
	0.1111252010 0.0813758895 0.0364708304
	0.1153606027 0.0843334123 0.0376655087
	0.1196606010 0.0873407498 0.0388817117
	0.1240456998 0.0903989002 0.0401183404
	0.1285089999 0.0934979469 0.0413741618
	0.1330395043 0.0966412276 0.0426500700
	0.1376578957 0.0998382494 0.0439491197
	0.1423473954 0.1030810028 0.0452704318
	0.1471080929 0.1063693017 0.0466123708
	0.1519421935 0.1097078994 0.0479735583
	0.1568460017 0.1131009012 0.0493564717
	0.1618086994 0.1165459007 0.0507622100
	0.1668350995 0.1200487018 0.0521893688
	0.1719325930 0.1235952005 0.0536371209
	0.1770922989 0.1271920949 0.0551049188
	0.1823212057 0.1308318973 0.0565952100
	0.1875973940 0.1345200986 0.0581106283
	0.1929260045 0.1382502019 0.0596516207
	0.1983052045 0.1420248002 0.0612149313
	0.2037338018 0.1458451003 0.0627992302
	0.2092058957 0.1496911049 0.0644068494
	0.2147053927 0.1535611004 0.0660389215
	0.2202475965 0.1574510038 0.0676914304
	0.2258259058 0.1613723040 0.0693570822
	0.2314376980 0.1653227061 0.0710399523
	0.2370904982 0.1692909002 0.0727412999
	0.2427740991 0.1732849032 0.0744594336
	0.2484734952 0.1773027033 0.0761927664
	0.2541978061 0.1813420951 0.0779421404
	0.2599338889 0.1854172051 0.0797097385
	0.2656922042 0.1895329952 0.0814976320
	0.2714639008 0.1936807036 0.0833064169
	0.2772484124 0.1978671998 0.0851336494
	0.2830584943 0.2020945996 0.0869752765
	0.2888925076 0.2063394040 0.0888287425
	0.2947472036 0.2105993927 0.0906959027
	0.3006064892 0.2148775011 0.0925794691
	0.3064776063 0.2191728055 0.0944826677
	0.3123730123 0.2234859020 0.0964089409
	0.3182818890 0.2278206050 0.0983487070
	0.3241820931 0.2321731001 0.1003040969
	0.3300934136 0.2365338057 0.1022775024
	0.3360261023 0.2409182042 0.1042753011
	0.3419634998 0.2453251928 0.1062982008
	0.3478932977 0.2497422993 0.1083303019
	0.3538097143 0.2541579902 0.1103701964
	0.3597145975 0.2585824132 0.1124206036
	0.3656162918 0.2630195916 0.1144891009
	0.3715220988 0.2674663961 0.1165636033
	0.3774074912 0.2719157040 0.1186439022
	0.3832853138 0.2763611078 0.1207353026
	0.3891583085 0.2808066010 0.1228388026
	0.3950240016 0.2852618098 0.1249521971
	0.4008567035 0.2897278070 0.1270755976
	0.4066801071 0.2942065001 0.1292198002
	0.4124872983 0.2987079918 0.1313749999
	0.4182811975 0.3031933904 0.1335413009
	0.4240790904 0.3076609075 0.1357281953
	0.4298571944 0.3121108115 0.1379179060
	0.4356110096 0.3165585101 0.1401115060
	0.4413394928 0.3209869862 0.1423158050
	0.4470395148 0.3254047930 0.1445332021
	0.4527026117 0.3298167884 0.1467590034
	0.4583334923 0.3342174888 0.1489966065
	0.4639326930 0.3386009932 0.1512416005
	0.4695220888 0.3429653049 0.1534925997
	0.4750846922 0.3473365903 0.1557577997
	0.4806160927 0.3517040908 0.1580404937
	0.4860872924 0.3560670912 0.1603357941
	0.4915176928 0.3604130149 0.1626514047
	0.4969187081 0.3647586107 0.1649708003
	0.5022816062 0.3691031039 0.1672956944
	0.5076225996 0.3734341860 0.1696293950
	0.5129231811 0.3777643144 0.1719669998
	0.5181546807 0.3820936084 0.1743122041
	0.5233271718 0.3864077926 0.1766573936
	0.5284634233 0.3907110095 0.1790025979
	0.5335465074 0.3950001001 0.1813486069
	0.5385751724 0.3992711008 0.1836972982
	0.5435780883 0.4035327137 0.1860560030
	0.5485448241 0.4077767134 0.1884246022
	0.5534678102 0.4120056033 0.1908023953
	0.5583646297 0.4162251055 0.1931803972
	0.5632166862 0.4203993082 0.1955589950
	0.5680477023 0.4245612025 0.1979466975
	0.5728545189 0.4287038147 0.2003419995
	0.5775995255 0.4328233004 0.2027534992
	0.5823162794 0.4369328022 0.2051690072
	0.5869674087 0.4410141110 0.2075875998
	0.5915768743 0.4450846910 0.2100103050
	0.5961518884 0.4491345882 0.2124343067
	0.6006463170 0.4531683922 0.2148666978
	0.6051229239 0.4571923018 0.2172998041
	0.6095721126 0.4611825943 0.2197346985
	0.6139861941 0.4651634991 0.2221716940
	0.6183604002 0.4691112041 0.2246143073
	0.6226823926 0.4730412066 0.2270615995
	0.6269859076 0.4769391119 0.2295158058
	0.6312270761 0.4808132946 0.2319785058
	0.6354541779 0.4846689999 0.2344491929
	0.6396340728 0.4885058105 0.2369215935
	0.6438084245 0.4923363924 0.2393949032
	0.6479752064 0.4961437881 0.2418684959
	0.6520851254 0.4999468923 0.2443421036
	0.6561610103 0.5037171841 0.2468205988
	0.6601614952 0.5074794292 0.2493008971
	0.6641432047 0.5112071037 0.2517744899
	0.6680347919 0.5149219036 0.2542459071
	0.6719154716 0.5186061263 0.2567091882
	0.6757277846 0.5222734809 0.2591697872
	0.6795322895 0.5259137750 0.2616206110
	0.6833059192 0.5295230746 0.2640681863
	0.6870679259 0.5330942273 0.2665097117
	0.6908019781 0.5366339087 0.2689489126
	0.6945022941 0.5401414037 0.2713932097
	0.6981444955 0.5436180830 0.2738403976
	0.7017527223 0.5470659733 0.2762868106
	0.7053136826 0.5504943728 0.2787325978
	0.7088435292 0.5539047718 0.2811723053
	0.7123348117 0.5572900772 0.2836047113
	0.7157995105 0.5606504083 0.2860364020
	0.7192326784 0.5639901757 0.2884666920
	0.7226405144 0.5673059225 0.2908954918
	0.7260167003 0.5705996752 0.2933177948
	0.7293487191 0.5738595724 0.2957400084
	0.7326173782 0.5771085024 0.2981606126
	0.7358595133 0.5803325772 0.3005810976
	0.7390533090 0.5835512877 0.3029994965
	0.7422223091 0.5867486000 0.3054173887
	0.7453266978 0.5899420977 0.3078261018
	0.7484182715 0.5930835009 0.3102284968
	0.7514507174 0.5962249041 0.3126305044
	0.7544791102 0.5993114114 0.3150317967
	0.7574347258 0.6023926139 0.3174335063
	0.7603902817 0.6054285169 0.3198406994
	0.7632429004 0.6084480286 0.3222478032
	0.7660846710 0.6114342213 0.3246580958
	0.7688931227 0.6143910885 0.3270691931
	0.7716894150 0.6173362732 0.3294793069
	0.7744498253 0.6202554703 0.3318881989
	0.7771797776 0.6231728196 0.3342961073
	0.7798776031 0.6260603070 0.3366977870
	0.7825078964 0.6289477944 0.3390995860
	0.7851305008 0.6318117976 0.3414917886
	0.7876675725 0.6346691847 0.3438811004
	0.7902047038 0.6375092864 0.3462617099
	0.7926716805 0.6403307915 0.3486273885
	0.7951231003 0.6431398988 0.3509930074
	0.7975525260 0.6458842754 0.3533450067
	0.7999621034 0.6486287117 0.3556961119
	0.8023657799 0.6513149738 0.3580406904
	0.8047469854 0.6539878845 0.3603785932
	0.8071283102 0.6566321254 0.3627164066
	0.8094397187 0.6592395902 0.3650526106
	0.8117408156 0.6618456841 0.3673886955
	0.8139895797 0.6644176841 0.3697170913
	0.8161870241 0.6669896841 0.3720383942
	0.8183761239 0.6695259213 0.3743596971
	0.8205000162 0.6720392704 0.3766688108
	0.8226239085 0.6745491028 0.3789778948
	0.8247258067 0.6770399213 0.3812792897
	0.8268182278 0.6795307994 0.3835709095
	0.8289020061 0.6819990277 0.3858624995
	0.8309609294 0.6844567060 0.3881478012
	0.8330196738 0.6869028211 0.3904320002
	0.8350235224 0.6892951131 0.3927091956
	0.8370118737 0.6916874051 0.3949654102
	0.8389791846 0.6940457821 0.3972215950
	0.8408939242 0.6963855028 0.3994632065
	0.8428086042 0.6987230182 0.4016954005
	0.8446682096 0.7010375261 0.4039277136
	0.8465105295 0.7033519149 0.4061439037
	0.8483420014 0.7056419253 0.4083589911
	0.8501332998 0.7079067230 0.4105660021
	0.8519244790 0.7101715803 0.4127483070
	0.8536859751 0.7123854160 0.4149304926
	0.8554301858 0.7145920992 0.4171046913
	0.8571730852 0.7167863250 0.4192717075
	0.8588685989 0.7189391255 0.4214386046
	0.8605639935 0.7210919857 0.4236004949
	0.8622372150 0.7232128978 0.4257610142
	0.8638756275 0.7253087163 0.4279214144
	0.8655139804 0.7274044156 0.4300718904
	0.8671008945 0.7294499874 0.4322223067
	0.8686684966 0.7314872742 0.4343703091
	0.8702337742 0.7335180044 0.4365068972
	0.8717327714 0.7355036736 0.4386434853
	0.8732318878 0.7374892831 0.4407753050
	0.8747140765 0.7394585013 0.4428966939
	0.8761591911 0.7413989902 0.4450182021
	0.8776043057 0.7433394194 0.4471280873
	0.8790065050 0.7452735901 0.4492236078
	0.8803750873 0.7472031116 0.4513190985
	0.8817436099 0.7491325736 0.4533992112
	0.8830839992 0.7510256767 0.4554660916
	0.8844164014 0.7529067993 0.4575330019
	0.8857486844 0.7547879815 0.4595870972
	0.8870559931 0.7566236854 0.4616327882
	0.8883624077 0.7584543824 0.4636783898
	0.8896635771 0.7602844834 0.4657067060
	0.8909289837 0.7620761991 0.4677248001
	0.8921945095 0.7638679147 0.4697428942
	0.8934394121 0.7656568289 0.4717616141
	0.8946236968 0.7674204707 0.4737805128
	0.8958079815 0.7691841722 0.4757995009
	0.8969696164 0.7709385753 0.4778141081
	0.8980888724 0.7726433873 0.4798257947
	0.8992081881 0.7743480802 0.4818373919
	0.9003195167 0.7760472894 0.4838384986
	0.9014195800 0.7777205706 0.4858298898
	0.9025197029 0.7793939114 0.4878214002
	0.9035978913 0.7810617089 0.4898056984
	0.9046490788 0.7827023864 0.4917800128
	0.9057002068 0.7843430042 0.4937543869
	0.9067236185 0.7859767079 0.4957253933
	0.9077128172 0.7875623107 0.4976881146
	0.9087020159 0.7891479731 0.4996508062
	0.9096745849 0.7907313108 0.5016111732
	0.9106239080 0.7922711968 0.5035545826
	0.9115731716 0.7938110232 0.5054979920
	0.9124993086 0.7953509092 0.5074414015
	0.9133828282 0.7968598008 0.5093576908
	0.9142662287 0.7983667254 0.5112711787
	0.9151422977 0.7998737097 0.5131847262
	0.9159966707 0.8013570905 0.5150825977
	0.9168511033 0.8028343916 0.5169728994
	0.9176996946 0.8043118119 0.5188632011
	0.9185072780 0.8057656884 0.5207424760
	0.9193148017 0.8072052002 0.5226051807
	0.9201223254 0.8086445928 0.5244678855
	0.9209262133 0.8100745082 0.5263286233
	0.9217298031 0.8114904165 0.5281689167
	0.9225333929 0.8129063249 0.5300090909
	0.9233224988 0.8143162727 0.5318493843
	0.9241070151 0.8156955242 0.5336812139
	0.9248914719 0.8170747161 0.5355101228
	0.9256622195 0.8184539080 0.5373389721
	0.9264205098 0.8198124170 0.5391626954
	0.9271788001 0.8211680055 0.5409774184
	0.9279240966 0.8225237131 0.5427920222
	0.9286308885 0.8238555193 0.5446066260
	0.9293376803 0.8251689076 0.5463947058
	0.9300444722 0.8264822960 0.5481811166
	0.9307246208 0.8277850151 0.5499675870
	0.9314032793 0.8290479183 0.5517386198
	0.9320818782 0.8303108215 0.5534932017
	0.9327319860 0.8315737247 0.5552479029
	0.9333636761 0.8327975273 0.5570024848
	0.9339953065 0.8340129256 0.5587229133
	0.9346169233 0.8352283239 0.5604429841
	0.9352049828 0.8364298940 0.5621631742
	0.9357931018 0.8376104832 0.5638735890
	0.9363812208 0.8387910128 0.5655727983
	0.9369478822 0.8399716020 0.5672720075
	0.9375097752 0.8411086798 0.5689712167
	0.9380717874 0.8422427773 0.5706508160
	0.9386349916 0.8433768749 0.5723282099
	0.9392004013 0.8445004821 0.5740054846
	0.9397658110 0.8456103802 0.5756754279
	0.9403312206 0.8467202783 0.5773270726
	0.9408558011 0.8478301764 0.5789787173
	0.9413745999 0.8489074111 0.5806304216
	0.9418935180 0.8499805927 0.5822653174
	0.9423980713 0.8510538936 0.5838909149
	0.9428763986 0.8521230221 0.5855165124
	0.9433547258 0.8531830907 0.5871421099
	0.9438331127 0.8542432189 0.5887404084
	0.9443081021 0.8553032875 0.5903375149
	0.9447823763 0.8563414812 0.5919346213
	0.9452565908 0.8573703170 0.5935288072
	0.9457269907 0.8583989739 0.5951129794
	0.9461808801 0.8594260216 0.5966972113
	0.9466348290 0.8604149818 0.5982813835
	0.9470885992 0.8614040017 0.5998545289
	0.9475203156 0.8623930812 0.6014149189
	0.9479331970 0.8633654118 0.6029751897
	0.9483461976 0.8643069267 0.6045355797
	0.9487591982 0.8652483821 0.6060755253
	0.9491466284 0.8661898971 0.6076046824
	0.9495298862 0.8671160936 0.6091338992
	0.9499133229 0.8680329919 0.6106631756
	0.9502913952 0.8689497709 0.6121817827
	0.9506375790 0.8698666096 0.6136978269
	0.9509837031 0.8707538843 0.6152138710
	0.9513298869 0.8716354966 0.6167299747
	0.9516645074 0.8725172281 0.6182156801
	0.9519801736 0.8733978868 0.6196988225
	0.9522958994 0.8742434978 0.6211817861
	0.9526115060 0.8750889897 0.6226648092
	0.9529042244 0.8759344816 0.6241227984
	0.9531800151 0.8767787218 0.6255803704
	0.9534558058 0.8776161075 0.6270378828
	0.9537314773 0.8784536123 0.6284952760
	0.9539870024 0.8792909980 0.6299347878
	0.9542350173 0.8801239729 0.6313741803
	0.9544829726 0.8809452057 0.6328135729
	0.9547309875 0.8817663789 0.6342530847
	0.9549531937 0.8825874925 0.6356778741
	0.9551706910 0.8833963275 0.6371027231
	0.9553881884 0.8841794729 0.6385273933
	0.9556056857 0.8849627972 0.6399521232
	0.9558088183 0.8857461214 0.6413484812
	0.9560105801 0.8865262866 0.6427426934
	0.9562124014 0.8873007894 0.6441369057
	0.9564142227 0.8880752921 0.6455309987
	0.9566016793 0.8888496757 0.6469084024
	0.9567884803 0.8896216154 0.6482821703
	0.9569752812 0.8903880119 0.6496559978
	0.9571620822 0.8911542892 0.6510298252
	0.9573429823 0.8919206858 0.6523879170
	0.9575235844 0.8926829100 0.6537382007
	0.9577041864 0.8934323192 0.6550884843
	0.9578847289 0.8941817284 0.6564388871
	0.9580754042 0.8949311972 0.6577758193
	0.9582675099 0.8956754208 0.6590979099
	0.9584596157 0.8963845968 0.6604200006
	0.9586517215 0.8970937729 0.6617420912
	0.9588462114 0.8978030086 0.6630570889
	0.9590412974 0.8985121846 0.6643490791
	0.9592363834 0.8991947770 0.6656410098
	0.9594315290 0.8998764753 0.6669330001
	0.9596217275 0.9005582929 0.6682248712
	0.9598088861 0.9012399912 0.6695014238
	0.9599962234 0.9018872976 0.6707772017
	0.9601835012 0.9025238752 0.6720529199
	0.9603782296 0.9031605124 0.6733285785
	0.9605820775 0.9037970901 0.6746001244
	0.9607859850 0.9044255018 0.6758689880
	0.9609898925 0.9050459862 0.6771379709
	0.9611927271 0.9056665897 0.6784068942
	0.9613916874 0.9062871933 0.6796714067
	0.9615907073 0.9069045186 0.6809216142
	0.9617896080 0.9075098038 0.6821717024
	0.9619886279 0.9081152081 0.6834219098
	0.9621633887 0.9087206125 0.6846719980
	0.9623364210 0.9093260169 0.6859096885
	0.9625093937 0.9099286199 0.6871445179
	0.9626824260 0.9105308056 0.6883792281
	0.9628574252 0.9111331105 0.6896139979
	0.9630337954 0.9117352962 0.6908426285
	0.9632101059 0.9123305082 0.6920586824
	0.9633864760 0.9129180908 0.6932747960
	0.9635632038 0.9135056138 0.6944910288
	0.9637411237 0.9140931964 0.6957070827
	0.9639191031 0.9146800041 0.6969081163
	0.9640970230 0.9152501225 0.6981055140
	0.9642748833 0.9158201814 0.6993029118
	0.9644508958 0.9163902998 0.7005001903
	0.9646263719 0.9169602990 0.7016944289
	0.9648019075 0.9175173044 0.7028782964
	0.9649773836 0.9180638790 0.7040622234
	0.9651508927 0.9186105132 0.7052459717
	0.9653204083 0.9191570878 0.7064298987
	0.9654898047 0.9197033048 0.7075976133
	0.9656593204 0.9202299118 0.7087550759
	0.9658287168 0.9207565784 0.7099125981
	0.9659901857 0.9212831855 0.7110701203
	0.9661499262 0.9218099117 0.7122275233
	0.9663096070 0.9223287106 0.7133823037
	0.9664692283 0.9228376746 0.7145369053
	0.9666253924 0.9233465791 0.7156915069
	0.9667711854 0.9238554835 0.7168461084
	0.9669169188 0.9243643880 0.7179933786
	0.9670627117 0.9248356819 0.7191138864
	0.9672083855 0.9252979159 0.7202343941
	0.9673423171 0.9257600904 0.7213549018
	0.9674692750 0.9262223244 0.7224754095
	0.9675962925 0.9266850948 0.7235804796
	0.9677233100 0.9271525741 0.7246658802
	0.9678503275 0.9276201725 0.7257512808
	0.9679561853 0.9280877113 0.7268366814
	0.9680612087 0.9285551906 0.7279220819
	0.9681661725 0.9290199280 0.7289987803
	0.9682713151 0.9294800162 0.7300698757
	0.9683721066 0.9299402237 0.7311409712
	0.9684600830 0.9304003716 0.7322121263
	0.9685481191 0.9308605194 0.7332832217
	0.9686360955 0.9313055873 0.7343558073
	0.9687241912 0.9317405820 0.7354289889
	0.9687963128 0.9321755767 0.7365021110
	0.9688509703 0.9326105714 0.7375752926
	0.9689058065 0.9330456257 0.7386484146
	0.9689605236 0.9334610105 0.7396969199
	0.9690153003 0.9338703752 0.7407392263
	0.9690718055 0.9342797995 0.7417815924
	0.9691293836 0.9346892238 0.7428238988
	0.9691869020 0.9350985885 0.7438662052
	0.9692444205 0.9354946017 0.7448874712
	0.9693019986 0.9358887076 0.7459040284
	0.9693595767 0.9362828135 0.7469205260
	0.9694172740 0.9366768003 0.7479370236
	0.9694749713 0.9370709062 0.7489535213
	0.9695327282 0.9374542832 0.7499631047
	0.9695904255 0.9378368855 0.7509707212
	0.9696562290 0.9382194877 0.7519782782
	0.9697234035 0.9386020899 0.7529858947
	0.9697905779 0.9389846921 0.7539935112
	0.9698578119 0.9393534064 0.7549921870
	0.9699249864 0.9397209883 0.7559866905
	0.9700003266 0.9400886297 0.7569811940
	0.9700766802 0.9404562116 0.7579756975
	0.9701529741 0.9408237934 0.7589702010
	0.9702293873 0.9411832094 0.7599533200
	0.9703058004 0.9415413737 0.7609264255
	0.9703885913 0.9418995976 0.7618994713
	0.9704725742 0.9422578216 0.7628725767
	0.9705566168 0.9426159859 0.7638456225
	0.9706404805 0.9429603815 0.7648131251
	0.9707245231 0.9433007836 0.7657690048
	0.9708133936 0.9436411858 0.7667248249
	0.9709036946 0.9439815879 0.7676807046
	0.9709941149 0.9443218708 0.7686365843
	0.9710844755 0.9446520805 0.7695921063
	0.9711748958 0.9449757934 0.7705423832
	0.9712682962 0.9452995062 0.7714927793
	0.9713637233 0.9456232190 0.7724431753
	0.9714590907 0.9459468722 0.7733935118
	0.9715543985 0.9462659955 0.7743439078
	0.9716498256 0.9465780258 0.7752857804
	0.9717406034 0.9468899965 0.7762247920
	0.9718248844 0.9472020268 0.7771639228
	0.9719092846 0.9475139976 0.7781028748
	0.9719936848 0.9478241205 0.7790420055
	0.9720780849 0.9481198788 0.7799775004
	0.9721639752 0.9484158158 0.7809069157
	0.9722574949 0.9487115741 0.7818363905
	0.9723510146 0.9490075111 0.7827658057
	0.9724445939 0.9493033886 0.7836952806
	0.9725381136 0.9495918155 0.7846246958
	0.9726316929 0.9498783946 0.7855424881
	0.9727249742 0.9501649141 0.7864595056
	0.9728183150 0.9504513741 0.7873764038
	0.9729115963 0.9507378936 0.7882934213
	0.9730048776 0.9510220885 0.7892103791
	0.9730982184 0.9513028860 0.7901170850
	0.9731950164 0.9515836239 0.7910107970
	0.9732956290 0.9518643022 0.7919045091
	0.9733961225 0.9521449804 0.7927982211
	0.9734966755 0.9524257779 0.7936918736
	0.9735972285 0.9526972175 0.7945855856
	0.9736980200 0.9529681802 0.7954729199
	0.9738026261 0.9532393217 0.7963594198
	0.9739071131 0.9535102844 0.7972459197
	0.9740117192 0.9537813067 0.7981324196
	0.9741162062 0.9540500045 0.7990188003
	0.9742208123 0.9543160200 0.7999022007
	0.9743257165 0.9545819759 0.8007770777
	0.9744309187 0.9548478723 0.8016518950
	0.9745361209 0.9551138878 0.8025267720
	0.9746413231 0.9553797841 0.8034017086
	0.9747465253 0.9556449056 0.8042765856
	0.9748516083 0.9559097886 0.8051419854
	0.9749541283 0.9561746716 0.8060011268
	0.9750565290 0.9564396739 0.8068600893
	0.9751588702 0.9567046165 0.8077191710
	0.9752613902 0.9569633007 0.8085781932
	0.9753637910 0.9572036862 0.8094372749
	0.9754638076 0.9574440718 0.8102779984
	0.9755604267 0.9576845765 0.8111159205
	0.9756569266 0.9579250216 0.8119537234
	0.9757534266 0.9581654072 0.8127915263
	0.9758499861 0.9584035873 0.8136293888
	0.9759464860 0.9586400986 0.8144659996
	0.9760364890 0.9588767290 0.8152853847
	0.9761242867 0.9591131806 0.8161048293
	0.9762120247 0.9593496919 0.8169242144
	0.9762998223 0.9595862031 0.8177435994
	0.9763875008 0.9598243833 0.8185629845
	0.9764752984 0.9600629807 0.8193802834
	0.9765614867 0.9603015184 0.8201889992
	0.9766476154 0.9605401158 0.8209977150
	0.9767338037 0.9607787132 0.8218063712
	0.9768199921 0.9610170722 0.8226152062
	0.9769061804 0.9612380862 0.8234239221
	0.9769896269 0.9614589810 0.8242325187
	0.9770637155 0.9616798759 0.8250408173
	0.9771376848 0.9619007707 0.8258491158
	0.9772117138 0.9621217847 0.8266574144
	0.9772858024 0.9623394012 0.8274655938
	0.9773597717 0.9625350237 0.8282738924
	0.9774324298 0.9627305865 0.8290752172
	0.9775022864 0.9629262090 0.8298593760
	0.9775723219 0.9631217718 0.8306434751
	0.9776422977 0.9633173943 0.8314276934
	0.9777122736 0.9635074139 0.8322117925
	0.9777823091 0.9636734724 0.8329960108
	0.9778506756 0.9638395905 0.8337736726
	0.9779173136 0.9640057087 0.8345307708
	0.9779838920 0.9641718268 0.8352878094
	0.9780504704 0.9643378854 0.8360449076
	0.9781171083 0.9645028710 0.8368018866
	0.9781836867 0.9646632075 0.8375589848
	0.9782491922 0.9648234844 0.8383142948
	0.9783133864 0.9649837017 0.8390561938
	0.9783775806 0.9651439786 0.8397982121
	0.9784417748 0.9653041959 0.8405401111
	0.9785060287 0.9654663801 0.8412820101
	0.9785702229 0.9656417966 0.8420239091
	0.9786368012 0.9658172727 0.8427659273
	0.9787064791 0.9659928083 0.8434938788
	0.9787762761 0.9661682844 0.8442208171
	0.9788460135 0.9663438201 0.8449476957
	0.9789156914 0.9665191770 0.8456746936
	0.9789854288 0.9667049050 0.8464015722
	0.9790521264 0.9668906927 0.8471285105
	0.9791120887 0.9670764804 0.8478465080
	0.9791721106 0.9672623277 0.8485602736
	0.9792320728 0.9674479961 0.8492740989
	0.9792920947 0.9676337838 0.8499878049
	0.9793521166 0.9678208232 0.8507015705
	0.9794105291 0.9680082202 0.8514152765
	0.9794589877 0.9681956172 0.8521232009
	0.9795076251 0.9683828950 0.8528202772
	0.9795562029 0.9685702920 0.8535174131
	0.9796047807 0.9687576890 0.8542146087
	0.9796532989 0.9689376950 0.8549116850
	0.9797018766 0.9691110253 0.8556088805
	0.9797381759 0.9692844152 0.8563060164
	0.9797729850 0.9694576859 0.8569779992
	0.9798077941 0.9696310163 0.8576492071
	0.9798427224 0.9698044062 0.8583204150
	0.9798774719 0.9699763060 0.8589916229
	0.9799122810 0.9701421857 0.8596627712
	0.9799376130 0.9703081250 0.8603339791
	0.9799560905 0.9704741240 0.8609988093
	0.9799745083 0.9706400037 0.8616573811
