release/datafiles/colormanagement/luts/film_response/kodak_portra_160nc.spi1d
Version 1
From 0.0 1.0
Length 1024
Components 3
{
	0.0000000000 0.0000000000 0.0000000000
	0.0104342103 0.0097368704 0.0081004426
	0.0202932805 0.0187927708 0.0152669698
	0.0287755504 0.0266450606 0.0213894807
	0.0361699387 0.0334015600 0.0267654601
	0.0427807011 0.0394648015 0.0316598192
	0.0487997085 0.0450807586 0.0361505710
	0.0544521399 0.0502359308 0.0404325016
	0.0596807487 0.0550900213 0.0445077084
	0.0646303892 0.0597528182 0.0484247990
	0.0693302229 0.0641593412 0.0521505699
	0.0737845525 0.0683351308 0.0556968004
	0.0780915692 0.0723901764 0.0591261685
	0.0822694898 0.0763313472 0.0624415018
	0.0863260701 0.0801697522 0.0657054484
	0.0902359709 0.0839016736 0.0689003170
	0.0940105170 0.0874804035 0.0719991401
	0.0976487026 0.0909066126 0.0750158876
	0.1011712030 0.0942689478 0.0779601783
	0.1046311036 0.0975821987 0.0808535069
	0.1080254018 0.1008832976 0.0837027133
	0.1113561988 0.1041185036 0.0864896476
	0.1146244034 0.1072700024 0.0892440900
	0.1178375036 0.1103363037 0.0919481963
	0.1209478006 0.1133145019 0.0945950523
	0.1239672974 0.1161829010 0.0971959010
	0.1269288063 0.1190017015 0.0997639596
	0.1298519969 0.1217684969 0.1022854969
	0.1327518970 0.1245191991 0.1047450975
	0.1356167048 0.1272488981 0.1071709991
	0.1384285986 0.1299587935 0.1095672026
	0.1411979049 0.1326563060 0.1119202971
	0.1438945979 0.1353050023 0.1142712981
	0.1465526074 0.1378984004 0.1166002005
	0.1491758972 0.1404460073 0.1189038008
	0.1517738998 0.1429633051 0.1211721972
	0.1543568969 0.1454481930 0.1234188005
	0.1569266021 0.1478973031 0.1256408989
	0.1594693065 0.1503026038 0.1278519034
	0.1619731039 0.1526698023 0.1300269067
	0.1644496024 0.1550289989 0.1322003007
	0.1668978930 0.1573766023 0.1343421042
	0.1693100929 0.1597099006 0.1364780068
	0.1717022955 0.1620142013 0.1385955065
	0.1740535051 0.1643050015 0.1406960934
	0.1763895005 0.1665803045 0.1427800953
	0.1786942929 0.1688499004 0.1448349953
	0.1809858978 0.1710920930 0.1468731016
	0.1832552999 0.1733157039 0.1488973945
	0.1855040044 0.1754987985 0.1508941948
	0.1877363026 0.1776573956 0.1528868973
	0.1899455935 0.1797675043 0.1548427939
	0.1921364963 0.1818484068 0.1567813009
	0.1943152994 0.1839254946 0.1587089002
	0.1964662969 0.1859872043 0.1605975032
	0.1986126006 0.1880321950 0.1624716967
	0.2007299960 0.1900521070 0.1643451005
	0.2028377950 0.1920509040 0.1662126929
	0.2049141973 0.1940355003 0.1680644006
	0.2069772035 0.1960064024 0.1699177027
	0.2090151012 0.1979558021 0.1717617065
	0.2110265940 0.1998984069 0.1735890955
	0.2130140960 0.2018423975 0.1754163951
	0.2149661928 0.2037782073 0.1772357970
	0.2169061005 0.2057027072 0.1790401042
	0.2188301980 0.2076229006 0.1808345020
	0.2207366973 0.2095226049 0.1826318949
	0.2226286978 0.2114018947 0.1844107956
	0.2245007008 0.2132596970 0.1861657947
	0.2263693064 0.2151038945 0.1879153997
	0.2282283008 0.2169471979 0.1896584928
	0.2300662994 0.2187916934 0.1913760006
	0.2318931073 0.2206248939 0.1930719018
	0.2337073982 0.2224474996 0.1947627068
	0.2355096936 0.2242646962 0.1964586973
	0.2373178005 0.2260648012 0.1981409937
	0.2391194999 0.2278497964 0.1998063028
	0.2409114987 0.2296245992 0.2014670074
	0.2427058071 0.2313791960 0.2031272948
	0.2444884032 0.2331136018 0.2047773004
	0.2462590933 0.2348330021 0.2064110041
	0.2480255961 0.2365438938 0.2080343962
	0.2497811019 0.2382504940 0.2096567005
	0.2515194118 0.2399522066 0.2112801969
	0.2532550991 0.2416505069 0.2129054964
	0.2549892068 0.2433426976 0.2145148963
	0.2567017972 0.2450259030 0.2161193043
	0.2584092021 0.2467028052 0.2177298963
	0.2601015866 0.2483644933 0.2193389982
	0.2617790103 0.2500090897 0.2209367007
	0.2634465098 0.2516413033 0.2225185931
	0.2651093900 0.2532702088 0.2240934074
	0.2667602897 0.2549068034 0.2256740034
	0.2683969140 0.2565379143 0.2272486985
	0.2700237036 0.2581647933 0.2288096994
	0.2716447115 0.2597900033 0.2303546071
	0.2732641101 0.2614181042 0.2318903059
	0.2748670876 0.2630349994 0.2334287018
	0.2764695883 0.2646454871 0.2349649072
	0.2780736983 0.2662520111 0.2364968956
	0.2796798050 0.2678571939 0.2380219996
	0.2812705934 0.2694469988 0.2395333946
	0.2828595936 0.2710259855 0.2410411984
	0.2844449878 0.2725957036 0.2425480038
	0.2860139906 0.2741582990 0.2440553010
	0.2875689864 0.2757219076 0.2455565929
	0.2891198993 0.2772797048 0.2470498979
	0.2906715870 0.2788243890 0.2485287040
	0.2922109962 0.2803615928 0.2500022054
	0.2937461138 0.2818956077 0.2514745891
	0.2952778041 0.2834267020 0.2529469132
	0.2968105972 0.2849394083 0.2543964088
	0.2983357012 0.2864452004 0.2558352947
	0.2998512089 0.2879436016 0.2572622895
	0.3013514876 0.2894333899 0.2586838007
	0.3028486967 0.2909137011 0.2601067126
	0.3043426871 0.2923789024 0.2615340948
	0.3058384061 0.2938305140 0.2629559040
	0.3073315024 0.2952756882 0.2643721104
	0.3088150918 0.2967103124 0.2657704055
	0.3102928102 0.2981418073 0.2671636939
	0.3117668927 0.2995713055 0.2685531974
	0.3132205009 0.3009906113 0.2699464858
	0.3146683872 0.3024047017 0.2713372111
	0.3161059022 0.3038088977 0.2727209032
	0.3175452054 0.3052091897 0.2740899920
	0.3189851940 0.3066073060 0.2754499018
	0.3204107881 0.3079979122 0.2767995894
	0.3218325078 0.3093867898 0.2781487107
	0.3232437968 0.3107711971 0.2794989049
	0.3246552944 0.3121513128 0.2808524072
	0.3260669112 0.3135269880 0.2822099924
	0.3274610937 0.3148944974 0.2835561037
	0.3288491964 0.3162589073 0.2848969996
	0.3302272856 0.3176145852 0.2862280905
	0.3316037059 0.3189670146 0.2875579000
	0.3329727948 0.3203001022 0.2888858914
	0.3343341947 0.3216342926 0.2902134955
	0.3356775939 0.3229714930 0.2915399969
	0.3370169997 0.3243103921 0.2928608954
	0.3383513093 0.3256517947 0.2941726148
	0.3396857977 0.3269968033 0.2954798043
	0.3410206139 0.3283447921 0.2967823148
	0.3423599005 0.3296887875 0.2980845869
	0.3437018096 0.3310303092 0.2993867099
	0.3450402915 0.3323693871 0.3006789982
	0.3463771939 0.3337073028 0.3019658029
	0.3477115035 0.3350473046 0.3032433093
	0.3490447998 0.3363879919 0.3045162857
	0.3503681123 0.3377214968 0.3057813048
	0.3516876996 0.3390519917 0.3070425987
	0.3530015051 0.3403775096 0.3083038032
	0.3543129861 0.3417007923 0.3095650971
	0.3556298018 0.3430233002 0.3108316958
	0.3569492996 0.3443453014 0.3121018112
	0.3582645059 0.3456591964 0.3133673072
	0.3595766127 0.3469670117 0.3146286905
	0.3608855009 0.3482683003 0.3158847988
	0.3621911108 0.3495621085 0.3171336055
	0.3634957969 0.3508524001 0.3183821142
	0.3647992015 0.3521358073 0.3196297884
	0.3661004901 0.3534179032 0.3208785057
	0.3673923910 0.3546931148 0.3221335113
	0.3686844110 0.3559682965 0.3233886063
	0.3699693084 0.3572291136 0.3246343136
	0.3712542057 0.3584896028 0.3258793950
	0.3725373149 0.3597457111 0.3271150887
	0.3738197982 0.3610003889 0.3283470869
	0.3750964105 0.3622534871 0.3295781016
	0.3763675094 0.3635050952 0.3308078945
	0.3776369989 0.3647533059 0.3320389092
	0.3789013028 0.3659900129 0.3332746923
	0.3801654875 0.3672266901 0.3345105052
	0.3814153969 0.3684552014 0.3357368112
	0.3826642036 0.3696827888 0.3369618058
	0.3838984966 0.3709067106 0.3381794989
	0.3851222992 0.3721277118 0.3393906951
	0.3863449097 0.3733451962 0.3406014144
	0.3875628114 0.3745481074 0.3418095112
	0.3887807131 0.3757509887 0.3430176079
	0.3899891078 0.3769412935 0.3442226052
	0.3911952078 0.3781279922 0.3454265893
	0.3923954070 0.3793081939 0.3466267884
	0.3935852945 0.3804757893 0.3478181064
	0.3947750926 0.3816434145 0.3490093946
	0.3959554136 0.3828100860 0.3501937985
	0.3971343935 0.3839766979 0.3513768911
	0.3983117044 0.3851422071 0.3525578976
	0.3994863927 0.3863059878 0.3537346125
	0.4006612003 0.3874697983 0.3549112976
	0.4018234015 0.3886323869 0.3560853004
	0.4029830992 0.3897947073 0.3572584987
	0.4041410089 0.3909561932 0.3584313095
	0.4052937031 0.3921152949 0.3596020937
	0.4064464867 0.3932743073 0.3607727885
	0.4075922072 0.3944297135 0.3619342148
	0.4087341130 0.3955830038 0.3630889952
	0.4098758996 0.3967362046 0.3642438948
	0.4110023081 0.3978854120 0.3653908968
	0.4121286869 0.3990345001 0.3665375113
	0.4132547975 0.4001820982 0.3676846027
	0.4143803120 0.4013260901 0.3688332140
	0.4155057073 0.4024702013 0.3699817061
	0.4166313112 0.4036095142 0.3711296916
	0.4177572131 0.4047453105 0.3722772896
	0.4188829958 0.4058811963 0.3734247983
	0.4199970961 0.4070141912 0.3745591044
	0.4211089909 0.4081465006 0.3756898940
	0.4222208858 0.4092785120 0.3768205941
	0.4233328998 0.4104020000 0.3779422939
	0.4244450033 0.4115254879 0.3790639043
	0.4255572855 0.4126478136 0.3801856935
	0.4266704023 0.4137653112 0.3813084066
	0.4277834892 0.4148826897 0.3824310899
	0.4288921058 0.4160000980 0.3835541010
	0.4299925864 0.4171172976 0.3846774995
	0.4310930073 0.4182344079 0.3858009875
	0.4321939051 0.4193536937 0.3869203925
	0.4332954884 0.4204756916 0.3880335093
	0.4343971014 0.4215976894 0.3891465962
	0.4354996085 0.4227164984 0.3902549148
	0.4366030097 0.4238317907 0.3913570940
	0.4377062917 0.4249469936 0.3924593031
	0.4388040006 0.4260604084 0.3935610950
	0.4398961961 0.4271718860 0.3946624100
	0.4409883022 0.4282833934 0.3957636952
	0.4420804083 0.4293954074 0.3968654871
	0.4431723058 0.4305078983 0.3979677856
	0.4442642033 0.4316205084 0.3990701139
	0.4453507066 0.4327288866 0.4001703858
	0.4464294016 0.4338311851 0.4012669921
	0.4475080073 0.4349335134 0.4023635983
	0.4485828876 0.4360336959 0.4034568965
	0.4496490061 0.4371289909 0.4045400023
	0.4507152140 0.4382242858 0.4056229889
	0.4517813921 0.4393191934 0.4067057967
	0.4528484046 0.4404121935 0.4077850878
	0.4539153874 0.4415051043 0.4088644981
	0.4549823999 0.4425981045 0.4099437892
	0.4560458958 0.4436711967 0.4110217094
	0.4571090937 0.4447430074 0.4120995104
	0.4581724107 0.4458146989 0.4131771922
	0.4592300057 0.4468767941 0.4142549038
	0.4602853060 0.4479345977 0.4153324962
	0.4613406062 0.4489924014 0.4164102077
	0.4623945951 0.4500474930 0.4174832106
	0.4634467959 0.4510987103 0.4185484946
	0.4644989967 0.4521498978 0.4196138084
	0.4655506909 0.4532003999 0.4206787944
	0.4665969014 0.4542433918 0.4217385948
	0.4676432014 0.4552864134 0.4227983057
	0.4686895013 0.4563294947 0.4238579869
	0.4697276056 0.4573652148 0.4249185920
	0.4707626998 0.4583980143 0.4259794950
	0.4717977941 0.4594308138 0.4270403981
	0.4728317857 0.4604609907 0.4280979037
	0.4738632143 0.4614850879 0.4291453958
	0.4748947024 0.4625090957 0.4301928878
	0.4759261906 0.4635331929 0.4312404990
	0.4769518971 0.4645487964 0.4322755933
	0.4779764116 0.4655626118 0.4333074987
	0.4790009856 0.4665764868 0.4343394041
	0.4800215960 0.4675863981 0.4353694916
	0.4810340106 0.4685879052 0.4363949895
	0.4820463955 0.4695892930 0.4374206066
	0.4830586910 0.4705908000 0.4384461045
	0.4840714037 0.4715859890 0.4394738078
	0.4850840867 0.4725790918 0.4405022860
	0.4860967994 0.4735723138 0.4415307939
	0.4871076941 0.4745646119 0.4425587952
	0.4881089032 0.4755522013 0.4435825944
	0.4891101122 0.4765397906 0.4446065128
	0.4901114106 0.4775272906 0.4456303120
	0.4911071956 0.4785116911 0.4466493130
	0.4920977056 0.4794926047 0.4476625025
	0.4930881858 0.4804734886 0.4486756027
	0.4940786958 0.4814544916 0.4496887922
	0.4950703979 0.4824301004 0.4506951869
	0.4960624874 0.4834043086 0.4516992867
	0.4970546067 0.4843784869 0.4527033865
	0.4980463088 0.4853524864 0.4537074864
	0.4990282059 0.4863195121 0.4547115862
	0.5000100732 0.4872865975 0.4557158053
	0.5009920001 0.4882535934 0.4567199051
	0.5019717216 0.4892205000 0.4577234983
	0.5029439926 0.4901863933 0.4587247968
	0.5039163828 0.4911524057 0.4597260952
	0.5048887134 0.4921183884 0.4607273936
	0.5058619976 0.4930835068 0.4617233872
	0.5068370104 0.4940471947 0.4627084136
	0.5078119040 0.4950107932 0.4636934102
	0.5087867975 0.4959745109 0.4646784067
	0.5097575188 0.4969376922 0.4656594992
	0.5107231736 0.4979003966 0.4666348100
	0.5116888285 0.4988631010 0.4676100016
	0.5126544833 0.4998258054 0.4685853124
	0.5136160254 0.5007869005 0.4695602953
	0.5145732164 0.5017461777 0.4705348015
	0.5155304074 0.5027055740 0.4715093076
	0.5164874792 0.5036649108 0.4724838138
	0.5174427032 0.5046222210 0.4734596908
	0.5183954835 0.5055770278 0.4744375944
	0.5193483829 0.5065317750 0.4754154980
	0.5203012228 0.5074865818 0.4763934016
	0.5212494731 0.5084401965 0.4773665071
	0.5221908092 0.5093917847 0.4783307016
	0.5231320858 0.5103434920 0.4792948067
	0.5240733027 0.5112950802 0.4802590013
	0.5250124931 0.5122454166 0.4812211096
	0.5259457231 0.5131919980 0.4821757078
	0.5268787742 0.5141385794 0.4831303060
	0.5278120041 0.5150852203 0.4840849936
	0.5287448764 0.5160313845 0.4850395918
	0.5296741724 0.5169715881 0.4859933853
	0.5306035280 0.5179117918 0.4869472086
	0.5315328836 0.5188519955 0.4879010022
	0.5324621797 0.5197921991 0.4888547957
	0.5333819985 0.5207303166 0.4898129106
	0.5343000293 0.5216680169 0.4907721877
	0.5352180004 0.5226057172 0.4917314053
	0.5361359715 0.5235434175 0.4926905930
	0.5370497108 0.5244811177 0.4936460853
	0.5379598141 0.5254188180 0.4945977032
	0.5388697982 0.5263565183 0.4955492914
	0.5397799015 0.5272942185 0.4965009093
	0.5406906009 0.5282303095 0.4974510968
	0.5416039824 0.5291588902 0.4983924925
	0.5425174832 0.5300874114 0.4993340075
	0.5434309244 0.5310158730 0.5002753735
	0.5443444252 0.5319445133 0.5012168884
	0.5452517867 0.5328708887 0.5021572113
	0.5461574793 0.5337966084 0.5030971766
	0.5470631123 0.5347223878 0.5040370822
	0.5479686856 0.5356481075 0.5049769878
	0.5488722920 0.5365749002 0.5059170723
	0.5497710109 0.5375043154 0.5068572760
	0.5506697893 0.5384337902 0.5077975988
	0.5515685081 0.5393632054 0.5087379217
	0.5524672270 0.5402926207 0.5096781850
	0.5533673763 0.5412126780 0.5106148124
	0.5542681217 0.5421293974 0.5115498900
	0.5551686883 0.5430461168 0.5124850273
	0.5560693741 0.5439627767 0.5134201050
	0.5569679737 0.5448786020 0.5143538713
	0.5578554273 0.5457888842 0.5152763128
	0.5587428212 0.5466991067 0.5161986947
	0.5596302152 0.5476093888 0.5171210766
	0.5605176091 0.5485196114 0.5180435181
	0.5614027977 0.5494297743 0.5189639926
	0.5622857213 0.5503401160 0.5198820829
	0.5631685853 0.5512502789 0.5208001733
	0.5640513897 0.5521605015 0.5217183828
	0.5649343133 0.5530707240 0.5226364732
	0.5658143759 0.5539742112 0.5235576034
	0.5666937232 0.5548753738 0.5244798064
	0.5675728917 0.5557765961 0.5254021287
	0.5684521794 0.5566778183 0.5263242722
	0.5693315268 0.5575789213 0.5272465944
	0.5701966882 0.5584716201 0.5281707048
	0.5710616112 0.5593640208 0.5290948749
	0.5719264746 0.5602563024 0.5300192237
	0.5727913976 0.5611487031 0.5309433937
	0.5736559033 0.5620400906 0.5318667889
	0.5745171905 0.5629237890 0.5327801108
	0.5753784776 0.5638076067 0.5336934924
	0.5762398243 0.5646913052 0.5346068144
	0.5771011114 0.5655751228 0.5355200768
	0.5779622793 0.5664567947 0.5364326835
	0.5788232088 0.5673298240 0.5373411775
	0.5796840787 0.5682027936 0.5382497907
	0.5805448890 0.5690757036 0.5391582847
	0.5814058185 0.5699486732 0.5400668979
	0.5822650790 0.5708199739 0.5409761071
	0.5831186175 0.5716847777 0.5418882966
	0.5839720964 0.5725495219 0.5428004861
	0.5848255754 0.5734142065 0.5437126756
	0.5856791139 0.5742788911 0.5446249247
	0.5865321159 0.5751429796 0.5455365181
	0.5873820782 0.5760030746 0.5464432240
	0.5882321000 0.5768632293 0.5473498702
	0.5890821218 0.5777233839 0.5482565165
	0.5899320841 0.5785834789 0.5491632223
	0.5907821059 0.5794435143 0.5500699282
	0.5916317105 0.5802974105 0.5509622097
	0.5924813151 0.5811514258 0.5518543720
	0.5933309793 0.5820053816 0.5527465940
	0.5941805840 0.5828593969 0.5536388159
	0.5950301886 0.5837132931 0.5545309782
	0.5958740115 0.5845609903 0.5554181933
	0.5967167020 0.5854074955 0.5563042164
	0.5975593925 0.5862538815 0.5571901202
	0.5984022021 0.5871003866 0.5580760837
	0.5992448926 0.5879467726 0.5589619875
	0.6000844836 0.5887897015 0.5598490238
	0.6009218097 0.5896298885 0.5607368946
	0.6017590761 0.5904700756 0.5616248250
	0.6025965214 0.5913102031 0.5625126958
	0.6034337878 0.5921503901 0.5634006262
	0.6042696834 0.5929887891 0.5642879009
	0.6051009893 0.5938212872 0.5651726723
	0.6059322953 0.5946537852 0.5660576224
	0.6067636013 0.5954862833 0.5669425130
	0.6075949073 0.5963187218 0.5678274035
	0.6084262133 0.5971512198 0.5687121749
	0.6092525721 0.5979760885 0.5695930719
	0.6100782156 0.5987992883 0.5704730153
	0.6109036803 0.5996224880 0.5713528991
	0.6117292047 0.6004456878 0.5722327232
	0.6125547886 0.6012688875 0.5731126070
	0.6133785844 0.6020901203 0.5739895105
	0.6141995192 0.6029073000 0.5748600960
	0.6150202751 0.6037245989 0.5757306814
	0.6158410907 0.6045418978 0.5766013265
	0.6166620255 0.6053591967 0.5774719119
	0.6174827814 0.6061763763 0.5783424973
	0.6182973981 0.6069906950 0.5792120099
	0.6191102862 0.6078041792 0.5800812840
	0.6199231744 0.6086177230 0.5809506178
	0.6207361817 0.6094312072 0.5818198919
	0.6215491295 0.6102446914 0.5826891065
	0.6223602295 0.6110575199 0.5835583806
	0.6231619120 0.6118662953 0.5844280720
	0.6239635944 0.6126750708 0.5852977037
	0.6247653961 0.6134839058 0.5861672759
	0.6255670786 0.6142926812 0.5870369077
	0.6263688207 0.6151015162 0.5879064798
	0.6271702051 0.6159092188 0.5887740254
	0.6279712915 0.6167153120 0.5896387100
	0.6287723780 0.6175215244 0.5905032754
	0.6295735240 0.6183276176 0.5913679004
	0.6303744912 0.6191337705 0.5922325850
	0.6311755776 0.6199399233 0.5930972099
	0.6319767833 0.6207464933 0.5939545035
	0.6327779293 0.6215533018 0.5948076844
	0.6335790753 0.6223601103 0.5956608057
	0.6343802810 0.6231669188 0.5965139866
	0.6351814866 0.6239737272 0.5973672271
	0.6359826922 0.6247804761 0.5982202888
	0.6367757916 0.6255866289 0.5990706086
	0.6375672221 0.6263926029 0.5999200940
	0.6383585930 0.6271985173 0.6007695794
	0.6391499043 0.6280043721 0.6016191244
	0.6399412751 0.6288104057 0.6024686098
	0.6407327056 0.6296163201 0.6033179760
	0.6415246129 0.6304203272 0.6041709185
	0.6423165202 0.6312239766 0.6050243974
	0.6431084275 0.6320276260 0.6058778763
	0.6439003944 0.6328312755 0.6067314744
	0.6446923018 0.6336349845 0.6075850129
	0.6454842091 0.6344386935 0.6084384918
	0.6462714076 0.6352415085 0.6092901230
	0.6470577121 0.6360440850 0.6101412773
	0.6478440166 0.6368467808 0.6109923720
	0.6486303806 0.6376494169 0.6118435860
	0.6494166851 0.6384519935 0.6126946807
	0.6502029896 0.6392546892 0.6135458946
	0.6509804726 0.6400555968 0.6143918037
	0.6517549157 0.6408560276 0.6152355075
	0.6525294185 0.6416562796 0.6160792112
	0.6533038020 0.6424565911 0.6169229150
	0.6540781856 0.6432569027 0.6177666187
	0.6548526883 0.6440572739 0.6186103225
	0.6556271911 0.6448554993 0.6194509268
	0.6564018726 0.6456521153 0.6202887297
	0.6571764946 0.6464486718 0.6211264729
	0.6579511762 0.6472452879 0.6219642162
	0.6587259173 0.6480419040 0.6228020191
	0.6595004797 0.6488385201 0.6236398220
	0.6602733731 0.6496348977 0.6244779825
	0.6610416770 0.6504310966 0.6253173947
	0.6618101001 0.6512271762 0.6261568069
	0.6625784039 0.6520233750 0.6269962192
	0.6633468270 0.6528195143 0.6278355718
	0.6641150713 0.6536157131 0.6286749244
	0.6648834944 0.6544117928 0.6295142770
	0.6656407118 0.6552035809 0.6303495765
	0.6663972139 0.6559950113 0.6311843991
	0.6671535969 0.6567865014 0.6320192814
	0.6679100990 0.6575778723 0.6328541040
	0.6686664820 0.6583693027 0.6336889267
	0.6694229841 0.6591607928 0.6345236897
	0.6701784730 0.6599478722 0.6353541017
	0.6709331274 0.6607304215 0.6361792088
	0.6716876030 0.6615129113 0.6370043159
	0.6724421978 0.6622954011 0.6378294230
	0.6731967926 0.6630778909 0.6386544704
	0.6739513278 0.6638603210 0.6394795775
	0.6747059226 0.6646428108 0.6403046846
	0.6754562259 0.6654220223 0.6411225200
	0.6762061715 0.6662008762 0.6419395804
	0.6769562960 0.6669799089 0.6427568197
	0.6777064204 0.6677588820 0.6435738802
	0.6784564257 0.6685379148 0.6443911195
	0.6792064905 0.6693168283 0.6452081800
	0.6799539924 0.6700953245 0.6460253000
	0.6806966066 0.6708728075 0.6468420029
	0.6814391017 0.6716501713 0.6476588249
	0.6821817160 0.6724277139 0.6484755278
	0.6829242706 0.6732050776 0.6492922902
	0.6836668253 0.6739826202 0.6501089931
	0.6844093800 0.6747599840 0.6509258151
	0.6851518154 0.6755318046 0.6517397165
	0.6858941913 0.6762999892 0.6525517702
	0.6866366267 0.6770682931 0.6533638239
	0.6873788834 0.6778365970 0.6541758180
	0.6881213188 0.6786047816 0.6549878716
	0.6888636947 0.6793730855 0.6557999253
	0.6896060705 0.6801413894 0.6566119194
	0.6903458238 0.6809049249 0.6574186087
	0.6910849214 0.6816673875 0.6582239866
	0.6918240786 0.6824299097 0.6590293050
	0.6925632954 0.6831923723 0.6598346829
	0.6933023930 0.6839548945 0.6606400013
	0.6940416098 0.6847174168 0.6614453793
	0.6947807074 0.6854798794 0.6622506976
	0.6955140829 0.6862388253 0.6630463004
	0.6962471008 0.6869974136 0.6638408899
	0.6969801188 0.6877560019 0.6646354795
	0.6977130771 0.6885147095 0.6654301882
	0.6984460950 0.6892732978 0.6662247777
	0.6991791129 0.6900318861 0.6670194268
	0.6999120116 0.6907905936 0.6678140163
	0.7006403208 0.6915383935 0.6686055064
	0.7013683915 0.6922855973 0.6693965793
	0.7020965219 0.6930328012 0.6701877713
	0.7028244734 0.6937800050 0.6709790230
	0.7035526037 0.6945272088 0.6717702150
	0.7042806745 0.6952744126 0.6725614071
	0.7050086856 0.6960216165 0.6733525991
	0.7057327032 0.6967638135 0.6741454005
	0.7064561248 0.6975051165 0.6749384999
	0.7071794868 0.6982464194 0.6757315993
	0.7079027891 0.6989877820 0.6765246987
	0.7086262107 0.6997290850 0.6773177981
	0.7093495727 0.7004703879 0.6781108975
	0.7100729942 0.7012118101 0.6789039969
	0.7107927203 0.7019538879 0.6796910167
	0.7115108967 0.7026965022 0.6804748774
	0.7122290134 0.7034389973 0.6812587976
	0.7129471898 0.7041814923 0.6820427775
	0.7136653066 0.7049241066 0.6828266978
	0.7143834829 0.7056666017 0.6836106181
	0.7151015997 0.7064090967 0.6843945980
	0.7158182263 0.7071503997 0.6851742268
	0.7165327072 0.7078899145 0.6859470010
	0.7172471285 0.7086293101 0.6867198944
	0.7179616094 0.7093688250 0.6874927282
	0.7186759710 0.7101082206 0.6882656217
	0.7193905115 0.7108476758 0.6890385151
	0.7201048732 0.7115870714 0.6898112893
	0.7208188772 0.7123262882 0.6905841231
	0.7215241194 0.7130588889 0.6913529038
	0.7222291827 0.7137916088 0.6921218038
	0.7229344249 0.7145242095 0.6928905845
	0.7236396074 0.7152568102 0.6936594248
	0.7243446708 0.7159894109 0.6944282055
	0.7250499129 0.7167220712 0.6951969862
	0.7257549763 0.7174546719 0.6959658861
	0.7264562845 0.7181851268 0.6967344284
	0.7271547914 0.7189137936 0.6975026131
	0.7278531790 0.7196425796 0.6982707977
	0.7285516262 0.7203713059 0.6990389824
	0.7292500734 0.7210999727 0.6998072267
	0.7299485207 0.7218288183 0.7005754113
	0.7306470275 0.7225574851 0.7013435960
	0.7313454151 0.7232862115 0.7021117806
	0.7320457101 0.7240095735 0.7028660774
	0.7327460051 0.7247328758 0.7036200762
	0.7334461808 0.7254562974 0.7043740153
	0.7341464758 0.7261795998 0.7051280141
	0.7348467708 0.7269030213 0.7058818936
	0.7355470061 0.7276263237 0.7066358924
	0.7362473011 0.7283496857 0.7073897719
	0.7369453907 0.7290710211 0.7081403732
	0.7376388907 0.7297881246 0.7088832259
	0.7383323908 0.7305051088 0.7096260190
	0.7390258908 0.7312222123 0.7103686929
	0.7397195101 0.7319391966 0.7111114860
	0.7404130101 0.7326561809 0.7118542194
	0.7411065102 0.7333732843 0.7125970125
	0.7418000102 0.7340903282 0.7133396864
	0.7424902916 0.7348045707 0.7140802741
	0.7431777716 0.7355164289 0.7148187757
	0.7438653708 0.7362282276 0.7155572176
