release/datafiles/colormanagement/luts/film_response/kodak_gold_200.spi1d
Version 1
From 0.0 1.0
Length 1024
Components 3
{
	0.0000000000 0.0000000000 0.0000000000
	0.0069576460 0.0052925618 0.0033476830
	0.0141364904 0.0107551003 0.0067514139
	0.0207183994 0.0159495007 0.0101133399
	0.0267989002 0.0208614096 0.0133742504
	0.0324718915 0.0254526306 0.0165257901
	0.0378164984 0.0299201701 0.0196132604
	0.0428869314 0.0341088213 0.0225949902
	0.0477258898 0.0381722189 0.0255131796
	0.0523908511 0.0420860387 0.0283894595
	0.0568610094 0.0458872616 0.0311939605
	0.0611275584 0.0495900512 0.0339626707
	0.0653016865 0.0531945191 0.0367048383
	0.0693744496 0.0567364991 0.0393822007
	0.0733573064 0.0602095909 0.0420081317
	0.0771774426 0.0635916665 0.0445935093
	0.0809165314 0.0668876693 0.0471374691
	0.0845568478 0.0701269805 0.0496489182
	0.0881353170 0.0733123422 0.0521427989
	0.0916419923 0.0764425769 0.0546066016
	0.0950766504 0.0795146525 0.0570084900
	0.0984379798 0.0825331509 0.0593760982
	0.1017495021 0.0855173692 0.0617147498
	0.1049598977 0.0884445384 0.0640344396
	0.1081260964 0.0913117006 0.0663272068
	0.1112463027 0.0941295624 0.0686026216
	0.1143177003 0.0968901590 0.0708457306
	0.1173487976 0.0996170789 0.0730642602
	0.1203667000 0.1023124009 0.0752720088
	0.1233123019 0.1049759015 0.0774757266
	0.1262118965 0.1076003984 0.0796506926
	0.1290674955 0.1101882979 0.0817981884
	0.1318753064 0.1127377972 0.0839270800
	0.1346521974 0.1152800992 0.0860472471
	0.1373953074 0.1178082004 0.0881496072
	0.1401219070 0.1203086972 0.0902255625
	0.1428176016 0.1227945015 0.0922822729
	0.1454751045 0.1252799928 0.0943331197
	0.1481045038 0.1277426928 0.0963695124
	0.1507305056 0.1301932037 0.0983908027
	0.1533288956 0.1326095015 0.1003959030
	0.1558901072 0.1350027025 0.1023878008
	0.1584240943 0.1373652965 0.1043625996
	0.1609431952 0.1397027969 0.1063340977
	0.1634577960 0.1420170069 0.1083092019
	0.1659422070 0.1442991942 0.1102795005
	0.1683879048 0.1465636939 0.1122395992
	0.1708077043 0.1488011926 0.1141989976
	0.1732032001 0.1510327011 0.1161565036
	0.1755875945 0.1532423943 0.1181034967
	0.1779661030 0.1554349959 0.1200399995
	0.1803372949 0.1576205045 0.1219606996
	0.1826853007 0.1597833931 0.1238709986
	0.1850018948 0.1619350016 0.1257669926
	0.1873046011 0.1640775949 0.1276451051
	0.1896051019 0.1661971062 0.1295011044
	0.1918939054 0.1682944000 0.1313541979
	0.1941768974 0.1703854054 0.1332028955
	0.1964391023 0.1724753976 0.1350436956
	0.1986718029 0.1745598018 0.1368709952
	0.2008887976 0.1766363978 0.1386903971
	0.2030901015 0.1787001044 0.1405090988
	0.2052837014 0.1807560027 0.1423261017
	0.2074694037 0.1827982068 0.1441355944
	0.2096378058 0.1848137975 0.1459414959
	0.2117996961 0.1868076026 0.1477414072
	0.2139513046 0.1887951046 0.1495409012
	0.2160806060 0.1907595992 0.1513372064
	0.2181894034 0.1927050054 0.1531285048
	0.2202865928 0.1946384013 0.1549127996
	0.2223830074 0.1965693980 0.1566943973
	0.2244744003 0.1984919012 0.1584592015
	0.2265536934 0.2003978044 0.1602202058
	0.2286141068 0.2022926956 0.1619769037
	0.2306680977 0.2041870058 0.1637236029
	0.2327179015 0.2060835958 0.1654655933
	0.2347580940 0.2079713047 0.1672006994
	0.2367894948 0.2098497003 0.1689288020
	0.2388225049 0.2117146999 0.1706545055
	0.2408446074 0.2135720998 0.1723743975
	0.2428611964 0.2154268026 0.1740881950
	0.2448751032 0.2172740996 0.1757902950
	0.2468796968 0.2191029936 0.1774809957
	0.2488763928 0.2209150046 0.1791640073
	0.2508633137 0.2227170020 0.1808429956
	0.2528334856 0.2245123982 0.1825204939
	0.2547827065 0.2263000011 0.1841987073
	0.2567098141 0.2280700058 0.1858744025
	0.2586239874 0.2298292071 0.1875447035
	0.2605265081 0.2315824926 0.1892118007
	0.2624250948 0.2333337963 0.1908793002
	0.2643153071 0.2350836992 0.1925469935
	0.2661927938 0.2368271947 0.1942107975
	0.2680534124 0.2385641932 0.1958703995
	0.2698996067 0.2402985990 0.1975174993
	0.2717376053 0.2420333028 0.1991517991
	0.2735638916 0.2437696010 0.2007769942
	0.2753801942 0.2455032021 0.2023956031
	0.2771906853 0.2472324073 0.2040095031
	0.2789969146 0.2489607930 0.2056213021
	0.2808091938 0.2506855130 0.2072338015
	0.2826234102 0.2524011135 0.2088443041
	0.2844350040 0.2541044950 0.2104482055
	0.2862409055 0.2558018863 0.2120479047
	0.2880494893 0.2574988008 0.2136453986
	0.2898606062 0.2591859102 0.2152310014
	0.2916708887 0.2608619034 0.2168077976
	0.2934772968 0.2625282109 0.2183786035
	0.2952775061 0.2641865015 0.2199451029
	0.2970677912 0.2658401132 0.2215090990
	0.2988429070 0.2674838006 0.2230720073
	0.3006018996 0.2691144943 0.2246360928
	0.3023515940 0.2707369030 0.2262039930
	0.3040930927 0.2723526061 0.2277673930
	0.3058268130 0.2739633918 0.2293279022
	0.3075599968 0.2755722106 0.2308869064
	0.3092887998 0.2771736085 0.2324458063
	0.3110117018 0.2787660062 0.2339975983
	0.3127267957 0.2803517878 0.2355509996
	0.3144324124 0.2819328010 0.2371080071
	0.3161234856 0.2835094035 0.2386678010
	0.3178110123 0.2850857973 0.2402258068
	0.3194932044 0.2866651118 0.2417753041
	0.3211686909 0.2882451117 0.2433187068
	0.3228329122 0.2898192108 0.2448568046
	0.3244825006 0.2913886905 0.2463894933
	0.3261260092 0.2929497957 0.2479178011
	0.3277656138 0.2945039868 0.2494443953
	0.3293995857 0.2960574031 0.2509700954
	0.3310334086 0.2976092100 0.2524966896
	0.3326669931 0.2991577983 0.2540231049
	0.3343001902 0.3007017970 0.2555483878
	0.3359291852 0.3022336960 0.2570703030
	0.3375551999 0.3037579954 0.2585889101
	0.3391782939 0.3052760959 0.2601051033
	0.3408016860 0.3067946136 0.2616184056
	0.3424184024 0.3083077967 0.2631227970
	0.3440291882 0.3098174036 0.2646223903
	0.3456344008 0.3113240898 0.2661170959
	0.3472355008 0.3128254116 0.2675963044
	0.3488337100 0.3143222034 0.2690717876
	0.3504329920 0.3158083856 0.2705436051
	0.3520256877 0.3172895908 0.2720068991
	0.3536128998 0.3187673986 0.2734695077
	0.3551953137 0.3202396035 0.2749320865
	0.3567740023 0.3217110932 0.2763895094
	0.3583478928 0.3231821060 0.2778449059
	0.3599140942 0.3246476054 0.2792975903
	0.3614780009 0.3261092901 0.2807494998
	0.3630394042 0.3275642991 0.2822004855
	0.3645978868 0.3290148973 0.2836417854
	0.3661546111 0.3304624856 0.2850796878
	0.3677040935 0.3318977952 0.2865127027
	0.3692491949 0.3333328068 0.2879436016
	0.3707874119 0.3347673118 0.2893734872
	0.3723173141 0.3362007141 0.2908020020
	0.3738436997 0.3376331925 0.2922300100
	0.3753637075 0.3390626013 0.2936573029
	0.3768812120 0.3404957056 0.2950794101
	0.3783938885 0.3419339061 0.2964994907
	0.3798997998 0.3433656096 0.2979145050
	0.3814015985 0.3447945118 0.2993288934
	0.3829030991 0.3462235928 0.3007413149
	0.3844040930 0.3476490080 0.3021497130
	0.3859013915 0.3490602970 0.3035539091
	0.3873961866 0.3504692018 0.3049587905
	0.3888866007 0.3518750966 0.3063640893
	0.3903723955 0.3532764912 0.3077667952
	0.3918546140 0.3546754122 0.3091700077
	0.3933346868 0.3560653925 0.3105787933
	0.3948141932 0.3574534059 0.3119877875
	0.3962810040 0.3588356972 0.3133974075
	0.3977459073 0.3602159917 0.3148044050
	0.3992024958 0.3615838885 0.3162082136
	0.4006575048 0.3629511893 0.3176136911
	0.4021052122 0.3643172085 0.3190205097
	0.4035489857 0.3656820059 0.3204261065
	0.4049836993 0.3670449853 0.3218308985
	0.4064174891 0.3684046865 0.3232277036
	0.4078499079 0.3697603047 0.3246217966
	0.4092806876 0.3711144030 0.3260087967
	0.4107097983 0.3724671006 0.3273941875
	0.4121398926 0.3738192022 0.3287746906
	0.4135712087 0.3751707971 0.3301542997
	0.4149979949 0.3765240014 0.3315235972
	0.4164206088 0.3778783083 0.3328914046
	0.4178411961 0.3792268932 0.3342565000
	0.4192601144 0.3805715144 0.3356212080
	0.4206768870 0.3819119930 0.3369806111
	0.4220918119 0.3832496107 0.3383392990
	0.4235030115 0.3845824897 0.3396934867
	0.4249098897 0.3859112859 0.3410468102
	0.4263136089 0.3872357011 0.3423964083
	0.4277122915 0.3885548115 0.3437449038
	0.4291099906 0.3898749053 0.3450933099
	0.4305053949 0.3911963999 0.3464416862
	0.4319001138 0.3925139904 0.3477911949
	0.4332916141 0.3938207030 0.3491415083
	0.4346827865 0.3951269984 0.3504894078
	0.4360674918 0.3964309096 0.3518337011
	0.4374521971 0.3977347016 0.3531750143
	0.4388273954 0.3990345001 0.3545077145
	0.4402016103 0.4003342092 0.3558402061
	0.4415682852 0.4016295075 0.3571698070
	0.4429320991 0.4029237032 0.3584994078
	0.4442929029 0.4042161107 0.3598237038
	0.4456507862 0.4055073857 0.3611471951
	0.4470078051 0.4067941010 0.3624671996
	0.4483624101 0.4080730081 0.3637853861
	0.4497171044 0.4093518853 0.3651016057
	0.4510729909 0.4106301963 0.3664149940
	0.4524287879 0.4119085073 0.3677273989
	0.4537774920 0.4131798148 0.3690330088
	0.4551241994 0.4144499004 0.3703387082
	0.4564689100 0.4157176912 0.3716449142
	0.4578113854 0.4169836044 0.3729512095
	0.4591516852 0.4182476103 0.3742561936
	0.4604795873 0.4195050895 0.3755598962
	0.4618076086 0.4207625091 0.3768633008
	0.4631280005 0.4220119119 0.3781648874
	0.4644466043 0.4232602119 0.3794665039
	0.4657608867 0.4245094061 0.3807671964
	0.4670695066 0.4257597029 0.3820675910
	0.4683777988 0.4270094037 0.3833664060
	0.4696762860 0.4282543957 0.3846625090
	0.4709748924 0.4294993877 0.3859587014
	0.4722695947 0.4307434857 0.3872511983
	0.4735617936 0.4319871962 0.3885434866
	0.4748536050 0.4332297146 0.3898344040
	0.4761427939 0.4344683886 0.3911238909
	0.4774321020 0.4357070923 0.3924132884
	0.4787220955 0.4369412065 0.3936966956
	0.4800123870 0.4381737113 0.3949801922
	0.4813013077 0.4394079149 0.3962610066
	0.4825831950 0.4406479895 0.3975391090
	0.4838651121 0.4418880939 0.3988172114
	0.4851444066 0.4431279004 0.4000911117
	0.4864222109 0.4443677068 0.4013648033
	0.4876995981 0.4456071854 0.4026384950
	0.4889726043 0.4468455017 0.4039121866
	0.4902456999 0.4480836987 0.4051857889
	0.4915165007 0.4493125081 0.4064609110
	0.4927848876 0.4505336881 0.4077362120
	0.4940532148 0.4517548084 0.4090102911
	0.4953213036 0.4529699087 0.4102798104
	0.4965893030 0.4541845024 0.4115493000
	0.4978551865 0.4553967118 0.4128125012
	0.4991137087 0.4566031992 0.4140706956
	0.5003721714 0.4578095973 0.4153288901
	0.5016276836 0.4590105116 0.4165867865
	0.5028806925 0.4602079988 0.4178445935
	0.5041337013 0.4614056051 0.4191029072
	0.5053765774 0.4626047909 0.4203636944
	0.5066177249 0.4638043046 0.4216246009
	0.5078586936 0.4650028944 0.4228836000
	0.5090987086 0.4661977887 0.4241401851
	0.5103386045 0.4673928022 0.4253968894
	0.5115761161 0.4685871899 0.4266510904
	0.5128089190 0.4697811902 0.4279040992
	0.5140416026 0.4709751010 0.4291571975
	0.5152726173 0.4721660018 0.4304040968
	0.5165020823 0.4733552933 0.4316503108
	0.5177316070 0.4745444953 0.4328961074
	0.5189521909 0.4757269919 0.4341362119
	0.5201696157 0.4769079983 0.4353761971
	0.5213869810 0.4780888855 0.4366151094
	0.5225998163 0.4792577922 0.4378497899
	0.5238118768 0.4804260135 0.4390844107
	0.5250239968 0.4815933108 0.4403162897
	0.5262380242 0.4827486873 0.4415428042
	0.5274519920 0.4839040935 0.4427692890
	0.5286653042 0.4850594103 0.4439926147
	0.5298718810 0.4862147868 0.4452114105
	0.5310785174 0.4873701930 0.4464302063
	0.5322846174 0.4885238111 0.4476467967
	0.5334876776 0.4896706939 0.4488607943
	0.5346907973 0.4908174872 0.4500747919
	0.5358918905 0.4919629097 0.4512878060
	0.5370826721 0.4931035042 0.4524998069
	0.5382735133 0.4942440987 0.4537116885
	0.5394629836 0.4953829944 0.4549197853
	0.5406448841 0.4965158999 0.4561235011
	0.5418269038 0.4976488054 0.4573271871
	0.5430071950 0.4987801909 0.4585284889
	0.5441747904 0.4999046922 0.4597266018
	0.5453423858 0.5010291934 0.4609247148
	0.5465098023 0.5021533966 0.4621219039
	0.5476737022 0.5032743216 0.4633173048
	0.5488376021 0.5043951869 0.4645127952
	0.5500016212 0.5055161715 0.4657061100
	0.5511487722 0.5066317916 0.4668928087
	0.5522946715 0.5077472925 0.4680793881
	0.5534405112 0.5088629127 0.4692654908
	0.5545827150 0.5099775791 0.4704455137
	0.5557237267 0.5110921264 0.4716255963
	0.5568647981 0.5122066140 0.4728055894
	0.5579981804 0.5133147240 0.4739825130
	0.5591266751 0.5144196153 0.4751591980
	0.5602552295 0.5155246258 0.4763357937
	0.5613806248 0.5166273117 0.4775057137
	0.5625013113 0.5177274942 0.4786727130
	0.5636219978 0.5188276768 0.4798397124
	0.5647404194 0.5199279785 0.4809997082
	0.5658451915 0.5210285187 0.4821512997
	0.5669500828 0.5221291184 0.4833030105
	0.5680549145 0.5232295990 0.4844540060
	0.5691527128 0.5243226886 0.4856021106
	0.5702494979 0.5254151821 0.4867500961
	0.5713462234 0.5265076756 0.4878982008
	0.5724427104 0.5276014209 0.4890469909
	0.5735387802 0.5286958218 0.4901959002
	0.5746350288 0.5297902226 0.4913448989
	0.5757296085 0.5308814049 0.4924908876
	0.5768179297 0.5319637060 0.4936339855
	0.5779061913 0.5330458879 0.4947771132
	0.5789945722 0.5341281295 0.4959191084
	0.5800734758 0.5352011919 0.4970515966
	0.5811501741 0.5362728834 0.4981842041
	0.5822268724 0.5373445749 0.4993166924
	0.5832991004 0.5384107232 0.5004442930
	0.5843636990 0.5394697189 0.5015696883
	0.5854284167 0.5405287147 0.5026950240
	0.5864930749 0.5415875912 0.5038194060
	0.5875535011 0.5426415801 0.5049406290
	0.5886135101 0.5436955094 0.5060616732
	0.5896735787 0.5447493196 0.5071828961
	0.5907285810 0.5458040833 0.5082973838
	0.5917763710 0.5468599796 0.5094091892
	0.5928242803 0.5479158163 0.5105209947
	0.5938721895 0.5489715934 0.5116317272
	0.5949155092 0.5500273705 0.5127375722
	0.5959581733 0.5510830879 0.5138434768
	0.5970007777 0.5521388054 0.5149493814
	0.5980414748 0.5531933904 0.5160537958
	0.5990775228 0.5542458892 0.5171571970
	0.6001135111 0.5552983284 0.5182604790
	0.6011496186 0.5563508272 0.5193638802
	0.6021804810 0.5573993921 0.5204594731
	0.6032091975 0.5584467053 0.5215548873
	0.6042377949 0.5594938993 0.5226503015
	0.6052662134 0.5605403781 0.5237420797
	0.6062859893 0.5615794063 0.5248262882
	0.6073058248 0.5626183152 0.5259104967
	0.6083257198 0.5636572838 0.5269945860
	0.6093432903 0.5646920800 0.5280733109
	0.6103563905 0.5657204986 0.5291488171
	0.6113694906 0.5667489171 0.5302242041
	0.6123825908 0.5677773952 0.5312995911
	0.6133952141 0.5688034892 0.5323687792
	0.6144075990 0.5698282719 0.5334370732
	0.6154199243 0.5708531737 0.5345054865
	0.6164321899 0.5718780756 0.5355728865
	0.6174443960 0.5728979111 0.5366333723
	0.6184564233 0.5739170909 0.5376937985
	0.6194685102 0.5749362707 0.5387542248
	0.6204805970 0.5759549737 0.5398129225
	0.6214926243 0.5769659281 0.5408675075
	0.6225045919 0.5779768825 0.5419220924
	0.6235166192 0.5789877772 0.5429766774
	0.6245272756 0.5799971223 0.5440295935
	0.6255301237 0.5809996724 0.5450801849
	0.6265329719 0.5820024014 0.5461307168
	0.6275358796 0.5830050111 0.5471813083
	0.6285378933 0.5840060711 0.5482295156
	0.6295374036 0.5850033760 0.5492755175
	0.6305369139 0.5860008001 0.5503215790
	0.6315364242 0.5869981050 0.5513677001
	0.6325309277 0.5879935026 0.5524119735
	0.6335136890 0.5889853239 0.5534552932
	0.6344965100 0.5899770856 0.5544984937
	0.6354792714 0.5909689069 0.5555416942
	0.6364601254 0.5919576883 0.5565804243
	0.6374369264 0.5929412246 0.5576159954
	0.6384136081 0.5939248204 0.5586516261
	0.6393904090 0.5949084163 0.5596871972
	0.6403620839 0.5958868861 0.5607174039
	0.6413215995 0.5968555808 0.5617434978
	0.6422811151 0.5978243947 0.5627695918
	0.6432405114 0.5987930894 0.5637956858
	0.6441984773 0.5997601151 0.5648216009
	0.6451513767 0.6007226706 0.5658472776
	0.6461042762 0.6016852260 0.5668728948
	0.6470571756 0.6026477218 0.5678985715
	0.6480082870 0.6036084294 0.5689231753
	0.6489437819 0.6045597792 0.5699462295
	0.6498792171 0.6055111885 0.5709691048
	0.6508147120 0.6064625978 0.5719920993
	0.6517502069 0.6074140072 0.5730134845
	0.6526796222 0.6083596945 0.5740293860
	0.6536086798 0.6093053818 0.5750454068
	0.6545377970 0.6102510095 0.5760613084
	0.6554667950 0.6111965775 0.5770772099
	0.6563835144 0.6121419072 0.5780894756
	0.6572958231 0.6130869985 0.5791018009
	0.6582080126 0.6140322089 0.5801141262
	0.6591202021 0.6149773002 0.5811263919
	0.6600306034 0.6159195900 0.5821347833
	0.6609390974 0.6168593168 0.5831419230
	0.6618475914 0.6177989841 0.5841491222
	0.6627560854 0.6187387705 0.5851562023
	0.6636629105 0.6196792722 0.5861611962
	0.6645622253 0.6206220984 0.5871635079
	0.6654614806 0.6215649247 0.5881658792
	0.6663607955 0.6225078106 0.5891681910
	0.6672601104 0.6234505773 0.5901697874
	0.6681554914 0.6243839860 0.5911645889
	0.6690502167 0.6253163815 0.5921593904
	0.6699448824 0.6262487769 0.5931541920
	0.6708396077 0.6271811724 0.5941489935
	0.6717275977 0.6281095743 0.5951371193
	0.6726074219 0.6290342212 0.5961226821
	0.6734871864 0.6299588084 0.5971081853
	0.6743670106 0.6308833957 0.5980938077
	0.6752467752 0.6318072081 0.5990791917
	0.6761245131 0.6327196956 0.6000642180
	0.6770021915 0.6336323023 0.6010491848
	0.6778799295 0.6345447898 0.6020342112
	0.6787576079 0.6354573965 0.6030192971
	0.6796311140 0.6363689899 0.6039971709
	0.6805009842 0.6372799277 0.6049730778
	0.6813709140 0.6381908059 0.6059491038
	0.6822407246 0.6391018033 0.6069250703
	0.6831105947 0.6400123835 0.6078994870
	0.6839790940 0.6409156919 0.6088691950
	0.6848475933 0.6418190002 0.6098389030
	0.6857160926 0.6427223086 0.6108086705
	0.6865844727 0.6436256766 0.6117783785
	0.6874501705 0.6445271969 0.6127467155
	0.6883115768 0.6454266906 0.6137142777
	0.6891731024 0.6463261843 0.6146818995
	0.6900346279 0.6472256780 0.6156495214
	0.6908959746 0.6481251717 0.6166170239
	0.6917508841 0.6490163803 0.6175795197
	0.6926038861 0.6499059200 0.6185420156
	0.6934568882 0.6507952809 0.6195045114
	0.6943098903 0.6516848207 0.6204670072
	0.6951622963 0.6525734067 0.6214286089
	0.6960077286 0.6534568071 0.6223886013
	0.6968531013 0.6543400884 0.6233485937
	0.6976984739 0.6552234888 0.6243085861
	0.6985439062 0.6561068296 0.6252685785
	0.6993870735 0.6569851041 0.6262217164
	0.7002261877 0.6578559279 0.6271703839
	0.7010654211 0.6587265730 0.6281189919
	0.7019044757 0.6595973969 0.6290677190
	0.7027435899 0.6604681015 0.6300163269
	0.7035796046 0.6613349915 0.6309583187
	0.7044131756 0.6621994972 0.6318988800
	0.7052468061 0.6630640030 0.6328393817
	0.7060803771 0.6639283895 0.6337800026
	0.7069140077 0.6647928953 0.6347205043
	0.7077404857 0.6656516790 0.6356571913
	0.7085642815 0.6665087938 0.6365938187
	0.7093880773 0.6673660278 0.6375303864
	0.7102118731 0.6682230830 0.6384670138
	0.7110357881 0.6690803170 0.6394029856
	0.7118616104 0.6699306965 0.6403322220
	0.7126877904 0.6707803011 0.6412613988
	0.7135139704 0.6716299057 0.6421905756
	0.7143402100 0.6724795103 0.6431198120
	0.7151665092 0.6733291149 0.6440477967
	0.7159851789 0.6741706729 0.6449677944
	0.7168028951 0.6750116944 0.6458877921
	0.7176206708 0.6758527756 0.6468077898
	0.7184385061 0.6766939163 0.6477277875
	0.7192562819 0.6775348783 0.6486470103
	0.7200725079 0.6783677936 0.6495617032
	0.7208884954 0.6792001724 0.6504762769
	0.7217044830 0.6800324917 0.6513909101
	0.7225204110 0.6808648705 0.6523056030
	0.7233363986 0.6816973090 0.6532199979
	0.7241454124 0.6825289130 0.6541327238
	0.7249531150 0.6833605170 0.6550455093
	0.7257608771 0.6841921210 0.6559581757
	0.7265685797 0.6850237250 0.6568709016
	0.7273762822 0.6858553290 0.6577836275
	0.7281739712 0.6866853833 0.6586869955
	0.7289680243 0.6875150800 0.6595901251
	0.7297620773 0.6883447766 0.6604931951
	0.7305560708 0.6891744733 0.6613963842
	0.7313501239 0.6900042295 0.6622995138
	0.7321395278 0.6908270121 0.6631954908
	0.7329254746 0.6916458011 0.6640897989
	0.7337114811 0.6924644709 0.6649841070
	0.7344974875 0.6932832003 0.6658784747
	0.7352834940 0.6941019893 0.6667727828
	0.7360627055 0.6949160099 0.6676589251
	0.7368296981 0.6957229972 0.6685394049
	0.7375966907 0.6965299845 0.6694198847
	0.7383636832 0.6973370910 0.6703003049
	0.7391306758 0.6981440783 0.6711807847
	0.7398970723 0.6989498138 0.6720594168
	0.7406572104 0.6997461915 0.6729338169
	0.7414172292 0.7005426884 0.6738082767
	0.7421773076 0.7013391256 0.6746826768
	0.7429373860 0.7021355033 0.6755570769
	0.7436974049 0.7029320002 0.6764315963
	0.7444459200 0.7037230134 0.6772987247
	0.7451906204 0.7045127153 0.6781656742
	0.7459353209 0.7053024173 0.6790326238
	0.7466799021 0.7060920000 0.6798995733
	0.7474246025 0.7068817019 0.6807665825
	0.7481679916 0.7076675892 0.6816290021
	0.7489092946 0.7084479928 0.6824882030
	0.7496504784 0.7092282772 0.6833475232
	0.7503917217 0.7100086808 0.6842067242
	0.7511329055 0.7107890844 0.6850659847
	0.7518740892 0.7115694284 0.6859251857
	0.7526044250 0.7123498917 0.6867846847
	0.7533336878 0.7131304145 0.6876441836
	0.7540628910 0.7139108777 0.6885036230
	0.7547922134 0.7146914005 0.6893631220
	0.7555214167 0.7154719234 0.6902225018
	0.7562506199 0.7162482738 0.6910750866
	0.7569795251 0.7170194983 0.6919236183
	0.7577084899 0.7177907825 0.6927719712
	0.7584375143 0.7185620070 0.6936205029
	0.7591664791 0.7193332911 0.6944689751
	0.7598955035 0.7201045156 0.6953169107
	0.7606170177 0.7208759189 0.6961556077
	0.7613371015 0.7216472030 0.6969943047
	0.7620571852 0.7224184871 0.6978331208
	0.7627773285 0.7231898904 0.6986718178
	0.7634974122 0.7239611745 0.6995105147
	0.7642151713 0.7247301936 0.7003443837
	0.7649244070 0.7254924178 0.7011716962
	0.7656335831 0.7262545228 0.7019990087
	0.7663428783 0.7270166874 0.7028263211
	0.7670521140 0.7277787924 0.7036535740
	0.7677612901 0.7285410166 0.7044810057
	0.7684661150 0.7293031812 0.7053043842
	0.7691670060 0.7300654054 0.7061262727
	0.7698678970 0.7308276296 0.7069482803
	0.7705687284 0.7315897942 0.7077702880
	0.7712696195 0.7323520184 0.7085922956
	0.7719705105 0.7331141829 0.7094143033
	0.7726665735 0.7338690162 0.7102290988
	0.7733613253 0.7346221209 0.7110437751
	0.7740560174 0.7353752255 0.7118585110
	0.7747508287 0.7361282706 0.7126731873
	0.7754455209 0.7368813753 0.7134879231
	0.7761402130 0.7376344800 0.7143009901
	0.7768254876 0.7383875847 0.7151066065
	0.7775105238 0.7391408086 0.7159122229
	0.7781955004 0.7398939133 0.7167177796
	0.7788804173 0.7406470776 0.7175235152
	0.7795653939 0.7414001822 0.7183290720
	0.7802500725 0.7421522141 0.7191318870
	0.7809323072 0.7428963184 0.7199280858
	0.7816144824 0.7436404824 0.7207242846
	0.7822967172 0.7443845868 0.7215204239
	0.7829788923 0.7451288104 0.7223166227
	0.7836611271 0.7458729148 0.7231128216
	0.7843412757 0.7466160059 0.7239063978
	0.7850098014 0.7473546267 0.7246955037
	0.7856782079 0.7480933070 0.7254844904
	0.7863466740 0.7488319278 0.7262734771
	0.7870151997 0.7495706081 0.7270625234
	0.7876836061 0.7503092289 0.7278516293
	0.7883511186 0.7510460019 0.7286369205
	0.7890127897 0.7517744899 0.7294149995
	0.7896745801 0.7525030971 0.7301930785
	0.7903363109 0.7532315850 0.7309712172
	0.7909979820 0.7539601922 0.7317492962
	0.7916597128 0.7546886802 0.7325273752
	0.7923207879 0.7554165721 0.7333045006
	0.7929738760 0.7561392784 0.7340788841
	0.7936270237 0.7568619847 0.7348533273
	0.7942801118 0.7575846910 0.7356275916
	0.7949333191 0.7583073974 0.7364019752
	0.7955864072 0.7590301037 0.7371764183
	0.7962394953 0.7597528100 0.7379497886
	0.7968860865 0.7604665160 0.7387167215
	0.7975323200 0.7611799240 0.7394834757
	0.7981784940 0.7618933916 0.7402504086
	0.7988247275 0.7626067996 0.7410172820
	0.7994709015 0.7633203268 0.7417842150
	0.8001170754 0.7640337944 0.7425510883
	0.8007584810 0.7647390962 0.7433149815
	0.8013982177 0.7654420137 0.7440785766
	0.8020377755 0.7661449909 0.7448422909
	0.8026775122 0.7668480277 0.7456058860
	0.8033171892 0.7675510049 0.7463694811
	0.8039568067 0.7682539821 0.7471331954
