release/datafiles/colormanagement/luts/film_response/kodak_dscs_3153.spi1d
Version 1
From 0.0 1.0
Length 1024
Components 3
{
	0.0000000000 0.0000000000 0.0000000000
	0.0033556900 0.0036243461 0.0021771761
	0.0067113810 0.0072486931 0.0043543512
	0.0100719603 0.0109450798 0.0065315268
	0.0136722000 0.0148685100 0.0087087033
	0.0172724500 0.0187919401 0.0109967999
	0.0209288709 0.0229167007 0.0134465704
	0.0247608796 0.0271310192 0.0158963501
	0.0285928901 0.0314321816 0.0183461197
	0.0325581394 0.0359185003 0.0208943095
	0.0366007015 0.0404266603 0.0236469992
	0.0406721011 0.0451549515 0.0263996907
	0.0448958799 0.0498832315 0.0291523803
	0.0491196699 0.0548080616 0.0321348682
	0.0534582287 0.0597378612 0.0352196097
	0.0578269996 0.0648122802 0.0383043587
	0.0622479804 0.0698948205 0.0415499993
	0.0667206198 0.0750741214 0.0449920595
	0.0712093785 0.0802576020 0.0484341197
	0.0757424608 0.0854823887 0.0520806797
	0.0802765936 0.0907058865 0.0558979213
	0.0848271400 0.0959210992 0.0597151592
	0.0893776789 0.1011238992 0.0638853684
	0.0939087570 0.1062820032 0.0680840537
	0.0984367505 0.1114128977 0.0724848807
	0.1029269993 0.1164738983 0.0770553872
	0.1073973030 0.1214959025 0.0817479491
	0.1118313000 0.1264283061 0.0866615325
	0.1162149012 0.1313190013 0.0916693583
	0.1205834970 0.1361002028 0.0968769416
	0.1248577982 0.1408507973 0.1021751985
	0.1291321069 0.1454659998 0.1076091975
	0.1333063990 0.1500781029 0.1131248996
	0.1374552995 0.1545193046 0.1187048033
	0.1415515989 0.1589604020 0.1243304983
	0.1455647051 0.1632665992 0.1299701035
	0.1495777071 0.1675314009 0.1355862021
	0.1534643024 0.1717227995 0.1411814988
	0.1573361009 0.1758131981 0.1467006058
	0.1611633003 0.1799037009 0.1521570981
	0.1648924053 0.1838286966 0.1575206071
	0.1686214954 0.1877496988 0.1627777070
	0.1722615957 0.1916016042 0.1679431945
	0.1758497059 0.1953604072 0.1729734987
	0.1794376969 0.1991191953 0.1779143065
	0.1829102039 0.2027603984 0.1827175021
	0.1863611937 0.2063656002 0.1874202043
	0.1898120940 0.2099706978 0.1920142025
	0.1931387931 0.2134328038 0.1964761019
	0.1964582950 0.2168937027 0.2008883059
	0.1997777969 0.2203408033 0.2051143050
	0.2029809058 0.2236669958 0.2093403041
	0.2061755955 0.2269932926 0.2133757025
	0.2093703002 0.2303075939 0.2173759937
	0.2124706954 0.2335088998 0.2213031054
	0.2155478001 0.2367102057 0.2250909060
	0.2186249942 0.2399114966 0.2288787067
	0.2216414064 0.2430005968 0.2325274944
	0.2246086001 0.2460864037 0.2361178994
	0.2275757939 0.2491723001 0.2397083044
	0.2305241972 0.2521803081 0.2431315929
	0.2333890945 0.2551597953 0.2465402037
	0.2362540066 0.2581393123 0.2499487996
	0.2391189039 0.2610821128 0.2531935871
	0.2419181019 0.2639639974 0.2564358115
	0.2446880937 0.2668457925 0.2596780956
	0.2474582046 0.2697275877 0.2627840936
	0.2502210140 0.2725282907 0.2658750117
	0.2529034913 0.2753205895 0.2689658999
	0.2555859983 0.2781128883 0.2719655037
	0.2582685053 0.2808786035 0.2749192119
	0.2609224021 0.2835890055 0.2778730094
	0.2635244131 0.2862994075 0.2807919979
	0.2661263049 0.2890098095 0.2836216092
	0.2687281966 0.2916727960 0.2864513099
	0.2712922990 0.2943083942 0.2892810106
	0.2738203108 0.2969441116 0.2920272052
	0.2763482928 0.2995797098 0.2947449982
	0.2788763046 0.3021580875 0.2974627912
	0.2813667059 0.3047255874 0.3001739085
	0.2838270068 0.3072930872 0.3027910888
	0.2862873077 0.3098605871 0.3054082096
	0.2887476087 0.3123694956 0.3080253005
	0.2911775112 0.3148748875 0.3106203079
	0.2935760021 0.3173803985 0.3131470084
	0.2959744036 0.3198859096 0.3156735897
	0.2983728945 0.3223375976 0.3182002902
	0.3007532060 0.3247866929 0.3207036853
	0.3030953109 0.3272357881 0.3231492937
	0.3054375052 0.3296849132 0.3255949020
	0.3077796102 0.3320893943 0.3280405104
	0.3101190925 0.3344874084 0.3304716051
	0.3124099970 0.3368853033 0.3328445852
	0.3147009015 0.3392831981 0.3352177143
	0.3169918060 0.3416486979 0.3375906944
	0.3192827106 0.3440001905 0.3399637043
	0.3215416968 0.3463517129 0.3422729075
	0.3237861097 0.3487032950 0.3445810974
	0.3260306120 0.3510360122 0.3468891978
	0.3282749951 0.3533455133 0.3491973877
	0.3305096924 0.3556550145 0.3514679968
	0.3327121139 0.3579646051 0.3537184000
	0.3349145055 0.3602696061 0.3559688032
	0.3371168971 0.3625411093 0.3582192957
	0.3393192887 0.3648126125 0.3604589999
	0.3414955139 0.3670840859 0.3626582026
	0.3436599970 0.3693554997 0.3648572862
	0.3458243906 0.3716023862 0.3670564890
	0.3479889035 0.3738394976 0.3692556024
	0.3501509130 0.3760766089 0.3714247048
	0.3522812128 0.3783136904 0.3735783994
	0.3544115126 0.3805431128 0.3757320940
	0.3565418124 0.3827491105 0.3778859079
	0.3586719930 0.3849549890 0.3800387979
	0.3607907891 0.3871609867 0.3821524978
	0.3628903031 0.3893668950 0.3842661977
	0.3649899065 0.3915528059 0.3863798082
	0.3670895100 0.3937306106 0.3884935081
	0.3691891134 0.3959082961 0.3905969858
	0.3712717891 0.3980861008 0.3926754892
	0.3733437955 0.4002606869 0.3947539926
	0.3754158914 0.4024128914 0.3968324065
	0.3774879873 0.4045650959 0.3989109099
	0.3795599937 0.4067172110 0.4009746909
	0.3816126883 0.4088693857 0.4030224979
	0.3836601973 0.4110105038 0.4050701857
	0.3857075870 0.4131393135 0.4071179032
	0.3877550960 0.4152680933 0.4091657102
	0.3898024857 0.4173969030 0.4111976027
	0.3918300867 0.4195258021 0.4132185876
	0.3938556015 0.4216380119 0.4152396023
	0.3958810866 0.4237453938 0.4172605872
	0.3979066014 0.4258528054 0.4192816019
	0.3999319971 0.4279601872 0.4212876856
	0.4019384980 0.4300670028 0.4232856929
	0.4039444029 0.4321546853 0.4252836108
	0.4059503078 0.4342423081 0.4272815883
	0.4079560935 0.4363299906 0.4292795062
	0.4099619985 0.4384176135 0.4312647879
	0.4119505882 0.4405007958 0.4332428873
	0.4139389098 0.4425699115 0.4352209866
	0.4159272015 0.4446390867 0.4371992052
	0.4179156125 0.4467082024 0.4391773045
	0.4199039042 0.4487774074 0.4411455989
	0.4218772054 0.4508393109 0.4431068003
	0.4238497913 0.4528909028 0.4450680017
	0.4258224070 0.4549424946 0.4470292926
	0.4277949929 0.4569939971 0.4489904940
	0.4297676086 0.4590455890 0.4509448111
	0.4317277074 0.4610880911 0.4528915882
	0.4336861074 0.4631226957 0.4548385143
	0.4356445074 0.4651573002 0.4567854106
	0.4376029074 0.4671919048 0.4587321877
	0.4395613074 0.4692265093 0.4606749117
	0.4415096939 0.4712507129 0.4626095891
	0.4434551895 0.4732685983 0.4645442963
	0.4454007149 0.4752865136 0.4664790034
	0.4473460913 0.4773043096 0.4684137106
	0.4492915869 0.4793221951 0.4703465104
	0.4512295127 0.4813289046 0.4722707868
	0.4531629980 0.4833298922 0.4741952121
	0.4550965130 0.4853309095 0.4761194885
	0.4570299983 0.4873319864 0.4780437946
	0.4589635134 0.4893330038 0.4799681902
	0.4608916938 0.4913224876 0.4818837047
	0.4628139138 0.4933061898 0.4837990999
	0.4647361040 0.4952898920 0.4857144952
	0.4666582942 0.4972735941 0.4876298904
	0.4685805142 0.4992572963 0.4895452857
	0.4704998136 0.5012295842 0.4914546907
	0.4724110067 0.5031952262 0.4933620989
	0.4743221998 0.5051606894 0.4952695966
	0.4762333930 0.5071262717 0.4971770942
	0.4781445861 0.5090917945 0.4990845919
	0.4800555110 0.5110468864 0.5009883046
	0.4819557965 0.5129930973 0.5028885007
	0.4838559926 0.5149393082 0.5047886968
	0.4857563078 0.5168855190 0.5066888928
	0.4876565039 0.5188316703 0.5085890889
	0.4895567894 0.5207694769 0.5104873776
	0.4914484024 0.5226947069 0.5123804808
	0.4933373034 0.5246199965 0.5142735243
	0.4952262938 0.5265452862 0.5161666274
	0.4971151948 0.5284705758 0.5180596113
	0.4990041852 0.5303910971 0.5199525952
	0.5008875132 0.5322936177 0.5218384266
	0.5027645230 0.5341960788 0.5237240195
	0.5046414733 0.5360984802 0.5256096125
	0.5065184832 0.5380010009 0.5274953246
	0.5083954930 0.5399035215 0.5293809175
	0.5102707148 0.5417822003 0.5312609076
	0.5121346712 0.5436596274 0.5331382751
	0.5139986873 0.5455371141 0.5350157022
	0.5158627033 0.5474146008 0.5368930101
	0.5177267790 0.5492920280 0.5387703776
	0.5195907950 0.5511524081 0.5406445265
	0.5214436054 0.5530024171 0.5425122976
	0.5232933164 0.5548523068 0.5443801284
	0.5251430273 0.5567023158 0.5462480187
	0.5269926786 0.5585523248 0.5481157899
	0.5288422704 0.5603957176 0.5499836206
	0.5306860209 0.5622155070 0.5518401861
	0.5325195789 0.5640351772 0.5536966920
	0.5343531966 0.5658550262 0.5555531979
	0.5361868143 0.5676748157 0.5574097037
	0.5380203724 0.5694946051 0.5592660904
	0.5398539901 0.5712903738 0.5611143112
	0.5416709185 0.5730770826 0.5629572272
	0.5434862971 0.5748637915 0.5648000240
	0.5453017950 0.5766503811 0.5666428208
	0.5471172929 0.5784370899 0.5684856176
	0.5489326715 0.5802192092 0.5703253746
	0.5507397056 0.5819697976 0.5721517205
	0.5525346994 0.5837203264 0.5739780068
	0.5543295741 0.5854709148 0.5758042932
	0.5561246276 0.5872213840 0.5776305795
	0.5579195023 0.5889719725 0.5794569254
	0.5597143769 0.5907062888 0.5812692046
	0.5614898801 0.5924177170 0.5830757022
	0.5632616878 0.5941290259 0.5848821998
	0.5650333762 0.5958402753 0.5866885781
	0.5668051839 0.5975517035 0.5884950757
	0.5685769916 0.5992630124 0.5902976990
	0.5703436136 0.6009503007 0.5920805931
	0.5720893145 0.6026192904 0.5938634872
	0.5738348961 0.6042883992 0.5956465006
	0.5755805969 0.6059575081 0.5974293947
	0.5773262978 0.6076264977 0.5992122889
	0.5790719986 0.6092956066 0.6009799242
	0.5808039904 0.6109384894 0.6027352214
	0.5825204849 0.6125624180 0.6044905186
	0.5842369795 0.6141862273 0.6062458158
	0.5859534740 0.6158099771 0.6080011725
	0.5876700282 0.6174339056 0.6097565293
	0.5893865228 0.6190577149 0.6114842892
	0.5910822153 0.6206613779 0.6132075787
	0.5927662849 0.6222372055 0.6149309874
	0.5944504142 0.6238129735 0.6166543961
	0.5961344838 0.6253888011 0.6183778048
	0.5978186131 0.6269646287 0.6200990081
	0.5995026827 0.6285403967 0.6217858791
	0.6011615992 0.6301125288 0.6234729290
	0.6028100848 0.6316378117 0.6251598001
	0.6044585109 0.6331629753 0.6268466711
	0.6061068773 0.6346881986 0.6285337210
	0.6077553034 0.6362134814 0.6302152276
	0.6094037294 0.6377387047 0.6318612099
	0.6110271811 0.6392639279 0.6335071921
	0.6126366854 0.6407619119 0.6351531744
	0.6142461896 0.6422343254 0.6367992163
	0.6158555746 0.6437066793 0.6384451985
	0.6174650788 0.6451790929 0.6400886178
	0.6190745234 0.6466515064 0.6416891813
	0.6206660867 0.6481239796 0.6432899237
	0.6222333908 0.6495963931 0.6448904872
	0.6238006949 0.6510291100 0.6464911103
	0.6253681183 0.6524468064 0.6480916739
	0.6269354224 0.6538646221 0.6496922970
	0.6285027266 0.6552823186 0.6512529254
	0.6300681233 0.6567000151 0.6528040171
	0.6315903068 0.6581177115 0.6543551087
	0.6331124902 0.6595354080 0.6559062004
	0.6346346736 0.6609153748 0.6574572921
	0.6361569166 0.6622769237 0.6590083838
	0.6376791000 0.6636384726 0.6605402231
	0.6392014027 0.6650000215 0.6620379090
	0.6407008171 0.6663615108 0.6635357141
	0.6421751976 0.6677231193 0.6650334001
	0.6436495185 0.6690846086 0.6665312052
	0.6451238990 0.6704273820 0.6680288911
	0.6465982199 0.6717317104 0.6695266962
	0.6480726004 0.6730359793 0.6709856987
	0.6495469213 0.6743403077 0.6724267006
	0.6509864926 0.6756445765 0.6738678217
	0.6524105072 0.6769489050 0.6753088832
	0.6538345814 0.6782531738 0.6767500043
	0.6552587152 0.6795575023 0.6781910062
	0.6566827297 0.6808236241 0.6796321273
	0.6581068039 0.6820700169 0.6810289025
	0.6595308781 0.6833164096 0.6824105978
	0.6609197855 0.6845629215 0.6837922931
	0.6622915864 0.6858093143 0.6851739287
	0.6636633277 0.6870558262 0.6865556240
	0.6650350094 0.6883022189 0.6879372001
	0.6664068103 0.6895486116 0.6893188953
	0.6677784920 0.6907581091 0.6906694174
	0.6691501737 0.6919463873 0.6919894814
	0.6705014110 0.6931347847 0.6933096051
	0.6718192101 0.6943231821 0.6946297288
	0.6731368899 0.6955115795 0.6959499121
	0.6744546890 0.6966999769 0.6972699761
	0.6757724285 0.6978883743 0.6985900998
	0.6770902276 0.6990767717 0.6999102235
	0.6784079075 0.7002522945 0.7011716962
	0.6797257066 0.7013828754 0.7024288177
	0.6809998155 0.7025135159 0.7036859989
	0.6822623014 0.7036440969 0.7049431205
	0.6835249066 0.7047746778 0.7062003016
	0.6847875118 0.7059053183 0.7074574232
	0.6860501170 0.7070358992 0.7087146044
	0.6873127222 0.7081664801 0.7099717259
	0.6885753274 0.7092970014 0.7111666203
	0.6898378730 0.7104060054 0.7123600245
	0.6910517216 0.7114794254 0.7135534286
	0.6922584176 0.7125527859 0.7147467732
	0.6934651136 0.7136262059 0.7159401774
	0.6946716905 0.7146996260 0.7171337008
	0.6958783865 0.7157731056 0.7183271050
	0.6970850825 0.7168465257 0.7195205092
	0.6982917786 0.7179198861 0.7206757069
	0.6994984150 0.7189933062 0.7218052745
	0.7006723285 0.7200632095 0.7229349017
	0.7018228173 0.7210804224 0.7240644097
	0.7029731870 0.7220975757 0.7251939774
	0.7041236758 0.7231147885 0.7263236046
	0.7052742243 0.7241321206 0.7274531722
	0.7064247131 0.7251492739 0.7285827994
	0.7075752020 0.7261664867 0.7297123075
	0.7087255716 0.7271836996 0.7307947278
	0.7098761201 0.7282009125 0.7318609953
	0.7109766006 0.7292181253 0.7329272032
	0.7120710015 0.7302225828 0.7339934707
	0.7131654024 0.7311848998 0.7350596786
	0.7142598033 0.7321472168 0.7361260056
	0.7153543234 0.7331095934 0.7371922731
	0.7164487243 0.7340719104 0.7382584810
	0.7175431252 0.7350342274 0.7393248081
	0.7186375260 0.7359964848 0.7403681874
	0.7197319865 0.7369588017 0.7413722277
	0.7207844853 0.7379211187 0.7423762083
	0.7218233943 0.7388833761 0.7433801889
	0.7228623033 0.7398456931 0.7443842292
	0.7239012122 0.7407631874 0.7453882098
	0.7249401212 0.7416722178 0.7463921905
	0.7259790897 0.7425811887 0.7473962903
	0.7270179987 0.7434902191 0.7484002709
	0.7280569077 0.7443990707 0.7494043112
	0.7290958166 0.7453081012 0.7503836155
	0.7301275730 0.7462170720 0.7513269186
	0.7311120033 0.7471259832 0.7522702217
	0.7320963144 0.7480350137 0.7532135248
	0.7330806255 0.7489439845 0.7541568279
	0.7340649962 0.7498528957 0.7551000714
	0.7350493073 0.7507187128 0.7560433745
	0.7360336185 0.7515761256 0.7569866776
	0.7370179296 0.7524334788 0.7579299808
	0.7380023003 0.7532908916 0.7588732839
	0.7389866114 0.7541484237 0.7598165870
	0.7399709225 0.7550057769 0.7607126236
	0.7409034967 0.7558631897 0.7615972161
	0.7418344021 0.7567206025 0.7624816895
	0.7427654266 0.7575780153 0.7633662820
	0.7436963916 0.7584354281 0.7642508149
	0.7446272969 0.7592927814 0.7651354074
	0.7455583215 0.7601416111 0.7660198808
	0.7464892864 0.7609493732 0.7669044733
	0.7474203110 0.7617571950 0.7677890062
	0.7483512163 0.7625650167 0.7686735988
	0.7492821813 0.7633727789 0.7695580721
	0.7502012849 0.7641806006 0.7704144120
	0.7510803938 0.7649884224 0.7712424994
	0.7519595027 0.7657961845 0.7720705271
	0.7528386712 0.7666041255 0.7728986144
	0.7537177801 0.7674118876 0.7737267017
	0.7545968890 0.7682197094 0.7745547295
	0.7554759979 0.7690274715 0.7753828168
	0.7563552260 0.7698352933 0.7762109041
	0.7572342753 0.7706053257 0.7770388722
	0.7581133842 0.7713655829 0.7778670192
	0.7589924932 0.7721258998 0.7786949873
	0.7598717213 0.7728862166 0.7795230746
	0.7607079744 0.7736464739 0.7803282738
	0.7615370154 0.7744067907 0.7811022997
	0.7623659968 0.7751671076 0.7818763852
	0.7631949782 0.7759273052 0.7826504707
	0.7640240192 0.7766876221 0.7834246159
	0.7648531199 0.7774478793 0.7841985822
	0.7656821012 0.7782081962 0.7849727273
	0.7665110826 0.7789685130 0.7857468128
	0.7673401237 0.7797287703 0.7865208983
	0.7681691051 0.7804598808 0.7872949243
	0.7689980865 0.7811748981 0.7880690098
	0.7698271275 0.7818897963 0.7888430953
	0.7706180215 0.7826048136 0.7896171212
	0.7713987827 0.7833197117 0.7903652787
	0.7721796036 0.7840347290 0.7910879850
	0.7729604244 0.7847496271 0.7918108106
	0.7737411857 0.7854645848 0.7925335169
	0.7745220065 0.7861794829 0.7932562828
	0.7753028274 0.7868943810 0.7939789891
	0.7760835886 0.7876093984 0.7947018147
	0.7768645287 0.7883242965 0.7954245210
	0.7776452899 0.7890393138 0.7961472273
	0.7784261107 0.7897542119 0.7968699932
	0.7792068720 0.7904409170 0.7975926995
	0.7799876928 0.7911127210 0.7983155251
	0.7807230949 0.7917845249 0.7990381718
	0.7814577222 0.7924563289 0.7997609973
	0.7821922898 0.7931280732 0.8004512191
	0.7829269767 0.7937998772 0.8011254072
	0.7836616039 0.7944718003 0.8017995954
	0.7843962908 0.7951436043 0.8024737239
	0.7851309180 0.7958154082 0.8031479120
	0.7858656049 0.7964872122 0.8038221002
	0.7866001725 0.7971590161 0.8044962883
	0.7873347998 0.7978308201 0.8051704168
	0.7880694866 0.7985026836 0.8058446050
	0.7888041139 0.7991744876 0.8065187931
	0.7895388007 0.7998462915 0.8071929812
	0.7902569771 0.8004866242 0.8078672290
	0.7909476161 0.8011174798 0.8085412979
	0.7916381955 0.8017483950 0.8092154860
	0.7923287749 0.8023793101 0.8098896742
	0.7930194139 0.8030102253 0.8105255961
	0.7937099934 0.8036412001 0.8111540079
	0.7944005728 0.8042721152 0.8117824197
	0.7950912118 0.8049029708 0.8124107718
	0.7957817912 0.8055338860 0.8130391836
	0.7964723706 0.8061649203 0.8136675954
	0.7971630096 0.8067957759 0.8142960072
	0.7978535891 0.8074266911 0.8149244189
	0.7985442281 0.8080576062 0.8155527711
	0.7992348075 0.8086885214 0.8161811829
	0.7999253869 0.8093194962 0.8168095946
	0.8005787134 0.8099504113 0.8174380064
	0.8012273908 0.8105456829 0.8180664182
	0.8018761873 0.8111379147 0.8186947703
	0.8025249243 0.8117302060 0.8193231821
	0.8031736016 0.8123223782 0.8199515939
	0.8038223982 0.8129147291 0.8205404282
	0.8044710755 0.8135069013 0.8211258054
	0.8051198125 0.8140991926 0.8217111826
	0.8057686090 0.8146914244 0.8222966194
	0.8064172864 0.8152837157 0.8228819966
	0.8070660233 0.8158758879 0.8234674931
	0.8077148199 0.8164681792 0.8240528703
	0.8083634973 0.8170604110 0.8246383071
	0.8090121746 0.8176527023 0.8252236843
	0.8096609712 0.8182448745 0.8258091211
	0.8102908134 0.8188372254 0.8263946176
	0.8108997941 0.8194293976 0.8269799948
	0.8115088940 0.8200203776 0.8275653720
	0.8121178746 0.8205760717 0.8281508088
	0.8127269745 0.8211318851 0.8287361860
	0.8133360147 0.8216876984 0.8293216825
	0.8139451146 0.8222435117 0.8299071193
	0.8145542145 0.8227992058 0.8304585814
	0.8151631951 0.8233550191 0.8310037851
	0.8157722950 0.8239107728 0.8315489888
	0.8163812757 0.8244665265 0.8320941925
	0.8169903755 0.8250222802 0.8326392770
	0.8175994158 0.8255780935 0.8331844807
	0.8182085156 0.8261339068 0.8337296844
	0.8188176155 0.8266896009 0.8342748880
	0.8194265962 0.8272454143 0.8348199725
	0.8200334907 0.8278012276 0.8353651762
	0.8206049800 0.8283569217 0.8359103799
	0.8211765885 0.8289126754 0.8364555836
	0.8217481971 0.8294684887 0.8370007277
	0.8223196864 0.8300228119 0.8375458717
	0.8228912950 0.8305441737 0.8380910754
	0.8234627843 0.8310655951 0.8386362791
	0.8240343928 0.8315870166 0.8391814232
	0.8246060014 0.8321084976 0.8397266269
	0.8251774907 0.8326299191 0.8402529955
	0.8257490993 0.8331512809 0.8407605886
	0.8263205886 0.8336728215 0.8412681818
	0.8268921971 0.8341941833 0.8417757750
	0.8274638057 0.8347156048 0.8422834277
	0.8280352950 0.8352370858 0.8427910209
	0.8286069036 0.8357585073 0.8432986140
	0.8291783929 0.8362799287 0.8438062072
	0.8297500014 0.8368014097 0.8443138003
	0.8303017020 0.8373227715 0.8448213935
	0.8308379054 0.8378441930 0.8453289866
	0.8313741088 0.8383656144 0.8458365798
	0.8319103122 0.8388870955 0.8463441730
	0.8324465156 0.8394085169 0.8468517065
	0.8329827189 0.8399298787 0.8473592997
	0.8335189223 0.8404234052 0.8478668928
	0.8340551257 0.8409125805 0.8483744860
	0.8345913291 0.8414016962 0.8488820791
	0.8351274729 0.8418908715 0.8493896723
	0.8356636763 0.8423801064 0.8498973250
	0.8361998796 0.8428692222 0.8503770232
	0.8367360830 0.8433583975 0.8508495092
	0.8372722864 0.8438475132 0.8513221145
	0.8378084898 0.8443366885 0.8517947197
	0.8383446932 0.8448258042 0.8522673249
	0.8388810158 0.8453149796 0.8527398109
	0.8394172192 0.8458042145 0.8532124162
	0.8399534225 0.8462932706 0.8536850214
	0.8404592276 0.8467825055 0.8541575074
	0.8409621119 0.8472716212 0.8546301126
	0.8414651155 0.8477607965 0.8551027179
	0.8419679999 0.8482499719 0.8555753231
	0.8424710035 0.8487390876 0.8560478091
	0.8429738879 0.8492283225 0.8565204144
	0.8434768915 0.8497173786 0.8569930196
	0.8439797759 0.8501937985 0.8574656248
	0.8444827199 0.8506526947 0.8579381108
	0.8449857235 0.8511115909 0.8584107161
	0.8454886079 0.8515704274 0.8588833213
	0.8459916115 0.8520293236 0.8593558073
	0.8464944959 0.8524882197 0.8598284125
	0.8469973803 0.8529471159 0.8602802157
	0.8475003839 0.8534058928 0.8607202172
	0.8480033278 0.8538647890 0.8611602187
	0.8485062718 0.8543236852 0.8616002202
	0.8490092158 0.8547825813 0.8620402217
	0.8495122194 0.8552414775 0.8624802232
	0.8500142097 0.8557003140 0.8629202247
	0.8504859209 0.8561592102 0.8633602262
	0.8509575725 0.8566181064 0.8638002276
	0.8514292836 0.8570770025 0.8642402291
	0.8519009948 0.8575357795 0.8646801710
	0.8523727059 0.8579946756 0.8651201725
	0.8528444171 0.8584535718 0.8655601740
	0.8533161283 0.8589125276 0.8660001755
	0.8537877798 0.8593714237 0.8664401770
	0.8542594910 0.8598302007 0.8668801785
	0.8547312021 0.8602712154 0.8673201799
	0.8552029133 0.8607016802 0.8677601814
	0.8556746244 0.8611322045 0.8682001829
	0.8561462760 0.8615627289 0.8686401844
	0.8566179872 0.8619931936 0.8690801859
	0.8570896983 0.8624237180 0.8695201874
	0.8575614095 0.8628543019 0.8699601889
	0.8580331206 0.8632848263 0.8703727126
	0.8585047722 0.8637152910 0.8707824945
	0.8589764833 0.8641458154 0.8711922169
	0.8594481945 0.8645762801 0.8716019988
	0.8599199057 0.8650068045 0.8720117211
	0.8603671789 0.8654373288 0.8724213839
	0.8608096838 0.8658677936 0.8728312254
	0.8612521291 0.8662983179 0.8732408881
	0.8616945148 0.8667287827 0.8736507297
	0.8621369004 0.8671593070 0.8740603924
	0.8625792861 0.8675897717 0.8744701743
	0.8630216718 0.8680202961 0.8748798966
	0.8634641171 0.8684508204 0.8752896786
	0.8639065027 0.8688812852 0.8756994009
	0.8643488884 0.8693118095 0.8761091828
	0.8647912741 0.8697422743 0.8765189052
	0.8652337193 0.8701621294 0.8769286275
	0.8656761050 0.8705661297 0.8773384094
	0.8661184907 0.8709700108 0.8777480721
	0.8665608764 0.8713740110 0.8781579137
	0.8670033216 0.8717778921 0.8785675764
	0.8674457073 0.8721818924 0.8789774179
	0.8678880930 0.8725857735 0.8793870807
	0.8683304787 0.8729897141 0.8797969222
	0.8687729239 0.8733937144 0.8801925182
	0.8692153096 0.8737975955 0.8805741072
	0.8696576953 0.8742015958 0.8809558153
	0.8700938821 0.8746054769 0.8813375235
	0.8705089092 0.8750094771 0.8817191720
	0.8709238768 0.8754134178 0.8821008801
	0.8713387847 0.8758172989 0.8824825287
	0.8717538118 0.8762212992 0.8828641772
	0.8721687198 0.8766251802 0.8832458854
	0.8725836873 0.8770291805 0.8836275935
	0.8729987144 0.8774331212 0.8840093017
	0.8734136224 0.8778371215 0.8843908906
	0.8738285899 0.8782410026 0.8847725987
	0.8742436171 0.8786448836 0.8851543069
	0.8746585250 0.8790488839 0.8855360150
	0.8750734925 0.8794528246 0.8859177232
	0.8754885197 0.8798568249 0.8862993121
	0.8759034276 0.8802446723 0.8866810203
	0.8763183951 0.8806238174 0.8870627284
	0.8767334223 0.8810029030 0.8874443769
	0.8771482706 0.8813819885 0.8878260255
	0.8775632977 0.8817610741 0.8882076740
	0.8779783249 0.8821402192 0.8885893822
	0.8783931732 0.8825193048 0.8889710903
	0.8788082004 0.8828983903 0.8893527985
	0.8792232275 0.8832774758 0.8897343874
	0.8796380758 0.8836566210 0.8901082277
	0.8800498247 0.8840357065 0.8904638886
	0.8804391026 0.8844147921 0.8908194900
	0.8808283806 0.8847938776 0.8911752105
	0.8812177181 0.8851730227 0.8915308714
	0.8816069961 0.8855521083 0.8918864727
