release/datafiles/colormanagement/luts/film_response/kodak_ektachrome_100_plus.spi1d
Version 1
From 0.0 1.0
Length 1024
Components 3
{
	0.0000000000 0.0000000000 0.0000000000
	0.0004568259 0.0001897309 0.0001937342
	0.0009166480 0.0003902519 0.0003960232
	0.0013811550 0.0006009749 0.0006110691
	0.0018588870 0.0008188499 0.0008411508
	0.0023563609 0.0010459250 0.0010869150
	0.0028804501 0.0012829941 0.0013466120
	0.0034379531 0.0015326150 0.0016192500
	0.0040225340 0.0017928330 0.0019048119
	0.0046354202 0.0020639880 0.0022035320
	0.0052711908 0.0023474649 0.0025181000
	0.0059363251 0.0026404259 0.0028487111
	0.0066329152 0.0029452001 0.0031957659
	0.0073490841 0.0032632940 0.0035582529
	0.0080807637 0.0035944299 0.0039348011
	0.0088355178 0.0039396151 0.0043245698
	0.0096289609 0.0043014390 0.0047304570
	0.0104655102 0.0046766838 0.0051527582
	0.0113350702 0.0050640670 0.0055932738
	0.0122496197 0.0054649492 0.0060512018
	0.0131988404 0.0058779810 0.0065282308
	0.0141810300 0.0063044452 0.0070242109
	0.0151987597 0.0067441980 0.0075386940
	0.0162404794 0.0072005908 0.0080726901
	0.0173083302 0.0076743681 0.0086258948
	0.0184124205 0.0081653623 0.0091975229
	0.0195518192 0.0086749326 0.0097900750
	0.0207353197 0.0092027588 0.0103992401
	0.0219628699 0.0097467797 0.0110272104
	0.0232388396 0.0103067802 0.0116758104
	0.0245534405 0.0108824596 0.0123488903
	0.0259076506 0.0114777200 0.0130474502
	0.0273041893 0.0120923202 0.0137724997
	0.0287391301 0.0127261700 0.0145242196
	0.0302102603 0.0133811496 0.0153033203
	0.0317212492 0.0140584502 0.0161061808
	0.0332731493 0.0147604104 0.0169263799
	0.0348760188 0.0154822599 0.0177620295
	0.0365183204 0.0162258204 0.0186164491
	0.0382087417 0.0169929601 0.0194896292
	0.0399495289 0.0177801996 0.0203795508
	0.0417297594 0.0185851697 0.0212911796
	0.0435510091 0.0194129106 0.0222245902
	0.0454129390 0.0202547908 0.0231861304
	0.0473076887 0.0211168006 0.0241758395
	0.0492347218 0.0219969898 0.0251984708
	0.0512037501 0.0229012799 0.0262466706
	0.0532191209 0.0238268599 0.0273228493
	0.0552755818 0.0247761197 0.0284204800
	0.0573842004 0.0257481597 0.0295423996
	0.0595382415 0.0267426297 0.0306846593
	0.0617300794 0.0277668294 0.0318456888
	0.0639634207 0.0288175102 0.0330268405
	0.0662460178 0.0298932791 0.0342224501
	0.0685783774 0.0309970807 0.0354311503
	0.0709521696 0.0321253613 0.0366570689
	0.0733637214 0.0332747698 0.0379007794
	0.0758268237 0.0344457105 0.0391649790
	0.0783338398 0.0356396101 0.0404515490
	0.0808990374 0.0368562713 0.0417614505
	0.0835125297 0.0380946510 0.0430966802
	0.0861754268 0.0393532701 0.0444576107
	0.0888888985 0.0406360887 0.0458458997
	0.0916479379 0.0419454388 0.0472616889
	0.0944517180 0.0432827994 0.0486994199
	0.0972917899 0.0446463488 0.0501526110
	0.1001828983 0.0460356399 0.0516319200
	0.1031202003 0.0474530496 0.0531338789
	0.1061026007 0.0488977507 0.0546585694
	0.1091277003 0.0503737107 0.0562016517
	0.1121969000 0.0518880300 0.0577665791
	0.1153125986 0.0534419082 0.0593559109
	0.1184772998 0.0550320297 0.0609692894
	0.1216840968 0.0566530786 0.0626069382
	0.1249388009 0.0583061315 0.0642700866
	0.1282431036 0.0599966310 0.0659606308
	0.1315928996 0.0617280900 0.0676777512
	0.1349757016 0.0634948835 0.0694218278
	0.1383993030 0.0652914569 0.0711889118
	0.1418682933 0.0671163797 0.0729750469
	0.1453785002 0.0689697564 0.0747864991
	0.1489267945 0.0708598867 0.0766221583
	0.1525138021 0.0727824494 0.0784773678
	0.1561374068 0.0747363791 0.0803539827
	0.1597927064 0.0767190233 0.0822619572
	0.1634854972 0.0787282810 0.0842007920
	0.1672230065 0.0807615295 0.0861660689
	0.1710027009 0.0828175321 0.0881549865
	0.1748190969 0.0849011689 0.0901617482
	0.1786739975 0.0870237797 0.0921890587
	0.1825643927 0.0891877636 0.0942407027
	0.1864794940 0.0913877636 0.0963157490
	0.1904242039 0.0936163589 0.0984156132
	0.1944115013 0.0958681777 0.1005403996
	0.1984315068 0.0981432199 0.1026867032
	0.2024817020 0.1004460007 0.1048531979
	0.2065692991 0.1027875021 0.1070401967
	0.2106909007 0.1051672027 0.1092483029
	0.2148406059 0.1075756028 0.1114758030
	0.2190158069 0.1100080982 0.1137152985
	0.2232162058 0.1124617979 0.1159678996
	0.2274380028 0.1149377003 0.1182356998
	0.2316682935 0.1174454018 0.1205220968
	0.2359098047 0.1199733987 0.1228303015
	0.2401736975 0.1225221008 0.1251548976
	0.2444601953 0.1250932068 0.1274984032
	0.2487654984 0.1276911050 0.1298629940
	0.2530876994 0.1303067952 0.1322595030
	0.2574402988 0.1329407990 0.1346741021
	0.2618153989 0.1355946958 0.1371085942
	0.2662160099 0.1382690966 0.1395681947
	0.2706286907 0.1409652978 0.1420474052
	0.2750388086 0.1436827034 0.1445465982
	0.2794604897 0.1464273036 0.1470647007
	0.2838951945 0.1492000073 0.1496022046
	0.2883372903 0.1519946009 0.1521558017
	0.2927843034 0.1548147053 0.1547247022
	0.2972404063 0.1576558053 0.1573172063
	0.3016996980 0.1605056971 0.1599285007
	0.3061661124 0.1633636951 0.1625496000
	0.3106426001 0.1662496030 0.1651808023
	0.3151304126 0.1691479981 0.1678352952
	0.3196105063 0.1720582992 0.1704951972
	0.3240850866 0.1749927998 0.1731574982
	0.3285588920 0.1779374033 0.1758297980
	0.3330225945 0.1808930039 0.1785068065
	0.3374676108 0.1838704050 0.1811906993
	0.3418787122 0.1868537068 0.1838902980
	0.3462742865 0.1898439974 0.1865974069
	0.3506546915 0.1928507984 0.1893136948
	0.3550148010 0.1958658993 0.1920381039
	0.3593491912 0.1988967061 0.1947682947
	0.3636716902 0.2019404024 0.1975080073
	0.3679802120 0.2049918026 0.2002497017
	0.3722729981 0.2080595046 0.2029945999
	0.3765603900 0.2111341059 0.2057335973
	0.3808422089 0.2142200023 0.2084708959
	0.3850818872 0.2173251063 0.2112185955
	0.3893063068 0.2204380035 0.2139669061
	0.3935188055 0.2235597968 0.2167157978
	0.3977065980 0.2266864032 0.2194723934
	0.4018787146 0.2298216969 0.2222321928
	0.4060066938 0.2329684943 0.2249837965
	0.4101200104 0.2361215949 0.2277349979
	0.4142099917 0.2392960936 0.2304856032
	0.4182651937 0.2424751967 0.2332389951
	0.4223062098 0.2456675023 0.2359952033
	0.4263221025 0.2488580942 0.2387603074
	0.4303199053 0.2520464957 0.2415284067
	0.4342919886 0.2552388906 0.2442979962
	0.4382177889 0.2584339082 0.2470681965
	0.4421251118 0.2616392970 0.2498411983
	0.4459949136 0.2648470998 0.2526099086
	0.4498532116 0.2680524886 0.2553699017
	0.4536815882 0.2712588012 0.2581270933
	0.4574846029 0.2744691968 0.2608813047
	0.4612646103 0.2776809931 0.2636286914
	0.4650110900 0.2808963060 0.2663717866
	0.4687466919 0.2841087878 0.2691045105
	0.4724290967 0.2873168886 0.2718333900
	0.4761005938 0.2905252874 0.2745406926
	0.4797236025 0.2937338948 0.2772436142
	0.4833352864 0.2969321907 0.2799426019
	0.4869242013 0.3001225889 0.2826412022
	0.4905020893 0.3033182919 0.2853288949
	0.4940682054 0.3065170944 0.2880161107
	0.4975984991 0.3097181022 0.2906906009
	0.5011065006 0.3129202127 0.2933647931
	0.5045886040 0.3161264956 0.2960147858
	0.5080611110 0.3193351030 0.2986648083
	0.5115216970 0.3225524127 0.3013044894
	0.5149798989 0.3257744014 0.3039439917
	0.5184119940 0.3289855123 0.3065662980
	0.5218411088 0.3321900964 0.3091877103
	0.5252186060 0.3353936970 0.3117879033
	0.5285930037 0.3385963142 0.3143858016
	0.5319072008 0.3417963088 0.3169586957
	0.5352197886 0.3449935913 0.3195259869
	0.5384925008 0.3481869996 0.3220764101
	0.5417643785 0.3513746858 0.3246203065
	0.5449957848 0.3545599878 0.3271425962
	0.5482258201 0.3577390015 0.3296504021
	0.5514274836 0.3609147966 0.3321473897
	0.5546270013 0.3640691936 0.3346312940
	0.5577927828 0.3672235906 0.3371109962
	0.5609536767 0.3703644872 0.3395805061
	0.5640918016 0.3735049069 0.3420476019
	0.5672239065 0.3766363859 0.3444921076
	0.5703287125 0.3797653019 0.3469367027
	0.5734214783 0.3828806877 0.3493632078
	0.5764908195 0.3859854937 0.3517870903
	0.5795422792 0.3890849948 0.3541991115
	0.5825762749 0.3921729028 0.3566043973
	0.5855858922 0.3952594101 0.3590024114
	0.5885831118 0.3983199000 0.3613883853
	0.5915424228 0.4013803899 0.3637714088
	0.5944979191 0.4044235051 0.3661235869
	0.5973832011 0.4074612856 0.3684759140
	0.6002684832 0.4104872942 0.3708046079
	0.6031265855 0.4134992957 0.3731263876
	0.6059790850 0.4165073037 0.3754419982
	0.6088135242 0.4194850922 0.3777495921
	0.6116350889 0.4224627912 0.3800561130
	0.6144289970 0.4254232049 0.3823485970
	0.6171646714 0.4283778071 0.3846412003
	0.6198990941 0.4313283861 0.3869284093
	0.6225900054 0.4342721999 0.3892132044
	0.6252809763 0.4372158945 0.3914948106
	0.6279500127 0.4401437044 0.3937678039
	0.6306102276 0.4430705905 0.3960408866
	0.6332606077 0.4459845126 0.3983030021
	0.6358942986 0.4488858879 0.4005627036
	0.6385279298 0.4517867863 0.4028213918
	0.6411197186 0.4546740949 0.4050782025
	0.6437116265 0.4575614929 0.4073350132
	0.6462585926 0.4604415894 0.4095784128
	0.6487771869 0.4633156955 0.4118196964
	0.6512870789 0.4661892056 0.4140588045
	0.6537609100 0.4690420032 0.4162935913
	0.6562346816 0.4718948007 0.4185284078
	0.6586757898 0.4747399092 0.4207589924
	0.6611058712 0.4775764942 0.4229885936
	0.6635295749 0.4804131091 0.4252167940
	0.6659365296 0.4832342863 0.4274396896
	0.6683434248 0.4860537946 0.4296625853
	0.6707113981 0.4888609052 0.4318814874
	0.6730682254 0.4916389883 0.4340975881
	0.6754177213 0.4944170117 0.4363138080
	0.6777454019 0.4971829057 0.4385361969
	0.6800730824 0.4999426007 0.4407587945
	0.6823896766 0.5027021766 0.4429790080
	0.6847013831 0.5054432154 0.4451938868
	0.6870059967 0.5081841946 0.4474087059
	0.6892570853 0.5109151006 0.4496183991
	0.6915082932 0.5136244893 0.4518249035
	0.6937376857 0.5163338184 0.4540314078
	0.6959462762 0.5190213919 0.4562326968
	0.6981548071 0.5216943026 0.4584333897
	0.7003312111 0.5243672132 0.4606317878
	0.7025029063 0.5270034075 0.4628174901
	0.7046647072 0.5296329856 0.4650033116
	0.7067890167 0.5322594047 0.4671837091
	0.7089133263 0.5348445177 0.4693551958
	0.7110230923 0.5374295712 0.4715267122
	0.7131193280 0.5399996042 0.4736973047
	0.7152153850 0.5425274968 0.4758673906
	0.7172769904 0.5450553894 0.4780373871
	0.7193294168 0.5475718975 0.4801994860
	0.7213792801 0.5500730276 0.4823586047
	0.7233660817 0.5525740981 0.4845176935
	0.7253528237 0.5550534725 0.4866720140
	0.7273290753 0.5575155020 0.4888255000
	0.7292746902 0.5599774718 0.4909788966
	0.7312203050 0.5624241233 0.4931291044
	0.7331498861 0.5648627281 0.4952791035
	0.7350592017 0.5673012733 0.4974288940
	0.7369683981 0.5697147846 0.4995673001
	0.7388588190 0.5721186996 0.5017058253
	0.7407366037 0.5745226145 0.5038431287
	0.7426143289 0.5768790841 0.5059599280
	0.7444639802 0.5792204738 0.5080766082
	0.7463030815 0.5815619826 0.5101922750
	0.7481421232 0.5838884115 0.5122897029
	0.7499330044 0.5862100720 0.5143870711
	0.7517132163 0.5885317922 0.5164837837
	0.7534933090 0.5908361077 0.5185531974
	0.7552289963 0.5931339860 0.5206226110
	0.7569586039 0.5954319835 0.5226920247
	0.7586882710 0.5977076292 0.5247408152
	0.7603802085 0.5999724269 0.5267890096
	0.7620685101 0.6022372842 0.5288370848
	0.7637568116 0.6044870019 0.5308629870
	0.7654249072 0.6067258120 0.5328854918
	0.7670909762 0.6089646220 0.5349079967
	0.7687572241 0.6111888885 0.5369161963
	0.7703763843 0.6133955717 0.5389193892
	0.7719892263 0.6156023145 0.5409225225
	0.7736020088 0.6177954078 0.5429117084
	0.7751833797 0.6199551821 0.5448905230
	0.7767575979 0.6221150160 0.5468692780
	0.7783316970 0.6242699027 0.5488427281
	0.7799007893 0.6263784170 0.5508071780
	0.7814676762 0.6284868121 0.5527716875
	0.7830346823 0.6305952072 0.5547339916
	0.7845696211 0.6326767802 0.5566831827
	0.7860810757 0.6347541213 0.5586323738
	0.7875925899 0.6368314028 0.5605816245
	0.7890849113 0.6388925910 0.5625146031
	0.7905498147 0.6409428716 0.5644453764
	0.7920145988 0.6429932117 0.5663762093
	0.7934713960 0.6450356841 0.5682945848
	0.7948976159 0.6470593810 0.5702040195
	0.7963238955 0.6490830779 0.5721132755
	0.7977501154 0.6511068940 0.5740166903
	0.7991691232 0.6531022191 0.5759012103
	0.8005877733 0.6550961733 0.5777856112
	0.8020066023 0.6570903063 0.5796700716
	0.8034045100 0.6590561271 0.5815389156
	0.8047934771 0.6610018015 0.5834053159
	0.8061826229 0.6629474759 0.5852717757
	0.8075594902 0.6648828983 0.5871319771
	0.8089175820 0.6667698026 0.5889847875
	0.8102757931 0.6686565876 0.5908375978
	0.8116320968 0.6705434918 0.5926902294
	0.8129532933 0.6724057198 0.5945152044
	0.8142744899 0.6742588282 0.5963401794
	0.8155958056 0.6761118174 0.5981652141
	0.8168948889 0.6779593229 0.5999823809
	0.8181831241 0.6797894835 0.6017925739
	0.8194714189 0.6816197038 0.6036027074
	0.8207564950 0.6834499836 0.6054127812
	0.8220325708 0.6852660775 0.6072114706
	0.8233085871 0.6870769262 0.6090102196
	0.8245846033 0.6888877153 0.6108089089
	0.8258383870 0.6906918287 0.6126012802
	0.8270868063 0.6924620271 0.6143857241
	0.8283351064 0.6942321062 0.6161699891
	0.8295804858 0.6960023046 0.6179543734
	0.8308194280 0.6977444887 0.6197059155
	0.8320583105 0.6994649768 0.6214510202
	0.8332971931 0.7011855245 0.6231961846
	0.8345112801 0.7029060125 0.6249343753
	0.8357185721 0.7046008110 0.6266446710
	0.8369258046 0.7062937021 0.6283550262
	0.8381229043 0.7079864740 0.6300653219
	0.8392837048 0.7096688151 0.6317604184
	0.8404445052 0.7113192081 0.6334416270
	0.8416053057 0.7129697204 0.6351227164
	0.8427382708 0.7146201134 0.6368038058
	0.8438537121 0.7162567973 0.6384651065
	0.8449690938 0.7178813815 0.6401215792
	0.8460845947 0.7195060253 0.6417779922
	0.8471649885 0.7211306095 0.6434329748
	0.8482443094 0.7227483988 0.6450561881
	0.8493235707 0.7243642807 0.6466792822
	0.8503887057 0.7259801030 0.6483023763
	0.8514184952 0.7275959253 0.6499150991
	0.8524482250 0.7291961908 0.6514953971
	0.8534778953 0.7307960987 0.6530758142
	0.8544930816 0.7323961258 0.6546561122
	0.8554970026 0.7339910865 0.6562228203
	0.8565009236 0.7355558872 0.6577693820
	0.8575047851 0.7371206880 0.6593158841
	0.8584917784 0.7386854887 0.6608623862
	0.8594745994 0.7402415276 0.6623889208
	0.8604573011 0.7417721748 0.6638967991
	0.8614401221 0.7433028817 0.6654046774
	0.8623782992 0.7448335886 0.6669126153
	0.8633162975 0.7463521957 0.6683937907
	0.8642541766 0.7478467226 0.6698569059
	0.8651856780 0.7493410707 0.6713200212
	0.8660802841 0.7508355975 0.6727830768
	0.8669748902 0.7523164153 0.6742259264
	0.8678696156 0.7537738085 0.6756564975
	0.8687558770 0.7552313209 0.6770871878
	0.8696188927 0.7566887140 0.6785178185
	0.8704819083 0.7581344843 0.6799271703
	0.8713449240 0.7595599294 0.6813234091
	0.8722006083 0.7609851956 0.6827195883
	0.8730415106 0.7624105215 0.6841157079
	0.8738824725 0.7638270259 0.6854910851
	0.8747234941 0.7652239203 0.6868504286
	0.8755509257 0.7666208744 0.6882097721
	0.8763540983 0.7680178285 0.6895691156
	0.8771572709 0.7694097161 0.6909182072
	0.8779605031 0.7707833052 0.6922556162
	0.8787578940 0.7721568942 0.6935930252
	0.8795443177 0.7735304832 0.6949303746
	0.8803306818 0.7749016285 0.6962568164
	0.8811172247 0.7762401104 0.6975601912
	0.8818970919 0.7775787115 0.6988636851
	0.8826605082 0.7789173126 0.7001671195
	0.8834239841 0.7802559137 0.7014654875
	0.8841875196 0.7815645933 0.7027323842
	0.8849436045 0.7828695774 0.7039992213
	0.8856664896 0.7841745019 0.7052659988
	0.8863893151 0.7854794860 0.7065327764
	0.8871122003 0.7867677808 0.7077702880
	0.8878350854 0.7880474925 0.7090048194
	0.8885604143 0.7893270850 0.7102392912
	0.8892856836 0.7906067967 0.7114737034
	0.8900108933 0.7918794155 0.7126892805
	0.8907362223 0.7931404114 0.7138935924
	0.8914461732 0.7944014072 0.7150977850
	0.8921533227 0.7956624031 0.7163020968
	0.8928604126 0.7969211936 0.7174999714
	0.8935676217 0.7981446981 0.7186828256
	0.8942708969 0.7993682027 0.7198656797
	0.8949717283 0.8005917072 0.7210485935
	0.8956726193 0.8018152118 0.7222315073
	0.8963733912 0.8030143976 0.7233734727
	0.8970720768 0.8042024970 0.7245125771
	0.8977661729 0.8053905964 0.7256516814
	0.8984603286 0.8065786958 0.7267907262
	0.8991544247 0.8077601790 0.7279145122
	0.8998485208 0.8089237809 0.7290235758
	0.9005149007 0.8100873828 0.7301326990
	0.9011809230 0.8112509847 0.7312418222
	0.9018470049 0.8124147058 0.7323492169
	0.9025130272 0.8135333061 0.7334213853
	0.9031683207 0.8146411777 0.7344936728
	0.9038167000 0.8157489896 0.7355659008
	0.9044650793 0.8168568015 0.7366381288
	0.9051135182 0.8179541826 0.7376983166
	0.9057582021 0.8190261722 0.7387477160
	0.9063869119 0.8200982213 0.7397971153
	0.9070156217 0.8211702108 0.7408465743
	0.9076442122 0.8222423196 0.7418959737
	0.9082729220 0.8232967854 0.7429301143
	0.9088765979 0.8243448734 0.7439635992
	0.9094702005 0.8253930211 0.7449972034
	0.9100638032 0.8264411092 0.7460306883
	0.9106575251 0.8274878860 0.7470514178
	0.9112505913 0.8285259008 0.7480484843
	0.9118415713 0.8295637965 0.7490454912
	0.9124326706 0.8306018114 0.7500426173
	0.9130237103 0.8316397071 0.7510396242
	0.9136146903 0.8326591849 0.7520161271
	0.9142035246 0.8336567283 0.7529833913
	0.9147909284 0.8346542120 0.7539507151
	0.9153783917 0.8356516957 0.7549179792
	0.9159657955 0.8366491795 0.7558851838
	0.9165533185 0.8376235962 0.7568265200
	0.9171171784 0.8385900259 0.7577672005
	0.9176810980 0.8395562768 0.7587078214
	0.9182450771 0.8405227065 0.7596483827
	0.9188089967 0.8414890766 0.7605820894
	0.9193634987 0.8424319029 0.7614898086
	0.9198989272 0.8433743119 0.7623975277
	0.9204342961 0.8443166018 0.7633051276
	0.9209697843 0.8452588916 0.7642127872
	0.9215052128 0.8461968899 0.7651119828
	0.9220255017 0.8471127748 0.7659983039
	0.9225360751 0.8480286002 0.7668846250
	0.9230468273 0.8489444852 0.7677708864
	0.9235574007 0.8498603106 0.7686572075
	0.9240680933 0.8507688046 0.7695332766
	0.9245592952 0.8516598940 0.7703999877
	0.9250469208 0.8525511026 0.7712668180
	0.9255344272 0.8534421921 0.7721335888
	0.9260219932 0.8543332815 0.7730002999
	0.9265089035 0.8552088737 0.7738537788
	0.9269595146 0.8560588956 0.7746983767
	0.9274101257 0.8569089174 0.7755429745
	0.9278606176 0.8577588797 0.7763875723
	0.9283112288 0.8586089015 0.7772322297
	0.9287610054 0.8594486117 0.7780702710
	0.9292058945 0.8602731228 0.7789046168
	0.9296509027 0.8610975742 0.7797389030
	0.9300957918 0.8619220853 0.7805731893
	0.9305406809 0.8627465963 0.7814074755
	0.9309821129 0.8635640740 0.7822362781
	0.9314101934 0.8643702269 0.7830613256
	0.9318383932 0.8651763201 0.7838863730
	0.9322664738 0.8659824133 0.7847114205
	0.9326946139 0.8667885065 0.7855364084
	0.9331154227 0.8675866127 0.7863515019
	0.9335113764 0.8683658838 0.7871572971
	0.9339073896 0.8691452146 0.7879629731
	0.9343034029 0.8699244857 0.7887688279
	0.9346994758 0.8707038164 0.7895745039
	0.9350925088 0.8714814186 0.7903773189
	0.9354733229 0.8722500205 0.7911751866
	0.9358540773 0.8730186224 0.7919729948
	0.9362348914 0.8737872243 0.7927709222
	0.9366155863 0.8745558262 0.7935687900
	0.9369941950 0.8753244281 0.7943630815
	0.9373536110 0.8760707974 0.7951408029
	0.9377130270 0.8768165112 0.7959185839
	0.9380723834 0.8775621057 0.7966964245
	0.9384316802 0.8783078194 0.7974742055
	0.9387910962 0.8790534139 0.7982519865
	0.9391242266 0.8797795773 0.7990127802
	0.9394561052 0.8804981112 0.7997723222
	0.9397879839 0.8812165260 0.8005318046
	0.9401199222 0.8819350004 0.8012912869
	0.9404518008 0.8826534748 0.8020508289
	0.9407855868 0.8833674192 0.8027989864
	0.9411200881 0.8840746284 0.8035404086
	0.9414545298 0.8847818971 0.8042817116
	0.9417889714 0.8854891062 0.8050230145
	0.9421234727 0.8861963749 0.8057643771
	0.9424526095 0.8869026899 0.8065025806
	0.9427763224 0.8875902891 0.8072319031
	0.9430999160 0.8882780075 0.8079612255
	0.9434236288 0.8889656067 0.8086904883
	0.9437472224 0.8896532059 0.8094198108
	0.9440696836 0.8903409243 0.8101490736
	0.9443870783 0.8910048008 0.8108692765
	0.9447045922 0.8916543722 0.8115875721
	0.9450219870 0.8923041224 0.8123059273
	0.9453393817 0.8929538131 0.8130242229
	0.9456567764 0.8936033845 0.8137425184
	0.9459626079 0.8942502141 0.8144533038
	0.9462655187 0.8948795795 0.8151500821
	0.9465684891 0.8955091238 0.8158469200
	0.9468713999 0.8961384892 0.8165438175
	0.9471743703 0.8967679739 0.8172405958
	0.9474688172 0.8973973989 0.8179373741
	0.9477491975 0.8980208039 0.8186287880
	0.9480295777 0.8986400962 0.8193188906
	0.9483100176 0.8992593884 0.8200089931
	0.9485903978 0.8998786807 0.8206989765
	0.9488707781 0.9004979730 0.8213890791
	0.9491494298 0.9011172056 0.8220766783
	0.9494279027 0.9017202854 0.8227545023
	0.9497063160 0.9023234844 0.8234323859
	0.9499847889 0.9029266238 0.8241102099
	0.9502632022 0.9035297036 0.8247880936
	0.9505476952 0.9041329026 0.8254659176
	0.9508438706 0.9047262073 0.8261309862
	0.9511401057 0.9053006768 0.8267852068
	0.9514362812 0.9058750868 0.8274394274
	0.9517325163 0.9064496160 0.8280935884
	0.9520286918 0.9070240855 0.8287478089
	0.9523310065 0.9075986147 0.8294020295
	0.9526355267 0.9081652761 0.8300411105
	0.9529399872 0.9087274075 0.8306767941
	0.9532445073 0.9092894197 0.8313124776
	0.9535490274 0.9098513722 0.8319482803
	0.9538534284 0.9104133844 0.8325840235
	0.9541549087 0.9109753966 0.8332191706
	0.9544565082 0.9115229845 0.8338392973
	0.9547581077 0.9120678902 0.8344593048
	0.9550595880 0.9126127958 0.8350793123
	0.9553611875 0.9131575823 0.8356993794
	0.9556581974 0.9137024879 0.8363193870
	0.9559459090 0.9142473936 0.8369358778
	0.9562335014 0.9147704840 0.8375366926
	0.9565210938 0.9152935147 0.8381375074
	0.9568086863 0.9158164859 0.8387383223
	0.9570962787 0.9163393974 0.8393390775
	0.9573791027 0.9168624282 0.8399398923
	0.9576573968 0.9173836112 0.8405390978
	0.9579358101 0.9178845882 0.8411338925
	0.9582142234 0.9183856249 0.8417286873
	0.9584925771 0.9188866019 0.8423236012
	0.9587709904 0.9193875790 0.8429183960
	0.9590389132 0.9198886156 0.8435133100
	0.9593018293 0.9203869104 0.8441042900
	0.9595646262 0.9208633900 0.8446862102
	0.9598274827 0.9213399291 0.8452680111
	0.9600902796 0.9218164086 0.8458498716
	0.9603531957 0.9222928882 0.8464317918
	0.9606087208 0.9227694273 0.8470137119
	0.9608618021 0.9232439995 0.8475909233
	0.9611148834 0.9236922264 0.8481546044
	0.9613680243 0.9241403937 0.8487182856
	0.9616211057 0.9245886207 0.8492819071
	0.9618741870 0.9250367880 0.8498455882
	0.9621182084 0.9254850149 0.8504093289
	0.9623593092 0.9259333014 0.8509712815
	0.9626005292 0.9263677001 0.8515232801
	0.9628416896 0.9268016815 0.8520752788
	0.9630827904 0.9272356033 0.8526272774
	0.9633240104 0.9276695848 0.8531792760
	0.9635608792 0.9281035066 0.8537312746
	0.9637960792 0.9285374880 0.8542832732
	0.9640312791 0.9289491773 0.8548194766
	0.9642664790 0.9293550849 0.8553553224
	0.9645017982 0.9297609925 0.8558911085
	0.9647369981 0.9301669002 0.8564267755
	0.9649640918 0.9305728078 0.8569626212
	0.9651858807 0.9309787154 0.8574984074
	0.9654077888 0.9313749075 0.8580273986
	0.9656295776 0.9317634106 0.8585538864
	0.9658514261 0.9321519136 0.8590804935
	0.9660732150 0.9325404763 0.8596069813
	0.9662867188 0.9329289794 0.8601335287
	0.9664887190 0.9333174825 0.8606600761
	0.9666907787 0.9337003827 0.8611857295
	0.9668927789 0.9340664744 0.8617103100
	0.9670948982 0.9344326258 0.8622347713
	0.9672968984 0.9347985983 0.8627592921
	0.9674957991 0.9351646900 0.8632838130
	0.9676799178 0.9355307817 0.8638082743
	0.9678639174 0.9358968735 0.8643323183
	0.9680479169 0.9362515807 0.8648458719
	0.9682319164 0.9366047978 0.8653594851
	0.9684159756 0.9369578958 0.8658730984
	0.9685999751 0.9373109937 0.8663867116
	0.9687842727 0.9376642108 0.8669003248
	0.9689685702 0.9380173087 0.8674138784
	0.9691529274 0.9383693933 0.8679202795
