release/datafiles/colormanagement/luts/film_response/kodak_portra_800.spi1d
Version 1
From 0.0 1.0
Length 1024
Components 3
{
	0.0000000000 0.0000000000 0.0000000000
	0.0088124285 0.0079260534 0.0079260534
	0.0173182599 0.0154689904 0.0154689904
	0.0250097904 0.0223134402 0.0223134402
	0.0318675414 0.0285592694 0.0285592694
	0.0382458083 0.0343292207 0.0343292207
	0.0440907888 0.0397338495 0.0397338495
	0.0496913791 0.0447938815 0.0447938815
	0.0549593382 0.0496262200 0.0496262200
	0.0600188002 0.0542288311 0.0542288311
	0.0648257434 0.0586788617 0.0586788617
	0.0694660619 0.0629591122 0.0629591122
	0.0739658996 0.0670659617 0.0670659617
	0.0782863200 0.0710892603 0.0710892603
	0.0824507698 0.0749912113 0.0749912113
	0.0864929035 0.0788405612 0.0788405612
	0.0904697403 0.0825625733 0.0825625733
	0.0943273082 0.0861979574 0.0861979574
	0.0981024578 0.0897707865 0.0897707865
	0.1018401012 0.0932211131 0.0932211131
	0.1054691002 0.0966563523 0.0966563523
	0.1090489030 0.1000294015 0.1000294015
	0.1125440001 0.1033191979 0.1033191979
	0.1159221008 0.1065331027 0.1065331027
	0.1192713007 0.1097005978 0.1097005978
	0.1225581989 0.1128138974 0.1128138974
	0.1257860959 0.1158875003 0.1158875003
	0.1289588958 0.1189555973 0.1189555973
	0.1321441978 0.1219801009 0.1219801009
	0.1352636069 0.1249566972 0.1249566972
	0.1383159012 0.1278752983 0.1278752983
	0.1413581967 0.1307422966 0.1307422966
	0.1443576962 0.1336016953 0.1336016953
	0.1472717971 0.1364331990 0.1364331990
	0.1501350999 0.1392025054 0.1392025054
	0.1529815942 0.1419408023 0.1419408023
	0.1558008045 0.1446657926 0.1446657926
	0.1586032957 0.1473688930 0.1473688930
	0.1613503993 0.1500454992 0.1500454992
	0.1640668958 0.1526847035 0.1526847035
	0.1667777002 0.1552831978 0.1552831978
	0.1694519967 0.1578582972 0.1578582972
	0.1720923930 0.1604107022 0.1604107022
	0.1746968031 0.1629472971 0.1629472971
	0.1772591025 0.1654641926 0.1654641926
	0.1797759980 0.1679515988 0.1679515988
	0.1822800934 0.1704009026 0.1704009026
	0.1847687066 0.1728225946 0.1728225946
	0.1872310042 0.1752288938 0.1752288938
	0.1896561980 0.1776168942 0.1776168942
	0.1920384020 0.1799840033 0.1799840033
	0.1944015026 0.1823205948 0.1823205948
	0.1967525929 0.1846179962 0.1846179962
	0.1990911067 0.1869053990 0.1869053990
	0.2014010996 0.1891890019 0.1891890019
	0.2037014961 0.1914498061 0.1914498061
	0.2060168982 0.1936779022 0.1936779022
	0.2083324045 0.1958771050 0.1958771050
	0.2106439024 0.1980604976 0.1980604976
	0.2129282951 0.2002373040 0.2002373040
	0.2151844054 0.2024063021 0.2024063021
	0.2174350023 0.2045633942 0.2045633942
	0.2196764946 0.2067063004 0.2067063004
	0.2219022959 0.2088321000 0.2088321000
	0.2241204977 0.2109334022 0.2109334022
	0.2263171971 0.2130157053 0.2130157053
	0.2284786999 0.2150927931 0.2150927931
	0.2306168973 0.2171598971 0.2171598971
	0.2327332944 0.2192052007 0.2192052007
	0.2348272949 0.2212346047 0.2212346047
	0.2369115055 0.2232697010 0.2232697010
	0.2389767021 0.2253111005 0.2253111005
	0.2410169989 0.2273571938 0.2273571938
	0.2430370003 0.2294019014 0.2294019014
	0.2450459003 0.2314381003 0.2314381003
	0.2470474988 0.2334637046 0.2334637046
	0.2490427047 0.2354702950 0.2354702950
	0.2510350049 0.2374535054 0.2374535054
	0.2530182004 0.2394181937 0.2394181937
	0.2549867928 0.2413693964 0.2413693964
	0.2569330931 0.2433117926 0.2433117926
	0.2588599026 0.2452446073 0.2452446073
	0.2607747018 0.2471683025 0.2471683025
	0.2626813948 0.2490822971 0.2490822971
	0.2645846903 0.2509844899 0.2509844899
	0.2664898038 0.2528660893 0.2528660893
	0.2683837116 0.2547389865 0.2547389865
	0.2702631950 0.2566035986 0.2566035986
	0.2721140981 0.2584480941 0.2584480941
	0.2739478052 0.2602775097 0.2602775097
	0.2757706046 0.2620961070 0.2620961070
	0.2775853872 0.2639020085 0.2639020085
	0.2794038057 0.2656953037 0.2656953037
	0.2812230885 0.2674824893 0.2674824893
	0.2830418050 0.2692643106 0.2692643106
	0.2848351002 0.2710475922 0.2710475922
	0.2866136134 0.2728300095 0.2728300095
	0.2883686125 0.2746050954 0.2746050954
	0.2901135087 0.2763741016 0.2763741016
	0.2918516994 0.2781391144 0.2781391144
	0.2935769856 0.2798882127 0.2798882127
	0.2953031063 0.2816232145 0.2816232145
	0.2970305085 0.2833353877 0.2833353877
	0.2987627089 0.2850272954 0.2850272954
	0.3004961908 0.2867107093 0.2867107093
	0.3022179008 0.2883763909 0.2883763909
	0.3039326966 0.2900390029 0.2900390029
	0.3056339025 0.2916957140 0.2916957140
	0.3073236048 0.2933523953 0.2933523953
	0.3090057075 0.2950091958 0.2950091958
	0.3106757104 0.2966647148 0.2966647148
	0.3123432994 0.2983194888 0.2983194888
	0.3140107989 0.2999661863 0.2999661863
	0.3156793118 0.3016082942 0.3016082942
	0.3173511028 0.3032361865 0.3032361865
	0.3190175891 0.3048543036 0.3048543036
	0.3206757009 0.3064570129 0.3064570129
	0.3223229051 0.3080512881 0.3080512881
	0.3239594102 0.3096374869 0.3096374869
	0.3255836964 0.3112207055 0.3112207055
	0.3271996081 0.3128018975 0.3128018975
	0.3288047910 0.3143788874 0.3143788874
	0.3304041922 0.3159537017 0.3159537017
	0.3320013881 0.3175298870 0.3175298870
	0.3335976005 0.3191067874 0.3191067874
	0.3351888955 0.3206779063 0.3206779063
	0.3367778063 0.3222463131 0.3222463131
	0.3383550048 0.3238070011 0.3238070011
	0.3399255872 0.3253633976 0.3253633976
	0.3414827883 0.3269123137 0.3269123137
	0.3430297971 0.3284555078 0.3284555078
	0.3445636928 0.3299894929 0.3299894929
	0.3460822105 0.3315128088 0.3315128088
	0.3475958109 0.3330293894 0.3330293894
	0.3490990102 0.3345321119 0.3345321119
	0.3506017923 0.3360328078 0.3360328078
	0.3521026969 0.3375233114 0.3375233114
	0.3536036015 0.3390137851 0.3390137851
	0.3551059067 0.3404915035 0.3404915035
	0.3566082120 0.3419683874 0.3419683874
	0.3580994904 0.3434371054 0.3434371054
	0.3595857024 0.3449020982 0.3449020982
	0.3610610068 0.3463630974 0.3463630974
	0.3625203967 0.3478182852 0.3478182852
	0.3639777005 0.3492721915 0.3492721915
	0.3654133976 0.3507139981 0.3507139981
	0.3668490946 0.3521556854 0.3521556854
	0.3682768941 0.3535880148 0.3535880148
	0.3697017133 0.3550168872 0.3550168872
	0.3711271882 0.3564417064 0.3564417064
	0.3725540042 0.3578588068 0.3578588068
	0.3739807904 0.3592759073 0.3592759073
	0.3754133880 0.3606815040 0.3606815040
	0.3768466115 0.3620859981 0.3620859981
	0.3782753050 0.3634850979 0.3634850979
	0.3796978891 0.3648771048 0.3648771048
	0.3811204135 0.3662689924 0.3662689924
	0.3825325072 0.3676514030 0.3676514030
	0.3839435875 0.3690330088 0.3690330088
	0.3853504956 0.3704110980 0.3704110980
	0.3867498934 0.3717832863 0.3717832863
	0.3881492913 0.3731555045 0.3731555045
	0.3895345032 0.3745233119 0.3745233119
	0.3909151852 0.3758895993 0.3758895993
	0.3922944069 0.3772548139 0.3772548139
	0.3936628103 0.3786112964 0.3786112964
	0.3950310946 0.3799678087 0.3799678087
	0.3963941932 0.3813194036 0.3813194036
	0.3977501988 0.3826650083 0.3826650083
	0.3991062939 0.3840106130 0.3840106130
	0.4004457891 0.3853495121 0.3853495121
	0.4017783105 0.3866856992 0.3866856992
	0.4031107128 0.3880218863 0.3880218863
	0.4044226110 0.3893507123 0.3893507123
	0.4057329893 0.3906790018 0.3906790018
	0.4070420861 0.3920061886 0.3920061886
	0.4083415866 0.3933256865 0.3933256865
	0.4096410871 0.3946452141 0.3946452141
	0.4109367132 0.3959634900 0.3959634900
	0.4122210145 0.3972786963 0.3972786963
	0.4135052860 0.3985939026 0.3985939026
	0.4147841930 0.3999078870 0.3999078870
	0.4160529971 0.4012196958 0.4012196958
	0.4173217118 0.4025315046 0.4025315046
	0.4185839891 0.4038358033 0.4038358033
	0.4198360145 0.4051288962 0.4051288962
	0.4210878909 0.4064218998 0.4064218998
	0.4223288000 0.4077093899 0.4077093899
	0.4235515893 0.4089880884 0.4089880884
	0.4247742891 0.4102669060 0.4102669060
	0.4259923995 0.4115405083 0.4115405083
	0.4272009134 0.4128041863 0.4128041863
	0.4284093082 0.4140678942 0.4140678942
	0.4296151102 0.4153267145 0.4153267145
	0.4308117032 0.4165697992 0.4165697992
	0.4320083857 0.4178129137 0.4178129137
	0.4332041144 0.4190546870 0.4190546870
	0.4343877137 0.4202808142 0.4202808142
	0.4355713129 0.4215069115 0.4215069115
	0.4367547929 0.4227330089 0.4227330089
	0.4379391968 0.4239530861 0.4239530861
	0.4391236901 0.4251722991 0.4251722991
	0.4403083026 0.4263913929 0.4263913929
	0.4414936900 0.4276081026 0.4276081026
	0.4426796138 0.4288231134 0.4288231134
	0.4438655972 0.4300382137 0.4300382137
	0.4450480044 0.4312498868 0.4312498868
	0.4462217093 0.4324539900 0.4324539900
	0.4473954141 0.4336580038 0.4336580038
	0.4485690892 0.4348619878 0.4348619878
	0.4497332871 0.4360530078 0.4360530078
	0.4508967996 0.4372431040 0.4372431040
	0.4520604014 0.4384332895 0.4384332895
	0.4532183111 0.4396133125 0.4396133125
	0.4543708861 0.4407838881 0.4407838881
	0.4555234909 0.4419544041 0.4419544041
	0.4566758871 0.4431242943 0.4431242943
	0.4578221142 0.4442783892 0.4442783892
	0.4589683115 0.4454325140 0.4454325140
	0.4601145089 0.4465866089 0.4465866089
	0.4612562060 0.4477371871 0.4477371871
	0.4623934925 0.4488846064 0.4488846064
	0.4635308087 0.4500319064 0.4500319064
	0.4646682143 0.4511792958 0.4511792958
	0.4657953978 0.4523159862 0.4523159862
	0.4669215977 0.4534518123 0.4534518123
	0.4680477977 0.4545876086 0.4545876086
	0.4691722989 0.4557209909 0.4557209909
	0.4702917933 0.4568476975 0.4568476975
	0.4714111984 0.4579744935 0.4579744935
	0.4725306928 0.4591012895 0.4591012895
	0.4736500978 0.4602225125 0.4602225125
	0.4747695029 0.4613394141 0.4613394141
	0.4758889973 0.4624564052 0.4624564052
	0.4770084023 0.4635733068 0.4635733068
	0.4781275094 0.4646795094 0.4646795094
	0.4792464077 0.4657829106 0.4657829106
	0.4803653955 0.4668863118 0.4668863118
	0.4814842939 0.4679895937 0.4679895937
	0.4825977981 0.4690910876 0.4690910876
	0.4837110043 0.4701924026 0.4701924026
	0.4848242104 0.4712938070 0.4712938070
	0.4859367907 0.4723945856 0.4723945856
	0.4870401919 0.4734885097 0.4734885097
	0.4881435037 0.4745824933 0.4745824933
	0.4892467856 0.4756763875 0.4756763875
	0.4903483987 0.4767695963 0.4767695963
	0.4914352894 0.4778566062 0.4778566062
	0.4925222099 0.4789434969 0.4789434969
	0.4936090112 0.4800305068 0.4800305068
	0.4946955144 0.4811173975 0.4811173975
	0.4957770109 0.4822036028 0.4822036028
	0.4968583882 0.4832898080 0.4832898080
	0.4979399145 0.4843761027 0.4843761027
	0.4990214109 0.4854621887 0.4854621887
	0.5000975728 0.4865370989 0.4865370989
	0.5011737943 0.4876120090 0.4876120090
	0.5022500157 0.4886868894 0.4886868894
	0.5033261776 0.4897617996 0.4897617996
	0.5043833256 0.4908238053 0.4908238053
	0.5054367781 0.4918834865 0.4918834865
	0.5064904094 0.4929431975 0.4929431975
	0.5075439811 0.4940029085 0.4940029085
	0.5085870028 0.4950586855 0.4950586855
	0.5096237063 0.4961124063 0.4961124063
	0.5106604099 0.4971660078 0.4971660078
	0.5116971135 0.4982196093 0.4982196093
	0.5127326250 0.4992741942 0.4992741942
	0.5137655139 0.5003306270 0.5003306270
	0.5147984028 0.5013868809 0.5013868809
	0.5158312917 0.5024433136 0.5024433136
	0.5168641806 0.5034996271 0.5034996271
	0.5178936124 0.5045477748 0.5045477748
	0.5189229250 0.5055958033 0.5055958033
	0.5199521780 0.5066437721 0.5066437721
	0.5209816098 0.5076918006 0.5076918006
	0.5220068097 0.5087348819 0.5087348819
	0.5230284929 0.5097740889 0.5097740889
	0.5240502954 0.5108131766 0.5108131766
	0.5250719786 0.5118523240 0.5118523240
	0.5260933042 0.5128911138 0.5128911138
	0.5271025896 0.5139240026 0.5139240026
	0.5281118751 0.5149567723 0.5149567723
	0.5291212201 0.5159897208 0.5159897208
	0.5301305056 0.5170226097 0.5170226097
	0.5311338902 0.5180504918 0.5180504918
	0.5321304202 0.5190727711 0.5190727711
	0.5331268907 0.5200952291 0.5200952291
	0.5341234207 0.5211176276 0.5211176276
	0.5351197720 0.5221399069 0.5221399069
	0.5361112952 0.5231561065 0.5231561065
	0.5371016860 0.5241708755 0.5241708755
	0.5380920172 0.5251858234 0.5251858234
	0.5390822887 0.5262005925 0.5262005925
	0.5400725007 0.5272145271 0.5272145271
	0.5410608053 0.5282195807 0.5282195807
	0.5420491099 0.5292246938 0.5292246938
	0.5430374742 0.5302299261 0.5302299261
	0.5440257788 0.5312349796 0.5312349796
	0.5450109243 0.5322359800 0.5322359800
	0.5459877849 0.5332267880 0.5332267880
	0.5469647050 0.5342177153 0.5342177153
	0.5479416251 0.5352085233 0.5352085233
	0.5489184856 0.5361993909 0.5361993909
	0.5498880744 0.5371838212 0.5371838212
	0.5508465767 0.5381588936 0.5381588936
	0.5518051982 0.5391340256 0.5391340256
	0.5527637005 0.5401090980 0.5401090980
	0.5537223220 0.5410841703 0.5410841703
	0.5546782017 0.5420532823 0.5420532823
	0.5556306839 0.5430148244 0.5430148244
	0.5565832853 0.5439764261 0.5439764261
	0.5575358272 0.5449379086 0.5449379086
	0.5584883094 0.5458995104 0.5458995104
	0.5594409704 0.5468540192 0.5468540192
	0.5603938103 0.5477982163 0.5477982163
	0.5613465905 0.5487424135 0.5487424135
	0.5622994900 0.5496866107 0.5496866107
	0.5632522702 0.5506308079 0.5506308079
	0.5642018914 0.5515701175 0.5515701175
	0.5651431084 0.5524966717 0.5524966717
	0.5660842061 0.5534232855 0.5534232855
	0.5670254230 0.5543497801 0.5543497801
	0.5679665804 0.5552763939 0.5552763939
	0.5689064860 0.5562021732 0.5562021732
	0.5698277950 0.5571172237 0.5571172237
	0.5707491040 0.5580322146 0.5580322146
	0.5716704130 0.5589473248 0.5589473248
	0.5725917220 0.5598623157 0.5598623157
	0.5735129714 0.5607773066 0.5607773066
	0.5744280815 0.5616865754 0.5616865754
	0.5753415227 0.5625941753 0.5625941753
	0.5762547851 0.5635017753 0.5635017753
	0.5771682262 0.5644093752 0.5644093752
	0.5780814886 0.5653169751 0.5653169751
	0.5789892077 0.5662230849 0.5662230849
	0.5798879862 0.5671266913 0.5671266913
	0.5807867050 0.5680304170 0.5680304170
	0.5816854835 0.5689340234 0.5689340234
	0.5825843215 0.5698376894 0.5698376894
	0.5834829807 0.5707412958 0.5707412958
	0.5843644738 0.5716376901 0.5716376901
	0.5852444768 0.5725334883 0.5725334883
	0.5861244798 0.5734294057 0.5734294057
	0.5870044827 0.5743252039 0.5743252039
	0.5878844857 0.5752210021 0.5752210021
	0.5887588263 0.5761132240 0.5761132240
	0.5896230936 0.5769993067 0.5769993067
	0.5904874802 0.5778853893 0.5778853893
	0.5913518071 0.5787714124 0.5787714124
	0.5922161937 0.5796574950 0.5796574950
	0.5930805206 0.5805435777 0.5805435777
	0.5939381719 0.5814265013 0.5814265013
	0.5947932005 0.5823081732 0.5823081732
	0.5956482291 0.5831899047 0.5831899047
	0.5965033174 0.5840715170 0.5840715170
	0.5973582864 0.5849531889 0.5849531889
	0.5982133150 0.5858349204 0.5858349204
	0.5990638733 0.5867123008 0.5867123008
	0.5999143124 0.5875896811 0.5875896811
	0.6007646918 0.5884671211 0.5884671211
	0.6016150713 0.5893443823 0.5893443823
	0.6024655104 0.5902218223 0.5902218223
	0.6033152938 0.5910989046 0.5910989046
	0.6041615009 0.5919741988 0.5919741988
	0.6050077081 0.5928496122 0.5928496122
	0.6058537960 0.5937249064 0.5937249064
	0.6067000031 0.5946002007 0.5946002007
	0.6075462103 0.5954756141 0.5954756141
	0.6083909273 0.5963500142 0.5963500142
	0.6092299223 0.5972210169 0.5972210169
	0.6100689769 0.5980920792 0.5980920792
	0.6109080911 0.5989630818 0.5989630818
	0.6117472053 0.5998342037 0.5998342037
	0.6125863194 0.6007053256 0.6007053256
	0.6134225726 0.6015741229 0.6015741229
	0.6142470241 0.6024342179 0.6024342179
	0.6150714755 0.6032943130 0.6032943130
	0.6158959866 0.6041544080 0.6041544080
	0.6167204976 0.6050143838 0.6050143838
	0.6175450087 0.6058744788 0.6058744788
	0.6183692813 0.6067342162 0.6067342162
	0.6191921234 0.6075887084 0.6075887084
	0.6200149059 0.6084432006 0.6084432006
	0.6208376884 0.6092978120 0.6092978120
	0.6216604710 0.6101523042 0.6101523042
	0.6224833131 0.6110067964 0.6110067964
	0.6233062148 0.6118612885 0.6118612885
	0.6241316199 0.6127145290 0.6127145290
	0.6249575019 0.6135674119 0.6135674119
	0.6257833242 0.6144202948 0.6144202948
	0.6266092062 0.6152731776 0.6152731776
	0.6274350882 0.6161261201 0.6161261201
	0.6282610297 0.6169791222 0.6169791222
	0.6290842295 0.6178271174 0.6178271174
	0.6299049258 0.6186708808 0.6186708808
	0.6307256222 0.6195145845 0.6195145845
	0.6315463781 0.6203582883 0.6203582883
	0.6323670745 0.6212021112 0.6212021112
	0.6331877708 0.6220458150 0.6220458150
	0.6340078712 0.6228886247 0.6228886247
	0.6348218918 0.6237223148 0.6237223148
	0.6356359124 0.6245561242 0.6245561242
	0.6364498734 0.6253898740 0.6253898740
	0.6372638941 0.6262236238 0.6262236238
	0.6380779147 0.6270573735 0.6270573735
	0.6388918757 0.6278911829 0.6278911829
	0.6397082210 0.6287242174 0.6287242174
	0.6405261755 0.6295565963 0.6295565963
	0.6413441896 0.6303889751 0.6303889751
	0.6421622038 0.6312214136 0.6312214136
	0.6429802775 0.6320537925 0.6320537925
	0.6437982917 0.6328861713 0.6328861713
	0.6446163058 0.6337186098 0.6337186098
	0.6454324722 0.6345450282 0.6345450282
	0.6462485194 0.6353709102 0.6353709102
	0.6470645070 0.6361969113 0.6361969113
	0.6478806138 0.6370227933 0.6370227933
	0.6486966014 0.6378486753 0.6378486753
	0.6495125890 0.6386746168 0.6386746168
	0.6503264904 0.6394987106 0.6394987106
	0.6511304975 0.6403145790 0.6403145790
	0.6519343853 0.6411305070 0.6411305070
	0.6527382731 0.6419463754 0.6419463754
	0.6535422206 0.6427623034 0.6427623034
	0.6543462276 0.6435781717 0.6435781717
	0.6551501155 0.6443940997 0.6443940997
	0.6559516191 0.6452056170 0.6452056170
	0.6567478776 0.6460080147 0.6460080147
	0.6575443149 0.6468102932 0.6468102932
	0.6583405733 0.6476125717 0.6476125717
	0.6591368914 0.6484150290 0.6484150290
	0.6599332094 0.6492173076 0.6492173076
	0.6607295871 0.6500195861 0.6500195861
	0.6615231037 0.6508170962 0.6508170962
	0.6623113751 0.6516057849 0.6516057849
	0.6630997062 0.6523944736 0.6523944736
	0.6638879776 0.6531832218 0.6531832218
	0.6646761894 0.6539719105 0.6539719105
	0.6654645205 0.6547605991 0.6547605991
	0.6662527919 0.6555492878 0.6555492878
	0.6670367718 0.6563370228 0.6563370228
	0.6678087711 0.6571220756 0.6571220756
	0.6685808897 0.6579073071 0.6579073071
	0.6693528891 0.6586924195 0.6586924195
	0.6701248884 0.6594774723 0.6594774723
	0.6708970070 0.6602627039 0.6602627039
	0.6716690063 0.6610478163 0.6610478163
	0.6724401712 0.6618329883 0.6618329883
	0.6731992960 0.6626194119 0.6626194119
	0.6739584208 0.6634057760 0.6634057760
	0.6747174859 0.6641921997 0.6641921997
	0.6754766703 0.6649786234 0.6649786234
	0.6762357950 0.6657649875 0.6657649875
	0.6769949198 0.6665514112 0.6665514112
	0.6777541041 0.6673377752 0.6673377752
	0.6785085201 0.6681154966 0.6681154966
	0.6792613268 0.6688904762 0.6688904762
	0.6800141931 0.6696655154 0.6696655154
	0.6807669997 0.6704404950 0.6704404950
	0.6815198064 0.6712154746 0.6712154746
	0.6822726727 0.6719905138 0.6719905138
	0.6830254793 0.6727654934 0.6727654934
	0.6837748289 0.6735368967 0.6735368967
	0.6845164895 0.6743007898 0.6743007898
	0.6852582097 0.6750648022 0.6750648022
	0.6859998703 0.6758286953 0.6758286953
	0.6867415905 0.6765927076 0.6765927076
	0.6874831915 0.6773566008 0.6773566008
	0.6882249117 0.6781204939 0.6781204939
	0.6889665723 0.6788845062 0.6788845062
	0.6897013187 0.6796460152 0.6796460152
	0.6904339194 0.6804066896 0.6804066896
	0.6911664009 0.6811674833 0.6811674833
	0.6918990016 0.6819282770 0.6819282770
	0.6926314831 0.6826890111 0.6826890111
	0.6933640242 0.6834498048 0.6834498048
	0.6940966249 0.6842104793 0.6842104793
	0.6948286295 0.6849713922 0.6849713922
	0.6955537796 0.6857334971 0.6857334971
	0.6962791085 0.6864956021 0.6864956021
	0.6970043778 0.6872575879 0.6872575879
	0.6977297068 0.6880196929 0.6880196929
	0.6984549761 0.6887817979 0.6887817979
	0.6991803050 0.6895439029 0.6895439029
	0.6999055743 0.6903060079 0.6903060079
	0.7006272078 0.6910654902 0.6910654902
	0.7013388276 0.6918187141 0.6918187141
	0.7020503879 0.6925718188 0.6925718188
	0.7027621269 0.6933249235 0.6933249235
	0.7034736872 0.6940780282 0.6940780282
	0.7041853070 0.6948311925 0.6948311925
	0.7048969865 0.6955842972 0.6955842972
	0.7056086063 0.6963374019 0.6963374019
	0.7063143849 0.6970837116 0.6970837116
	0.7070090175 0.6978172064 0.6978172064
	0.7077037096 0.6985507011 0.6985507011
	0.7083982825 0.6992840767 0.6992840767
	0.7090929151 0.7000175714 0.7000175714
	0.7097874880 0.7007511258 0.7007511258
	0.7104821205 0.7014846206 0.7014846206
	0.7111766934 0.7022181153 0.7022181153
	0.7118694186 0.7029485703 0.7029485703
	0.7125568986 0.7036715150 0.7036715150
	0.7132444978 0.7043945193 0.7043945193
	0.7139320970 0.7051174045 0.7051174045
	0.7146195769 0.7058404088 0.7058404088
	0.7153071761 0.7065634131 0.7065634131
	0.7159947753 0.7072862983 0.7072862983
	0.7166823745 0.7080093026 0.7080093026
	0.7173694968 0.7087321281 0.7087321281
	0.7180529237 0.7094535828 0.7094535828
	0.7187362909 0.7101749778 0.7101749778
	0.7194197178 0.7108964920 0.7108964920
	0.7201030254 0.7116180062 0.7116180062
	0.7207863927 0.7123395205 0.7123395205
	0.7214698195 0.7130609155 0.7130609155
	0.7221531272 0.7137824297 0.7137824297
	0.7228364944 0.7145038843 0.7145038843
	0.7235093117 0.7152239084 0.7152239084
	0.7241787910 0.7159435153 0.7159435153
	0.7248482704 0.7166631222 0.7166631222
	0.7255179286 0.7173827291 0.7173827291
	0.7261874080 0.7181022763 0.7181022763
	0.7268568873 0.7188218832 0.7188218832
	0.7275264263 0.7195414901 0.7195414901
	0.7281959057 0.7202610970 0.7202610970
	0.7288634181 0.7209777236 0.7209777236
	0.7295259833 0.7216871977 0.7216871977
	0.7301887274 0.7223966718 0.7223966718
	0.7308512926 0.7231062055 0.7231062055
	0.7315139771 0.7238156796 0.7238156796
	0.7321766019 0.7245252132 0.7245252132
	0.7328392863 0.7252346873 0.7252346873
	0.7335019112 0.7259442210 0.7259442210
	0.7341645956 0.7266536951 0.7266536951
	0.7348304987 0.7273570895 0.7273570895
	0.7354977727 0.7280579209 0.7280579209
	0.7361652255 0.7287588120 0.7287588120
	0.7368324995 0.7294595838 0.7294595838
	0.7374997735 0.7301604152 0.7301604152
	0.7381672263 0.7308611870 0.7308611870
	0.7388345003 0.7315620184 0.7315620184
	0.7395017743 0.7322629094 0.7322629094
	0.7401691079 0.7329636812 0.7329636812
	0.7408332229 0.7336601019 0.7336601019
	0.7414970994 0.7343564034 0.7343564034
	0.7421609163 0.7350527048 0.7350527048
	0.7428247929 0.7357490063 0.7357490063
	0.7434887290 0.7364453077 0.7364453077
	0.7441526055 0.7371416092 0.7371416092
	0.7448164225 0.7378379107 0.7378379107
	0.7454802990 0.7385342121 0.7385342121
	0.7461434007 0.7392303944 0.7392303944
	0.7467958927 0.7399262190 0.7399262190
	0.7474485040 0.7406219244 0.7406219244
	0.7481011152 0.7413176894 0.7413176894
	0.7487536073 0.7420133948 0.7420133948
	0.7494062185 0.7427091002 0.7427091002
	0.7500588298 0.7434049249 0.7434049249
	0.7507113218 0.7441005707 0.7441005707
	0.7513638735 0.7447963953 0.7447963953
	0.7520164847 0.7454916835 0.7454916835
	0.7526692152 0.7461783290 0.7461783290
	0.7533218861 0.7468649745 0.7468649745
	0.7539746165 0.7475516796 0.7475516796
	0.7546272874 0.7482383251 0.7482383251
	0.7552800179 0.7489249706 0.7489249706
	0.7559326887 0.7496116757 0.7496116757
	0.7565854192 0.7502983212 0.7502983212
	0.7572380900 0.7509850264 0.7509850264
	0.7578908205 0.7516716719 0.7516716719
	0.7585409880 0.7523459196 0.7523459196
	0.7591909766 0.7530183792 0.7530183792
	0.7598409057 0.7536908984 0.7536908984
	0.7604907751 0.7543634176 0.7543634176
	0.7611407042 0.7550358772 0.7550358772
	0.7617905736 0.7557083964 0.7557083964
	0.7624406219 0.7563807964 0.7563807964
	0.7630904913 0.7570533156 0.7570533156
	0.7637404203 0.7577257752 0.7577257752
	0.7643836737 0.7583953738 0.7583953738
	0.7650216222 0.7590625286 0.7590625286
	0.7656595111 0.7597296238 0.7597296238
