release/datafiles/colormanagement/luts/film_response/kodak_portra_400nc.spi1d
Version 1
From 0.0 1.0
Length 1024
Components 3
{
	0.0000000000 0.0000000000 0.0000000000
	0.0114686396 0.0107471403 0.0087564439
	0.0217512399 0.0202643294 0.0160814300
	0.0303464700 0.0281717796 0.0221705399
	0.0377242714 0.0349318609 0.0275946204
	0.0443095490 0.0409396514 0.0324226208
	0.0503021218 0.0464737117 0.0369786993
	0.0558728315 0.0517093204 0.0412629806
	0.0610256903 0.0566021390 0.0452965386
	0.0659263134 0.0612265393 0.0491837002
	0.0706434101 0.0656422004 0.0528963394
	0.0751574785 0.0698595867 0.0564641915
	0.0794606581 0.0738903284 0.0599343516
	0.0835847408 0.0778156295 0.0632929727
	0.0876147822 0.0816217065 0.0665517896
	0.0915386677 0.0853431597 0.0697500929
	0.0953285396 0.0889591500 0.0728649125
	0.0989516675 0.0924931094 0.0759018511
	0.1024663970 0.0958689004 0.0788350999
	0.1058961004 0.0991332605 0.0816867501
	0.1092602983 0.1023299024 0.0844683573
	0.1125695035 0.1054401994 0.0872167125
	0.1157974973 0.1085370034 0.0899668783
	0.1189695969 0.1115973964 0.0926889405
	0.1221098974 0.1145918965 0.0953712016
	0.1251875013 0.1175365001 0.0979943499
	0.1281960011 0.1204660982 0.1005420014
	0.1311468929 0.1233218014 0.1030569002
	0.1340449005 0.1260855943 0.1055212021
	0.1368933022 0.1287900954 0.1079170033
	0.1396844983 0.1314754933 0.1103053018
	0.1424379051 0.1341181993 0.1126656979
	0.1451424062 0.1367079020 0.1150159985
	0.1478171945 0.1392980963 0.1173409969
	0.1504548937 0.1418841928 0.1196570992
	0.1530500054 0.1444393992 0.1219561994
	0.1555911005 0.1469538957 0.1242327988
	0.1581020057 0.1494355053 0.1264850050
	0.1605874002 0.1518718004 0.1287028939
	0.1630426943 0.1542987972 0.1308919936
	0.1654826999 0.1566974074 0.1330559999
	0.1679003984 0.1590469033 0.1351830959
	0.1703007966 0.1613458991 0.1372949034
	0.1726765931 0.1636165977 0.1393575966
	0.1750312001 0.1658513993 0.1414173990
	0.1773743033 0.1680632979 0.1434593946
	0.1796950996 0.1702526957 0.1454783976
	0.1819853038 0.1724139005 0.1474941969
	0.1842298955 0.1745467931 0.1494760960
	0.1864486933 0.1766640991 0.1514540017
	0.1886311024 0.1787831932 0.1534274966
	0.1907832026 0.1809104979 0.1553764045
	0.1929026991 0.1830410957 0.1573255062
	0.1950244009 0.1851601005 0.1592600048
	0.1971314996 0.1872643977 0.1611716002
	0.1992381066 0.1893534064 0.1630840003
	0.2013241053 0.1914180070 0.1649879962
	0.2034000009 0.1934722960 0.1668666005
	0.2054556012 0.1955029964 0.1687465012
	0.2074957937 0.1975183934 0.1706251055
	0.2095358968 0.1995349973 0.1724743992
	0.2115648985 0.2015223950 0.1743170023
	0.2135839015 0.2034906000 0.1761588007
	0.2155832052 0.2054294050 0.1779755950
	0.2175676972 0.2073418945 0.1797723025
	0.2195197046 0.2092444003 0.1815697998
	0.2214522064 0.2111348063 0.1833599955
	0.2233704031 0.2130120993 0.1851364970
	0.2252652049 0.2148773074 0.1868986040
	0.2271434069 0.2167267948 0.1886556000
	0.2290212065 0.2185603976 0.1903920025
	0.2308852971 0.2203781009 0.1921014935
	0.2327376008 0.2221764028 0.1937994957
	0.2345706969 0.2239618003 0.1954976022
	0.2363775074 0.2257477045 0.1971796006
	0.2381743938 0.2275269926 0.1988390982
	0.2399536967 0.2292968929 0.2004887015
	0.2417089045 0.2310636044 0.2021429986
	0.2434546947 0.2328283936 0.2037986070
	0.2451961935 0.2345885932 0.2054408938
	0.2469274998 0.2363439947 0.2070686072
	0.2486505061 0.2380899042 0.2086946070
	0.2503683865 0.2398183942 0.2103239000
	0.2520723045 0.2415340990 0.2119438946
	0.2537688017 0.2432458997 0.2135417014
	0.2554596066 0.2449575067 0.2151297927
	0.2571457028 0.2466547936 0.2167214006
	0.2588266134 0.2483399063 0.2183215022
	0.2605035007 0.2500117123 0.2199174017
	0.2621727884 0.2516688108 0.2215020061
	0.2638291121 0.2533113062 0.2230799049
	0.2654761076 0.2549428046 0.2246621996
	0.2671324015 0.2565666139 0.2262382060
	0.2687830031 0.2581740022 0.2278027982
	0.2704266906 0.2597663105 0.2293560058
	0.2720651031 0.2613466978 0.2309001982
	0.2737013996 0.2629151940 0.2324444950
	0.2753258049 0.2644810081 0.2339832038
	0.2769433856 0.2660413086 0.2355152965
	0.2785556018 0.2675940990 0.2370389998
	0.2801620960 0.2691347897 0.2385461032
	0.2817465067 0.2706714869 0.2400489002
	0.2833232880 0.2722041011 0.2415542006
	0.2848966122 0.2737326026 0.2430642992
	0.2864696980 0.2752566040 0.2445680946
	0.2880344093 0.2767753899 0.2460584939
	0.2895927131 0.2782889903 0.2475391030
	0.2911433876 0.2797945142 0.2490137070
	0.2926709950 0.2812936008 0.2504926920
	0.2941831052 0.2827874124 0.2519704103
	0.2956764996 0.2842740119 0.2534419000
	0.2971622944 0.2857593000 0.2548941076
	0.2986418903 0.2872450948 0.2563388944
	0.3001124859 0.2887324095 0.2577767074
	0.3015663028 0.2902269065 0.2592169046
	0.3030163050 0.2917178869 0.2606565952
	0.3044652939 0.2931961119 0.2620925903
	0.3059149981 0.2946687043 0.2635230124
	0.3073624074 0.2961393893 0.2649494112
	0.3087939918 0.2976126969 0.2663621902
	0.3102258146 0.2990801930 0.2677738965
	0.3116576970 0.3005422950 0.2691845894
	0.3130910993 0.3019973040 0.2705928087
	0.3145203888 0.3034510911 0.2719972134
	0.3159373105 0.3049038947 0.2733885944
	0.3173550963 0.3063476980 0.2747704983
	0.3187735975 0.3077847958 0.2761443853
	0.3201943040 0.3092113137 0.2775141895
	0.3216128945 0.3106358945 0.2788833082
	0.3230192065 0.3120585084 0.2802532911
	0.3244253993 0.3134770095 0.2816143036
	0.3258317113 0.3148897886 0.2829608023
	0.3272288144 0.3162913918 0.2842969000
	0.3286210001 0.3176868856 0.2856262922
	0.3300077021 0.3190723956 0.2869521081
	0.3313938081 0.3204556108 0.2882770896
	0.3327834904 0.3218250871 0.2896099091
	0.3341748118 0.3231914043 0.2909416854
	0.3355718851 0.3245447874 0.2922688127
	0.3369680941 0.3258947134 0.2935900092
	0.3383626044 0.3272379041 0.2948979139
	0.3397515118 0.3285779953 0.2962028980
	0.3411338925 0.3299140036 0.2975037992
	0.3425045013 0.3312394917 0.2988072932
	0.3438651860 0.3325557113 0.3001132905
	0.3452149034 0.3338659108 0.3014146984
	0.3465574980 0.3351719081 0.3027124107
	0.3478950858 0.3364771008 0.3039973974
	0.3492299020 0.3377816975 0.3052738011
	0.3505575955 0.3390836120 0.3065445125
	0.3518814147 0.3403840065 0.3078114986
	0.3531937003 0.3416804969 0.3090800047
	0.3544990122 0.3429746926 0.3103496134
	0.3558034003 0.3442664146 0.3116236925
	0.3571070135 0.3455562890 0.3129017055
	0.3584021032 0.3468429148 0.3141731024
	0.3596883118 0.3481261134 0.3154368103
	0.3609679937 0.3494060040 0.3166972995
	0.3622376919 0.3506805003 0.3179521859
	0.3635073900 0.3519532084 0.3192068040
	0.3647772074 0.3532207906 0.3204610050
	0.3660452962 0.3544875979 0.3217146099
	0.3672988117 0.3557465971 0.3229593039
	0.3685522974 0.3570055962 0.3242039979
	0.3697921932 0.3582544923 0.3254339099
	0.3710305989 0.3595022857 0.3266617060
	0.3722676039 0.3607459962 0.3278838992
	0.3735038042 0.3619877994 0.3291031122
	0.3747293949 0.3632284999 0.3303220868
	0.3759411871 0.3644677997 0.3315409124
	0.3771511018 0.3657064140 0.3327583075
	0.3783504069 0.3669404984 0.3339653015
	0.3795498013 0.3681747019 0.3351722956
	0.3807409108 0.3694047034 0.3363747001
	0.3819305003 0.3706338108 0.3375759125
	0.3831126988 0.3718604147 0.3387717009
	0.3842875063 0.3730843961 0.3399612010
	0.3854615092 0.3743064106 0.3411506116
	0.3866302967 0.3755132854 0.3423393965
	0.3877991140 0.3767201900 0.3435282111
	0.3889720142 0.3779211938 0.3447239101
	0.3901464939 0.3791198134 0.3459227979
	0.3913210928 0.3803184032 0.3471212983
	0.3924961090 0.3815169036 0.3483184874
	0.3936710954 0.3827154934 0.3495157063
	0.3948434889 0.3839044869 0.3507024050
	0.3960154057 0.3850910068 0.3518857956
	0.3971866965 0.3862751126 0.3530685008
	0.3983570039 0.3874529898 0.3542487919
	0.3995273113 0.3886308074 0.3554292023
	0.4006893039 0.3898057938 0.3566128016
	0.4018486142 0.3909797966 0.3577977121
	0.4030069113 0.3921526968 0.3589808941
	0.4041604102 0.3933204114 0.3601540029
	0.4053137898 0.3944880962 0.3613269925
	0.4064702988 0.3956514001 0.3624922931
	0.4076293111 0.3968113065 0.3636507988
	0.4087882042 0.3979710937 0.3648093045
	0.4099336863 0.3991281092 0.3659642935
	0.4110778868 0.4002847970 0.3671188951
	0.4122214019 0.4014416039 0.3682743013
	0.4133622944 0.4025982916 0.3694328070
	0.4145030975 0.4037550092 0.3705911934
	0.4156427979 0.4049058855 0.3717437983
	0.4167811871 0.4060513079 0.3728901148
	0.4179196954 0.4071967900 0.3740364909
	0.4190456867 0.4083349109 0.3751721084
	0.4201678038 0.4094707966 0.3763037920
	0.4212898910 0.4106067121 0.3774355054
	0.4224098921 0.4117316902 0.3785631061
	0.4235298932 0.4128564000 0.3796902895
	0.4246496856 0.4139792919 0.3808172047
	0.4257684946 0.4150904119 0.3819408119
	0.4268873036 0.4162015915 0.3830643892
	0.4280022085 0.4173096120 0.3841860890
	0.4291062951 0.4184089899 0.3853017092
	0.4302105010 0.4195083976 0.3864172995
	0.4313144088 0.4206028879 0.3875293136
	0.4324178994 0.4216887951 0.3886339068
	0.4335213900 0.4227746129 0.3897385001
	0.4346221089 0.4238578081 0.3908396959
	0.4357188940 0.4249371886 0.3919354081
	0.4368157089 0.4260165095 0.3930310011
	0.4379082918 0.4270943105 0.3941242993
	0.4389953017 0.4281699061 0.3952139020
	0.4400823116 0.4292455018 0.3963035047
	0.4411674142 0.4303215146 0.3973940909
	0.4422496855 0.4313979149 0.3984861970
	0.4433319867 0.4324742854 0.3995783925
	0.4444083869 0.4335477054 0.4006663859
	0.4454728067 0.4346148074 0.4017446041
	0.4465371966 0.4356819093 0.4028229117
	0.4475978017 0.4367474020 0.4038993120
	0.4486451149 0.4378075898 0.4049679935
	0.4496923983 0.4388678074 0.4060367942
	0.4507394135 0.4399277866 0.4071055055
	0.4517830014 0.4409854114 0.4081743062
	0.4528265893 0.4420430064 0.4092431962
	0.4538702071 0.4431006014 0.4103119969
	0.4549070001 0.4441545904 0.4113866985
	0.4559428096 0.4452080131 0.4124625027
	0.4569785893 0.4462614954 0.4135383964
	0.4580070078 0.4473111033 0.4146097898
	0.4590308964 0.4483582973 0.4156782031
	0.4600548148 0.4494056106 0.4167467058
	0.4610792100 0.4504511952 0.4178118110
	0.4621045887 0.4514938891 0.4188697040
	0.4631299078 0.4525366127 0.4199275970
	0.4641552866 0.4535791874 0.4209854901
	0.4651829898 0.4546158910 0.4220423996
	0.4662106931 0.4556525946 0.4230993092
	0.4672383964 0.4566892982 0.4241561890
	0.4682591856 0.4577207863 0.4252122045
	0.4692761898 0.4587494135 0.4262678027
	0.4702933133 0.4597780108 0.4273233116
	0.4713107944 0.4608063996 0.4283765852
	0.4723303020 0.4618338943 0.4294205010
	0.4733496904 0.4628615081 0.4304643869
	0.4743691981 0.4638890922 0.4315083921
	0.4753845930 0.4649214149 0.4325434864
	0.4763987958 0.4659551084 0.4335753918
	0.4774129987 0.4669888914 0.4346072972
	0.4784238040 0.4680216014 0.4356386065
	0.4794248044 0.4690510035 0.4366680086
	0.4804258049 0.4700804055 0.4376974106
	0.4814268053 0.4711098969 0.4387268126
	0.4824292958 0.4721364081 0.4397540987
	0.4834325016 0.4731616974 0.4407801926
	0.4844357967 0.4741868973 0.4418064058
	0.4854384959 0.4752117991 0.4428318143
	0.4864360988 0.4762332141 0.4438445866
	0.4874337018 0.4772545099 0.4448573887
	0.4884313047 0.4782758951 0.4458701015
	0.4894233942 0.4792912900 0.4468775094
	0.4904080927 0.4802986085 0.4478765130
	0.4913927913 0.4813058972 0.4488754869
	0.4923774898 0.4823131859 0.4498746097
	0.4933621883 0.4833154976 0.4508705139
	0.4943468869 0.4843156934 0.4518648982
	0.4953315854 0.4853160083 0.4528594017
	0.4963161945 0.4863162041 0.4538537860
	0.4972892106 0.4873186946 0.4548524916
	0.4982616901 0.4883211851 0.4558514953
	0.4992341995 0.4893237948 0.4568504989
	0.5002049804 0.4903247058 0.4578497112
	0.5011661053 0.4913162887 0.4588507116
	0.5021272898 0.4923079908 0.4598517120
	0.5030884743 0.4932996035 0.4608527124
	0.5040500164 0.4942877889 0.4618506134
	0.5050122142 0.4952678084 0.4628399909
	0.5059744120 0.4962477982 0.4638293982
	0.5069364905 0.4972277880 0.4648188055
	0.5078973770 0.4982069135 0.4658063948
	0.5088561773 0.4991844893 0.4667905867
	0.5098149180 0.5001621842 0.4677748084
	0.5107737184 0.5011398196 0.4687590897
	0.5117294192 0.5021172762 0.4697437882
	0.5126808882 0.5030944943 0.4707294106
	0.5136322975 0.5040717721 0.4717150033
	0.5145838261 0.5050491095 0.4727005959
	0.5155330896 0.5060225725 0.4736824036
	0.5164790154 0.5069903135 0.4746578038
	0.5174250007 0.5079579949 0.4756332040
	0.5183709264 0.5089256763 0.4766086042
	0.5193127990 0.5098916888 0.4775812924
	0.5202462077 0.5108541250 0.4785476029
	0.5211796165 0.5118165016 0.4795139134
	0.5221130252 0.5127789974 0.4804801941
	0.5230445862 0.5137407780 0.4814454019
	0.5239686966 0.5147001743 0.4824050069
	0.5248929262 0.5156595111 0.4833647013
	0.5258170962 0.5166189075 0.4843243062
	0.5267412066 0.5175781846 0.4852839112
	0.5276607275 0.5185251236 0.4862455130
	0.5285801291 0.5194721222 0.4872071147
	0.5294994712 0.5204190016 0.4881686866
	0.5304189920 0.5213660002 0.4891302884
	0.5313292146 0.5223047137 0.4900931120
	0.5322365761 0.5232409239 0.4910562038
	0.5331441164 0.5241770744 0.4920192957
	0.5340514779 0.5251134038 0.4929825068
	0.5349549055 0.5260437131 0.4939421117
	0.5358536243 0.5269672871 0.4948973954
	0.5367524028 0.5278909802 0.4958527088
	0.5376511216 0.5288146138 0.4968079925
	0.5385501981 0.5297368169 0.4977625012
	0.5394514799 0.5306468010 0.4987092912
	0.5403528214 0.5315569043 0.4996561110
	0.5412541032 0.5324670076 0.5006029010
	0.5421553850 0.5333769917 0.5015497208
	0.5430505276 0.5342804193 0.5024966002
	0.5439429879 0.5351806879 0.5034434199
	0.5448353887 0.5360810161 0.5043902993
	0.5457279086 0.5369812846 0.5053371191
	0.5466185808 0.5378801227 0.5062835217
	0.5475032926 0.5387730002 0.5072280169
	0.5483881235 0.5396658778 0.5081725121
	0.5492727757 0.5405586958 0.5091168880
	0.5501574874 0.5414515734 0.5100613832
	0.5510445833 0.5423436761 0.5109959245
	0.5519328117 0.5432354808 0.5119252205
	0.5528209805 0.5441272259 0.5128543973
	0.5537092090 0.5450189710 0.5137836933
	0.5545967221 0.5459102988 0.5147123933
	0.5554770827 0.5467962027 0.5156326890
	0.5563575029 0.5476821065 0.5165529251
	0.5572379231 0.5485680103 0.5174731016
	0.5581182837 0.5494539142 0.5183933973
	0.5589959025 0.5503361821 0.5193132758
	0.5598695874 0.5512136221 0.5202329159
	0.5607432723 0.5520910025 0.5211526155
	0.5616170168 0.5529683828 0.5220721960
	0.5624907017 0.5538457036 0.5229917765
	0.5633659959 0.5547165871 0.5239105821
	0.5642418861 0.5555846095 0.5248289704
	0.5651177168 0.5564525723 0.5257474184
	0.5659936070 0.5573204756 0.5266659260
	0.5668694973 0.5581884980 0.5275843143
	0.5677334070 0.5590493083 0.5284937024
	0.5685961246 0.5599092841 0.5294020176
	0.5694587827 0.5607693791 0.5303102136
	0.5703215003 0.5616294146 0.5312184095
	0.5711839199 0.5624892712 0.5321263075
	0.5720422268 0.5633450747 0.5330240726
	0.5729004741 0.5642009974 0.5339217782
	0.5737587214 0.5650569201 0.5348194838
	0.5746170282 0.5659127235 0.5357171893
	0.5754747987 0.5667679906 0.5366147161
	0.5763297081 0.5676189065 0.5375100970
	0.5771846175 0.5684698820 0.5384054184
	0.5780395269 0.5693207979 0.5393007994
	0.5788943768 0.5701717734 0.5401961803
	0.5797473192 0.5710228086 0.5410919785
	0.5805879831 0.5718737841 0.5419911146
	0.5814288259 0.5727248788 0.5428900719
	0.5822694898 0.5735759735 0.5437892079
	0.5831102133 0.5744271278 0.5446882248
	0.5839506984 0.5752779245 0.5455867052
	0.5847879052 0.5761266947 0.5464770794
	0.5856251717 0.5769755244 0.5473675132
	0.5864624977 0.5778242946 0.5482578874
	0.5872997046 0.5786731243 0.5491483212
	0.5881369710 0.5795218945 0.5500386953
	0.5889738798 0.5803651810 0.5509185791
	0.5898107290 0.5812082887 0.5517979264
	0.5906475782 0.5820513964 0.5526772141
	0.5914844871 0.5828943849 0.5535565019
	0.5923212767 0.5837374926 0.5544357896
	0.5931525826 0.5845798850 0.5553128123
	0.5939822793 0.5854220986 0.5561890006
	0.5948119760 0.5862641931 0.5570651889
	0.5956416130 0.5871064067 0.5579413772
	0.5964713097 0.5879485011 0.5588176250
	0.5972992182 0.5887913704 0.5596930981
	0.5981255174 0.5896348953 0.5605677962
	0.5989518166 0.5904784799 0.5614423752
	0.5997781157 0.5913220048 0.5623170733
	0.6006044149 0.5921655297 0.5631917715
	0.6014305949 0.5930098891 0.5640664101
	0.6022564769 0.5938585997 0.5649405122
	0.6030824184 0.5947071910 0.5658146739
	0.6039084196 0.5955557823 0.5666887760
	0.6047343016 0.5964043736 0.5675628781
	0.6055601835 0.5972530246 0.5684370995
	0.6063808799 0.5980986953 0.5693032742
	0.6072000861 0.5989435911 0.5701668262
	0.6080192924 0.5997886062 0.5710303783
	0.6088384986 0.6006335020 0.5718938708
	0.6096577048 0.6014783978 0.5727574229
	0.6104760170 0.6023222804 0.5736197233
	0.6112921238 0.6031637192 0.5744786263
	0.6121081710 0.6040052176 0.5753375292
	0.6129242778 0.6048465967 0.5761963725
	0.6137403846 0.6056880951 0.5770552158
	0.6145564914 0.6065294743 0.5779141188
	0.6153724194 0.6073685288 0.5787752271
	0.6161882877 0.6082066298 0.5796372294
	0.6170042157 0.6090446711 0.5804991722
	0.6178200245 0.6098828912 0.5813611746
	0.6186358929 0.6107209921 0.5822231770
	0.6194511056 0.6115579009 0.5830852985
	0.6202605963 0.6123844981 0.5839483142
	0.6210700870 0.6132110953 0.5848112106
	0.6218796968 0.6140376925 0.5856742263
	0.6226891875 0.6148642898 0.5865371823
	0.6234986782 0.6156908870 0.5874001980
	0.6243069768 0.6165152192 0.5882589817
	0.6251134276 0.6173359752 0.5891109109
	0.6259198189 0.6181567907 0.5899628997
	0.6267263293 0.6189776063 0.5908148289
	0.6275327206 0.6197984219 0.5916668177
	0.6283391118 0.6206191778 0.5925186872
	0.6291438937 0.6214398742 0.5933675170
	0.6299477220 0.6222605109 0.5942140818
	0.6307514906 0.6230810285 0.5950608253
	0.6315551996 0.6239016056 0.5959073901
	0.6323590279 0.6247221231 0.5967540145
	0.6331627965 0.6255427003 0.5976006985
	0.6339570284 0.6263571978 0.5984491706
	0.6347482204 0.6271697283 0.5992982984
	0.6355394125 0.6279821992 0.6001474261
	0.6363306046 0.6287947297 0.6009964943
	0.6371217966 0.6296073198 0.6018456221
	0.6379129887 0.6304197907 0.6026948094
	0.6387022138 0.6312273741 0.6035407782
	0.6394910812 0.6320338845 0.6043862104
	0.6402798891 0.6328405142 0.6052315235
	0.6410686970 0.6336470246 0.6060767770
	0.6418575048 0.6344534755 0.6069220901
	0.6426463127 0.6352599859 0.6077674031
	0.6434336901 0.6360661983 0.6086056828
	0.6442208290 0.6368721128 0.6094418764
	0.6450079083 0.6376780868 0.6102781296
	0.6457949877 0.6384841204 0.6111143827
	0.6465821266 0.6392900944 0.6119505763
	0.6473692060 0.6400961280 0.6127868295
	0.6481484771 0.6408988237 0.6136180162
	0.6489244103 0.6417000294 0.6144466996
	0.6497004032 0.6425011158 0.6152755022
	0.6504762769 0.6433023214 0.6161041856
	0.6512522101 0.6441034079 0.6169329286
	0.6520280838 0.6449046135 0.6177616119
	0.6528034210 0.6457012296 0.6185904145
	0.6535782218 0.6464933753 0.6194192767
	0.6543530226 0.6472855210 0.6202481985
	0.6551278234 0.6480777264 0.6210771203
	0.6559026241 0.6488698125 0.6219059825
	0.6566773057 0.6496618986 0.6227349043
	0.6574509144 0.6504533291 0.6235638261
	0.6582205296 0.6512417793 0.6243926287
	0.6589900851 0.6520304084 0.6252213120
	0.6597597003 0.6528189778 0.6260501146
	0.6605293155 0.6536074877 0.6268787980
	0.6612988710 0.6543961167 0.6277076006
	0.6620684266 0.6551846862 0.6285362840
	0.6628314257 0.6559717059 0.6293578744
	0.6635934114 0.6567586064 0.6301782727
	0.6643555164 0.6575453877 0.6309986711
	0.6651175022 0.6583322883 0.6318191290
	0.6658794880 0.6591191292 0.6326395273
	0.6666415930 0.6599059105 0.6334599257
	0.6674026251 0.6606888175 0.6342766881
	0.6681625247 0.6614663005 0.6350883245
	0.6689224243 0.6622439027 0.6359000206
	0.6696822047 0.6630213857 0.6367117167
	0.6704421043 0.6637989879 0.6375232935
	0.6712018847 0.6645764709 0.6383349895
	0.6719617844 0.6653540134 0.6391466856
	0.6727159023 0.6661242843 0.6399570704
	0.6734694839 0.6668937802 0.6407673955
	0.6742231250 0.6676632762 0.6415776014
	0.6749765873 0.6684327722 0.6423879266
	0.6757302284 0.6692023277 0.6431981921
	0.6764838099 0.6699718237 0.6440083981
	0.6772350073 0.6707385778 0.6448181868
	0.6779803038 0.6714984775 0.6456267834
	0.6787256002 0.6722583771 0.6464353204
	0.6794708967 0.6730182767 0.6472437978
	0.6802163124 0.6737781763 0.6480523944
	0.6809616089 0.6745380759 0.6488608718
	0.6817069054 0.6752979755 0.6496694088
	0.6824505925 0.6760519147 0.6504725218
	0.6831930876 0.6768013239 0.6512712836
	0.6839357018 0.6775506735 0.6520701051
	0.6846781969 0.6783000827 0.6528689265
	0.6854206920 0.6790493727 0.6536676884
	0.6861631870 0.6797987819 0.6544665098
	0.6869056821 0.6805481911 0.6552652717
	0.6876466274 0.6812918782 0.6560565233
	0.6883869171 0.6820340157 0.6568452716
	0.6891273260 0.6827760935 0.6576340795
	0.6898676157 0.6835181713 0.6584228873
	0.6906079054 0.6842603087 0.6592115760
	0.6913483143 0.6850023866 0.6600003839
	0.6920886040 0.6857444048 0.6607891917
	0.6928188801 0.6864817142 0.6615756750
	0.6935479045 0.6872183084 0.6623616815
	0.6942768097 0.6879549026 0.6631476879
	0.6950057745 0.6886916161 0.6639338136
	0.6957347989 0.6894282103 0.6647198200
	0.6964638233 0.6901648045 0.6655058861
	0.6971927285 0.6909013987 0.6662918925
	0.6979197860 0.6916376948 0.6670784950
	0.6986466050 0.6923738718 0.6678652167
	0.6993734241 0.6931101084 0.6686518788
	0.7001003027 0.6938462853 0.6694386005
	0.7008271217 0.6945825219 0.6702252030
	0.7015538812 0.6953186989 0.6710119247
	0.7022808194 0.6960549951 0.6717985868
	0.7030063272 0.6967895031 0.6725746989
	0.7037315965 0.6975237131 0.6733481884
	0.7044569254 0.6982578039 0.6741216779
	0.7051821947 0.6989920139 0.6748952270
	0.7059075236 0.6997262239 0.6756685972
	0.7066327929 0.7004603744 0.6764420867
	0.7073581219 0.7011945248 0.6772155762
	0.7080765963 0.7019280195 0.6779829264
	0.7087914944 0.7026610970 0.6787465811
	0.7095062733 0.7033942938 0.6795102954
	0.7102211714 0.7041273713 0.6802740097
	0.7109360099 0.7048605084 0.6810376048
	0.7116509080 0.7055935860 0.6818013191
	0.7123658061 0.7063267231 0.6825649738
	0.7130801082 0.7070569992 0.6833276749
	0.7137935758 0.7077823877 0.6840885878
	0.7145071030 0.7085077763 0.6848495007
	0.7152206898 0.7092332244 0.6856104732
	0.7159342170 0.7099586129 0.6863713861
	0.7166476846 0.7106840014 0.6871322989
	0.7173612118 0.7114093900 0.6878932714
	0.7180746794 0.7121347785 0.6886541843
	0.7187874913 0.7128537893 0.6894174218
	0.7195001841 0.7135729194 0.6901807785
	0.7202129960 0.7142918706 0.6909440756
	0.7209258080 0.7150110006 0.6917073727
	0.7216385007 0.7157300115 0.6924707294
	0.7223513126 0.7164490223 0.6932340264
	0.7230641246 0.7171680927 0.6939973235
	0.7237719297 0.7178853154 0.6947563887
	0.7244753242 0.7186009884 0.6955114007
	0.7251787782 0.7193167210 0.6962664127
	0.7258821726 0.7200323939 0.6970214248
	0.7265856862 0.7207481265 0.6977763772
	0.7272890806 0.7214637995 0.6985313892
	0.7279925942 0.7221794128 0.6992864013
	0.7286959887 0.7228950858 0.7000414133
	0.7293974161 0.7236070037 0.7007868290
	0.7300986052 0.7243188024 0.7015315890
	0.7307999134 0.7250304818 0.7022762895
	0.7315011024 0.7257422209 0.7030211091
	0.7322024107 0.7264540195 0.7037658095
	0.7329035997 0.7271656990 0.7045106292
	0.7336049080 0.7278773785 0.7052553296
	0.7343035936 0.7285876274 0.7059991956
	0.7349956036 0.7292935252 0.7067406774
	0.7356876731 0.7299994826 0.7074822187
	0.7363798022 0.7307054996 0.7082235813
	0.7370718122 0.7314115167 0.7089651227
	0.7377638817 0.7321174741 0.7097066045
	0.7384558916 0.7328234911 0.7104480267
	0.7391480207 0.7335295081 0.7111895084
	0.7398372293 0.7342340946 0.7119327188
	0.7405235767 0.7349374294 0.7126777768
	0.7412099838 0.7356405854 0.7134228945
