release/datafiles/colormanagement/luts/film_response/kodak_portra_400vc.spi1d
Version 1
From 0.0 1.0
Length 1024
Components 3
{
	0.0000000000 0.0000000000 0.0000000000
	0.0086291339 0.0078005488 0.0061553409
	0.0166279394 0.0149212098 0.0115477303
	0.0234502498 0.0210635699 0.0162159093
	0.0294977706 0.0264640693 0.0204165298
	0.0349041112 0.0313926600 0.0242713001
	0.0398604982 0.0359628201 0.0279128905
	0.0445825197 0.0402758084 0.0313868709
	0.0489878207 0.0443142913 0.0346947797
	0.0532177314 0.0482137911 0.0378837399
	0.0572355017 0.0519315116 0.0409737006
	0.0610651597 0.0555156991 0.0439543799
	0.0647805408 0.0590067990 0.0468649715
	0.0684034899 0.0623898692 0.0496960990
	0.0719185919 0.0656935796 0.0524532497
	0.0753464922 0.0688895881 0.0551457889
	0.0786892101 0.0719943792 0.0577957407
	0.0819205269 0.0749978498 0.0603696108
	0.0850563273 0.0779183879 0.0628900677
	0.0881082267 0.0807836503 0.0653679967
	0.0910997614 0.0836165026 0.0678165331
	0.0940506533 0.0864003077 0.0702505037
	0.0969373211 0.0891356766 0.0726604089
	0.0997503623 0.0918305814 0.0750340968
	0.1025146991 0.0944881588 0.0773660317
	0.1052661017 0.0971041918 0.0796465725
	0.1079823002 0.0997008383 0.0818920732
	0.1106742024 0.1022529975 0.0840972289
	0.1133475006 0.1047334000 0.0862670168
	0.1159679964 0.1071522981 0.0884032026
	0.1185553968 0.1095331982 0.0905269608
	0.1210843995 0.1118893027 0.0926406905
	0.1235641018 0.1142370030 0.0947492719
	0.1260133982 0.1165516973 0.0968295410
	0.1284331977 0.1188732013 0.0988966897
	0.1308183968 0.1211699992 0.1009425968
	0.1331772059 0.1234538034 0.1029729024
	0.1355085969 0.1256996989 0.1049892977
	0.1378096938 0.1279380023 0.1069732010
	0.1400966942 0.1301369965 0.1089397967
	0.1423414052 0.1323242038 0.1109104976
	0.1445591003 0.1344671994 0.1128705963
	0.1467431933 0.1365955025 0.1148163974
	0.1489122063 0.1386837959 0.1167598963
	0.1510476023 0.1407471001 0.1186747029
	0.1531807929 0.1428090930 0.1205610037
	0.1553075016 0.1448387057 0.1224154979
	0.1574216038 0.1468652934 0.1242436990
	0.1595198959 0.1488717943 0.1260575950
	0.1615947932 0.1508519948 0.1278496981
	0.1636703014 0.1528411955 0.1296253949
	0.1657373011 0.1548041999 0.1313930005
	0.1677850038 0.1567573994 0.1331461966
	0.1698163003 0.1587090939 0.1349010020
	0.1718430966 0.1606369019 0.1366534978
	0.1738559008 0.1625535041 0.1383929998
	0.1758597046 0.1644703001 0.1401329041
	0.1778582931 0.1663694978 0.1418718994
	0.1798356026 0.1682510972 0.1436001062
	0.1817937940 0.1701292992 0.1453143060
	0.1837290972 0.1719716042 0.1470246017
	0.1856500059 0.1737944931 0.1487206072
	0.1875600070 0.1756183952 0.1504009068
	0.1894560009 0.1774290055 0.1520728022
	0.1913280934 0.1792113930 0.1537348032
	0.1931733042 0.1809861064 0.1554002017
	0.1949937940 0.1827580035 0.1570577025
	0.1968041956 0.1845048070 0.1587098986
	0.1985995024 0.1862314939 0.1603520066
	0.2003758997 0.1879574060 0.1619874984
	0.2021435946 0.1896872967 0.1636175960
	0.2039009035 0.1914020032 0.1652458012
	0.2056314051 0.1931017041 0.1668601930
	0.2073460072 0.1948022991 0.1684632003
	0.2090656012 0.1965142041 0.1700568050
	0.2107871026 0.1982153952 0.1716396064
	0.2125017941 0.1999046952 0.1732196957
	0.2142132074 0.2015919983 0.1747861952
	0.2159194946 0.2032641023 0.1763374954
	0.2176184952 0.2049120069 0.1778807938
	0.2193064988 0.2065432072 0.1794188023
	0.2209898978 0.2081688046 0.1809532940
	0.2226741016 0.2097914070 0.1824879944
	0.2243521959 0.2114066035 0.1840219945
	0.2260199040 0.2130115032 0.1855459064
	0.2276818007 0.2146048993 0.1870635003
	0.2293322980 0.2161996961 0.1885785013
	0.2309723049 0.2177951932 0.1900880039
	0.2325980961 0.2193817049 0.1915943027
	0.2342166007 0.2209558040 0.1930999011
	0.2358343005 0.2225205004 0.1946053058
	0.2374477983 0.2240840048 0.1961077005
	0.2390588969 0.2256534994 0.1975979954
	0.2406685948 0.2272066027 0.1990832984
	0.2422688007 0.2287465930 0.2005632073
	0.2438556999 0.2302782983 0.2020380944
	0.2454296947 0.2318089008 0.2035095990
	0.2469906062 0.2333444953 0.2049811035
	0.2485449016 0.2348676026 0.2064442933
	0.2500948012 0.2363775969 0.2079003006
	0.2516424954 0.2378765941 0.2093524039
	0.2531889081 0.2393742949 0.2107995003
	0.2547358871 0.2408725023 0.2122382969
	0.2562828064 0.2423699051 0.2136691064
	0.2578260899 0.2438611984 0.2150931954
	0.2593621910 0.2453383952 0.2165144980
	0.2608925104 0.2468091995 0.2179322988
	0.2624158859 0.2482766062 0.2193447053
	0.2639254928 0.2497424036 0.2207508981
	0.2654292881 0.2512080073 0.2221533954
	0.2669275999 0.2526736856 0.2235517055
	0.2684175968 0.2541224957 0.2249393016
	0.2699044943 0.2555668056 0.2263229042
	0.2713881135 0.2570067048 0.2277022004
	0.2728621960 0.2584454119 0.2290780991
	0.2743291855 0.2598778009 0.2304508984
	0.2757858038 0.2613000870 0.2318188995
	0.2772283852 0.2627094984 0.2331835032
	0.2786627114 0.2641144991 0.2345474958
	0.2800801098 0.2655147016 0.2359123975
	0.2814942896 0.2669171095 0.2372698933
	0.2829064131 0.2683207989 0.2386226058
	0.2843183875 0.2697081864 0.2399670929
	0.2857283056 0.2710885108 0.2413100004
	0.2871338129 0.2724551857 0.2426497042
	0.2885296047 0.2738170922 0.2439855933
	0.2899203002 0.2751764059 0.2453195006
	0.2913027108 0.2765411139 0.2466553003
	0.2926810980 0.2779048085 0.2479909062
	0.2940480113 0.2792651057 0.2493253052
	0.2954030931 0.2806189060 0.2506527901
	0.2967463136 0.2819663882 0.2519730926
	0.2980836928 0.2833054066 0.2532927990
	0.2994191051 0.2846412957 0.2546122074
	0.3007619083 0.2859781981 0.2559292912
	0.3021047115 0.2873162031 0.2572456896
	0.3034440875 0.2886605859 0.2585586011
	0.3047791123 0.2899999022 0.2598730028
	0.3061031103 0.2913272977 0.2611911893
	0.3074271083 0.2926500142 0.2625049949
	0.3087511957 0.2939665914 0.2638128996
	0.3100728095 0.2952839136 0.2651130855
	0.3113921881 0.2966020107 0.2664063871
	0.3127081990 0.2979249954 0.2676930130
	0.3140223026 0.2992509007 0.2689754069
	0.3153294921 0.3005655110 0.2702546120
	0.3166336119 0.3018752038 0.2715322971
	0.3179413080 0.3031772077 0.2728073001
	0.3192504048 0.3044762909 0.2740811110
	0.3205552101 0.3057742119 0.2753461003
	0.3218581975 0.3070715070 0.2766075134
	0.3231492043 0.3083544075 0.2778604031
	0.3244349062 0.3096314073 0.2791095972
	0.3257190883 0.3108929992 0.2803491056
	0.3270024955 0.3121466935 0.2815833986
	0.3282819092 0.3133935034 0.2828159034
	0.3295584023 0.3146354854 0.2840468884
	0.3308312893 0.3158772886 0.2852747142
	0.3321002126 0.3171189129 0.2864989042
	0.3333649933 0.3183605075 0.2877179980
	0.3346219063 0.3196018934 0.2889271975
	0.3358792067 0.3208408952 0.2901360095
	0.3371385932 0.3220691979 0.2913432121
	0.3383980095 0.3232975006 0.2925504148
	0.3396492004 0.3245128095 0.2937470973
	0.3409003019 0.3257280886 0.2949436903
	0.3421368003 0.3269419074 0.2961353958
	0.3433690071 0.3281553984 0.2973257005
	0.3445987105 0.3293735981 0.2985163927
	0.3458260894 0.3305962980 0.2997077107
	0.3470515013 0.3318206072 0.3008984029
	0.3482699096 0.3330497146 0.3020871878
	0.3494882882 0.3342789114 0.3032760024
	0.3507004976 0.3354977071 0.3044616878
	0.3519122005 0.3367156088 0.3056469858
	0.3531202972 0.3379318118 0.3068349957
	0.3543255925 0.3391467035 0.3080250025
	0.3555307984 0.3403621018 0.3092128932
	0.3567352891 0.3415792882 0.3103924990
	0.3579396904 0.3427965045 0.3115719855
	0.3591400981 0.3439978957 0.3127532005
	0.3603394926 0.3451952934 0.3139348030
	0.3615379930 0.3463875949 0.3151153028
	0.3627347052 0.3475709856 0.3162938058
	0.3639313877 0.3487544060 0.3174723089
	0.3651260138 0.3499352038 0.3186487854
	0.3663201928 0.3511157036 0.3198249936
	0.3675152957 0.3522970974 0.3210014999
	0.3687118888 0.3534801006 0.3221786916
	0.3699085116 0.3546631038 0.3233557940
	0.3711037934 0.3558301926 0.3245329857
	0.3722988069 0.3569942117 0.3257102966
	0.3734931946 0.3581548035 0.3268885911
	0.3746860027 0.3593055010 0.3280701935
	0.3758786917 0.3604561985 0.3292517960
	0.3770669103 0.3616054058 0.3304269016
	0.3782525063 0.3627535999 0.3315981925
	0.3794381022 0.3639019132 0.3327696025
	0.3806130886 0.3650487065 0.3339313865
	0.3817881048 0.3661954105 0.3350929916
	0.3829604089 0.3673394918 0.3362526000
	0.3841269910 0.3684779108 0.3374074101
	0.3852936029 0.3696162999 0.3385623097
	0.3864552975 0.3707447052 0.3397139013
	0.3876137137 0.3718662858 0.3408631980
	0.3887721896 0.3729878962 0.3420126140
	0.3899284899 0.3741044998 0.3431645036
	0.3910844922 0.3752200007 0.3443169892
	0.3922401071 0.3763357997 0.3454687893
	0.3933893144 0.3774558902 0.3466030955
	0.3945386112 0.3785760105 0.3477374911
	0.3956862092 0.3796963990 0.3488697112
	0.3968279064 0.3808178902 0.3499937057
	0.3979696035 0.3819392920 0.3511176109
	0.3991076052 0.3830555975 0.3522385061
	0.4002385139 0.3841623068 0.3533534110
	0.4013693929 0.3852689862 0.3544682860
	0.4024933875 0.3863726854 0.3555805981
	0.4036085010 0.3874725103 0.3566895127
	0.4047234952 0.3885723054 0.3577983975
	0.4058330059 0.3896723092 0.3589071929
	0.4069365859 0.3907727003 0.3600156903
	0.4080401957 0.3918730021 0.3611243069
	0.4091409147 0.3929738104 0.3622342050
	0.4102385938 0.3940750062 0.3633455932
	0.4113362134 0.3951762021 0.3644570112
	0.4124296904 0.3962723017 0.3655647933
	0.4135183096 0.3973628879 0.3666686118
	0.4146068990 0.3984535933 0.3677723110
	0.4156936109 0.3995419145 0.3688744903
	0.4167774022 0.4006268978 0.3699742854
	0.4178611040 0.4017120004 0.3710741103
	0.4189420044 0.4027974904 0.3721716106
	0.4200159013 0.4038844109 0.3732632101
	0.4210897088 0.4049712121 0.3743548989
	0.4221613109 0.4060561061 0.3754456043
	0.4232189953 0.4071291983 0.3765301108
	0.4242765903 0.4082024097 0.3776144981
	0.4253341854 0.4092755914 0.3786988854
	0.4263879955 0.4103333056 0.3797815144
	0.4274415076 0.4113903046 0.3808639050
	0.4284951091 0.4124472141 0.3819462955
	0.4295487106 0.4134993851 0.3830277026
	0.4306023121 0.4145495892 0.3841085136
	0.4316559136 0.4155999124 0.3851892948
	0.4327076077 0.4166513085 0.3862665892
	0.4337567091 0.4177044034 0.3873386979
	0.4348058105 0.4187574983 0.3884108961
	0.4358538985 0.4198100865 0.3894824088
	0.4368919134 0.4208576977 0.3905462921
	0.4379299879 0.4219053984 0.3916102946
	0.4389680028 0.4229530990 0.3926742971
	0.4400067031 0.4239928126 0.3937354982
	0.4410456121 0.4250294864 0.3947955072
	0.4420844913 0.4260661900 0.3958554864
	0.4431211054 0.4271000028 0.3969140053
	0.4441522956 0.4281272888 0.3979691863
	0.4451833963 0.4291546047 0.3990243077
	0.4462144971 0.4301818907 0.4000793993
	0.4472317100 0.4312092960 0.4011329114
	0.4482460916 0.4322367013 0.4021860957
	0.4492605031 0.4332641959 0.4032391906
	0.4502733946 0.4342932105 0.4042918980
	0.4512828887 0.4353255928 0.4053437114
	0.4522925019 0.4363580048 0.4063954949
	0.4533020854 0.4373905063 0.4074473083
	0.4543111026 0.4384124875 0.4084874094
	0.4553197920 0.4394313991 0.4095237851
	0.4563286006 0.4404503107 0.4105601907
	0.4573364854 0.4414677918 0.4115959108
	0.4583398104 0.4424777925 0.4126274884
	0.4593431056 0.4434877038 0.4136590958
	0.4603464007 0.4444975853 0.4146907032
	0.4613440037 0.4455075860 0.4157181084
	0.4623357058 0.4465177059 0.4167410135
	0.4633274078 0.4475277066 0.4177640080
	0.4643191993 0.4485377967 0.4187869132
	0.4653109908 0.4495514035 0.4198037088
	0.4663026929 0.4505659938 0.4208188057
	0.4672945142 0.4515804946 0.4218339026
	0.4682861865 0.4525944889 0.4228489995
	0.4692744911 0.4535953999 0.4238614142
	0.4702627957 0.4545961916 0.4248737097
	0.4712511003 0.4555971026 0.4258860946
	0.4722385108 0.4565958977 0.4268980026
	0.4732227027 0.4575876892 0.4279080927
	0.4742070138 0.4585795999 0.4289183021
	0.4751912951 0.4595713913 0.4299283922
	0.4761728942 0.4605633020 0.4309360981
	0.4771496952 0.4615552127 0.4319396913
	0.4781264961 0.4625470936 0.4329431951
	0.4791032970 0.4635390043 0.4339466989
	0.4800817966 0.4645307064 0.4349519014
	0.4810624123 0.4655222893 0.4359593987
	0.4820429981 0.4665139019 0.4369668067
	0.4830236137 0.4675053954 0.4379743040
	0.4840019941 0.4684920907 0.4389804900
	0.4849779904 0.4694738090 0.4399853051
	0.4859539866 0.4704554975 0.4409902096
	0.4869301021 0.4714370966 0.4419949949
	0.4879001081 0.4724138081 0.4429973066
	0.4888631999 0.4733850062 0.4439963996
	0.4898262918 0.4743562043 0.4449956119
	0.4907892942 0.4753274024 0.4459947944
	0.4917517006 0.4762980044 0.4469918907
	0.4927130938 0.4772675931 0.4479857981
	0.4936743975 0.4782372117 0.4489797056
	0.4946357012 0.4792068005 0.4499736130
	0.4955956042 0.4801762998 0.4509660006
	0.4965516925 0.4811457098 0.4519538879
	0.4975079000 0.4821150899 0.4529418051
	0.4984639883 0.4830844998 0.4539296925
	0.4994196892 0.4840534031 0.4549174011
	0.5003700852 0.4850172102 0.4559034109
	0.5013206005 0.4859808981 0.4568893015
	0.5022711158 0.4869445860 0.4578751922
	0.5032215118 0.4879083037 0.4588611126
	0.5041645169 0.4888612032 0.4598459005
	0.5051059127 0.4898119867 0.4608305097
	0.5060474277 0.4907627106 0.4618149996
	0.5069888234 0.4917134941 0.4627996087
	0.5079312921 0.4926620126 0.4637798965
	0.5088745952 0.4936085045 0.4647563100
	0.5098178983 0.4945549965 0.4657326937
	0.5107612014 0.4955014884 0.4667089880
	0.5117039084 0.4964486957 0.4676840901
	0.5126433969 0.4973995090 0.4686524868
	0.5135828853 0.4983502924 0.4696210027
	0.5145223737 0.4993009865 0.4705893993
	0.5154619217 0.5002518296 0.4715577960
	0.5163952708 0.5012043118 0.4725238979
	0.5173267126 0.5021573901 0.4734891057
	0.5182582140 0.5031105280 0.4744544029
	0.5191895962 0.5040636063 0.4754197001
	0.5201197863 0.5050135255 0.4763843119
	0.5210466981 0.5059555173 0.4773474038
	0.5219736099 0.5068973899 0.4783104062
	0.5229005218 0.5078393817 0.4792734981
	0.5238274932 0.5087813735 0.4802365899
	0.5247486830 0.5097197294 0.4811953008
	0.5256680846 0.5106567144 0.4821526110
	0.5265874267 0.5115938187 0.4831098914
	0.5275068283 0.5125308037 0.4840672016
	0.5284252763 0.5134680271 0.4850249887
	0.5293390155 0.5144063234 0.4859859049
	0.5302528143 0.5153445005 0.4869467914
	0.5311664939 0.5162826777 0.4879077077
	0.5320801735 0.5172209740 0.4888687134
	0.5329914093 0.5181534290 0.4898253977
	0.5338997245 0.5190796256 0.4907774925
	0.5348079801 0.5200058222 0.4917295873
	0.5357164145 0.5209320784 0.4926817119
	0.5366247296 0.5218582749 0.4936338067
	0.5375316739 0.5227739215 0.4945797026
	0.5384383202 0.5236862898 0.4955236018
	0.5393447876 0.5245985985 0.4964675009
	0.5402513742 0.5255110264 0.4974114001
	0.5411579013 0.5264232755 0.4983552992
	0.5420578122 0.5273302197 0.4992960095
	0.5429574251 0.5282369256 0.5002363920
	0.5438570976 0.5291436911 0.5011768937
	0.5447567105 0.5300503969 0.5021173954
	0.5456550717 0.5309572220 0.5030577779
	0.5465437174 0.5318645835 0.5039975047
	0.5474323034 0.5327720046 0.5049371123
	0.5483208895 0.5336794257 0.5058767796
	0.5492094755 0.5345867872 0.5068165064
	0.5500965118 0.5354917049 0.5077555180
	0.5509771109 0.5363870263 0.5086914897
	0.5518578291 0.5372822881 0.5096275210
	0.5527384281 0.5381776094 0.5105633736
	0.5536190271 0.5390728712 0.5114994049
	0.5545002222 0.5399649739 0.5124346018
	0.5553833246 0.5408456922 0.5133668780
	0.5562664866 0.5417262912 0.5142992139
	0.5571495891 0.5426068902 0.5152313709
	0.5580328107 0.5434876084 0.5161637068
	0.5589159131 0.5443671942 0.5170946121
	0.5597988963 0.5452414751 0.5180175900
	0.5606818795 0.5461158156 0.5189406872
	0.5615649223 0.5469899774 0.5198637843
	0.5624479055 0.5478643179 0.5207868218
	0.5633308887 0.5487385988 0.5217097998
	0.5642132163 0.5496147871 0.5226305127
	0.5650954247 0.5504909158 0.5235512257
	0.5659775734 0.5513671041 0.5244718790
	0.5668599010 0.5522431731 0.5253925920
	0.5677421093 0.5531194210 0.5263133049
	0.5686208010 0.5539948940 0.5272328854
	0.5694987178 0.5548701882 0.5281524062
	0.5703766942 0.5557454824 0.5290718079
	0.5712546110 0.5566208959 0.5299912095
	0.5721325874 0.5574961901 0.5309106112
	0.5730063915 0.5583639145 0.5318285227
	0.5738772154 0.5592259765 0.5327451229
	0.5747479200 0.5600880980 0.5336617231
	0.5756186843 0.5609502196 0.5345783234
	0.5764895082 0.5618122816 0.5354949236
	0.5773584247 0.5626726747 0.5364094973
	0.5782213807 0.5635278821 0.5373175144
	0.5790842772 0.5643829703 0.5382254124
	0.5799472928 0.5652381182 0.5391334295
	0.5808103085 0.5660933256 0.5400413871
	0.5816733241 0.5669484138 0.5409492850
	0.5825272799 0.5678043962 0.5418502092
	0.5833795071 0.5686606169 0.5427495241
	0.5842316747 0.5695167184 0.5436487794
	0.5850839019 0.5703728795 0.5445482135
	0.5859361291 0.5712291002 0.5454475284
	0.5867881775 0.5720869899 0.5463449955
	0.5876401067 0.5729479790 0.5472388864
	0.5884919167 0.5738090873 0.5481327772
	0.5893437862 0.5746700764 0.5490267277
	0.5901955962 0.5755311847 0.5499206781
	0.5910475254 0.5763922930 0.5508146286
	0.5918961763 0.5772445202 0.5517038107
	0.5927441716 0.5780944824 0.5525919199
	0.5935921073 0.5789445043 0.5534799099
	0.5944401026 0.5797945857 0.5543678999
	0.5952879786 0.5806446075 0.5552558899
	0.5961351991 0.5814933777 0.5561434031
	0.5969787836 0.5823364854 0.5570282936
	0.5978223085 0.5831795931 0.5579131246
	0.5986657739 0.5840227008 0.5587978959
	0.5995092988 0.5848656893 0.5596827865
	0.6003528833 0.5857087970 0.5605676174
	0.6011931896 0.5865523219 0.5614522099
	0.6020298004 0.5873963237 0.5623363853
	0.6028664112 0.5882403255 0.5632206202
	0.6037030220 0.5890843272 0.5641047955
	0.6045395732 0.5899283290 0.5649890900
	0.6053761840 0.5907722712 0.5658733249
	0.6062102914 0.5916194916 0.5667579174
	0.6070430875 0.5924683213 0.5676426291
	0.6078760028 0.5933170915 0.5685272813
	0.6087087989 0.5941658020 0.5694121122
	0.6095417142 0.5950145721 0.5702968240
	0.6103746295 0.5958634019 0.5711815953
	0.6112043858 0.5967034101 0.5720716119
	0.6120336056 0.5975413918 0.5729628205
	0.6128627062 0.5983793736 0.5738540292
	0.6136919260 0.5992174149 0.5747451782
	0.6145210862 0.6000553966 0.5756365061
	0.6153501868 0.6008933783 0.5765277147
	0.6161777973 0.6017255187 0.5774099231
	0.6170051098 0.6025568247 0.5782908201
	0.6178324223 0.6033880115 0.5791717172
	0.6186597943 0.6042193174 0.5800524950
	0.6194871068 0.6050505042 0.5809333920
	0.6203144193 0.6058818102 0.5818142295
	0.6211380959 0.6067138910 0.5826920271
	0.6219611764 0.6075462103 0.5835691094
	0.6227841973 0.6083784103 0.5844463110
	0.6236072779 0.6092107296 0.5853233933
	0.6244302988 0.6100429893 0.5862005949
	0.6252533793 0.6108751893 0.5870776772
	0.6260753274 0.6117079258 0.5879529119
	0.6268969178 0.6125406027 0.5888274908
	0.6277183890 0.6133733988 0.5897021294
	0.6285399199 0.6142061949 0.5905765891
	0.6293615103 0.6150388718 0.5914512277
	0.6301829815 0.6158717275 0.5923258066
	0.6310017109 0.6166999936 0.5932002068
	0.6318179965 0.6175248027 0.5940744281
	0.6326344013 0.6183496118 0.5949487090
	0.6334508061 0.6191744208 0.5958228707
	0.6342670918 0.6199991703 0.5966970921
	0.6350834966 0.6208239794 0.5975713730
	0.6358969808 0.6216465235 0.5984457135
	0.6367033720 0.6224632263 0.5993201137
	0.6375098228 0.6232798100 0.6001945138
	0.6383162141 0.6240965128 0.6010689735
	0.6391226053 0.6249132156 0.6019433737
	0.6399289966 0.6257297993 0.6028177738
	0.6407353878 0.6265465021 0.6036921740
	0.6415356994 0.6273627281 0.6045618057
	0.6423354745 0.6281787753 0.6054310799
	0.6431353092 0.6289948821 0.6063002944
	0.6439350843 0.6298109889 0.6071695089
	0.6447349191 0.6306270957 0.6080387235
	0.6455346942 0.6314432025 0.6089078784
	0.6463314891 0.6322597861 0.6097748876
	0.6471250057 0.6330770850 0.6106392741
	0.6479185820 0.6338943243 0.6115037799
	0.6487122178 0.6347116232 0.6123682261
	0.6495056748 0.6355288029 0.6132326722
	0.6502993107 0.6363461018 0.6140971184
	0.6510928869 0.6371632814 0.6149616241
	0.6518819928 0.6379770041 0.6158189178
	0.6526708007 0.6387906075 0.6166757941
	0.6534597278 0.6396042109 0.6175327897
	0.6542485952 0.6404178143 0.6183897257
	0.6550374031 0.6412314177 0.6192467213
	0.6558262706 0.6420449018 0.6201035976
	0.6566126943 0.6428549886 0.6209588051
	0.6573941112 0.6436582804 0.6218106151
	0.6581755280 0.6444615722 0.6226623058
	0.6589568853 0.6452649236 0.6235139966
	0.6597383022 0.6460682154 0.6243656874
	0.6605197191 0.6468715072 0.6252173781
	0.6613010168 0.6476747990 0.6260691881
	0.6620833874 0.6484764218 0.6269180179
	0.6628664136 0.6492767930 0.6277649999
	0.6636493206 0.6500772834 0.6286119819
	0.6644322872 0.6508777738 0.6294590831
	0.6652151942 0.6516783237 0.6303061247
	0.6659982204 0.6524788141 0.6311531067
	0.6667811275 0.6532791853 0.6320002079
	0.6675598025 0.6540803909 0.6328403950
	0.6683375835 0.6548817754 0.6336792111
	0.6691154242 0.6556832194 0.6345179081
	0.6698932052 0.6564844847 0.6353567243
	0.6706709862 0.6572859287 0.6361954212
	0.6714488268 0.6580871940 0.6370341778
	0.6722266078 0.6588885784 0.6378728747
	0.6729933023 0.6596770287 0.6387121081
	0.6737592816 0.6604645252 0.6395512223
	0.6745253205 0.6612520814 0.6403903961
	0.6752912998 0.6620395780 0.6412295103
	0.6760572791 0.6628271937 0.6420686841
	0.6768233180 0.6636146903 0.6429077983
	0.6775892973 0.6644023061 0.6437469721
	0.6783525944 0.6651803851 0.6445764899
	0.6791155934 0.6659579873 0.6454054117
	0.6798787117 0.6667355895 0.6462342739
	0.6806417704 0.6675131917 0.6470631957
	0.6814048886 0.6682907939 0.6478921175
	0.6821680069 0.6690683961 0.6487209797
	0.6829311252 0.6698459983 0.6495499015
	0.6836892962 0.6706212759 0.6503704190
	0.6844468117 0.6713961959 0.6511895061
	0.6852043271 0.6721711755 0.6520085931
	0.6859617829 0.6729462147 0.6528277993
	0.6867192984 0.6737210751 0.6536468863
	0.6874766946 0.6744961143 0.6544659734
	0.6882342100 0.6752710938 0.6552851796
	0.6889876127 0.6760479808 0.6560990810
	0.6897391081 0.6768258810 0.6569107175
	0.6904906034 0.6776037216 0.6577221751
	0.6912420988 0.6783815026 0.6585338116
	0.6919935942 0.6791594028 0.6593453884
	0.6927450895 0.6799371839 0.6601569057
	0.6934965849 0.6807150841 0.6609684825
	0.6942445040 0.6814894080 0.6617767215
	0.6949872971 0.6822587848 0.6625800729
	0.6957302094 0.6830282211 0.6633834243
	0.6964730024 0.6837977171 0.6641867757
	0.6972159147 0.6845670938 0.6649901867
	0.6979587078 0.6853365898 0.6657935977
	0.6987016201 0.6861060262 0.6665970087
	0.6994444132 0.6868749261 0.6674001813
	0.7001873255 0.6876338124 0.6682003736
	0.7009301782 0.6883925796 0.6690005064
	0.7016730905 0.6891514063 0.6698006988
	0.7024160028 0.6899102926 0.6706007719
	0.7031589150 0.6906691194 0.6714010239
	0.7039018273 0.6914280057 0.6722010970
	0.7046446800 0.6921867728 0.6730012894
	0.7053861022 0.6929436922 0.6738013029
	0.7061262727 0.6936991215 0.6746010780
	0.7068666220 0.6944546103 0.6754009128
	0.7076067924 0.6952099800 0.6762006879
	0.7083470821 0.6959655285 0.6770005226
	0.7090873718 0.6967208982 0.6778002977
	0.7098276019 0.6974763870 0.6786001921
	0.7105678916 0.6982318759 0.6794000268
	0.7113052011 0.6989892721 0.6801937222
	0.7120423913 0.6997467875 0.6809874177
	0.7127797008 0.7005043030 0.6817811728
	0.7135170102 0.7012618184 0.6825749278
	0.7142542005 0.7020192742 0.6833686233
	0.7149915099 0.7027767897 0.6841623187
	0.7157288194 0.7035343051 0.6849560142
	0.7164642215 0.7042888999 0.6857504845
	0.7171959281 0.7050374746 0.6865466833
	0.7179275155 0.7057859898 0.6873428822
	0.7186592221 0.7065346241 0.6881390810
	0.7193908095 0.7072831988 0.6889352798
	0.7201225162 0.7080317736 0.6897314191
	0.7208541036 0.7087804079 0.6905276179
	0.7215858102 0.7095289826 0.6913238168
	0.7223190069 0.7102715969 0.6921185255
	0.7230535150 0.7110090256 0.6929119229
	0.7237880230 0.7117465138 0.6937052011
