release/datafiles/colormanagement/luts/film_response/kodak_kai-1010.spi1d
Version 1
From 0.0 1.0
Length 1024
Components 1
{
	0.0000000000
	0.0015970930
	0.0032108270
	0.0048384252
	0.0064732390
	0.0081081763
	0.0097375941
	0.0113548804
	0.0129528800
	0.0145261399
	0.0160703696
	0.0175831709
	0.0190630294
	0.0205102507
	0.0219259299
	0.0233127493
	0.0246715993
	0.0260010492
	0.0272994898
	0.0285670608
	0.0298028998
	0.0310098194
	0.0321902186
	0.0333435684
	0.0344703794
	0.0355738886
	0.0366554409
	0.0377166718
	0.0387589782
	0.0397843607
	0.0407951698
	0.0417945310
	0.0427865982
	0.0437750705
	0.0447619408
	0.0457485691
	0.0467366986
	0.0477271006
	0.0487186685
	0.0497123487
	0.0507081710
	0.0517065898
	0.0527076609
	0.0537111685
	0.0547169782
	0.0557249896
	0.0567362607
	0.0577516407
	0.0587707087
	0.0597942285
	0.0608223192
	0.0618541911
	0.0628895611
	0.0639279112
	0.0649689585
	0.0660121813
	0.0670581907
	0.0681073666
	0.0691590682
	0.0702132285
	0.0712696612
	0.0723281205
	0.0733884126
	0.0744497478
	0.0755119175
	0.0765746608
	0.0776376799
	0.0787018836
	0.0797673315
	0.0808331519
	0.0818990618
	0.0829651132
	0.0840317011
	0.0850984082
	0.0861652717
	0.0872325823
	0.0882994309
	0.0893664882
	0.0904344097
	0.0915023014
	0.0925698727
	0.0936371982
	0.0947050005
	0.0957735702
	0.0968423486
	0.0979111120
	0.0989789367
	0.1000462994
	0.1011143997
	0.1021834984
	0.1032544971
	0.1043291986
	0.1054088995
	0.1064950973
	0.1075880006
	0.1086886004
	0.1097972989
	0.1109144986
	0.1120416969
	0.1131796017
	0.1143285036
	0.1154886037
	0.1166604012
	0.1178442016
	0.1190397963
	0.1202476025
	0.1214689016
	0.1227027997
	0.1239494979
	0.1252094954
	0.1264819056
	0.1277655959
	0.1290591955
	0.1303616017
	0.1316712052
	0.1329866052
	0.1343073994
	0.1356315017
	0.1369580030
	0.1382858008
	0.1396144927
	0.1409430057
	0.1422718018
	0.1436003000
	0.1449290067
	0.1462575048
	0.1475863010
	0.1489147991
	0.1502435058
	0.1515720040
	0.1529008001
	0.1542291939
	0.1555580050
	0.1568865031
	0.1582152992
	0.1595436931
	0.1608725041
	0.1622010022
	0.1635297984
	0.1648582071
	0.1661870033
	0.1675153971
	0.1688434035
	0.1701688021
	0.1714915931
	0.1728098989
	0.1741224974
	0.1754271984
	0.1767227948
	0.1780070066
	0.1792788059
	0.1805343926
	0.1817727983
	0.1829933971
	0.1841960996
	0.1853809059
	0.1865482926
	0.1876983047
	0.1888300031
	0.1899435073
	0.1910407990
	0.1921222061
	0.1931896061
	0.1942428052
	0.1952829063
	0.1963098943
	0.1973251998
	0.1983291954
	0.1993234009
	0.2003085017
	0.2012864053
	0.2022587955
	0.2032283992
	0.2041957974
	0.2051616013
	0.2061273009
	0.2070931047
	0.2080595940
	0.2090270072
	0.2099955976
	0.2109649032
	0.2119348943
	0.2129058987
	0.2138797939
	0.2148582041
	0.2158416957
	0.2168301046
	0.2178225964
	0.2188192010
	0.2198204994
	0.2208279073
	0.2218416035
	0.2228616029
	0.2238875031
	0.2249186039
	0.2259557992
	0.2269994020
	0.2280489057
	0.2291045040
	0.2301660031
	0.2312328964
	0.2323053926
	0.2333831042
	0.2344655991
	0.2355525047
	0.2366431057
	0.2377368063
	0.2388329953
	0.2399305999
	0.2410296053
	0.2421302944
	0.2432314008
	0.2443311065
	0.2454299033
	0.2465299964
	0.2476332933
	0.2487404048
	0.2498511970
	0.2509643137
	0.2520790994
	0.2531974018
	0.2543210089
	0.2554507852
	0.2565864921
	0.2577267885
	0.2588709891
	0.2600202858
	0.2611759901
	0.2623381019
	0.2635067105
	0.2646813989
	0.2658607960
	0.2670449913
	0.2682338953
	0.2694280148
	0.2706277072
	0.2718321085
	0.2730394900
	0.2742492855
	0.2754603922
	0.2766728103
	0.2778874040
	0.2791036963
	0.2803192139
	0.2815321982
	0.2827436030
	0.2839539051
	0.2851620913
	0.2863675058
	0.2875689864
	0.2887648046
	0.2899549007
	0.2911390960
	0.2923170924
	0.2934887111
	0.2946529090
	0.2958090901
	0.2969568968
	0.2980965972
	0.2992289066
	0.3003537953
	0.3014717996
	0.3025816977
	0.3036831915
	0.3047770858
	0.3058654070
	0.3069495857
	0.3080292046
	0.3091028929
	0.3101705909
	0.3112339079
	0.3122943938
	0.3133535087
	0.3144116104
	0.3154678941
	0.3165228963
	0.3175787926
	0.3186368942
	0.3196958899
	0.3207564056
	0.3218187094
	0.3228828907
	0.3239508867
	0.3250220120
	0.3260951936
	0.3271706104
	0.3282474875
	0.3293263912
	0.3304072917
	0.3314906955
	0.3325760067
	0.3336637020
	0.3347538114
	0.3358460069
	0.3369395137
	0.3380326927
	0.3391278088
	0.3402253985
	0.3413242996
	0.3424232900
	0.3435212970
	0.3446190953
	0.3457185030
	0.3468185961
	0.3479177952
	0.3490158916
	0.3501127958
	0.3512093127
	0.3523041010
	0.3533973098
	0.3544895947
	0.3555799127
	0.3566688895
	0.3577584922
	0.3588475883
	0.3599354923
	0.3610216081
	0.3621057868
	0.3631885946
	0.3642696142
	0.3653489947
	0.3664267957
	0.3675036132
	0.3685795963
	0.3696550131
	0.3707289100
	0.3718005121
	0.3728711009
	0.3739413917
	0.3750106096
	0.3760792017
	0.3771468997
	0.3782134950
	0.3792808056
	0.3803485930
	0.3814165890
	0.3824853003
	0.3835538924
	0.3846215010
	0.3856872022
	0.3867521882
	0.3878181875
	0.3888849020
	0.3899520934
	0.3910199106
	0.3920885026
	0.3931584954
	0.3942297995
	0.3953022957
	0.3963758051
	0.3974499106
	0.3985247016
	0.3996005952
	0.4006777108
	0.4017564952
	0.4028376937
	0.4039207101
	0.4050048888
	0.4060907960
	0.4071780145
	0.4082660973
	0.4093562067
	0.4104484916
	0.4115422070
	0.4126375020
	0.4137335122
	0.4148307145
	0.4159297049
	0.4170301855
	0.4181306064
	0.4192298055
	0.4203279912
	0.4214271009
	0.4225274920
	0.4236279130
	0.4247274995
	0.4258260131
	0.4269242883
	0.4280230105
	0.4291217029
	0.4302200079
	0.4313178957
	0.4324154854
	0.4335126877
	0.4346086085
	0.4357028902
	0.4367968142
	0.4378911853
	0.4389862120
	0.4400813878
	0.4411762953
	0.4422703981
	0.4433647990
	0.4444605112
	0.4455575943
	0.4466555119
	0.4477527142
	0.4488491118
	0.4499464929
	0.4510458112
	0.4521470070
	0.4532484114
	0.4543491900
	0.4554497004
	0.4565511048
	0.4576537907
	0.4587570131
	0.4598602057
	0.4609631896
	0.4620659947
	0.4631690979
	0.4642724097
	0.4653758109
	0.4664795995
	0.4675835967
	0.4686864913
	0.4697881043
	0.4708893895
	0.4719910920
	0.4730935991
	0.4741966128
	0.4752987921
	0.4763998985
	0.4775001109
	0.4785997868
	0.4797008038
	0.4808028042
	0.4819043875
	0.4830043018
	0.4841024876
	0.4852007926
	0.4863008857
	0.4874025881
	0.4885045886
	0.4896053970
	0.4907051027
	0.4918052852
	0.4929065108
	0.4940088987
	0.4951120019
	0.4962143004
	0.4973159134
	0.4984172881
	0.4995189011
	0.5006219745
	0.5017260909
	0.5028306842
	0.5039374232
	0.5050470233
	0.5061581731
	0.5072711706
	0.5083870292
	0.5095049739
	0.5106257796
	0.5117477775
	0.5128695965
	0.5139923096
	0.5151175261
	0.5162450075
	0.5173735023
	0.5185019970
	0.5196316242
	0.5207641125
	0.5218989849
	0.5230355859
	0.5241733193
	0.5253111720
	0.5264499187
	0.5275893807
	0.5287293792
	0.5298690200
	0.5310084820
	0.5321471095
	0.5332846045
	0.5344207883
	0.5355551839
	0.5366871953
	0.5378178954
	0.5389484763
	0.5400791168
	0.5412082076
	0.5423350930
	0.5434600115
	0.5445839763
	0.5457080007
	0.5468308926
	0.5479511023
	0.5490679741
	0.5501825213
	0.5512952805
	0.5524055958
	0.5535135269
	0.5546203852
	0.5557265282
	0.5568308234
	0.5579332709
	0.5590345860
	0.5601357222
	0.5612370968
	0.5623382926
	0.5634381175
	0.5645357966
	0.5656321049
	0.5667272210
	0.5678204894
	0.5689107776
	0.5699964166
	0.5710760951
	0.5721501112
	0.5732188821
	0.5742821097
	0.5753387213
	0.5763881803
	0.5774298906
	0.5784643292
	0.5794925094
	0.5805140138
	0.5815274119
	0.5825325847
	0.5835304260
	0.5845211148
	0.5855050087
	0.5864828229
	0.5874555707
	0.5884236097
	0.5893865824
	0.5903437138
	0.5912957191
	0.5922436714
	0.5931885242
	0.5941303968
	0.5950701833
	0.5960083008
	0.5969455242
	0.5978826284
	0.5988199711
	0.5997573733
	0.6006944180
	0.6016309261
	0.6025679111
	0.6035056710
	0.6044442058
	0.6053841710
	0.6063274741
	0.6072760224
	0.6082304716
	0.6091914177
	0.6101577878
	0.6111288071
	0.6121054292
	0.6130893230
	0.6140809059
	0.6150801778
	0.6160869002
	0.6171011925
	0.6181237102
	0.6191561222
	0.6201986074
	0.6212494969
	0.6223081946
	0.6233735085
	0.6244443059
	0.6255208850
	0.6266024113
	0.6276888251
	0.6287800074
	0.6298750043
	0.6309717894
	0.6320694089
	0.6331679225
	0.6342682838
	0.6353698969
	0.6364706755
	0.6375694871
	0.6386672854
	0.6397666931
	0.6408684254
	0.6419709921
	0.6430730224
	0.6441742182
	0.6452761889
	0.6463810205
	0.6474881172
	0.6485970020
	0.6497082114
	0.6508216262
	0.6519368887
	0.6530544162
	0.6541745067
	0.6552979946
	0.6564245224
	0.6575521231
	0.6586806178
	0.6598100066
	0.6609410048
	0.6620740294
	0.6632086039
	0.6643440127
	0.6654803157
	0.6666182280
	0.6677569747
	0.6688960791
	0.6700353026
	0.6711744070
	0.6723119020
	0.6734473109
	0.6745814085
	0.6757146120
	0.6768456101
	0.6779726744
	0.6790955067
	0.6802144051
	0.6813290119
	0.6824392080
	0.6835449934
	0.6846470833
	0.6857451797
	0.6868383884
	0.6879264116
	0.6890088916
	0.6900870204
	0.6911612749
	0.6922308803
	0.6932950020
	0.6943535805
	0.6954085231
	0.6964603066
	0.6975083947
	0.6985530257
	0.6995959282
	0.7006379962
	0.7016788721
	0.7027179003
	0.7037551999
	0.7047919035
	0.7058281898
	0.7068638206
	0.7078987956
	0.7089341879
	0.7099704742
	0.7110071182
	0.7120435834
	0.7130793929
	0.7141141295
	0.7151473761
	0.7161788940
	0.7172086835
	0.7182366848
	0.7192623019
	0.7202852964
	0.7213062048
	0.7223259211
	0.7233440876
	0.7243599892
	0.7253736258
	0.7263845205
	0.7273933291
	0.7283999920
	0.7294043899
	0.7304064035
	0.7314063907
	0.7324048877
	0.7334017158
	0.7343968749
	0.7353904247
	0.7363826036
	0.7373743057
	0.7383652925
	0.7393556833
	0.7403460741
	0.7413364053
	0.7423262000
	0.7433158755
	0.7443063855
	0.7452973723
	0.7462878227
	0.7472770810
	0.7482659221
	0.7492548823
	0.7502439022
	0.7512320876
	0.7522203922
	0.7532092929
	0.7541986108
	0.7551875114
	0.7561764121
	0.7571650743
	0.7581533194
	0.7591395974
	0.7601243854
	0.7611085773
	0.7620921731
	0.7630745769
	0.7640557885
	0.7650362253
	0.7660158277
	0.7669950724
	0.7679738998
	0.7689527273
	0.7699314952
	0.7709106803
	0.7718899846
	0.7728688121
	0.7738466263
	0.7748246789
	0.7758036852
	0.7767832279
	0.7777634859
	0.7787454724
	0.7797296047
	0.7807155252
	0.7817035913
	0.7826942801
	0.7836887836
	0.7846868038
	0.7856897116
	0.7866985202
	0.7877131104
	0.7887325287
	0.7897546887
	0.7907801867
	0.7918102145
	0.7928441763
	0.7938814163
	0.7949218750
	0.7959659100
	0.7970144153
	0.7980663180
	0.7991213799
	0.8001785874
	0.8012385964
	0.8023005128
	0.8033639193
	0.8044286966
	0.8054934740
	0.8065580130
	0.8076239824
	0.8086903095
	0.8097563982
	0.8108221292
	0.8118875027
	0.8129522204
	0.8140147924
	0.8150777221
	0.8161420822
	0.8172072172
	0.8182731867
	0.8193401098
	0.8204079866
	0.8214777708
	0.8225491047
	0.8236216903
	0.8246955872
	0.8257701993
	0.8268460035
	0.8279229999
	0.8290016055
	0.8300824761
	0.8311660886
	0.8322516084
	0.8333384991
	0.8344269991
	0.8355159163
	0.8366057277
	0.8376973867
	0.8387901783
	0.8398838043
	0.8409780264
	0.8420727849
	0.8431686759
	0.8442658782
	0.8453642130
	0.8464624882
	0.8475595713
	0.8486564159
	0.8497542143
	0.8508523703
	0.8519496918
	0.8530451059
	0.8541380763
	0.8552293777
	0.8563184738
	0.8574041724
	0.8584862947
	0.8595638275
	0.8606367111
	0.8617051244
	0.8627687097
	0.8638274074
	0.8648813963
	0.8659303784
	0.8669738770
	0.8680111766
	0.8690428734
	0.8700705171
	0.8710942268
	0.8721132874
	0.8731275201
	0.8741363287
	0.8751401901
	0.8761405945
	0.8771389127
	0.8781350851
	0.8791291118
	0.8801203966
	0.8811098933
	0.8820986748
	0.8830870986
	0.8840739131
	0.8850582242
	0.8860396743
	0.8870177269
	0.8879904747
	0.8889573812
	0.8899183869
	0.8908733130
	0.8918204904
	0.8927587271
	0.8936867714
	0.8946046233
	0.8955129981
	0.8964123726
	0.8973016739
	0.8981794715
	0.8990461230
	0.8999027014
	0.9007506967
	0.9015905857
	0.9024220705
	0.9032449722
	0.9040595293
	0.9048662186
	0.9056664705
	0.9064612985
	0.9072514176
	0.9080368280
	0.9088181257
	0.9095960855
	0.9103735089
	0.9111509919
	0.9119281173
	0.9127063155
	0.9134865999
	0.9142683744
	0.9150518179
	0.9158385992
	0.9166294932
	0.9174247980
	0.9182245731
	0.9190281034
	0.9198362827
	0.9206498861
	0.9214689732
	0.9222937822
	0.9231243134
	0.9239605069
	0.9248024225
	0.9256507754
	0.9265056252
	0.9273657203
	0.9282308221
	0.9291006923
	0.9299767017
	0.9308583736
	0.9317452908
	0.9326366186
	0.9335306883
	0.9344261289
	0.9353219867
	0.9362199903
	0.9371207952
	0.9380227923
	0.9389240742
	0.9398236871
	0.9407200813
	0.9416117072
	0.9424964190
	0.9433727860
	0.9442400932
	0.9450957775
	0.9459366202
	0.9467617273
	0.9475710988
	0.9483641982
	0.9491404891
	0.9498987198
	0.9506378770
	0.9513601065
	0.9520673156
	0.9527601004
	0.9534382224
	0.9541031122
	0.9547548890
	0.9553934932
	0.9560201764
	0.9566345811
	0.9572381973
	0.9578328729
	0.9584187269
	0.9589971900
	0.9595693946
	0.9601373076
	0.9607033134
	0.9612680078
	0.9618327022
	0.9623975158
	0.9629616737
	0.9635255933
	0.9640890956
	0.9646533728
	0.9652183056
	0.9657815099
	0.9663417935
	0.9668993950
	0.9674541950
	0.9680057764
	0.9685540199
	0.9690970778
	0.9696341753
	0.9701663256
	0.9706926942
	0.9712131023
	0.9717286825
	0.9722387791
	0.9727417827
	0.9732379913
	0.9737278819
	0.9742118120
	0.9746910930
	0.9751664996
	0.9756376147
	0.9761040211
	0.9765653014
	0.9770221114
	0.9774755836
	0.9779269099
	0.9783759117
	0.9788222909
	0.9792655706
	0.9797067046
	0.9801476002
	0.9805889726
	0.9810296893
	0.9814689755
	0.9819055796
	0.9823380709
	0.9827659726
	0.9831880927
	0.9836019874
	0.9840061069
	0.9844006896
	0.9847850204
	0.9851579070
	0.9855204225
	0.9858720899
	0.9862110019
	0.9865372181
	0.9868519902
	0.9871559739
	0.9874501824
	0.9877349734
	0.9880086184
	0.9882714152
	0.9885252118
	0.9887697101
	0.9890058041
	0.9892352223
	0.9894577861
	0.9896727204
	0.9898800850
	0.9900823832
	0.9902830720
	0.9904839993
	0.9906855226
	0.9908869267
	0.9910880923
	0.9912897944
	0.9914922714
	0.9916949272
	0.9918974042
	0.9920992851
	0.9923006296
	0.9925016761
	0.9927030206
	0.9929041266
	0.9931046963
	0.9933041930
	0.9935020804
	0.9936985970
	0.9938936234
	0.9940873981
	0.9942802787
	0.9944714904
	0.9946609735
	0.9948499203
	0.9950379729
	0.9952244163
	0.9954094291
	0.9955927134
	0.9957733750
	0.9959521890
	0.9961301088
	0.9963076711
	0.9964857101
	0.9966629744
	0.9968385100
	0.9970129728
	0.9971876144
	0.9973618984
	0.9975370169
	0.9977136254
	0.9978904128
	0.9980655909
	0.9982392192
	0.9984129071
	0.9985876083
	0.9987636805
	0.9989405274
	0.9991179705
	0.9992954731
	0.9994722009
	0.9996479750
	0.9998239875
	1.0000000000
}
