release/datafiles/colormanagement/luts/film_response/kodak_kai-0311.spi1d
Version 1
From 0.0 1.0
Length 1024
Components 1
{
	0.0000000000
	0.0016059499
	0.0032039359
	0.0047925338
	0.0063681109
	0.0079261437
	0.0094620753
	0.0109717799
	0.0124478899
	0.0138870701
	0.0152903199
	0.0166584495
	0.0179926194
	0.0192952193
	0.0205696207
	0.0218127500
	0.0230190307
	0.0241936091
	0.0253404994
	0.0264616702
	0.0275589097
	0.0286343992
	0.0296888705
	0.0307215601
	0.0317354687
	0.0327326916
	0.0337138698
	0.0346802585
	0.0356336907
	0.0365758091
	0.0375103503
	0.0384392217
	0.0393667594
	0.0402943417
	0.0412232615
	0.0421543792
	0.0430876091
	0.0440218188
	0.0449589603
	0.0459001884
	0.0468437783
	0.0477895401
	0.0487375483
	0.0496875793
	0.0506395511
	0.0515942089
	0.0525525808
	0.0535144582
	0.0544794910
	0.0554478317
	0.0564199202
	0.0573957488
	0.0583746210
	0.0593575612
	0.0603439212
	0.0613333285
	0.0623258613
	0.0633219033
	0.0643215328
	0.0653229132
	0.0663260892
	0.0673301816
	0.0683355704
	0.0693410188
	0.0703461990
	0.0713518485
	0.0723578706
	0.0733634382
	0.0743684769
	0.0753747523
	0.0763814375
	0.0773879215
	0.0783942565
	0.0794009119
	0.0804076791
	0.0814127624
	0.0824181885
	0.0834240466
	0.0844298676
	0.0854352489
	0.0864404887
	0.0874472633
	0.0884538963
	0.0894602016
	0.0904667079
	0.0914734229
	0.0924795270
	0.0934846178
	0.0944902077
	0.0954962522
	0.0965018719
	0.0975077078
	0.0985157192
	0.0995259583
	0.1005385965
	0.1015558019
	0.1025787964
	0.1036100015
	0.1046487987
	0.1056960970
	0.1067529991
	0.1078196988
	0.1088960990
	0.1099824011
	0.1110825986
	0.1121942028
	0.1133178994
	0.1144538969
	0.1156022996
	0.1167630032
	0.1179357022
	0.1191222966
	0.1203233972
	0.1215377003
	0.1227634028
	0.1240004003
	0.1252481937
	0.1265043020
	0.1277696937
	0.1290419996
	0.1303198040
	0.1316013932
	0.1328857988
	0.1341720074
	0.1354583055
	0.1367450058
	0.1380295008
	0.1393115968
	0.1405912936
	0.1418687999
	0.1431439966
	0.1444166005
	0.1456868947
	0.1469538957
	0.1482183039
	0.1494797021
	0.1507384926
	0.1519940048
	0.1532454938
	0.1544931978
	0.1557371020
	0.1569786072
	0.1582174003
	0.1594552994
	0.1606920063
	0.1619275063
	0.1631624997
	0.1643957943
	0.1656281948
	0.1668587029
	0.1680880040
	0.1693165004
	0.1705441028
	0.1717692018
	0.1729893982
	0.1742039025
	0.1754093021
	0.1766050011
	0.1777881980
	0.1789582074
	0.1801135987
	0.1812521964
	0.1823734939
	0.1834750026
	0.1845587045
	0.1856247932
	0.1866752952
	0.1877115965
	0.1887340993
	0.1897435039
	0.1907389015
	0.1917219013
	0.1926929951
	0.1936533004
	0.1946032941
	0.1955437064
	0.1964759976
	0.1974004060
	0.1983195990
	0.1992345005
	0.2001473010
	0.2010585964
	0.2019691020
	0.2028799951
	0.2037910968
	0.2047035992
	0.2056163996
	0.2065296024
	0.2074443996
	0.2083611935
	0.2092798948
	0.2101999074
	0.2111200988
	0.2120410055
	0.2129642069
	0.2138908952
	0.2148218006
	0.2157568038
	0.2166953981
	0.2176382989
	0.2185852975
	0.2195377946
	0.2204961032
	0.2214609981
	0.2224321067
	0.2234085947
	0.2243912965
	0.2253790945
	0.2263737023
	0.2273754030
	0.2283847928
	0.2294009030
	0.2304224074
	0.2314486951
	0.2324783951
	0.2335128933
	0.2345526069
	0.2355960011
	0.2366417050
	0.2376891971
	0.2387381941
	0.2397857010
	0.2408334017
	0.2418812960
	0.2429291010
	0.2439766973
	0.2450250983
	0.2460754067
	0.2471272945
	0.2481832057
	0.2492412031
	0.2503012121
	0.2513638139
	0.2524305880
	0.2535029054
	0.2545804977
	0.2556641996
	0.2567521036
	0.2578442991
	0.2589425147
	0.2600479126
	0.2611603141
	0.2622781098
	0.2634013891
	0.2645292878
	0.2656618953
	0.2667996883
	0.2679435015
	0.2690925896
	0.2702454925
	0.2714022100
	0.2725617886
	0.2737230957
	0.2748858929
	0.2760506868
	0.2772169113
	0.2783834040
	0.2795504928
	0.2807163894
	0.2818816900
	0.2830451131
	0.2842077017
	0.2853684127
	0.2865259051
	0.2876791954
	0.2888275087
	0.2899697125
	0.2911050022
	0.2922331095
	0.2933534086
	0.2944662869
	0.2955724895
	0.2966713011
	0.2977609038
	0.2988406122
	0.2999115884
	0.3009747863
	0.3020302951
	0.3030776978
	0.3041163087
	0.3051471114
	0.3061706126
	0.3071883917
	0.3082000911
	0.3092052937
	0.3102042973
	0.3111982048
	0.3121899068
	0.3131796122
	0.3141691983
	0.3151580095
	0.3161459863
	0.3171347082
	0.3181253076
	0.3191179037
	0.3201133013
	0.3211115897
	0.3221124113
	0.3231154978
	0.3241209090
	0.3251287043
	0.3261393011
	0.3271540999
	0.3281734884
	0.3291963935
	0.3302215934
	0.3312487006
	0.3322781920
	0.3333105147
	0.3343453109
	0.3353832066
	0.3364242017
	0.3374665082
	0.3385097980
	0.3395538926
	0.3405987024
	0.3416439891
	0.3426909149
	0.3437392116
	0.3447869122
	0.3458350003
	0.3468832076
	0.3479309082
	0.3489786088
	0.3500263095
	0.3510748148
	0.3521223962
	0.3531706035
	0.3542183042
	0.3552643061
	0.3563081026
	0.3573493958
	0.3583877981
	0.3594241142
	0.3604596853
	0.3614932895
	0.3625242114
	0.3635517061
	0.3645758927
	0.3655968010
	0.3666146100
	0.3676308095
	0.3686437011
	0.3696531951
	0.3706597984
	0.3716636896
	0.3726654053
	0.3736641109
	0.3746609092
	0.3756552041
	0.3766474128
	0.3776386082
	0.3786295056
	0.3796210885
	0.3806126118
	0.3816055954
	0.3825981021
	0.3835909069
	0.3845843971
	0.3855786026
	0.3865729868
	0.3875676095
	0.3885630965
	0.3895589113
	0.3905552030
	0.3915528059
	0.3925518990
	0.3935522139
	0.3945525885
	0.3955546916
	0.3965587914
	0.3975653052
	0.3985737860
	0.3995841146
	0.4005962908
	0.4016096890
	0.4026258886
	0.4036448896
	0.4046654999
	0.4056873918
	0.4067110121
	0.4077360928
	0.4087626040
	0.4097931087
	0.4108271897
	0.4118641913
	0.4129031003
	0.4139435887
	0.4149853885
	0.4160276055
	0.4170711040
	0.4181162119
	0.4191623926
	0.4202099144
	0.4212583899
	0.4223065972
	0.4233539999
	0.4244020879
	0.4254502952
	0.4264976084
	0.4275454879
	0.4285939932
	0.4296421111
	0.4306895137
	0.4317376912
	0.4327858984
	0.4338330925
	0.4348810017
	0.4359295964
	0.4369775951
	0.4380249977
	0.4390732050
	0.4401214123
	0.4411686063
	0.4422164857
	0.4432651997
	0.4443131089
	0.4453606009
	0.4464088082
	0.4474568963
	0.4485040903
	0.4495520890
	0.4506008029
	0.4516485929
	0.4526961148
	0.4537442923
	0.4547924101
	0.4558396041
	0.4568876028
	0.4579362869
	0.4589839876
	0.4600316882
	0.4610798061
	0.4621278942
	0.4631750882
	0.4642232060
	0.4652718902
	0.4663195014
	0.4673672020
	0.4684154093
	0.4694634080
	0.4705106914
	0.4715586901
	0.4726074934
	0.4736549854
	0.4747028053
	0.4757508934
	0.4767988920
	0.4778462052
	0.4788942039
	0.4799430966
	0.4809904993
	0.4820382893
	0.4830864966
	0.4841342866
	0.4851816893
	0.4862298071
	0.4872786999
	0.4883260131
	0.4893738031
	0.4904220104
	0.4914698005
	0.4925172925
	0.4935654104
	0.4946143031
	0.4956614971
	0.4967094064
	0.4977576137
	0.4988053143
	0.4998528063
	0.5009009838
	0.5019497871
	0.5029969215
	0.5040448904
	0.5050930977
	0.5061408281
	0.5071883202
	0.5082365870
	0.5092852712
	0.5103324056
	0.5113804936
	0.5124287009
	0.5134763122
	0.5145239234
	0.5155721903
	0.5166208148
	0.5176678896
	0.5187159777
	0.5197641850
	0.5208117962
	0.5218594074
	0.5229076743
	0.5239562988
	0.5250033736
	0.5260515809
	0.5270997882
	0.5281472802
	0.5291950107
	0.5302432775
	0.5312917829
	0.5323389769
	0.5333871245
	0.5344352722
	0.5354828238
	0.5365304947
	0.5375788808
	0.5386273265
	0.5396745205
	0.5407227278
	0.5417708755
	0.5428183079
	0.5438659787
	0.5449144840
	0.5459626913
	0.5470100045
	0.5480582118
	0.5491064191
	0.5501537919
	0.5512015820
	0.5522500873
	0.5532981753
	0.5543456078
	0.5553936958
	0.5564420223
	0.5574892759
	0.5585371256
	0.5595856905
	0.5606337190
	0.5616810918
	0.5627292991
	0.5637775064
	0.5648247004
	0.5658726096
	0.5669211745
	0.5679692030
	0.5690163970
	0.5700634122
	0.5711091757
	0.5721533895
	0.5731964707
	0.5742384791
	0.5752782226
	0.5763154030
	0.5773493052
	0.5783768892
	0.5793967247
	0.5804104805
	0.5814169049
	0.5824149251
	0.5834047794
	0.5843868852
	0.5853602290
	0.5863254070
	0.5872825980
	0.5882346034
	0.5891796947
	0.5901175141
	0.5910484195
	0.5919718146
	0.5928866863
	0.5937936902
	0.5946958065
	0.5955929160
	0.5964863896
	0.5973765254
	0.5982630849
	0.5991474986
	0.6000298262
	0.6009125710
	0.6017950773
	0.6026778221
	0.6035615206
	0.6044462919
	0.6053317189
	0.6062173843
	0.6071026921
	0.6079885960
	0.6088755727
	0.6097620726
	0.6106479764
	0.6115351915
	0.6124256849
	0.6133217216
	0.6142216921
	0.6151272058
	0.6160376072
	0.6169527173
	0.6178737283
	0.6188027263
	0.6197397113
	0.6206821203
	0.6216303110
	0.6225833893
	0.6235426068
	0.6245095134
	0.6254850030
	0.6264699101
	0.6274635792
	0.6284654737
	0.6294741035
	0.6304889917
	0.6315106750
	0.6325399280
	0.6335754991
	0.6346142292
	0.6356559992
	0.6366981864
	0.6377419233
	0.6387875080
	0.6398347020
	0.6408823729
	0.6419299841
	0.6429790854
	0.6440268755
	0.6450746059
	0.6461223960
	0.6471703053
	0.6482179761
	0.6492655277
	0.6503146887
	0.6513624191
	0.6524100900
	0.6534578800
	0.6545057893
	0.6555535197
	0.6566010714
	0.6576502919
	0.6586980224
	0.6597455740
	0.6607934833
	0.6618412733
	0.6628890038
	0.6639366746
	0.6649858952
	0.6660335064
	0.6670811772
	0.6681290269
	0.6691768169
	0.6702244878
	0.6712722778
	0.6723213792
	0.6733689904
	0.6744167209
	0.6754645109
	0.6765123010
	0.6775599718
	0.6786078811
	0.6796569228
	0.6807044744
	0.6817513704
	0.6827965975
	0.6838402748
	0.6848834753
	0.6859273911
	0.6869723797
	0.6880162954
	0.6890599728
	0.6901013255
	0.6911396980
	0.6921761036
	0.6932122111
	0.6942487955
	0.6952843070
	0.6963180900
	0.6973488927
	0.6983770728
	0.6994026899
	0.7004272938
	0.7014517188
	0.7024747133
	0.7034965158
	0.7045164704
	0.7055342793
	0.7065513730
	0.7075693011
	0.7085878849
	0.7096056938
	0.7106239200
	0.7116401792
	0.7126544118
	0.7136672139
	0.7146797776
	0.7156928778
	0.7167074084
	0.7177237272
	0.7187396884
	0.7197557092
	0.7207708955
	0.7217856050
	0.7227994204
	0.7238122225
	0.7248240113
	0.7258350253
	0.7268440127
	0.7278503776
	0.7288548946
	0.7298564911
	0.7308545709
	0.7318491936
	0.7328398228
	0.7338244915
	0.7348057032
	0.7357832789
	0.7367560267
	0.7377241850
	0.7386888862
	0.7396495938
	0.7406045794
	0.7415547967
	0.7425006032
	0.7434419990
	0.7443798780
	0.7453150749
	0.7462481856
	0.7471804023
	0.7481107712
	0.7490395904
	0.7499657869
	0.7508903742
	0.7518150210
	0.7527397871
	0.7536643744
	0.7545883060
	0.7555134296
	0.7564398050
	0.7573670149
	0.7582947016
	0.7592232227
	0.7601537108
	0.7610865235
	0.7620201111
	0.7629551888
	0.7638924122
	0.7648314238
	0.7657712102
	0.7667114735
	0.7676535845
	0.7685970068
	0.7695416212
	0.7704880238
	0.7714353204
	0.7723832130
	0.7733322978
	0.7742838264
	0.7752370238
	0.7761909962
	0.7771469951
	0.7781038880
	0.7790613770
	0.7800198793
	0.7809798121
	0.7819411755
	0.7829020023
	0.7838628888
	0.7848243117
	0.7857862115
	0.7867478132
	0.7877084017
	0.7886680961
	0.7896274924
	0.7905864716
	0.7915449142
	0.7925025225
	0.7934594154
	0.7944151759
	0.7953701019
	0.7963243127
	0.7972785234
	0.7982317209
	0.7991852760
	0.8001390100
	0.8010920286
	0.8020442128
	0.8029962182
	0.8039492965
	0.8049013019
	0.8058534861
	0.8068069220
	0.8077614903
	0.8087171912
	0.8096737266
	0.8106310964
	0.8115898967
	0.8125504851
	0.8135117292
	0.8144730926
	0.8154355288
	0.8163995743
	0.8173645139
	0.8183292150
	0.8192948103
	0.8202611208
	0.8212277889
	0.8221948743
	0.8231617808
	0.8241283894
	0.8250942826
	0.8260607123
	0.8270269036
	0.8279932737
	0.8289610147
	0.8299307227
	0.8309032917
	0.8318769932
	0.8328524828
	0.8338282704
	0.8348054886
	0.8357861042
	0.8367711902
	0.8377606273
	0.8387532234
	0.8397489190
	0.8407462239
	0.8417472839
	0.8427532911
	0.8437641859
	0.8447790146
	0.8457974195
	0.8468207717
	0.8478456736
	0.8488733768
	0.8499053717
	0.8509420156
	0.8519824147
	0.8530250788
	0.8540698290
	0.8551142812
	0.8561593294
	0.8572056293
	0.8582528830
	0.8593006134
	0.8603482842
	0.8613973856
	0.8624451160
	0.8634920716
	0.8645371199
	0.8655791283
	0.8666179776
	0.8676548004
	0.8686900735
	0.8697226048
	0.8707528710
	0.8717787862
	0.8727999926
	0.8738167882
	0.8748298287
	0.8758404255
	0.8768457770
	0.8778470755
	0.8788424730
	0.8798323870
	0.8808172941
	0.8817983866
	0.8827769756
	0.8837512732
	0.8847230077
	0.8856912255
	0.8866552711
	0.8876156807
	0.8885743022
	0.8895329833
	0.8904910088
	0.8914486766
	0.8924050927
	0.8933603764
	0.8943151832
	0.8952693939
	0.8962222934
	0.8971732855
	0.8981227875
	0.8990685940
	0.9000113010
	0.9009503126
	0.9018849134
	0.9028136134
	0.9037343860
	0.9046463966
	0.9055463076
	0.9064350128
	0.9073122144
	0.9081791043
	0.9090356827
	0.9098809958
	0.9107148051
	0.9115344882
	0.9123430252
	0.9131417871
	0.9139323235
	0.9147145152
	0.9154878259
	0.9162527919
	0.9170091748
	0.9177588224
	0.9185020924
	0.9192394018
	0.9199714065
	0.9206994176
	0.9214246869
	0.9221466780
	0.9228668809
	0.9235867262
	0.9243060946
	0.9250255823
	0.9257463217
	0.9264692068
	0.9271945953
	0.9279209971
	0.9286499023
	0.9293829203
	0.9301195741
	0.9308602214
	0.9316061139
	0.9323577285
	0.9331133962
	0.9338728786
	0.9346380830
	0.9354091287
	0.9361863136
	0.9369704127
	0.9377611279
	0.9385566115
	0.9393566251
	0.9401628971
	0.9409751892
	0.9417932034
	0.9426162839
	0.9434437156
	0.9442740083
	0.9451068044
	0.9459424019
	0.9467787147
	0.9476162195
	0.9484547973
	0.9492936134
	0.9501317143
	0.9509698153
	0.9518089294
	0.9526466727
	0.9534838200
	0.9543187022
	0.9551491737
	0.9559733272
	0.9567909241
	0.9575985074
	0.9583951831
	0.9591814876
	0.9599570036
	0.9607214928
	0.9614744782
	0.9622160196
	0.9629415870
	0.9636477828
	0.9643381238
	0.9650136828
	0.9656763077
	0.9663271904
	0.9669669271
	0.9675945044
	0.9682068825
	0.9688068032
	0.9693955779
	0.9699755907
	0.9705489278
	0.9711167216
	0.9716787934
	0.9722322226
	0.9727811813
	0.9733269215
	0.9738715291
	0.9744166136
	0.9749621153
	0.9755073190
	0.9760522246
	0.9765970707
	0.9771423936
	0.9776893854
	0.9782382250
	0.9787877202
	0.9793367982
	0.9798851013
	0.9804323912
	0.9809777737
	0.9815199971
	0.9820588231
	0.9825943708
	0.9831265211
	0.9836531281
	0.9841737151
	0.9846891761
	0.9851980805
	0.9857000709
	0.9861956239
	0.9866847992
	0.9871674180
	0.9876440167
	0.9881147146
	0.9885799289
	0.9890390038
	0.9894917011
	0.9899380803
	0.9903783798
	0.9908131957
	0.9912436008
	0.9916706085
	0.9920943975
	0.9925168157
	0.9929386973
	0.9933599234
	0.9937797189
	0.9941993952
	0.9946184158
	0.9950373173
	0.9954559803
	0.9958732724
	0.9962888956
	0.9967045188
	0.9971199036
	0.9975342751
	0.9979482293
	0.9983612895
	0.9987732172
	0.9991837740
	0.9995930195
	1.0000000000
}
