release/datafiles/colormanagement/luts/film_response/kodak_kai-0372.spi1d
Version 1
From 0.0 1.0
Length 1024
Components 1
{
	0.0000000000
	0.0014187270
	0.0028485169
	0.0042931479
	0.0057487562
	0.0072099129
	0.0086716842
	0.0101303104
	0.0115825599
	0.0130244503
	0.0144514600
	0.0158604495
	0.0172503907
	0.0186199509
	0.0199686904
	0.0212968104
	0.0226029102
	0.0238885507
	0.0251513291
	0.0263916291
	0.0276103709
	0.0288079195
	0.0299857892
	0.0311455000
	0.0322885215
	0.0334165096
	0.0345297195
	0.0356270298
	0.0367095582
	0.0377803184
	0.0388391204
	0.0398863591
	0.0409265012
	0.0419625007
	0.0429961495
	0.0440296903
	0.0450651906
	0.0461052805
	0.0471526794
	0.0482083187
	0.0492714494
	0.0503420308
	0.0514214598
	0.0525106192
	0.0536095686
	0.0547187701
	0.0558380783
	0.0569689386
	0.0581119917
	0.0592671484
	0.0604341701
	0.0616126209
	0.0628031567
	0.0640061498
	0.0652208924
	0.0664469600
	0.0676843375
	0.0689309686
	0.0701846108
	0.0714438409
	0.0727065727
	0.0739705265
	0.0752329826
	0.0764907077
	0.0777410120
	0.0789828077
	0.0802149475
	0.0814361572
	0.0826453418
	0.0838416368
	0.0850252435
	0.0861970633
	0.0873567313
	0.0885045677
	0.0896422267
	0.0907687172
	0.0918845534
	0.0929897428
	0.0940850228
	0.0951717719
	0.0962497294
	0.0973178074
	0.0983761922
	0.0994268134
	0.1004718989
	0.1015126035
	0.1025492996
	0.1035822034
	0.1046125963
	0.1056426987
	0.1066747978
	0.1077087969
	0.1087436005
	0.1097813025
	0.1108229011
	0.1118687019
	0.1129188985
	0.1139732003
	0.1150322035
	0.1160956025
	0.1171633974
	0.1182366982
	0.1193158031
	0.1204013005
	0.1214938983
	0.1225937977
	0.1236993000
	0.1248105019
	0.1259278059
	0.1270509064
	0.1281802952
	0.1293144971
	0.1304522008
	0.1315927953
	0.1327365935
	0.1338832974
	0.1350333989
	0.1361864060
	0.1373412013
	0.1384979934
	0.1396571994
	0.1408192068
	0.1419841945
	0.1431522071
	0.1443247050
	0.1455022991
	0.1466850936
	0.1478727013
	0.1490653008
	0.1502631009
	0.1514662057
	0.1526743025
	0.1538881063
	0.1551087052
	0.1563372016
	0.1575720012
	0.1588124931
	0.1600576937
	0.1613081992
	0.1625638008
	0.1638233066
	0.1650867015
	0.1663545072
	0.1676256955
	0.1688988060
	0.1701712012
	0.1714410037
	0.1727070063
	0.1739681065
	0.1752225012
	0.1764675975
	0.1777033061
	0.1789285988
	0.1801432073
	0.1813486964
	0.1825450063
	0.1837306023
	0.1849053055
	0.1860695928
	0.1872238964
	0.1883683056
	0.1895032972
	0.1906294972
	0.1917479932
	0.1928582937
	0.1939616054
	0.1950584054
	0.1961483955
	0.1972329021
	0.1983121932
	0.1993871927
	0.2004588991
	0.2015292943
	0.2025997043
	0.2036705017
	0.2047414035
	0.2058123052
	0.2068836987
	0.2079551965
	0.2090263963
	0.2100979984
	0.2111708969
	0.2122471929
	0.2133263052
	0.2144072950
	0.2154909968
	0.2165782005
	0.2176689953
	0.2187630981
	0.2198591977
	0.2209576964
	0.2220599949
	0.2231667042
	0.2242773026
	0.2253910005
	0.2265066952
	0.2276258022
	0.2287493050
	0.2298769057
	0.2310086936
	0.2321445048
	0.2332839072
	0.2344263941
	0.2355709970
	0.2367177010
	0.2378668934
	0.2390172035
	0.2401686013
	0.2413198054
	0.2424692959
	0.2436169982
	0.2447617054
	0.2459024042
	0.2470397949
	0.2481732070
	0.2493015975
	0.2504242957
	0.2515400052
	0.2526471913
	0.2537457049
	0.2548359036
	0.2559179068
	0.2569903135
	0.2580535114
	0.2591086030
	0.2601554990
	0.2611947060
	0.2622261941
	0.2632490993
	0.2642633021
	0.2652696073
	0.2662687898
	0.2672609985
	0.2682465911
	0.2692261040
	0.2702012062
	0.2711735070
	0.2721416056
	0.2731072903
	0.2740713060
	0.2750340104
	0.2759960890
	0.2769576907
	0.2779189944
	0.2788805068
	0.2798438966
	0.2808105946
	0.2817816138
	0.2827576995
	0.2837403119
	0.2847315073
	0.2857330143
	0.2867462039
	0.2877714932
	0.2888084948
	0.2898587883
	0.2909233868
	0.2920028865
	0.2930966914
	0.2942047119
	0.2953279912
	0.2964681983
	0.2976255119
	0.2987984121
	0.2999858856
	0.3011890948
	0.3024066985
	0.3036352992
	0.3048754930
	0.3061271012
	0.3073874116
	0.3086515963
	0.3099172115
	0.3111822903
	0.3124446869
	0.3137021959
	0.3149535060
	0.3161973953
	0.3174318075
	0.3186556995
	0.3198691010
	0.3210715055
	0.3222627044
	0.3234440982
	0.3246166110
	0.3257783055
	0.3269309998
	0.3280749023
	0.3292089999
	0.3303337097
	0.3314495981
	0.3325574100
	0.3336577117
	0.3347519934
	0.3358413875
	0.3369264007
	0.3380081058
	0.3390851021
	0.3401587903
	0.3412316144
	0.3423039913
	0.3433766961
	0.3444486856
	0.3455202878
	0.3465914130
	0.3476617932
	0.3487313986
	0.3498007059
	0.3508692086
	0.3519366980
	0.3530029953
	0.3540687859
	0.3551346064
	0.3562012017
	0.3572680950
	0.3583359122
	0.3594044149
	0.3604733944
	0.3615426123
	0.3626110852
	0.3636786044
	0.3647457063
	0.3658131063
	0.3668813109
	0.3679508865
	0.3690212965
	0.3700926006
	0.3711653054
	0.3722378910
	0.3733103871
	0.3743830025
	0.3754549921
	0.3765265942
	0.3775976896
	0.3786680102
	0.3797375858
	0.3808068037
	0.3818753064
	0.3829427958
	0.3840090036
	0.3850749135
	0.3861418962
	0.3872109056
	0.3882800937
	0.3893499076
	0.3904218972
	0.3914968073
	0.3925746083
	0.3936544955
	0.3947367072
	0.3958213925
	0.3969092071
	0.3980003893
	0.3990949988
	0.4001933932
	0.4012970924
	0.4024052918
	0.4035159945
	0.4046308994
	0.4057500064
	0.4068731964
	0.4080010056
	0.4091325998
	0.4102680981
	0.4114075899
	0.4125505984
	0.4136967063
	0.4148448110
	0.4159938991
	0.4171437919
	0.4182941914
	0.4194458127
	0.4205985963
	0.4217509925
	0.4229008853
	0.4240474999
	0.4251902997
	0.4263280034
	0.4274600148
	0.4285857975
	0.4297052026
	0.4308179021
	0.4319226146
	0.4330177009
	0.4341033101
	0.4351783991
	0.4362432957
	0.4372982979
	0.4383428991
	0.4393776059
	0.4404034913
	0.4414204061
	0.4424285889
	0.4434289932
	0.4444229007
	0.4454112053
	0.4463939071
	0.4473721981
	0.4483464062
	0.4493157864
	0.4502818882
	0.4512456954
	0.4522084892
	0.4531711042
	0.4541336894
	0.4550961852
	0.4560593963
	0.4570237100
	0.4579895139
	0.4589586854
	0.4599328041
	0.4609122872
	0.4618987143
	0.4628936052
	0.4638980031
	0.4649139047
	0.4659439027
	0.4669868946
	0.4680424035
	0.4691106081
	0.4701919854
	0.4712862968
	0.4723939002
	0.4735164940
	0.4746555984
	0.4758110046
	0.4769817889
	0.4781683981
	0.4793711007
	0.4805893898
	0.4818193913
	0.4830603004
	0.4843108952
	0.4855696857
	0.4868358970
	0.4881083071
	0.4893856049
	0.4906665087
	0.4919497073
	0.4932326972
	0.4945130944
	0.4957897067
	0.4970611036
	0.4983257055
	0.4995830953
	0.5008316040
	0.5020682216
	0.5032951832
	0.5045124292
	0.5057162046
	0.5069069862
	0.5080850720
	0.5092489123
	0.5103979707
	0.5115343928
	0.5126597285
	0.5137739182
	0.5148767829
	0.5159683228
	0.5170493722
	0.5181217790
	0.5191835165
	0.5202353001
	0.5212790966
	0.5223165751
	0.5233479738
	0.5243744254
	0.5253980756
	0.5264204144
	0.5274419188
	0.5284639001
	0.5294873118
	0.5305123925
	0.5315392017
	0.5325689912
	0.5336017013
	0.5346363187
	0.5356730819
	0.5367122293
	0.5377532840
	0.5387955904
	0.5398390293
	0.5408840179
	0.5419310927
	0.5429803729
	0.5440319777
	0.5450868011
	0.5461450219
	0.5472044945
	0.5482643843
	0.5493268967
	0.5503926873
	0.5514603257
	0.5525295138
	0.5535998940
	0.5546712279
	0.5557432771
	0.5568156838
	0.5578880906
	0.5589600801
	0.5600317717
	0.5611037016
	0.5621762276
	0.5632488728
	0.5643215775
	0.5653941035
	0.5664659739
	0.5675367713
	0.5686054826
	0.5696707964
	0.5707319975
	0.5717889071
	0.5728414059
	0.5738887787
	0.5749312043
	0.5759691000
	0.5770025849
	0.5780308247
	0.5790535808
	0.5800703168
	0.5810797811
	0.5820823908
	0.5830807090
	0.5840756297
	0.5850659013
	0.5860515833
	0.5870333910
	0.5880113840
	0.5889859200
	0.5899571776
	0.5909250975
	0.5918905139
	0.5928549767
	0.5938175917
	0.5947793126
	0.5957412124
	0.5967022181
	0.5976634026
	0.5986256003
	0.5995882750
	0.6005504727
	0.6015123725
	0.6024752855
	0.6034411192
	0.6044095755
	0.6053802967
	0.6063545942
	0.6073334813
	0.6083168983
	0.6093050838
	0.6102979183
	0.6112931967
	0.6122915149
	0.6132950187
	0.6143041849
	0.6153184175
	0.6163371205
	0.6173605919
	0.6183896065
	0.6194241047
	0.6204634905
	0.6215072870
	0.6225566268
	0.6236104965
	0.6246663928
	0.6257253885
	0.6267880201
	0.6278533936
	0.6289204955
	0.6299880743
	0.6310554743
	0.6321223974
	0.6331890821
	0.6342563033
	0.6353240013
	0.6363924742
	0.6374620795
	0.6385326982
	0.6396048069
	0.6406791806
	0.6417564750
	0.6428371072
	0.6439194083
	0.6450036168
	0.6460906863
	0.6471815109
	0.6482766867
	0.6493766904
	0.6504800916
	0.6515864134
	0.6526964903
	0.6538105011
	0.6549285054
	0.6560505033
	0.6571758986
	0.6583045721
	0.6594374180
	0.6605746746
	0.6617149115
	0.6628565192
	0.6639989018
	0.6651424170
	0.6662871838
	0.6674332023
	0.6685804129
	0.6697282791
	0.6708768010
	0.6720256209
	0.6731721759
	0.6743155122
	0.6754553914
	0.6765918732
	0.6777250171
	0.6788529754
	0.6799747944
	0.6810904145
	0.6821988225
	0.6832993031
	0.6843917966
	0.6854761839
	0.6865515113
	0.6876170039
	0.6886734962
	0.6897208095
	0.6907575727
	0.6917873025
	0.6928105950
	0.6938270926
	0.6948360205
	0.6958370209
	0.6968308091
	0.6978185773
	0.6988012791
	0.6997786760
	0.7007514834
	0.7017211914
	0.7026876807
	0.7036520243
	0.7046157122
	0.7055789828
	0.7065418959
	0.7075042725
	0.7084662914
	0.7094286084
	0.7103922963
	0.7113580704
	0.7123268843
	0.7132992744
	0.7142757773
	0.7152578831
	0.7162470222
	0.7172421813
	0.7182437181
	0.7192531824
	0.7202717066
	0.7212985754
	0.7223340273
	0.7233784199
	0.7244324088
	0.7254965901
	0.7265704274
	0.7276533246
	0.7287458181
	0.7298483849
	0.7309604883
	0.7320820093
	0.7332108021
	0.7343450189
	0.7354853153
	0.7366309166
	0.7377815247
	0.7389364839
	0.7400947213
	0.7412542105
	0.7424135208
	0.7435715199
	0.7447264194
	0.7458763719
	0.7470207214
	0.7481592894
	0.7492917776
	0.7504174113
	0.7515341043
	0.7526403069
	0.7537366748
	0.7548218966
	0.7558972239
	0.7569634914
	0.7580205798
	0.7590687275
	0.7601084113
	0.7611390948
	0.7621600032
	0.7631716728
	0.7641760707
	0.7651739717
	0.7661651969
	0.7671486735
	0.7681260109
	0.7690988183
	0.7700666189
	0.7710312009
	0.7719941735
	0.7729566097
	0.7739174962
	0.7748776078
	0.7758383155
	0.7767999768
	0.7777621150
	0.7787244916
	0.7796872258
	0.7806501985
	0.7816135883
	0.7825772762
	0.7835413218
	0.7845047116
	0.7854663730
	0.7864274979
	0.7873893976
	0.7883517742
	0.7893143296
	0.7902770042
	0.7912396193
	0.7922011018
	0.7931612134
	0.7941213846
	0.7950831056
	0.7960450053
	0.7970073223
	0.7979699969
	0.7989329100
	0.7998961806
	0.8008598089
	0.8018236756
	0.8027874231
	0.8037496805
	0.8047108054
	0.8056722879
	0.8066347241
	0.8075972199
	0.8085597754
	0.8095226288
	0.8104845881
	0.8114448190
	0.8124048710
	0.8133671284
	0.8143309951
	0.8152961731
	0.8162639141
	0.8172360063
	0.8182134032
	0.8191961050
	0.8201839924
	0.8211780787
	0.8221784234
	0.8231853843
	0.8242005110
	0.8252243996
	0.8262565136
	0.8272976875
	0.8283491135
	0.8294097185
	0.8304784894
	0.8315557837
	0.8326426744
	0.8337395787
	0.8348457217
	0.8359597921
	0.8370814919
	0.8382107019
	0.8393465281
	0.8404887915
	0.8416360021
	0.8427860141
	0.8439379930
	0.8450908065
	0.8462439775
	0.8473960161
	0.8485453725
	0.8496916890
	0.8508347273
	0.8519737124
	0.8531072140
	0.8542333841
	0.8553516269
	0.8564621210
	0.8575645089
	0.8586577177
	0.8597412109
	0.8608148098
	0.8618785143
	0.8629317284
	0.8639749885
	0.8650091290
	0.8660346270
	0.8670523167
	0.8680629730
	0.8690673709
	0.8700646162
	0.8710550070
	0.8720393777
	0.8730176091
	0.8739910126
	0.8749604225
	0.8759278059
	0.8768939972
	0.8778584003
	0.8788213134
	0.8797836900
	0.8807460070
	0.8817077279
	0.8826689720
	0.8836311102
	0.8845937848
	0.8855553865
	0.8865150809
	0.8874728084
	0.8884277940
	0.8893800974
	0.8903309107
	0.8912788033
	0.8922230005
	0.8931636810
	0.8941028714
	0.8950411081
	0.8959773779
	0.8969107866
	0.8978416920
	0.8987693787
	0.8996942043
	0.9006167054
	0.9015371799
	0.9024555087
	0.9033702016
	0.9042806029
	0.9051871896
	0.9060915709
	0.9069947004
	0.9078966975
	0.9087975025
	0.9096974730
	0.9105958939
	0.9114922881
	0.9123886228
	0.9132850766
	0.9141798019
	0.9150691032
	0.9159536958
	0.9168338180
	0.9177089930
	0.9185785055
	0.9194408059
	0.9202948809
	0.9211413264
	0.9219813943
	0.9228157997
	0.9236447215
	0.9244682193
	0.9252852798
	0.9260939956
	0.9268960953
	0.9276924133
	0.9284831285
	0.9292683005
	0.9300467968
	0.9308174849
	0.9315804839
	0.9323381186
	0.9330930114
	0.9338461757
	0.9345973730
	0.9353471994
	0.9360958934
	0.9368441105
	0.9375926256
	0.9383410811
	0.9390903115
	0.9398398995
	0.9405894279
	0.9413390756
	0.9420892000
	0.9428393245
	0.9435886741
	0.9443354011
	0.9450780153
	0.9458169937
	0.9465532899
	0.9472861886
	0.9480143785
	0.9487375021
	0.9494557977
	0.9501700997
	0.9508795142
	0.9515821934
	0.9522789717
	0.9529712796
	0.9536584020
	0.9543386102
	0.9550122023
	0.9556815028
	0.9563481808
	0.9570119977
	0.9576709867
	0.9583243728
	0.9589740038
	0.9596223235
	0.9602677822
	0.9609097242
	0.9615486264
	0.9621847272
	0.9628177285
	0.9634479284
	0.9640747905
	0.9646962881
	0.9653108716
	0.9659178257
	0.9665163755
	0.9671065211
	0.9676873088
	0.9682564139
	0.9688133001
	0.9693595767
	0.9698956013
	0.9704216719
	0.9709377885
	0.9714441895
	0.9719427228
	0.9724339247
	0.9729166031
	0.9733896852
	0.9738553166
	0.9743154049
	0.9747707248
	0.9752202034
	0.9756631851
	0.9761012197
	0.9765369296
	0.9769701958
	0.9774006009
	0.9778288007
	0.9782562256
	0.9786834121
	0.9791104794
	0.9795380831
	0.9799662828
	0.9803938866
	0.9808201194
	0.9812436104
	0.9816619754
	0.9820752144
	0.9824826717
	0.9828830957
	0.9832751155
	0.9836578965
	0.9840303063
	0.9843910933
	0.9847406745
	0.9850798845
	0.9854090214
	0.9857276082
	0.9860363007
	0.9863356948
	0.9866275191
	0.9869117141
	0.9871860147
	0.9874522090
	0.9877108932
	0.9879605770
	0.9882022738
	0.9884371161
	0.9886657000
	0.9888893962
	0.9891092777
	0.9893258214
	0.9895405769
	0.9897546768
	0.9899684191
	0.9901812077
	0.9903942943
	0.9906080961
	0.9908217788
	0.9910365939
	0.9912521243
	0.9914677143
	0.9916833043
	0.9918984771
	0.9921129942
	0.9923266172
	0.9925395846
	0.9927518964
	0.9929633737
	0.9931753278
	0.9933875799
	0.9935998917
	0.9938135147
	0.9940276146
	0.9942417741
	0.9944561124
	0.9946699739
	0.9948837757
	0.9950978160
	0.9953122139
	0.9955270886
	0.9957417846
	0.9959560037
	0.9961696267
	0.9963824153
	0.9965956211
	0.9968093038
	0.9970229864
	0.9972379208
	0.9974533916
	0.9976689816
	0.9978845716
	0.9980998039
	0.9983143210
	0.9985278249
	0.9987403750
	0.9989517927
	0.9991620183
	0.9993718863
	0.9995810986
	0.9997903705
	1.0000000000
}
