release/datafiles/colormanagement/luts/film_response/kodak_gold_100.spi1d
Version 1
From 0.0 1.0
Length 1024
Components 3
{
	0.0000000000 0.0000000000 0.0000000000
	0.0085512707 0.0085512707 0.0040388089
	0.0166211706 0.0166211706 0.0078869723
	0.0239217207 0.0239217207 0.0115889302
	0.0305970907 0.0305970907 0.0151835401
	0.0367598310 0.0367598310 0.0186785609
	0.0425867885 0.0425867885 0.0220463201
	0.0481229611 0.0481229611 0.0253170207
	0.0533615910 0.0533615910 0.0285046306
	0.0583925582 0.0583925582 0.0316370614
	0.0632038563 0.0632038563 0.0346923992
	0.0678458065 0.0678458065 0.0376951098
	0.0723663494 0.0723663494 0.0406254604
	0.0767436773 0.0767436773 0.0434999615
	0.0809408724 0.0809408724 0.0463499017
	0.0850247815 0.0850247815 0.0491519198
	0.0890202522 0.0890202522 0.0518954284
	0.0929083526 0.0929083526 0.0545983687
	0.0967549235 0.0967549235 0.0572627783
	0.1004967019 0.1004967019 0.0598945618
	0.1041401029 0.1041401029 0.0624886788
	0.1076878980 0.1076878980 0.0650598332
	0.1111321002 0.1111321002 0.0676003397
	0.1145434007 0.1145434007 0.0700881407
	0.1179336980 0.1179336980 0.0725532621
	0.1213003024 0.1213003024 0.0749963596
	0.1246234998 0.1246234998 0.0774110928
	0.1278907061 0.1278907061 0.0798068568
	0.1311019957 0.1311019957 0.0821953192
	0.1342176050 0.1342176050 0.0845582336
	0.1372642964 0.1372642964 0.0868936703
	0.1402868927 0.1402868927 0.0891988575
	0.1433071941 0.1433071941 0.0914948583
	0.1463229060 0.1463229060 0.0937692001
	0.1493196040 0.1493196040 0.0960261002
	0.1522929072 0.1522929072 0.0982703716
	0.1552488059 0.1552488059 0.1005069017
	0.1581514031 0.1581514031 0.1027444005
	0.1609746069 0.1609746069 0.1049712971
	0.1637527943 0.1637527943 0.1071826965
	0.1664921939 0.1664921939 0.1093685031
	0.1691893935 0.1691893935 0.1115406975
	0.1718754023 0.1718754023 0.1136908978
	0.1745572984 0.1745572984 0.1158114970
	0.1772463024 0.1772463024 0.1179215983
	0.1799204051 0.1799204051 0.1200228035
	0.1825827062 0.1825827062 0.1221131980
	0.1852307022 0.1852307022 0.1241903976
	0.1878415048 0.1878415048 0.1262644976
	0.1904177964 0.1904177964 0.1283268929
	0.1929835975 0.1929835975 0.1303768009
	0.1955551058 0.1955551058 0.1324191988
	0.1980939955 0.1980939955 0.1344535947
	0.2005960941 0.2005960941 0.1364852041
	0.2030780017 0.2030780017 0.1385065019
	0.2055498958 0.2055498958 0.1404985934
	0.2080249041 0.2080249041 0.1424852014
	0.2104936987 0.2104936987 0.1444734931
	0.2129532993 0.2129532993 0.1464570016
	0.2153917998 0.2153917998 0.1484331042
	0.2178138942 0.2178138942 0.1504009962
	0.2202032059 0.2202032059 0.1523738950
	0.2225545049 0.2225545049 0.1543436050
	0.2248750031 0.2248750031 0.1563021988
	0.2271793038 0.2271793038 0.1582521945
	0.2294784039 0.2294784039 0.1601931006
	0.2317692935 0.2317692935 0.1621181965
	0.2340328991 0.2340328991 0.1640346050
	0.2362951934 0.2362951934 0.1659477949
	0.2385396957 0.2385396957 0.1678593010
	0.2407682985 0.2407682985 0.1697596014
	0.2429841012 0.2429841012 0.1716434956
	0.2451926023 0.2451926023 0.1735229045
	0.2473980039 0.2473980039 0.1754001975
	0.2495967001 0.2495967001 0.1772678047
	0.2518011928 0.2518011928 0.1791307926
	0.2540042996 0.2540042996 0.1809882969
	0.2561990917 0.2561990917 0.1828391999
	0.2583766878 0.2583766878 0.1846980006
	0.2605302930 0.2605302930 0.1865592003
	0.2626619041 0.2626619041 0.1884168983
	0.2647795081 0.2647795081 0.1902665943
	0.2668896914 0.2668896914 0.1921050996
	0.2689956129 0.2689956129 0.1939377934
	0.2710914016 0.2710914016 0.1957681030
	0.2731707096 0.2731707096 0.1975923926
	0.2752295136 0.2752295136 0.1994120032
	0.2772876024 0.2772876024 0.2012308985
	0.2793470919 0.2793470919 0.2030453980
	0.2813898921 0.2813898921 0.2048553973
	0.2834160924 0.2834160924 0.2066580951
	0.2854352891 0.2854352891 0.2084507048
	0.2874428928 0.2874428928 0.2102348953
	0.2894397080 0.2894397080 0.2120144963
	0.2914342880 0.2914342880 0.2137901038
	0.2934266925 0.2934266925 0.2155577987
	0.2954250872 0.2954250872 0.2173161060
	0.2974228859 0.2974228859 0.2190670073
	0.2994059920 0.2994059920 0.2208126932
	0.3013804853 0.3013804853 0.2225555927
	0.3033458889 0.3033458889 0.2242987007
	0.3052974939 0.3052974939 0.2260434926
	0.3072321117 0.3072321117 0.2277884930
	0.3091601133 0.3091601133 0.2295302004
	0.3110798895 0.3110798895 0.2312685996
	0.3129976094 0.3129976094 0.2329937071
	0.3149156868 0.3149156868 0.2347085029
	0.3168309927 0.3168309927 0.2364155948
	0.3187418878 0.3187418878 0.2381125987
	0.3206557930 0.3206557930 0.2397992015
	0.3225586116 0.3225586116 0.2414820939
	0.3244569898 0.3244569898 0.2431667000
	0.3263500929 0.3263500929 0.2448462993
	0.3282350898 0.3282350898 0.2465201020
	0.3301092982 0.3301092982 0.2481863946
	0.3319670856 0.3319670856 0.2498456985
	0.3338209093 0.3338209093 0.2515039146
	0.3356688023 0.3356688023 0.2531544864
	0.3375090063 0.3375090063 0.2548001111
	0.3393396139 0.3393396139 0.2564423978
	0.3411692083 0.3411692083 0.2580820024
	0.3429956138 0.3429956138 0.2597126067
	0.3448179960 0.3448179960 0.2613438070
	0.3466367126 0.3466367126 0.2629727125
	0.3484556079 0.3484556079 0.2645977139
	0.3502711058 0.3502711058 0.2662194967
	0.3520781100 0.3520781100 0.2678410113
	0.3538728952 0.3538728952 0.2694599032
	0.3556573093 0.3556573093 0.2710745037
	0.3574326932 0.3574326932 0.2726924121
	0.3591986001 0.3591986001 0.2743096948
	0.3609502912 0.3609502912 0.2759279013
	0.3626965880 0.3626965880 0.2775534987
	0.3644376099 0.3644376099 0.2791810930
	0.3661716878 0.3661716878 0.2808074951
	0.3679068089 0.3679068089 0.2824282944
	0.3696404099 0.3696404099 0.2840456963
	0.3713721931 0.3713721931 0.2856619060
	0.3730970919 0.3730970919 0.2872773111
	0.3748179972 0.3748179972 0.2888830006
	0.3765349090 0.3765349090 0.2904838920
	0.3782503903 0.3782503903 0.2920790017
	0.3799589872 0.3799589872 0.2936722934
	0.3816598058 0.3816598058 0.2952640057
	0.3833526969 0.3833526969 0.2968522906
	0.3850415051 0.3850415051 0.2984321117
	0.3867242932 0.3867242932 0.3000073135
	0.3883965015 0.3883965015 0.3015750051
	0.3900654912 0.3900654912 0.3031345010
	0.3917332888 0.3917332888 0.3046869040
	0.3933978081 0.3933978081 0.3062342107
	0.3950597942 0.3950597942 0.3077783883
	0.3967128098 0.3967128098 0.3093160987
	0.3983623087 0.3983623087 0.3108538985
	0.4000048041 0.4000048041 0.3123919070
	0.4016445875 0.4016445875 0.3139241934
	0.4032827914 0.4032827914 0.3154524863
	0.4049166143 0.4049166143 0.3169719875
	0.4065478146 0.4065478146 0.3184897006
	0.4081723094 0.4081723094 0.3200064003
	0.4097915888 0.4097915888 0.3215180039
	0.4114066064 0.4114066064 0.3230280876
	0.4130186141 0.4130186141 0.3245337009
	0.4146288931 0.4146288931 0.3260375857
	0.4162240028 0.4162240028 0.3275386989
	0.4178164005 0.4178164005 0.3290353119
	0.4194015861 0.4194015861 0.3305288851
	0.4209814072 0.4209814072 0.3320241868
	0.4225557148 0.4225557148 0.3335199058
	0.4241304100 0.4241304100 0.3350135982
	0.4257053137 0.4257053137 0.3365071118
	0.4272772074 0.4272772074 0.3379994035
	0.4288483858 0.4288483858 0.3394888043
	0.4304055870 0.4304055870 0.3409718871
	0.4319624007 0.4319624007 0.3424525857
	0.4335188866 0.4335188866 0.3439300954
	0.4350732863 0.4350732863 0.3454062939
	0.4366205037 0.4366205037 0.3468815088
	0.4381664991 0.4381664991 0.3483560085
	0.4397099912 0.4397099912 0.3498300910
	0.4412516952 0.4412516952 0.3513006866
	0.4427905977 0.4427905977 0.3527697921
	0.4443261921 0.4443261921 0.3542422950
	0.4458572865 0.4458572865 0.3557159901
	0.4473834038 0.4473834038 0.3571884036
	0.4489029944 0.4489029944 0.3586604893
	0.4504176080 0.4504176080 0.3601266146
	0.4519256949 0.4519256949 0.3615907133
	0.4534310102 0.4534310102 0.3630562127
	0.4549323916 0.4549323916 0.3645220101
	0.4564324915 0.4564324915 0.3659847081
	0.4579305947 0.4579305947 0.3674460053
	0.4594289064 0.4594289064 0.3689005077
	0.4609279037 0.4609279037 0.3703509867
	0.4624246955 0.4624246955 0.3718009889
	0.4639141858 0.4639141858 0.3732503951
	0.4654031098 0.4654031098 0.3746976852
	0.4668875039 0.4668875039 0.3761422932
	0.4683718085 0.4683718085 0.3775857091
	0.4698401988 0.4698401988 0.3790262043
	0.4713082910 0.4713082910 0.3804647923
	0.4727697968 0.4727697968 0.3818928897
	0.4742299914 0.4742299914 0.3833209872
	0.4756909013 0.4756909013 0.3847407997
	0.4771521986 0.4771521986 0.3861603141
	0.4786089063 0.4786089063 0.3875763118
	0.4800598919 0.4800598919 0.3889910877
	0.4815098047 0.4815098047 0.3904035985
	0.4829556048 0.4829556048 0.3918142915
	0.4844014049 0.4844014049 0.3932228088
	0.4858314991 0.4858314991 0.3946261108
	0.4872612059 0.4872612059 0.3960292935
	0.4886828065 0.4886828065 0.3974260986
	0.4901008904 0.4901008904 0.3988228142
	0.4915114045 0.4915114045 0.4002167881
	0.4929108918 0.4929108918 0.4016098976
	0.4943102002 0.4943102002 0.4030028880
	0.4957073927 0.4957073927 0.4043959975
	0.4971045852 0.4971045852 0.4057886899
	0.4984934032 0.4984934032 0.4071742892
	0.4998792112 0.4998792112 0.4085598886
	0.5012617707 0.5012617707 0.4099406004
	0.5026388168 0.5026388168 0.4113186896
	0.5040158033 0.5040158033 0.4126941860
	0.5053874850 0.5053874850 0.4140625894
	0.5067589283 0.5067589283 0.4154309928
	0.5081269145 0.5081269145 0.4167915881
	0.5094919205 0.5094919205 0.4181506932
	0.5108559132 0.5108559132 0.4195038080
	0.5122082829 0.5122082829 0.4208473861
	0.5135607719 0.5135607719 0.4221909940
	0.5149065852 0.5149065852 0.4235303998
	0.5162479877 0.5162479877 0.4248695076
	0.5175889134 0.5175889134 0.4262058139
	0.5189247727 0.5189247727 0.4275380969
	0.5202606916 0.5202606916 0.4288704097
	0.5215886235 0.5215886235 0.4302046895
	0.5229104161 0.5229104161 0.4315393865
	0.5242322087 0.5242322087 0.4328733981
	0.5255554914 0.5255554914 0.4342060983
	0.5268787742 0.5268787742 0.4355388880
	0.5281956792 0.5281956792 0.4368667901
	0.5295035243 0.5295035243 0.4381929040
	0.5308111906 0.5308111906 0.4395191073
	0.5321189761 0.5321189761 0.4408474863
	0.5334268212 0.5334268212 0.4421758950
	0.5347332954 0.5347332954 0.4435034096
	0.5360326171 0.5360326171 0.4448300004
	0.5373319983 0.5373319983 0.4461565018
	0.5386298895 0.5386298895 0.4474779069
	0.5399259925 0.5399259925 0.4487977922
	0.5412220955 0.5412220955 0.4501172900
	0.5425089002 0.5425089002 0.4514313042
	0.5437930822 0.5437930822 0.4527452886
	0.5450770259 0.5450770259 0.4540582001
	0.5463545918 0.5463545918 0.4553689063
	0.5476322174 0.5476322174 0.4566796124
	0.5489053726 0.5489053726 0.4579856992
	0.5501675010 0.5501675010 0.4592883885
	0.5514295101 0.5514295101 0.4605911970
	0.5526881218 0.5526881218 0.4618827999
	0.5539432168 0.5539432168 0.4631715119
	0.5551983714 0.5551983714 0.4644601941
	0.5564481020 0.5564481020 0.4657382965
	0.5576952100 0.5576952100 0.4670161009
	0.5589423180 0.5589423180 0.4682930112
	0.5601819158 0.5601819158 0.4695635140
	0.5614199042 0.5614199042 0.4708338976
	0.5626578927 0.5626578927 0.4721035063
	0.5638862252 0.5638862252 0.4733701050
	0.5651137829 0.5651137829 0.4746366143
	0.5663412213 0.5663412213 0.4759002030
	0.5675578117 0.5675578117 0.4771572948
	0.5687745214 0.5687745214 0.4784145057
	0.5699902177 0.5699902177 0.4796695113
	0.5711944103 0.5711944103 0.4809209108
	0.5723987222 0.5723987222 0.4821723998
	0.5736017227 0.5736017227 0.4834229946
	0.5747933984 0.5747933984 0.4846724868
	0.5759850144 0.5759850144 0.4859218895
	0.5771753788 0.5771753788 0.4871684015
	0.5783529878 0.5783529878 0.4884099960
	0.5795305967 0.5795305967 0.4896515906
	0.5807074904 0.5807074904 0.4908894002
	0.5818707943 0.5818707943 0.4921191931
	0.5830342174 0.5830342174 0.4933489859
	0.5841975808 0.5841975808 0.4945765138
	0.5853506923 0.5853506923 0.4957973957
	0.5865036249 0.5865036249 0.4970183074
	0.5876564980 0.5876564980 0.4982382059
	0.5888124108 0.5888124108 0.4994524121
	0.5899686813 0.5899686813 0.5006666183
	0.5911250710 0.5911250710 0.5018808246
	0.5922722220 0.5922722220 0.5030846000
	0.5934156775 0.5934156775 0.5042884946
	0.5945591927 0.5945591927 0.5054923296
	0.5956988931 0.5956988931 0.5066840053
	0.5968354940 0.5968354940 0.5078731179
	0.5979719758 0.5979719758 0.5090621710
	0.5991039276 0.5991039276 0.5102484822
	0.6002264023 0.6002264023 0.5114330053
	0.6013488770 0.6013488770 0.5126175284
	0.6024705768 0.6024705768 0.5138002038
	0.6035845876 0.6035845876 0.5149796009
	0.6046985984 0.6046985984 0.5161591172
	0.6058124900 0.6058124900 0.5173382759
	0.6069167256 0.6069167256 0.5185145736
	0.6080183983 0.6080183983 0.5196908116
	0.6091201901 0.6091201901 0.5208671093
	0.6102225184 0.6102225184 0.5220367908
	0.6113256216 0.6113256216 0.5232045054
	0.6124286056 0.6124286056 0.5243722200
	0.6135300994 0.6135300994 0.5255355239
	0.6146209836 0.6146209836 0.5266925097
	0.6157119274 0.6157119274 0.5278496146
	0.6168028712 0.6168028712 0.5290066004
	0.6178948283 0.6178948283 0.5301629901
	0.6189870238 0.6189870238 0.5313194990
	0.6200792193 0.6200792193 0.5324760079
	0.6211677194 0.6211677194 0.5336307287
	0.6222478747 0.6222478747 0.5347841978
	0.6233282089 0.6233282089 0.5359376073
	0.6244084239 0.6244084239 0.5370901227
	0.6254897118 0.6254897118 0.5382356048
	0.6265712976 0.6265712976 0.5393812060
	0.6276528239 0.6276528239 0.5405266881
	0.6287301183 0.6287301183 0.5416650176
	0.6297997832 0.6297997832 0.5427989960
	0.6308693886 0.6308693886 0.5439329147
	0.6319391131 0.6319391131 0.5450661778
	0.6330032945 0.6330032945 0.5461930037
	0.6340664029 0.6340664029 0.5473198295
	0.6351293921 0.6351293921 0.5484464765
	0.6361892819 0.6361892819 0.5495709777
	0.6372389197 0.6372389197 0.5506932139
	0.6382886171 0.6382886171 0.5518153906
	0.6393381953 0.6393381953 0.5529376864
	0.6403782964 0.6403782964 0.5540469885
	0.6414123774 0.6414123774 0.5551546812
	0.6424465179 0.6424465179 0.5562624931
	0.6434807181 0.6434807181 0.5573676229
	0.6445010900 0.6445010900 0.5584642291
	0.6455209851 0.6455209851 0.5595607758
	0.6465408802 0.6465408802 0.5606573820
	0.6475573182 0.6475573182 0.5617504716
	0.6485638022 0.6485638022 0.5628405809
	0.6495704055 0.6495704055 0.5639305711
	0.6505770087 0.6505770087 0.5650206804
	0.6515771747 0.6515771747 0.5661026239
	0.6525719166 0.6525719166 0.5671824217
	0.6535665989 0.6535665989 0.5682622194
	0.6545614004 0.6545614004 0.5693418980
	0.6555476785 0.6555476785 0.5704169869
	0.6565313935 0.6565313935 0.5714920163
	0.6575151086 0.6575151086 0.5725671053
	0.6584988236 0.6584988236 0.5736408830
	0.6594734192 0.6594734192 0.5747092962
	0.6604474783 0.6604474783 0.5757777095
	0.6614215970 0.6614215970 0.5768461227
	0.6623948812 0.6623948812 0.5779128075
	0.6633601785 0.6633601785 0.5789762139
	0.6643254757 0.6643254757 0.5800395012
	0.6652907133 0.6652907133 0.5811027884
	0.6662545800 0.6662545800 0.5821601152
	0.6672123075 0.6672123075 0.5832095742
	0.6681699157 0.6681699157 0.5842590928
	0.6691275835 0.6691275835 0.5853086114
	0.6700835824 0.6700835824 0.5863516927
	0.6710343957 0.6710343957 0.5873885155
	0.6719852090 0.6719852090 0.5884252787
	0.6729360223 0.6729360223 0.5894619823
	0.6738809943 0.6738809943 0.5904929042
	0.6748093963 0.6748093963 0.5915179849
	0.6757377982 0.6757377982 0.5925431252
	0.6766662002 0.6766662002 0.5935683250
	0.6775926948 0.6775926948 0.5945895910
	0.6785131097 0.6785131097 0.5956068039
	0.6794335842 0.6794335842 0.5966240168
	0.6803539991 0.6803539991 0.5976412296
	0.6812713742 0.6812713742 0.5986567140
	0.6821733713 0.6821733713 0.5996695757
	0.6830754280 0.6830754280 0.6006824970
	0.6839774251 0.6839774251 0.6016954780
	0.6848791242 0.6848791242 0.6027052999
	0.6857768893 0.6857768893 0.6037077904
	0.6866745949 0.6866745949 0.6047102213
	0.6875724196 0.6875724196 0.6057127118
	0.6884701252 0.6884701252 0.6067149043
	0.6893548965 0.6893548965 0.6077160239
	0.6902378798 0.6902378798 0.6087170243
	0.6911209822 0.6911209822 0.6097180247
	0.6920040250 0.6920040250 0.6107190251
	0.6928865910 0.6928865910 0.6117115021
	0.6937689781 0.6937689781 0.6127033234
	0.6946514249 0.6946514249 0.6136950850
	0.6955338120 0.6955338120 0.6146869063
	0.6964113712 0.6964113712 0.6156741977
	0.6972827911 0.6972827911 0.6166592240
	0.6981540918 0.6981540918 0.6176441908
	0.6990255117 0.6990255117 0.6186292171
	0.6998962164 0.6998962164 0.6196087003
	0.7007628083 0.7007628083 0.6205787063
	0.7016295195 0.7016295195 0.6215487123
	0.7024961114 0.7024961114 0.6225187182
	0.7033627033 0.7033627033 0.6234884858
	0.7042225003 0.7042225003 0.6244485974
	0.7050803900 0.7050803900 0.6254087090
	0.7059382796 0.7059382796 0.6263688207
	0.7067962885 0.7067962885 0.6273288727
	0.7076508999 0.7076508999 0.6282864809
	0.7085005045 0.7085005045 0.6292427778
	0.7093501091 0.7093501091 0.6301990747
	0.7101997137 0.7101997137 0.6311553717
	0.7110493183 0.7110493183 0.6321104765
	0.7118933797 0.7118933797 0.6330611706
	0.7127372026 0.7127372026 0.6340118051
	0.7135810852 0.7135810852 0.6349623799
	0.7144250274 0.7144250274 0.6359130740
	0.7152673006 0.7152673006 0.6368628144
	0.7161080241 0.7161080241 0.6378120780
	0.7169486880 0.7169486880 0.6387614012
	0.7177892923 0.7177892923 0.6397107244
	0.7186300159 0.7186300159 0.6406584978
	0.7194681168 0.7194681168 0.6415982842
	0.7203060985 0.7203060985 0.6425381899
	0.7211440802 0.7211440802 0.6434779763
	0.7219821215 0.7219821215 0.6444178820
	0.7228178978 0.7228178978 0.6453549862
	0.7236496806 0.7236496806 0.6462903023
	0.7244815826 0.7244815826 0.6472254992
	0.7253134847 0.7253134847 0.6481606960
	0.7261453271 0.7261453271 0.6490960121
	0.7269656062 0.7269656062 0.6500247121
	0.7277814746 0.7277814746 0.6509529948
	0.7285972834 0.7285972834 0.6518813968
	0.7294130921 0.7294130921 0.6528097987
	0.7302284837 0.7302284837 0.6537358165
	0.7310312986 0.7310312986 0.6546552181
	0.7318341136 0.7318341136 0.6555745006
	0.7326369286 0.7326369286 0.6564939022
	0.7334398031 0.7334398031 0.6574133039
	0.7342393994 0.7342393994 0.6583278179
	0.7350317240 0.7350317240 0.6592379212
	0.7358239889 0.7358239889 0.6601479053
	0.7366163135 0.7366163135 0.6610580087
	0.7374085188 0.7374085188 0.6619681120
	0.7381967902 0.7381967902 0.6628733873
	0.7389813066 0.7389813066 0.6637769938
	0.7397658229 0.7397658229 0.6646806002
	0.7405503988 0.7405503988 0.6655843258
	0.7413349152 0.7413349152 0.6664878726
	0.7421157956 0.7421157956 0.6673874855
	0.7428950071 0.7428950071 0.6682866216
	0.7436742187 0.7436742187 0.6691858172
	0.7444533706 0.7444533706 0.6700848937
	0.7452325821 0.7452325821 0.6709840894
	0.7460039258 0.7460039258 0.6718817949
	0.7467731833 0.7467731833 0.6727795005
	0.7475423813 0.7475423813 0.6736772060
	0.7483115792 0.7483115792 0.6745749712
	0.7490807772 0.7490807772 0.6754717827
	0.7498486042 0.7498486042 0.6763551831
	0.7506161928 0.7506161928 0.6772385240
	0.7513837814 0.7513837814 0.6781218052
	0.7521514297 0.7521514297 0.6790052056
	0.7529190183 0.7529190183 0.6798881292
	0.7536765933 0.7536765933 0.6807652712
	0.7544323802 0.7544323802 0.6816424131
	0.7551882863 0.7551882863 0.6825196147
	0.7559440732 0.7559440732 0.6833966970
	0.7566999793 0.7566999793 0.6842737198
	0.7574527860 0.7574527860 0.6851336956
	0.7582048178 0.7582048178 0.6859937906
	0.7589567900 0.7589567900 0.6868538260
	0.7597088218 0.7597088218 0.6877138019
	0.7604607940 0.7604607940 0.6885737777
	0.7612053156 0.7612053156 0.6894273758
	0.7619463801 0.7619463801 0.6902801991
	0.7626876235 0.7626876235 0.6911330819
	0.7634288073 0.7634288073 0.6919859052
	0.7641698718 0.7641698718 0.6928387284
	0.7649000883 0.7649000883 0.6936817169
	0.7656204104 0.7656204104 0.6945211887
	0.7663406134 0.7663406134 0.6953607202
	0.7670608759 0.7670608759 0.6962001920
	0.7677811980 0.7677811980 0.6970396042
	0.7684996128 0.7684996128 0.6978752017
	0.7692136168 0.7692136168 0.6987071037
	0.7699276209 0.7699276209 0.6995388865
	0.7706416249 0.7706416249 0.7003707886
	0.7713556290 0.7713556290 0.7012026906
	0.7720690966 0.7720690966 0.7020341158
	0.7727692723 0.7727692723 0.7028638721
	0.7734695077 0.7734695077 0.7036936879
	0.7741696835 0.7741696835 0.7045235038
	0.7748699188 0.7748699188 0.7053533792
	0.7755700946 0.7755700946 0.7061831951
	0.7762656212 0.7762656212 0.7070057988
	0.7769591808 0.7769591808 0.7078278065
	0.7776529193 0.7776529193 0.7086496949
	0.7783464789 0.7783464789 0.7094715834
	0.7790400982 0.7790400982 0.7102934718
	0.7797309756 0.7797309756 0.7111132741
	0.7804160714 0.7804160714 0.7119309902
	0.7811012268 0.7811012268 0.7127488256
	0.7817863226 0.7817863226 0.7135666013
	0.7824714184 0.7824714184 0.7143843174
	0.7831565142 0.7831565142 0.7152014971
	0.7838354707 0.7838354707 0.7160099149
	0.7845135927 0.7845135927 0.7168182135
	0.7851915956 0.7851915956 0.7176265717
	0.7858697176 0.7858697176 0.7184348702
	0.7865477800 0.7865477800 0.7192432880
	0.7872189879 0.7872189879 0.7200449109
	0.7878777981 0.7878777981 0.7208411098
	0.7885367274 0.7885367274 0.7216373086
	0.7891955972 0.7891955972 0.7224333882
	0.7898544073 0.7898544073 0.7232295871
	0.7905132771 0.7905132771 0.7240257859
	0.7911655903 0.7911655903 0.7248097062
	0.7918161750 0.7918161750 0.7255933881
	0.7924668193 0.7924668193 0.7263771296
	0.7931174040 0.7931174040 0.7271608114
	0.7937679887 0.7937679887 0.7279444933
	0.7944167256 0.7944167256 0.7287240028
	0.7950556278 0.7950556278 0.7294961214
	0.7956945896 0.7956945896 0.7302681208
	0.7963336110 0.7963336110 0.7310401797
	0.7969725728 0.7969725728 0.7318121791
	0.7976115942 0.7976115942 0.7325842977
	0.7982401848 0.7982401848 0.7333511114
	0.7988576889 0.7988576889 0.7341153026
	0.7994753122 0.7994753122 0.7348794937
	0.8000928164 0.8000928164 0.7356436849
	0.8007103205 0.8007103205 0.7364078760
	0.8013278246 0.8013278246 0.7371721268
	0.8019409180 0.8019409180 0.7379267216
	0.8025524020 0.8025524020 0.7386804819
	0.8031638861 0.8031638861 0.7394343019
	0.8037754297 0.8037754297 0.7401881218
	0.8043869138 0.8043869138 0.7409418225
	0.8049983978 0.8049983978 0.7416955233
	0.8055992126 0.8055992126 0.7424479723
	0.8061988950 0.8061988950 0.7432004809
	0.8067986965 0.8067986965 0.7439529896
	0.8073984981 0.8073984981 0.7447054982
	0.8079982996 0.8079982996 0.7454580069
	0.8085979223 0.8085979223 0.7462081909
	0.8091943860 0.8091943860 0.7469503880
	0.8097909093 0.8097909093 0.7476925850
	0.8103873134 0.8103873134 0.7484347820
	0.8109837770 0.8109837770 0.7491769791
	0.8115803003 0.8115803003 0.7499191761
	0.8121759295 0.8121759295 0.7506610751
	0.8127642274 0.8127642274 0.7514020801
	0.8133525252 0.8133525252 0.7521430850
	0.8139408231 0.8139408231 0.7528840899
	0.8145290017 0.8145290017 0.7536250949
	0.8151172996 0.8151172996 0.7543660998
	0.8157039881 0.8157039881 0.7551041842
	0.8162763119 0.8162763119 0.7558351159
	0.8168486953 0.8168486953 0.7565659285
	0.8174210787 0.8174210787 0.7572966814
	0.8179934025 0.8179934025 0.7580274940
	0.8185657859 0.8185657859 0.7587584257
	0.8191381097 0.8191381097 0.7594878078
	0.8197093010 0.8197093010 0.7602121234
	0.8202804923 0.8202804923 0.7609363794
	0.8208516836 0.8208516836 0.7616605759
	0.8214228749 0.8214228749 0.7623848915
	0.8219941258 0.8219941258 0.7631092072
	0.8225653172 0.8225653172 0.7638326287
	0.8231304884 0.8231304884 0.7645456791
	0.8236950040 0.8236950040 0.7652587891
	0.8242594004 0.8242594004 0.7659717798
	0.8248239160 0.8248239160 0.7666848898
	0.8253883719 0.8253883719 0.7673979998
	0.8259528875 0.8259528875 0.7681111097
	0.8265138268 0.8265138268 0.7688196898
	0.8270732164 0.8270732164 0.7695276737
	0.8276326060 0.8276326060 0.7702357173
	0.8281919956 0.8281919956 0.7709437013
	0.8287513852 0.8287513852 0.7716516852
	0.8293107748 0.8293107748 0.7723596096
