release/datafiles/colormanagement/luts/film_response/kodak_dscs_3156.spi1d
Version 1
From 0.0 1.0
Length 1024
Components 3
{
	0.0000000000 0.0000000000 0.0000000000
	0.0012913510 0.0008980598 0.0004710060
	0.0025827030 0.0017961200 0.0009420120
	0.0038740539 0.0026941791 0.0014130180
	0.0051654060 0.0035922390 0.0018840240
	0.0064567570 0.0044902992 0.0023550300
	0.0077481088 0.0053883591 0.0028260360
	0.0090394598 0.0062864190 0.0032970421
	0.0103690401 0.0071844789 0.0037680480
	0.0118096303 0.0080825379 0.0042390539
	0.0132502196 0.0089805983 0.0047100601
	0.0146908201 0.0098786578 0.0051810662
	0.0161314104 0.0108593097 0.0056520719
	0.0175720006 0.0118528605 0.0061230781
	0.0190125909 0.0128464103 0.0065940842
	0.0205063205 0.0138399703 0.0070650899
	0.0221158192 0.0148335202 0.0075360960
	0.0237253308 0.0158270709 0.0080071017
	0.0253348406 0.0168206207 0.0084781079
	0.0269443505 0.0178141799 0.0089491140
	0.0285538603 0.0188077297 0.0094201202
	0.0301827304 0.0198012795 0.0098911263
	0.0319830701 0.0208809301 0.0103980303
	0.0337834209 0.0219821204 0.0109157199
	0.0355837606 0.0230832994 0.0114334105
	0.0373841003 0.0241844803 0.0119511103
	0.0391844399 0.0252856594 0.0124687999
	0.0411023311 0.0263868403 0.0129864896
	0.0431175716 0.0274880193 0.0135041801
	0.0451328084 0.0285892002 0.0140218800
	0.0471480489 0.0296903793 0.0145395696
	0.0491632894 0.0308787897 0.0150572602
	0.0513193496 0.0321012996 0.0155749600
	0.0535753891 0.0333238207 0.0160926506
	0.0558314398 0.0345463417 0.0166103393
	0.0580874793 0.0357688516 0.0171280298
	0.0603842996 0.0369913690 0.0176457297
	0.0629082322 0.0382138900 0.0181634203
	0.0654321536 0.0394364111 0.0186811108
	0.0679560676 0.0407326184 0.0191988107
	0.0705360919 0.0420918800 0.0197164994
	0.0733550414 0.0434511304 0.0202579591
	0.0761739910 0.0448103808 0.0208282005
	0.0789929330 0.0461696312 0.0213984400
	0.0820178986 0.0475288890 0.0219686702
	0.0851573721 0.0488881394 0.0225389097
	0.0882968530 0.0502754003 0.0231091492
	0.0915927812 0.0517885610 0.0236793794
	0.0950742513 0.0533017218 0.0242496207
	0.0985557213 0.0548148789 0.0248198602
	0.1022457033 0.0563280284 0.0253900904
	0.1060836017 0.0578411892 0.0259603299
	0.1099215001 0.0593543500 0.0265305694
	0.1141121984 0.0609665997 0.0271007996
	0.1183103025 0.0626525879 0.0276710391
	0.1227174997 0.0643385872 0.0282412805
	0.1272657067 0.0660245866 0.0288115107
	0.1319428980 0.0677105933 0.0293817502
	0.1368145049 0.0693965778 0.0299519897
	0.1417827010 0.0712067708 0.0305764992
	0.1469336003 0.0730861723 0.0312060006
	0.1521732956 0.0749655813 0.0318355002
	0.1575435996 0.0768449828 0.0324649997
	0.1629938930 0.0787243918 0.0330944993
	0.1685118973 0.0806729570 0.0337239988
	0.1740811020 0.0827676505 0.0343534984
	0.1796693951 0.0848623365 0.0349830016
	0.1852522939 0.0869570300 0.0356125012
	0.1908237040 0.0890517235 0.0362420008
	0.1963316947 0.0912766010 0.0368715003
	0.2017958015 0.0936091468 0.0375009999
	0.2071722001 0.0959417075 0.0381304994
	0.2124657035 0.0982742608 0.0387599990
	0.2176671028 0.1006745026 0.0393894985
	0.2227557003 0.1032672003 0.0400210209
	0.2277524024 0.1058600023 0.0407175012
	0.2326270938 0.1084527001 0.0414139815
	0.2374019027 0.1111586019 0.0421104617
	0.2420724034 0.1140320972 0.0428069495
	0.2466181964 0.1169055998 0.0435034297
	0.2511056960 0.1197791025 0.0441999100
	0.2554233968 0.1229275018 0.0448963903
	0.2597410083 0.1260987967 0.0455928706
	0.2638502121 0.1292701066 0.0462893508
	0.2679460049 0.1326791048 0.0469858386
	0.2719362974 0.1361591071 0.0476823188
	0.2758204043 0.1396390945 0.0483787991
	0.2797045112 0.1433980018 0.0490752794
	0.2834044099 0.1471890956 0.0497717597
	0.2870891094 0.1510583013 0.0505192392
	0.2907347083 0.1551516056 0.0512915812
	0.2942334116 0.1592448950 0.0520639084
	0.2977321148 0.1635666043 0.0528362505
	0.3011702895 0.1679400951 0.0536085814
	0.3044967949 0.1724427938 0.0543809198
	0.3078233004 0.1770606041 0.0551532507
	0.3110949993 0.1817495972 0.0559255891
	0.3142628968 0.1865632981 0.0566979311
	0.3174307942 0.1914165020 0.0574702583
	0.3205712140 0.1963680983 0.0582426004
	0.3235935867 0.2013394982 0.0590149313
	0.3266159892 0.2063657045 0.0597872697
	0.3296383023 0.2113949060 0.0606219508
	0.3325434029 0.2164323032 0.0614803396
	0.3354324996 0.2214559019 0.0623387285
	0.3383215964 0.2264461070 0.0631971210
	0.3411597013 0.2314081937 0.0640555099
	0.3439269960 0.2363009006 0.0649138913
	0.3466942906 0.2411601990 0.0657722801
	0.3494617045 0.2459158003 0.0666306689
	0.3521394134 0.2506479919 0.0674890578
	0.3547956049 0.2552376986 0.0683474466
	0.3574517071 0.2598274946 0.0692058429
	0.3601036966 0.2642399073 0.0700715408
	0.3626584113 0.2686452866 0.0710277036
	0.3652130067 0.2729164064 0.0719838589
	0.3677676022 0.2771278918 0.0729400069
	0.3703106046 0.2812767923 0.0738961697
	0.3727726042 0.2852917016 0.0748523325
	0.3752346039 0.2893066108 0.0758084878
	0.3776965141 0.2931610048 0.0767646432
	0.3801530898 0.2969819903 0.0777207986
	0.3825305104 0.3007636070 0.0786769614
	0.3849078119 0.3043971956 0.0796331167
	0.3872852027 0.3080308139 0.0806578100
	0.3896625936 0.3115825951 0.0817251801
	0.3919736147 0.3150376081 0.0827925429
	0.3942736089 0.3184925914 0.0838598981
	0.3965736926 0.3218528032 0.0849272683
	0.3988736868 0.3251396120 0.0859946311
	0.4011375904 0.3284263909 0.0870619863
	0.4033668935 0.3316313028 0.0881293565
	0.4055961072 0.3347609043 0.0891967192
	0.4078254104 0.3378903866 0.0902953967
	0.4100531042 0.3409723938 0.0914893299
	0.4122174084 0.3439559937 0.0926832631
	0.4143818021 0.3469395041 0.0938771889
	0.4165461957 0.3499230146 0.0950711221
	0.4187105894 0.3527748883 0.0962650478
	0.4208509922 0.3556233943 0.0974589810
	0.4229558110 0.3584718108 0.0986529067
	0.4250606000 0.3612624109 0.0998468399
	0.4271655083 0.3639861941 0.1011663005
	0.4292702973 0.3667100072 0.1025042981
	0.4313394129 0.3694337904 0.1038423032
	0.4333893955 0.3720667064 0.1051801965
	0.4354394078 0.3746758103 0.1065182015
	0.4374893904 0.3772849143 0.1078561991
	0.4395394921 0.3798938990 0.1091940999
	0.4415503144 0.3824017942 0.1105972007
	0.4435496926 0.3849053979 0.1120989993
	0.4455491900 0.3874089122 0.1136007011
	0.4475485981 0.3899124861 0.1151024029
	0.4495480955 0.3923225105 0.1166040972
	0.4515112042 0.3947291076 0.1181057990
	0.4534637928 0.3971355855 0.1196075976
	0.4554164112 0.3995422125 0.1212465018
	0.4573689997 0.4018765986 0.1229339987
	0.4593215883 0.4041940868 0.1246215031
	0.4612458050 0.4065114856 0.1263090074
	0.4631549120 0.4088290036 0.1279965043
	0.4650638998 0.4111058116 0.1296840012
	0.4669730067 0.4133413136 0.1315421015
	0.4688819945 0.4155766964 0.1334394962
	0.4707742035 0.4178121984 0.1353369951
	0.4726425111 0.4200460017 0.1372344047
	0.4745109081 0.4222060144 0.1391319036
	0.4763793051 0.4243659079 0.1411572993
	0.4782476127 0.4265258014 0.1432905942
	0.4801135957 0.4286858141 0.1454239935
	0.4819437861 0.4308184981 0.1475573033
	0.4837738872 0.4329088032 0.1496907026
	0.4856041074 0.4349991083 0.1520487964
	0.4874342084 0.4370894134 0.1544450074
	0.4892643988 0.4391798079 0.1568412036
	0.4910728931 0.4412310123 0.1592375040
	0.4928669035 0.4432570040 0.1618310958
	0.4946610034 0.4452829957 0.1645168066
	0.4964550138 0.4473089874 0.1672026068
	0.4982489944 0.4493350089 0.1698883027
	0.5000422001 0.4513210058 0.1728748977
	0.5018019080 0.4532875121 0.1758745015
	0.5035614967 0.4552539885 0.1788741052
	0.5053212047 0.4572204053 0.1820818037
	0.5070807934 0.4591869116 0.1854145974
	0.5088403821 0.4611209929 0.1887473017
	0.5105888247 0.4630320966 0.1922948956
	0.5123155117 0.4649432898 0.1959716976
	0.5140420794 0.4668545127 0.1996484995
	0.5157688260 0.4687657058 0.2036353946
	0.5174953938 0.4706586897 0.2076551020
	0.5192220807 0.4725184143 0.2118106931
	0.5209311843 0.4743781090 0.2161566019
	0.5226259232 0.4762378037 0.2205363065
	0.5243206024 0.4780975878 0.2251745015
	0.5260154009 0.4799573123 0.2298126072
	0.5277100801 0.4817700088 0.2346820980
	0.5294048190 0.4835816026 0.2395613045
	0.5310792923 0.4853931963 0.2446004003
	0.5327429175 0.4872049093 0.2496553957
	0.5344064832 0.4890165031 0.2548052073
	0.5360699892 0.4908075035 0.2599619925
	0.5377336144 0.4925738871 0.2651447952
	0.5393971205 0.4943403900 0.2703250945
	0.5410410762 0.4961068928 0.2754637897
	0.5426740050 0.4978733957 0.2805902958
	0.5443068743 0.4996398985 0.2856245041
	0.5459396839 0.5013725162 0.2906390131
	0.5475726128 0.5030964017 0.2955218852
	0.5492054224 0.5048202872 0.3003894985
	0.5508226156 0.5065442920 0.3050881028
	0.5524250269 0.5082681775 0.3097867072
	0.5540273190 0.5099921227 0.3142902851
	0.5556296706 0.5116760135 0.3187845051
	0.5572320223 0.5133596063 0.3231228888
	0.5588343740 0.5150431991 0.3274034858
	0.5604283810 0.5167267919 0.3315997124
	0.5620002151 0.5184103847 0.3356657028
	0.5635718703 0.5200918913 0.3397318125
	0.5651437044 0.5217370987 0.3436022103
	0.5667154193 0.5233823061 0.3474588096
	0.5682871938 0.5250275135 0.3512471020
	0.5698590279 0.5266727209 0.3549034894
	0.5714026093 0.5283179283 0.3585597873
	0.5729435086 0.5299631953 0.3621017039
	0.5744842887 0.5315724015 0.3655692935
	0.5760251880 0.5331807733 0.3690369129
	0.5775660276 0.5347892046 0.3723773956
	0.5791069269 0.5363975167 0.3756690919
	0.5806344748 0.5380058885 0.3789606988
	0.5821440220 0.5396143198 0.3821411133
	0.5836533904 0.5411956906 0.3852699995
	0.5851628184 0.5427685976 0.3883990049
	0.5866721869 0.5443415046 0.3914547861
	0.5881816745 0.5459142923 0.3944340944
	0.5896911025 0.5474871993 0.3974134028
	0.5911749005 0.5490601063 0.4003747106
	0.5926522017 0.5506191254 0.4032168984
	0.5941295028 0.5521575212 0.4060590863
	0.5956066847 0.5536959171 0.4089013040
	0.5970839858 0.5552341938 0.4116666019
	0.5985612869 0.5567725897 0.4143835008
	0.6000376940 0.5583109856 0.4171003997
	0.6014819145 0.5598493814 0.4198172987
	0.6029260755 0.5613573790 0.4224275053
	0.6043702960 0.5628619790 0.4250301123
	0.6058145761 0.5643666983 0.4276326001
	0.6072587967 0.5658714175 0.4302257001
	0.6087030172 0.5673760772 0.4327239990
	0.6101437807 0.5688806772 0.4352222979
	0.6115540266 0.5703768730 0.4377205968
	0.6129640937 0.5718483925 0.4402106106
	0.6143742800 0.5733199120 0.4426138103
	0.6157845259 0.5747913718 0.4450170994
	0.6171945930 0.5762628913 0.4474202991
	0.6186047792 0.5777344108 0.4498234987
	0.6200146079 0.5792058706 0.4521464109
	0.6213896275 0.5806623101 0.4544628859
	0.6227645874 0.5821009278 0.4567793906
	0.6241396070 0.5835396051 0.4590958953
	0.6255146265 0.5849782228 0.4613640904
	0.6268895864 0.5864169002 0.4636014104
	0.6282646060 0.5878555179 0.4658387005
	0.6296396255 0.5892940760 0.4680759907
	0.6309878230 0.5907161236 0.4703032076
	0.6323264837 0.5921220183 0.4724679887
	0.6336652040 0.5935279727 0.4746327996
	0.6350039244 0.5949339271 0.4767976999
	0.6363425255 0.5963398218 0.4789625108
	0.6376811862 0.5977457166 0.4810926914
	0.6390199065 0.5991516113 0.4831911922
	0.6403484941 0.6005445123 0.4852896035
	0.6416497231 0.6019176841 0.4873880148
	0.6429507732 0.6032907963 0.4894863963
	0.6442520022 0.6046640277 0.4915387034
	0.6455531716 0.6060370803 0.4935761094
	0.6468542814 0.6074103117 0.4956134856
	0.6481555104 0.6087834239 0.4976508021
	0.6494566202 0.6101527810 0.4996882081
	0.6507353187 0.6114928722 0.5016778708
	0.6519978046 0.6128330827 0.5036588907
	0.6532601714 0.6141732931 0.5056399703
	0.6545227170 0.6155133843 0.5076211095
	0.6557852030 0.6168535948 0.5096021295
	0.6570476890 0.6181936860 0.5115414858
	0.6583101749 0.6195338964 0.5134704709
	0.6595727205 0.6208522916 0.5153993964
	0.6608088017 0.6221591830 0.5173283815
	0.6620315909 0.6234660149 0.5192573071
	0.6632543206 0.6247729063 0.5211564898
	0.6644769907 0.6260796785 0.5230368972
	0.6656997204 0.6273866296 0.5249174237
	0.6669223905 0.6286934018 0.5267977715
	0.6681451201 0.6300002933 0.5286782980
	0.6693677902 0.6312733889 0.5305452943
	0.6705707908 0.6325464845 0.5323804021
	0.6717528105 0.6338195801 0.5342155099
	0.6729347110 0.6350926757 0.5360506177
	0.6741166115 0.6363657713 0.5378857255
	0.6752985716 0.6376389265 0.5397207737
	0.6764804721 0.6389120221 0.5415198207
	0.6776624918 0.6401801705 0.5433121920
	0.6788443923 0.6414189935 0.5451046228
	0.6800253987 0.6426578760 0.5468971133
	0.6811656952 0.6438966990 0.5486894846
	0.6823059916 0.6451355815 0.5504710078
	0.6834462881 0.6463744044 0.5522230268
	0.6845865846 0.6476132870 0.5539749861
	0.6857268810 0.6488522291 0.5557268858
	0.6868671179 0.6500884891 0.5574789047
	0.6880074143 0.6512925029 0.5592309237
	0.6891477108 0.6524965167 0.5609611869
	0.6902772784 0.6537005901 0.5626745224
	0.6913753152 0.6549046040 0.5643877983
	0.6924731731 0.6561086774 0.5661010742
	0.6935710907 0.6573126912 0.5678144097
	0.6946691275 0.6585168242 0.5695276856
	0.6957669854 0.6597207785 0.5712140203
	0.6968650222 0.6608976722 0.5728901029
	0.6979628801 0.6620662808 0.5745661259
	0.6990607977 0.6632350087 0.5762422085
	0.7001525760 0.6644036174 0.5779181719
	0.7012076974 0.6655722857 0.5795943141
	0.7022626996 0.6667408943 0.5812429190
	0.7033178210 0.6679096222 0.5828827024
	0.7043728828 0.6690781713 0.5845226049
	0.7054278851 0.6702393293 0.5861623883
	0.7064830065 0.6713719964 0.5878022909
	0.7075381279 0.6725047231 0.5894420743
	0.7085930705 0.6736373901 0.5910584927
	0.7096481919 0.6747701168 0.5926628113
	0.7106745243 0.6759027839 0.5942670703
	0.7116863132 0.6770355105 0.5958713889
	0.7126982212 0.6781681776 0.5974757075
	0.7137101293 0.6793009043 0.5990800261
	0.7147219777 0.6804196239 0.6006693244
	0.7157338262 0.6815158129 0.6022384763
	0.7167456746 0.6826120019 0.6038076282
	0.7177575827 0.6837081909 0.6053767204
	0.7187694907 0.6848043799 0.6069458723
	0.7197813988 0.6859006286 0.6085150242
	0.7207592726 0.6869968176 0.6100823283
	0.7217279077 0.6880930066 0.6116163135
	0.7226964235 0.6891891956 0.6131502986
	0.7236649990 0.6902757883 0.6146842837
	0.7246335745 0.6913350224 0.6162183881
	0.7256022096 0.6923943162 0.6177523732
	0.7265707850 0.6934534907 0.6192864180
	0.7275393009 0.6945127249 0.6208015084
	0.7285078764 0.6955720186 0.6223003268
	0.7294765115 0.6966311932 0.6237990260
	0.7304251790 0.6976904273 0.6252977252
	0.7313506007 0.6987497211 0.6267964244
	0.7322760224 0.6998088956 0.6282951236
	0.7332013845 0.7008374929 0.6297938228
	0.7341268063 0.7018594146 0.6312615871
	0.7350522280 0.7028812170 0.6327245831
	0.7359775901 0.7039030790 0.6341875196
	0.7369030118 0.7049250007 0.6356505156
	0.7378283739 0.7059468031 0.6371133924
	0.7387537956 0.7069687247 0.6385763288
	0.7396792173 0.7079905868 0.6400383115
	0.7405766249 0.7090123892 0.6414648294
	0.7414591908 0.7100329995 0.6428912878
	0.7423416972 0.7110173106 0.6443178058
	0.7432242036 0.7120015025 0.6457443833
	0.7441068292 0.7129856944 0.6471709013
	0.7449892759 0.7139698863 0.6485974193
	0.7458719015 0.7149540782 0.6500232816
	0.7467544079 0.7159383297 0.6514126062
	0.7476369739 0.7169225216 0.6528018117
	0.7485194802 0.7179067731 0.6541910768
	0.7494021058 0.7188910246 0.6555804014
	0.7502709031 0.7198752165 0.6569697261
	0.7511112094 0.7208263874 0.6583588719
	0.7519513965 0.7217727900 0.6597481966
	0.7527915835 0.7227191925 0.6611062288
	0.7536318898 0.7236654758 0.6624572873
	0.7544720769 0.7246118784 0.6638084054
	0.7553123236 0.7255582809 0.6651595235
	0.7561525106 0.7265046835 0.6665105820
	0.7569928169 0.7274510860 0.6678617001
	0.7578330040 0.7283974886 0.6692128181
	0.7586731911 0.7293438911 0.6705474854
	0.7595134974 0.7302786708 0.6718593836
	0.7603362203 0.7311872244 0.6731712818
	0.7611348033 0.7320957184 0.6744831800
	0.7619335055 0.7330042124 0.6757950187
	0.7627320886 0.7339128256 0.6771069169
	0.7635306716 0.7348213196 0.6784188151
	0.7643293738 0.7357298136 0.6797307134
	0.7651280165 0.7366383076 0.6810106039
	0.7659267187 0.7375468016 0.6822822094
	0.7667253017 0.7384554148 0.6835538149
	0.7675240040 0.7393639088 0.6848254800
	0.7683225870 0.7402610779 0.6860970855
	0.7691212296 0.7411319017 0.6873686910
	0.7699198723 0.7420026064 0.6886402965
	0.7706819177 0.7428733706 0.6899120212
	0.7714399099 0.7437440753 0.6911451221
	0.7721979022 0.7446148992 0.6923754811
	0.7729557753 0.7454857230 0.6936057806
	0.7737138271 0.7463564277 0.6948360801
	0.7744718194 0.7472271919 0.6960663795
	0.7752296925 0.7480978966 0.6972966790
	0.7759876847 0.7489687204 0.6985270977
	0.7767456770 0.7498394847 0.6997573972
	0.7775036097 0.7506796122 0.7009537816
	0.7782616019 0.7515128255 0.7021418214
	0.7790195942 0.7523460984 0.7033298016
	0.7797775269 0.7531793118 0.7045179009
	0.7805075049 0.7540125847 0.7057058811
	0.7812259197 0.7548457980 0.7068939209
	0.7819442153 0.7556790113 0.7080820203
	0.7826625705 0.7565122843 0.7092700005
	0.7833809257 0.7573454976 0.7104414105
	0.7840992808 0.7581787705 0.7115862966
	0.7848175764 0.7590119839 0.7127311826
	0.7855359912 0.7598451972 0.7138760090
	0.7862542868 0.7606481910 0.7150208950
	0.7869727015 0.7614442706 0.7161657810
	0.7876909971 0.7622404099 0.7173107266
	0.7884094119 0.7630366087 0.7184554935
	0.7891278267 0.7638326883 0.7196003795
	0.7898461223 0.7646288276 0.7207167149
	0.7905343175 0.7654249072 0.7218176723
	0.7912142277 0.7662209868 0.7229186893
	0.7918941975 0.7670171261 0.7240195870
	0.7925741076 0.7678132057 0.7251206040
	0.7932540178 0.7686092854 0.7262216210
	0.7939339876 0.7694054246 0.7273225784
	0.7946138978 0.7701922059 0.7284234762
	0.7952939272 0.7709516883 0.7295244932
	0.7959737778 0.7717111707 0.7306001782
	0.7966536880 0.7724707127 0.7316566706
	0.7973337173 0.7732301950 0.7327132821
	0.7980136275 0.7739896774 0.7337697744
	0.7986935973 0.7747492194 0.7348263264
	0.7993735075 0.7755087018 0.7358828187
	0.8000504971 0.7762681842 0.7369393110
	0.8006933928 0.7770277262 0.7379958034
	0.8013362288 0.7777872086 0.7390522957
	0.8019790053 0.7785466909 0.7401041985
	0.8026219010 0.7793061733 0.7411159277
	0.8032646775 0.7800626159 0.7421275973
	0.8039075732 0.7807862163 0.7431393266
	0.8045504093 0.7815096974 0.7441509962
	0.8051931858 0.7822332978 0.7451627254
	0.8058360815 0.7829567790 0.7461743951
	0.8064789176 0.7836803794 0.7471861243
	0.8071216941 0.7844039202 0.7481977940
	0.8077645898 0.7851275206 0.7492095232
	0.8084074259 0.7858511209 0.7502114177
	0.8090502024 0.7865746021 0.7511780858
	0.8096930981 0.7872982025 0.7521448731
	0.8103172779 0.7880216837 0.7531116009
	0.8109244108 0.7887452841 0.7540783286
	0.8115314841 0.7894688249 0.7550451159
	0.8121386766 0.7901830077 0.7560117841
	0.8127458096 0.7908713818 0.7569785714
	0.8133528829 0.7915598154 0.7579452991
	0.8139600754 0.7922481894 0.7589120269
	0.8145672083 0.7929366231 0.7598788142
	0.8151742816 0.7936249971 0.7608063221
	0.8157814145 0.7943133712 0.7617281079
	0.8163886070 0.7950018048 0.7626500130
	0.8169956803 0.7956901193 0.7635719180
	0.8176028132 0.7963784933 0.7644938231
	0.8182100058 0.7970669270 0.7654156089
	0.8188170791 0.7977553010 0.7663375139
	0.8194242120 0.7984436750 0.7672594190
	0.8200296164 0.7991321087 0.7681813240
	0.8206024766 0.7998204827 0.7691031098
	0.8211753964 0.8004835248 0.7700238228
	0.8217483163 0.8011376858 0.7709010839
	0.8223211169 0.8017917871 0.7717785239
	0.8228939772 0.8024458885 0.7726557851
	0.8234668970 0.8030999899 0.7735331059
	0.8240398169 0.8037540913 0.7744104862
	0.8246126771 0.8044083118 0.7752878070
	0.8251855969 0.8050624132 0.7761651278
	0.8257585168 0.8057165146 0.7770425081
	0.8263313770 0.8063706160 0.7779198289
	0.8269041777 0.8070247173 0.7787970901
	0.8274770975 0.8076788187 0.7796744704
	0.8280500174 0.8083329797 0.7805240750
	0.8286228776 0.8089870811 0.7813575268
	0.8291957974 0.8096411824 0.7821907997
	0.8297687173 0.8102803230 0.7830241919
	0.8303220272 0.8109011054 0.7838575244
	0.8308622241 0.8115220070 0.7846909165
	0.8314023018 0.8121427894 0.7855241895
	0.8319424987 0.8127635717 0.7863575816
	0.8324825764 0.8133844733 0.7871909142
	0.8330227733 0.8140053153 0.7880243063
	0.8335629106 0.8146260977 0.7888575792
	0.8341031075 0.8152469993 0.7896909714
	0.8346431851 0.8158677816 0.7904971242
	0.8351833820 0.8164886236 0.7912873030
	0.8357235193 0.8171095252 0.7920774221
	0.8362637162 0.8177303076 0.7928674817
	0.8368037939 0.8183512092 0.7936577201
	0.8373439908 0.8189719915 0.7944477797
	0.8378841281 0.8195927739 0.7952378988
	0.8384243250 0.8202025890 0.7960280776
	0.8389644027 0.8207911849 0.7968181968
	0.8395045996 0.8213797808 0.7976083159
	0.8400421143 0.8219683766 0.7983984947
	0.8405510783 0.8225570917 0.7991886139
	0.8410599828 0.8231456876 0.7999786735
	0.8415690064 0.8237342834 0.8007277846
	0.8420779109 0.8243228793 0.8014757037
	0.8425868154 0.8249114752 0.8022235036
	0.8430957794 0.8255001903 0.8029714227
	0.8436046839 0.8260887861 0.8037192822
	0.8441137075 0.8266773820 0.8044672012
	0.8446226120 0.8272659779 0.8052151203
	0.8451315165 0.8278546929 0.8059629798
	0.8456404805 0.8284432888 0.8067108989
	0.8461493850 0.8290318847 0.8074588180
	0.8466584086 0.8296204805 0.8082066774
	0.8471673131 0.8301981091 0.8089544773
	0.8476762176 0.8307555914 0.8097023964
	0.8481851816 0.8313131928 0.8104255795
	0.8486940861 0.8318706751 0.8111323714
	0.8492031097 0.8324282765 0.8118392229
	0.8497120142 0.8329858184 0.8125458956
	0.8502081037 0.8335434198 0.8132526875
	0.8506873250 0.8341009021 0.8139594793
	0.8511666059 0.8346583843 0.8146662712
	0.8516458869 0.8352159858 0.8153731227
	0.8521251082 0.8357735276 0.8160799146
	0.8526043892 0.8363311291 0.8167867064
	0.8530836105 0.8368886113 0.8174934983
	0.8535628915 0.8374462128 0.8182002902
	0.8540421724 0.8380036950 0.8189070821
	0.8545213938 0.8385611773 0.8196138144
	0.8550006747 0.8391187787 0.8203026056
	0.8554800153 0.8396763206 0.8209695816
	0.8559591770 0.8402212858 0.8216364980
	0.8564385176 0.8407490253 0.8223034739
	0.8569177985 0.8412765861 0.8229705095
	0.8573970199 0.8418043256 0.8236374855
	0.8578763008 0.8423318863 0.8243045211
	0.8583555818 0.8428596258 0.8249714971
	0.8588348031 0.8433871865 0.8256384730
	0.8593140841 0.8439149261 0.8263055086
	0.8597934246 0.8444424868 0.8269724846
	0.8602566123 0.8449702263 0.8276394010
	0.8607078195 0.8454977870 0.8283063769
	0.8611589074 0.8460255265 0.8289734125
	0.8616099954 0.8465530872 0.8296403885
	0.8620610833 0.8470808268 0.8302897215
	0.8625121713 0.8476083875 0.8309183121
	0.8629633784 0.8481361270 0.8315469027
	0.8634145260 0.8486636877 0.8321754932
	0.8638656139 0.8491914272 0.8328040838
	0.8643167019 0.8497189879 0.8334327936
	0.8647677898 0.8502333164 0.8340613842
	0.8652189970 0.8507323265 0.8346899748
	0.8656700850 0.8512312174 0.8353186250
	0.8661211729 0.8517302275 0.8359472156
	0.8665723205 0.8522291780 0.8365758061
	0.8670234084 0.8527281880 0.8372043967
	0.8674746156 0.8532270789 0.8378329873
	0.8679257035 0.8537260890 0.8384615779
	0.8683767915 0.8542250991 0.8390902281
	0.8688278794 0.8547241092 0.8397188783
	0.8692790270 0.8552231193 0.8403270841
	0.8697301745 0.8557220101 0.8409187794
	0.8701705933 0.8562210202 0.8415105939
	0.8705950975 0.8567199707 0.8421024084
	0.8710194826 0.8572189808 0.8426941037
	0.8714439869 0.8577179909 0.8432859182
	0.8718684912 0.8582168818 0.8438776135
	0.8722929955 0.8587158918 0.8444694281
	0.8727173805 0.8592149019 0.8450611234
	0.8731418848 0.8597139120 0.8456528783
	0.8735663891 0.8602011204 0.8462445736
	0.8739908934 0.8606727123 0.8468363881
	0.8744153976 0.8611443043 0.8474280834
	0.8748397827 0.8616157770 0.8480198979
	0.8752642870 0.8620874286 0.8486115932
	0.8756887913 0.8625589013 0.8492034078
