release/datafiles/colormanagement/luts/film_response/kodak_max_zoom_800.spi1d
Version 1
From 0.0 1.0
Length 1024
Components 3
{
	0.0000000000 0.0000000000 0.0000000000
	0.0084391097 0.0075763101 0.0055803522
	0.0169892292 0.0151253100 0.0110553904
	0.0246818494 0.0219931193 0.0160910394
	0.0317661613 0.0282940008 0.0208101291
	0.0382325202 0.0340048485 0.0251940992
	0.0441172384 0.0393486507 0.0293568596
	0.0496861897 0.0445001610 0.0333589911
	0.0550585985 0.0493195914 0.0371792093
	0.0601223111 0.0539280511 0.0408726782
	0.0649642274 0.0583757199 0.0444436409
	0.0695851371 0.0626427680 0.0479431897
	0.0740094930 0.0667798966 0.0513359718
	0.0783147216 0.0707852617 0.0546398088
	0.0825306326 0.0747059137 0.0578773208
	0.0866608396 0.0785023794 0.0610598996
	0.0907057226 0.0822077468 0.0641641617
	0.0946363509 0.0858238488 0.0672321990
	0.0984090120 0.0893622264 0.0702527389
	0.1020661965 0.0928608030 0.0732008815
	0.1056471020 0.0963046327 0.0760966092
	0.1091898009 0.0996690318 0.0789577886
	0.1126779020 0.1029520035 0.0817804411
	0.1161487997 0.1061682031 0.0845761225
	0.1195472032 0.1093337014 0.0873135701
	0.1229045019 0.1124323979 0.0900195017
	0.1262066960 0.1155048013 0.0926894471
	0.1294586062 0.1185453981 0.0953314528
	0.1326504052 0.1215455979 0.0979523510
	0.1357606053 0.1245016977 0.1005545035
	0.1388241053 0.1273857951 0.1031209007
	0.1418274045 0.1302534044 0.1056765020
	0.1447373033 0.1330838054 0.1081990004
	0.1476096958 0.1358837932 0.1106970012
	0.1504617035 0.1386432946 0.1131801978
	0.1533035040 0.1413915008 0.1156400964
	0.1561179012 0.1440995932 0.1180797964
	0.1589269936 0.1467884034 0.1204816997
	0.1617161930 0.1494296938 0.1228761971
	0.1644722074 0.1520594060 0.1252495944
	0.1672009975 0.1546591967 0.1275874972
	0.1699149013 0.1572349966 0.1299159974
	0.1725970954 0.1597743034 0.1322304010
	0.1752271056 0.1622851938 0.1345029026
	0.1778230965 0.1647903025 0.1367422938
	0.1803787053 0.1672617942 0.1389641017
	0.1828950047 0.1697237939 0.1411608011
	0.1853982061 0.1721518934 0.1433494985
	0.1878785938 0.1745534986 0.1455025971
	0.1903571934 0.1769458950 0.1476327926
	0.1928332001 0.1793050021 0.1497652978
	0.1952915937 0.1816422045 0.1519078016
	0.1977207959 0.1839872003 0.1540307999
	0.2001152039 0.1863050014 0.1561508030
	0.2025077045 0.1886059940 0.1582663059
	0.2049013972 0.1908763051 0.1603844017
	0.2072762996 0.1931104958 0.1624784023
	0.2096343935 0.1953328997 0.1645596027
	0.2119597048 0.1975608021 0.1666202992
	0.2142512947 0.1997732073 0.1686652005
	0.2165051997 0.2019650936 0.1706995964
	0.2187242955 0.2041545063 0.1727278978
	0.2209309936 0.2063177973 0.1747494042
	0.2231297940 0.2084506005 0.1767428070
	0.2253059000 0.2105776966 0.1787129939
	0.2274693996 0.2127068937 0.1806745976
	0.2296334058 0.2148050070 0.1826314926
	0.2317734957 0.2168878019 0.1845801026
	0.2338978052 0.2189736068 0.1865082979
	0.2360040992 0.2210465968 0.1884184927
	0.2380760014 0.2230933011 0.1903171986
	0.2401296049 0.2251244932 0.1922022998
	0.2421852946 0.2271171063 0.1940843016
	0.2442210019 0.2290779948 0.1959476024
	0.2462366074 0.2310225964 0.1977925003
	0.2482510954 0.2329605967 0.1996293068
	0.2502493858 0.2348946929 0.2014590949
	0.2522226870 0.2368202060 0.2032801062
	0.2541834116 0.2387333065 0.2050863057
	0.2561317980 0.2406367958 0.2068803012
	0.2580586970 0.2425450981 0.2086673975
	0.2599673867 0.2444512993 0.2104519010
	0.2618735135 0.2463417053 0.2122323960
	0.2637856007 0.2482246011 0.2140039951
	0.2656947076 0.2501086891 0.2157679945
	0.2675924003 0.2519941926 0.2175332010
	0.2694917023 0.2538610101 0.2192887962
	0.2713840008 0.2557184100 0.2210364938
	0.2732622921 0.2575724125 0.2227811962
	0.2751278877 0.2594226897 0.2245233059
	0.2769821882 0.2612658143 0.2262614965
	0.2788152099 0.2630968094 0.2279942930
	0.2806366980 0.2649213970 0.2297101021
	0.2824515104 0.2667475939 0.2314116955
	0.2842657864 0.2685596049 0.2331091017
	0.2860780060 0.2703500092 0.2348040938
	0.2878656983 0.2721207142 0.2364936024
	0.2896395028 0.2738777995 0.2381702960
	0.2914094925 0.2756209075 0.2398329973
	0.2931736112 0.2773512006 0.2414873987
	0.2949214876 0.2790701985 0.2431395948
	0.2966547906 0.2807764113 0.2447883040
	0.2983818054 0.2824758887 0.2464286983
	0.3001014888 0.2841669023 0.2480624020
	0.3017992973 0.2858343124 0.2496916056
	0.3034814894 0.2875004113 0.2513076067
	0.3051558137 0.2891632915 0.2529129982
	0.3068262041 0.2908203900 0.2545062900
	0.3085027933 0.2924638093 0.2560915053
	0.3101766109 0.2941013873 0.2576715052
	0.3118444085 0.2957335114 0.2592464983
	0.3135068119 0.2973626852 0.2608287036
	0.3151695132 0.2989872992 0.2624095082
	0.3168335855 0.3006061018 0.2639889121
	0.3184846938 0.3022069037 0.2655547857
	0.3201304972 0.3038052917 0.2671144009
	0.3217692077 0.3054029942 0.2686659992
	0.3234055936 0.3069913089 0.2702147961
	0.3250352144 0.3085735142 0.2717638910
	0.3266384900 0.3101415038 0.2733153105
	0.3282344043 0.3117021918 0.2748562098
	0.3298248947 0.3132582009 0.2763910890
	0.3314053118 0.3148199916 0.2779105008
	0.3329854906 0.3163794875 0.2794237137
	0.3345662951 0.3179340065 0.2809270918
	0.3361378908 0.3194747865 0.2824262977
	0.3377039135 0.3210082948 0.2839238942
	0.3392634988 0.3225387931 0.2854253054
	0.3408218026 0.3240653872 0.2869231999
	0.3423773050 0.3255797923 0.2884125113
	0.3439236879 0.3270798028 0.2898918986
	0.3454602063 0.3285647929 0.2913635075
	0.3469888866 0.3300414979 0.2928242981
	0.3485142887 0.3315150142 0.2942822874
	0.3500323892 0.3329941928 0.2957330048
	0.3515473902 0.3344734013 0.2971836030
	0.3530417979 0.3359495103 0.2986334860
	0.3545320034 0.3374226987 0.3000814021
	0.3560110033 0.3388882875 0.3015252054
	0.3574849069 0.3403522074 0.3029659092
	0.3589515090 0.3418137133 0.3044033051
	0.3604162931 0.3432742059 0.3058296144
	0.3618794084 0.3447338939 0.3072482944
	0.3633390963 0.3461844921 0.3086608946
	0.3647964895 0.3476294875 0.3100705147
	0.3662520945 0.3490661085 0.3114804029
	0.3677066863 0.3504985869 0.3128904998
	0.3691571951 0.3519344032 0.3143031001
	0.3706058860 0.3533715010 0.3157165051
	0.3720482886 0.3548054099 0.3171201050
	0.3734880090 0.3562380075 0.3185209036
	0.3749237061 0.3576630950 0.3199110925
	0.3763574958 0.3590848148 0.3212977052
	0.3777863979 0.3605031073 0.3226788938
	0.3792122900 0.3619194031 0.3240576982
	0.3806298971 0.3633339107 0.3254354894
	0.3820405006 0.3647469878 0.3268128037
	0.3834429979 0.3661527932 0.3281848133
	0.3848352134 0.3675504029 0.3295519948
	0.3862208128 0.3689433932 0.3309170902
	0.3875918090 0.3703270853 0.3322786987
	0.3889611959 0.3717108071 0.3336370885
	0.3903222978 0.3730942905 0.3349848986
	0.3916833997 0.3744777143 0.3363322914
	0.3930288851 0.3758434951 0.3376722932
	0.3943736851 0.3772087991 0.3390122950
	0.3957099915 0.3785588145 0.3403486907
	0.3970431089 0.3799039125 0.3416841924
	0.3983731866 0.3812474012 0.3430136144
	0.3996999860 0.3825891912 0.3443383873
	0.4010235071 0.3839282095 0.3456582129
	0.4023340046 0.3852578998 0.3469654024
	0.4036445916 0.3865875006 0.3482725918
	0.4049448073 0.3878997862 0.3495655954
	0.4062437117 0.3892104924 0.3508580923
	0.4075376093 0.3905136883 0.3521454036
	0.4088271856 0.3918113112 0.3534295857
	0.4101122916 0.3931080997 0.3547120988
	0.4113762975 0.3944020867 0.3559896052
	0.4126402140 0.3956961036 0.3572671115
	0.4138968885 0.3969767988 0.3585371077
	0.4151513875 0.3982538879 0.3598057032
	0.4164057970 0.3995262980 0.3610734046
	0.4176602066 0.4007898867 0.3623399138
	0.4189145863 0.4020535052 0.3636063933
	0.4201653004 0.4033161998 0.3648683131
	0.4214152992 0.4045788944 0.3661297858
	0.4226615131 0.4058408141 0.3673880100
	0.4239003062 0.4071016014 0.3686417937
	0.4251390994 0.4083622992 0.3698956072
	0.4263815880 0.4096068144 0.3711366951
	0.4276249111 0.4108476937 0.3723761141
	0.4288657010 0.4120868146 0.3736143112
	0.4300980866 0.4133198857 0.3748500049
	0.4313304126 0.4145531058 0.3760857880
	0.4325571954 0.4157873988 0.3773151934
	0.4337803125 0.4170222878 0.3785417974
	0.4350034893 0.4182572067 0.3797681034
	0.4362299144 0.4194813967 0.3809858859
	0.4374563098 0.4207052886 0.3822036982
	0.4386776090 0.4219268858 0.3834176064
	0.4398860931 0.4231427014 0.3846245110
	0.4410946071 0.4243586063 0.3858315051
	0.4422994852 0.4255749881 0.3870328963
	0.4435017109 0.4267917871 0.3882313073
	0.4447039068 0.4280084968 0.3894298077
	0.4459021091 0.4292202890 0.3906225860
	0.4470992088 0.4304310977 0.3918147981
	0.4482960999 0.4316413999 0.3930067122
	0.4494735003 0.4328393936 0.3941971064
	0.4506509900 0.4340375066 0.3953875005
	0.4518275857 0.4352346957 0.3965758979
	0.4530000091 0.4364287853 0.3977586031
	0.4541724920 0.4376227856 0.3989411891
	0.4553438127 0.4388133883 0.4001224041
	0.4565126896 0.4399971962 0.4013010859
	0.4576815069 0.4411810040 0.4024797976
	0.4588429928 0.4423573911 0.4036575854
	0.4599938095 0.4435240030 0.4048345089
	0.4611446857 0.4446905851 0.4060113132
	0.4622924924 0.4458532035 0.4071837068
	0.4634366930 0.4470112920 0.4083524048
	0.4645808041 0.4481694102 0.4095211029
	0.4657213092 0.4493247867 0.4106839895
	0.4668577015 0.4504772127 0.4118421078
	0.4679940939 0.4516296983 0.4130002856
	0.4691272080 0.4527780116 0.4141499102
	0.4702562094 0.4539214969 0.4152916968
	0.4713852108 0.4550648928 0.4164333940
	0.4725120962 0.4562053084 0.4175724983
	0.4736359119 0.4573408067 0.4187080860
	0.4747596085 0.4584763944 0.4198437035
	0.4758782089 0.4596096873 0.4209780991
	0.4769828022 0.4607372880 0.4221099913
	0.4780873954 0.4618648887 0.4232420027
	0.4791901112 0.4629899859 0.4243740141
	0.4802770019 0.4640980959 0.4255062938
	0.4813640118 0.4652062058 0.4266386926
	0.4824509025 0.4663142860 0.4277710021
	0.4835343957 0.4674096107 0.4288952053
	0.4846175909 0.4685041010 0.4300192893
	0.4857007861 0.4695985019 0.4311434031
	0.4867846966 0.4706852138 0.4322606921
	0.4878689945 0.4717684984 0.4333756864
	0.4889532924 0.4728518128 0.4344907105
	0.4900343120 0.4739331901 0.4356062114
	0.4911102951 0.4750120044 0.4367220104
	0.4921863079 0.4760906994 0.4378378987
	0.4932622910 0.4771688879 0.4389531910
	0.4943380952 0.4782414138 0.4400649071
	0.4954138100 0.4793137908 0.4411765039
	0.4964896142 0.4803862870 0.4422881901
	0.4975619018 0.4814558029 0.4433946908
	0.4986326098 0.4825241864 0.4444997013
	0.4997034073 0.4835925102 0.4456045926
	0.5007709861 0.4846589863 0.4467051029
	0.5018302202 0.4857206941 0.4477970898
	0.5028892756 0.4867824912 0.4488891065
	0.5039485097 0.4878442883 0.4499810040
	0.5050029755 0.4888986051 0.4510704875
	0.5060563087 0.4899514019 0.4521594942
	0.5071097016 0.4910041988 0.4532485902
	0.5081599951 0.4920547903 0.4543373883
	0.5092030168 0.4931007922 0.4554258883
	0.5102459788 0.4941467047 0.4565143883
	0.5112890005 0.4951925874 0.4576028883
	0.5123233795 0.4962320924 0.4586854875
	0.5133545995 0.4972695112 0.4597668052
	0.5143858790 0.4983069003 0.4608480036
	0.5154163241 0.4993439913 0.4619261920
	0.5164411068 0.5003792048 0.4629918933
	0.5174658895 0.5014144182 0.4640575945
	0.5184906721 0.5024495721 0.4651232958
	0.5195080042 0.5034834743 0.4661859870
	0.5205168128 0.5045161247 0.4672459960
	0.5215256214 0.5055487752 0.4683060944
	0.5225343704 0.5065814257 0.4693661034
	0.5235391855 0.5076125264 0.4704234004
	0.5245428085 0.5086430907 0.4714801013
	0.5255464911 0.5096737742 0.4725368917
	0.5265501142 0.5107042789 0.4735935032
	0.5275589824 0.5117307901 0.4746482074
	0.5285679102 0.5127573013 0.4757030010
	0.5295767188 0.5137838721 0.4767577052
	0.5305829048 0.5148088932 0.4778087139
	0.5315781236 0.5158286095 0.4788492024
	0.5325732827 0.5168482065 0.4798896909
	0.5335685015 0.5178679228 0.4809302986
	0.5345616937 0.5188835859 0.4819678068
	0.5355507731 0.5198920965 0.4830011129
	0.5365399122 0.5209006071 0.4840342999
	0.5375291109 0.5219091773 0.4850674868
	0.5385140777 0.5229142904 0.4861018956
	0.5394936800 0.5239152908 0.4871374071
	0.5404732823 0.5249161720 0.4881727993
	0.5414528847 0.5259171724 0.4892083108
	0.5424301028 0.5269111991 0.4902406037
	0.5434045196 0.5278977156 0.4912700951
	0.5443788171 0.5288841724 0.4922995865
	0.5453531742 0.5298706889 0.4933289886
	0.5463275909 0.5308517814 0.4943523109
	0.5473020077 0.5318266153 0.4953694046
	0.5482764244 0.5328012705 0.4963865876
	0.5492507815 0.5337759852 0.4974038005
	0.5502228141 0.5347477794 0.4984166026
	0.5511909127 0.5357149243 0.4994237125
	0.5521588922 0.5366820097 0.5004308820
	0.5531268716 0.5376489758 0.5014380217
	0.5540925264 0.5386124253 0.5024443269
	0.5550501943 0.5395649076 0.5034484267
	0.5560079813 0.5405173898 0.5044525266
	0.5569657087 0.5414698124 0.5054566264
	0.5579233170 0.5424215198 0.5064595938
	0.5588781238 0.5433623791 0.5074540973
	0.5598328710 0.5443031788 0.5084484816
	0.5607876778 0.5452440977 0.5094429851
	0.5617424846 0.5461850166 0.5104374886
	0.5626881123 0.5471224189 0.5114172101
	0.5636314154 0.5480589867 0.5123947859
	0.5645747781 0.5489956737 0.5133724809
	0.5655180812 0.5499323010 0.5143501163
	0.5664566755 0.5508654118 0.5153220296
	0.5673907995 0.5517954230 0.5162897706
	0.5683248043 0.5527253747 0.5172575712
	0.5692589283 0.5536553860 0.5182253718
	0.5701919794 0.5545833111 0.5191931129
	0.5711194873 0.5555014014 0.5201603770
	0.5720471144 0.5564193726 0.5211277008
	0.5729746819 0.5573375225 0.5220949054
	0.5739021897 0.5582554936 0.5230622292
	0.5748242736 0.5591751933 0.5240322948
	0.5757443905 0.5600954294 0.5250031948
	0.5766643882 0.5610156059 0.5259739757
	0.5775845051 0.5619357824 0.5269448757
	0.5785031915 0.5628547072 0.5279111862
	0.5794178843 0.5637699962 0.5288679004
	0.5803325176 0.5646852851 0.5298246741
	0.5812472105 0.5656005740 0.5307815075
	0.5821619034 0.5665159225 0.5317382216
	0.5830687881 0.5674222708 0.5326874852
	0.5839726925 0.5683256984 0.5336347222
	0.5848765969 0.5692290068 0.5345818996
	0.5857805014 0.5701323152 0.5355291963
	0.5866835713 0.5710356236 0.5364757776
	0.5875809193 0.5719385743 0.5374200940
	0.5884782076 0.5728415251 0.5383644104
	0.5893754959 0.5737444758 0.5393087268
	0.5902727246 0.5746474266 0.5402529836
	0.5911679864 0.5755448937 0.5411959887
	0.5920606852 0.5764362812 0.5421379209
	0.5929535031 0.5773277283 0.5430796742
	0.5938463211 0.5782189965 0.5440214872
	0.5947390795 0.5791103840 0.5449634194
	0.5956212878 0.5799939036 0.5458949208
	0.5964996219 0.5808746815 0.5468239188
	0.5973780155 0.5817555785 0.5477527976
	0.5982564092 0.5826364160 0.5486817956
	0.5991346836 0.5835173130 0.5496106148
	0.6000012755 0.5843989253 0.5505310297
	0.6008672118 0.5852805972 0.5514513254
	0.6017332077 0.5861622095 0.5523716807
	0.6025990844 0.5870438814 0.5532919765
	0.6034640074 0.5879251957 0.5542123914
	0.6043193936 0.5888038874 0.5551329255
	0.6051747203 0.5896825194 0.5560534000
	0.6060299873 0.5905610919 0.5569739938
	0.6068853140 0.5914397240 0.5578945279
	0.6077398062 0.5923171043 0.5588160753
	0.6085901856 0.5931892991 0.5597410798
	0.6094405055 0.5940614939 0.5606660247
	0.6102908254 0.5949336886 0.5615910292
	0.6111412048 0.5958060026 0.5625159144
	0.6119889021 0.5966781974 0.5634377003
	0.6128252149 0.5975505114 0.5643500090
	0.6136614084 0.5984228253 0.5652621984
	0.6144977212 0.5992950201 0.5661745071
	0.6153339148 0.6001672745 0.5670866966
	0.6161686182 0.6010373831 0.5679973960
	0.6169930100 0.6018946171 0.5689010024
	0.6178174019 0.6027516723 0.5698046088
	0.6186416745 0.6036089063 0.5707082152
	0.6194661260 0.6044660807 0.5716118813
	0.6202905178 0.6053230762 0.5725151896
	0.6211113930 0.6061736941 0.5734145045
	0.6219323277 0.6070241928 0.5743138194
	0.6227532029 0.6078748107 0.5752130747
	0.6235740781 0.6087254286 0.5761123896
	0.6243950725 0.6095759273 0.5770117044
	0.6252127886 0.6104241014 0.5779047012
	0.6260297894 0.6112717986 0.5787969232
	0.6268466711 0.6121194959 0.5796890259
	0.6276636720 0.6129671931 0.5805811286
	0.6284806728 0.6138148904 0.5814732909
	0.6292939782 0.6146571040 0.5823628902
	0.6301044226 0.6154950857 0.5832508206
	0.6309146881 0.6163331270 0.5841388106
	0.6317250729 0.6171712279 0.5850268006
	0.6325353980 0.6180092096 0.5859146714
	0.6333454847 0.6188457012 0.5868017077
	0.6341544986 0.6196774244 0.5876858830
	0.6349633932 0.6205092072 0.5885701776
	0.6357724071 0.6213408709 0.5894544721
	0.6365814209 0.6221725941 0.5903387070
	0.6373903155 0.6230043173 0.5912230015
	0.6381942034 0.6238338947 0.5921056867
	0.6389968991 0.6246629953 0.5929881930
	0.6397994757 0.6254922152 0.5938706994
	0.6406021714 0.6263213158 0.5947532058
	0.6414049268 0.6271504164 0.5956355929
	0.6422066092 0.6279762983 0.5965138078
	0.6430063248 0.6287959814 0.5973852873
	0.6438059807 0.6296157837 0.5982567072
	0.6446056962 0.6304355264 0.5991281271
	0.6454054117 0.6312552094 0.5999996066
	0.6462051868 0.6320748925 0.6008710265
	0.6469957829 0.6328898072 0.6017335057
	0.6477838159 0.6337034106 0.6025940776
	0.6485717297 0.6345170736 0.6034547091
	0.6493597031 0.6353306770 0.6043154001
	0.6501476765 0.6361442804 0.6051759720
	0.6509342790 0.6369585991 0.6060351729
	0.6517130733 0.6377763152 0.6068887711
	0.6524918079 0.6385939717 0.6077424288
	0.6532706022 0.6394116879 0.6085960269
	0.6540492773 0.6402294040 0.6094496250
	0.6548280716 0.6410471201 0.6103032231
	0.6556051970 0.6418619156 0.6111536026
	0.6563801169 0.6426733732 0.6120008230
	0.6571549773 0.6434847713 0.6128481030
	0.6579298973 0.6442962289 0.6136953235
	0.6587048173 0.6451076269 0.6145424843
	0.6594796777 0.6459190249 0.6153897047
	0.6602489948 0.6467270255 0.6162346005
	0.6610152721 0.6475332975 0.6170787215
	0.6617817283 0.6483396292 0.6179227829
	0.6625480056 0.6491457820 0.6187667847
	0.6633144021 0.6499521136 0.6196109056
	0.6640806794 0.6507583857 0.6204549074
	0.6648426056 0.6515669823 0.6212937236
	0.6656033993 0.6523761153 0.6221314073
	0.6663640738 0.6531851888 0.6229692101
	0.6671249270 0.6539943218 0.6238070130
	0.6678856015 0.6548035145 0.6246448159
	0.6686462760 0.6556125879 0.6254826188
	0.6694011092 0.6564118862 0.6263144016
	0.6701549292 0.6572096944 0.6271455884
	0.6709085703 0.6580076218 0.6279767752
	0.6716623902 0.6588053703 0.6288080215
	0.6724160910 0.6596031785 0.6296392083
	0.6731699109 0.6604009867 0.6304703951
	0.6739165187 0.6611961722 0.6312931180
	0.6746615767 0.6619908214 0.6321147084
	0.6754066944 0.6627854109 0.6329362988
	0.6761518121 0.6635800004 0.6337578297
	0.6768969893 0.6643745899 0.6345794201
	0.6776421070 0.6651691794 0.6354010105
	0.6783866882 0.6659619808 0.6362180114
	0.6791309714 0.6667541862 0.6370335817
	0.6798753738 0.6675463915 0.6378492713
	0.6806197762 0.6683385968 0.6386650205
	0.6813641787 0.6691308022 0.6394807100
	0.6821085215 0.6699230075 0.6402962804
	0.6828457713 0.6707084775 0.6411076188
	0.6835768819 0.6714885235 0.6419157982
	0.6843081117 0.6722685099 0.6427239776
	0.6850392222 0.6730484962 0.6435320973
	0.6857702732 0.6738284826 0.6443402767
	0.6865015030 0.6746084094 0.6451485157
	0.6872311234 0.6753873229 0.6459537148
	0.6879568100 0.6761630774 0.6467525959
	0.6886826158 0.6769388914 0.6475514174
	0.6894083023 0.6777147055 0.6483502984
	0.6901339889 0.6784905195 0.6491491199
	0.6908596754 0.6792662740 0.6499480009
	0.6915854216 0.6800420880 0.6507468224
	0.6923050880 0.6808115244 0.6515396833
	0.6930242777 0.6815804243 0.6523323059
	0.6937434077 0.6823492050 0.6531249285
	0.6944625974 0.6831181049 0.6539174914
	0.6951817274 0.6838870049 0.6547101140
	0.6959009171 0.6846559048 0.6555026770
	0.6966161728 0.6854197979 0.6562970281
	0.6973273754 0.6861783862 0.6570926905
	0.6980385184 0.6869369745 0.6578884721
	0.6987496018 0.6876956224 0.6586841941
	0.6994606853 0.6884542108 0.6594799757
	0.7001718283 0.6892127991 0.6602758169
	0.7008829117 0.6899713874 0.6610714793
	0.7015895844 0.6907256246 0.6618655920
	0.7022960782 0.6914795041 0.6626598239
	0.7030025125 0.6922335029 0.6634538770
	0.7037090063 0.6929875016 0.6642479897
	0.7044153810 0.6937413812 0.6650421023
	0.7051218152 0.6944953799 0.6658362150
	0.7058250904 0.6952432990 0.6666283011
	0.7065216899 0.6959791780 0.6674168706
	0.7072182894 0.6967151165 0.6682054996
	0.7079148889 0.6974509954 0.6689941287
	0.7086114287 0.6981868744 0.6697826982
	0.7093080282 0.6989226937 0.6705713272
	0.7100046277 0.6996585727 0.6713598967
	0.7106981277 0.7003877759 0.6721469760
	0.7113897204 0.7011129260 0.6729333997
	0.7120811939 0.7018380165 0.6737198234
	0.7127727866 0.7025631070 0.6745061278
	0.7134643793 0.7032880783 0.6752924919
	0.7141559720 0.7040132284 0.6760789156
	0.7148475051 0.7047383189 0.6768652201
	0.7155426741 0.7054607272 0.6776456833
	0.7162386775 0.7061824799 0.6784251928
	0.7169346809 0.7069042921 0.6792047024
	0.7176308036 0.7076261044 0.6799842715
	0.7183268070 0.7083479166 0.6807637811
	0.7190228105 0.7090697289 0.6815432906
	0.7197188139 0.7097914815 0.6823228002
	0.7204080224 0.7105045915 0.6830921769
	0.7210965157 0.7112171054 0.6838611960
	0.7217851281 0.7119296193 0.6846302748
	0.7224736214 0.7126420140 0.6853992939
	0.7231621742 0.7133545280 0.6861683130
	0.7238507271 0.7140669823 0.6869373918
	0.7245392799 0.7147794962 0.6877064109
	0.7252277136 0.7154844999 0.6884679794
	0.7259160280 0.7161890268 0.6892294884
	0.7266044021 0.7168934941 0.6899909973
	0.7272927165 0.7175980806 0.6907523870
	0.7279810905 0.7183026075 0.6915138960
	0.7286694050 0.7190070748 0.6922754049
	0.7293577790 0.7197117209 0.6930367947
	0.7300446033 0.7204123139 0.6937997937
	0.7307311893 0.7211123109 0.6945629120
	0.7314177752 0.7218121886 0.6953259706
	0.7321043015 0.7225121856 0.6960890889
	0.7327908874 0.7232121825 0.6968522072
	0.7334774733 0.7239121795 0.6976153255
	0.7341641188 0.7246121764 0.6983783841
	0.7348474860 0.7253112793 0.6991379261
	0.7355294824 0.7260100842 0.6998959780
	0.7362114787 0.7267090082 0.7006539702
	0.7368934155 0.7274078131 0.7014120817
	0.7375754118 0.7281066179 0.7021701932
	0.7382574081 0.7288054228 0.7029281855
	0.7389392853 0.7295042276 0.7036862969
	0.7396183014 0.7302008867 0.7044391036
	0.7402927279 0.7308946252 0.7051851749
	0.7409670949 0.7315883040 0.7059314251
	0.7416415811 0.7322819829 0.7066774964
	0.7423160076 0.7329757214 0.7074236870
	0.7429903746 0.7336694002 0.7081698179
	0.7436649203 0.7343631983 0.7089160085
	0.7443389893 0.7350566983 0.7096619010
	0.7450042963 0.7357468009 0.7104052901
	0.7456694841 0.7364367843 0.7111486793
	0.7463346720 0.7371268868 0.7118921280
	0.7469999790 0.7378168702 0.7126353979
	0.7476652265 0.7385069728 0.7133787870
	0.7483304739 0.7391970158 0.7141221762
	0.7489957213 0.7398871183 0.7148655057
	0.7496609092 0.7405748963 0.7156080008
	0.7503259182 0.7412611246 0.7163497806
	0.7509909868 0.7419472933 0.7170916200
	0.7516561151 0.7426335216 0.7178335190
	0.7523211241 0.7433196902 0.7185752988
	0.7529861927 0.7440059185 0.7193170786
	0.7536513209 0.7446920872 0.7200589180
	0.7543162704 0.7453783154 0.7208005786
	0.7549796104 0.7460603714 0.7215341926
	0.7556427717 0.7467426062 0.7222678065
	0.7563059926 0.7474247217 0.7230014205
	0.7569692731 0.7481067777 0.7237349749
	0.7576324940 0.7487888932 0.7244685888
	0.7582957149 0.7494711280 0.7252022028
	0.7589588761 0.7501531839 0.7259358168
	0.7596207261 0.7508332729 0.7266669273
	0.7602791786 0.7515090108 0.7273933887
	0.7609376907 0.7521848083 0.7281197906
	0.7615962029 0.7528604865 0.7288463116
	0.7622547150 0.7535362244 0.7295727134
	0.7629132271 0.7542120218 0.7302991152
	0.7635716796 0.7548877001 0.7310255766
	0.7642301917 0.7555633783 0.7317519784
	0.7648857832 0.7562360168 0.7324793935
	0.7655386925 0.7569059134 0.7332075834
	0.7661917210 0.7575758100 0.7339357734
