release/datafiles/colormanagement/luts/film_response/kodak_kodachrome_200.spi1d
Version 1
From 0.0 1.0
Length 1024
Components 3
{
	0.0000000000 0.0000000000 0.0000000000
	0.0001730574 0.0002039562 0.0002358485
	0.0003522631 0.0004149732 0.0004803593
	0.0005379661 0.0006318853 0.0007290206
	0.0007310679 0.0008542882 0.0009827145
	0.0009340477 0.0010819150 0.0012466050
	0.0011457250 0.0013172789 0.0015175150
	0.0013664630 0.0015590760 0.0017966420
	0.0015953979 0.0018074680 0.0020813060
	0.0018292820 0.0020661030 0.0023712160
	0.0020738509 0.0023327931 0.0026701461
	0.0023281691 0.0026087810 0.0029817061
	0.0025920530 0.0028905689 0.0033033220
	0.0028679480 0.0031836890 0.0036326619
	0.0031529539 0.0034913400 0.0039701960
	0.0034448660 0.0038095911 0.0043217931
	0.0037472011 0.0041361330 0.0046877442
	0.0040617771 0.0044678152 0.0050627491
	0.0043859989 0.0048073409 0.0054407581
	0.0047217272 0.0051559508 0.0058272062
	0.0050699208 0.0055170869 0.0062212390
	0.0054345722 0.0058912761 0.0066273510
	0.0058116391 0.0062767328 0.0070466590
	0.0062011848 0.0066723628 0.0074762749
	0.0066031339 0.0070798998 0.0079114493
	0.0070177661 0.0075020911 0.0083535369
	0.0074442741 0.0079338206 0.0088046975
	0.0078795254 0.0083771208 0.0092653846
	0.0083278697 0.0088326121 0.0097344546
	0.0087915091 0.0092987726 0.0102126198
	0.0092691761 0.0097725317 0.0107003897
	0.0097623114 0.0102546504 0.0111954799
	0.0102694500 0.0107495701 0.0116990302
	0.0107906098 0.0112578301 0.0122114504
	0.0113268001 0.0117790196 0.0127311097
	0.0118786199 0.0123126702 0.0132614998
	0.0124431401 0.0128612900 0.0138018904
	0.0130219003 0.0134234196 0.0143521996
	0.0136152301 0.0139996996 0.0149130402
	0.0142232198 0.0145876799 0.0154852197
	0.0148449196 0.0151869999 0.0160684697
	0.0154783595 0.0158025604 0.0166603103
	0.0161256995 0.0164336897 0.0172653906
	0.0167863201 0.0170805994 0.0178804602
	0.0174631495 0.0177476797 0.0185050704
	0.0181544498 0.0184269901 0.0191421397
	0.0188641995 0.0191224609 0.0197905600
	0.0195880793 0.0198333003 0.0204491094
	0.0203275606 0.0205603093 0.0211143699
	0.0210811403 0.0212992709 0.0217879806
	0.0218534302 0.0220546499 0.0224671308
	0.0226451308 0.0228254497 0.0231546499
	0.0234524105 0.0236116406 0.0238485206
	0.0242763907 0.0244143009 0.0245480109
	0.0251218900 0.0252302606 0.0252581500
	0.0259851404 0.0260641407 0.0259789899
	0.0268620700 0.0269184001 0.0267140791
	0.0277548693 0.0277873296 0.0274658203
	0.0286648702 0.0286731608 0.0282310992
	0.0295908507 0.0295777693 0.0290101692
	0.0305334404 0.0304972902 0.0298030600
	0.0314947292 0.0314330608 0.0306055099
	0.0324744582 0.0323868990 0.0314168893
	0.0334764086 0.0333601981 0.0322372504
	0.0344995111 0.0343528390 0.0330651999
	0.0355402492 0.0353610590 0.0339045897
	0.0365981199 0.0363844894 0.0347526409
	0.0376747511 0.0374244489 0.0356094018
	0.0387722701 0.0384774804 0.0364748016
	0.0398925804 0.0395460315 0.0373485014
	0.0410357118 0.0406353809 0.0382347293
	0.0421971716 0.0417462699 0.0391340293
	0.0433758609 0.0428716205 0.0400448591
	0.0445724390 0.0440130197 0.0409630090
	0.0457868986 0.0451716594 0.0418913700
	0.0470213406 0.0463434607 0.0428329296
	0.0482786596 0.0475279316 0.0437831692
	0.0495616607 0.0487296283 0.0447406098
	0.0508708991 0.0499518812 0.0457080491
	0.0522039905 0.0511935391 0.0466858111
	0.0535621308 0.0524507686 0.0476739705
	0.0549456812 0.0537222885 0.0486743301
	0.0563542917 0.0550098717 0.0496832319
	0.0577872396 0.0563169084 0.0507013202
	0.0592435412 0.0576429814 0.0517350510
	0.0607235916 0.0589821301 0.0527782217
	0.0622299090 0.0603348911 0.0538305715
	0.0637641624 0.0617051981 0.0548948608
	0.0653300881 0.0630972311 0.0559714995
	0.0669195279 0.0645076036 0.0570586994
	0.0685284436 0.0659297109 0.0581539795
	0.0701561198 0.0673606992 0.0592579208
	0.0718030334 0.0688040778 0.0603738800
	0.0734695569 0.0702652484 0.0615030490
	0.0751590133 0.0717460513 0.0626446307
	0.0768723935 0.0732394904 0.0637940615
	0.0786073431 0.0747426003 0.0649530664
	0.0803640932 0.0762560293 0.0661245733
	0.0821429417 0.0777818337 0.0673098490
	0.0839471966 0.0793204084 0.0685084313
	0.0857824534 0.0808681324 0.0697233528
	0.0876402482 0.0824251175 0.0709487796
	0.0895186588 0.0839939788 0.0721847713
	0.0914160535 0.0855768770 0.0734331012
	0.0933414400 0.0871768892 0.0746951923
	0.0952875987 0.0887894779 0.0759687126
	0.0972552076 0.0904145017 0.0772481188
	0.0992452875 0.0920512825 0.0785354823
	0.1012666970 0.0936988667 0.0798321664
	0.1033084020 0.0953587517 0.0811416209
	0.1053688005 0.0970306993 0.0824629217
	0.1074498966 0.0987144411 0.0837924406
	0.1095537990 0.1004106030 0.0851297081
	0.1116733998 0.1021208018 0.0864788592
	0.1138081029 0.1038433984 0.0878428370
	0.1159645021 0.1055795997 0.0892181471
	0.1181332022 0.1073433980 0.0906047598
	0.1203133017 0.1091196015 0.0920063481
	0.1225123033 0.1109066978 0.0934172571
	0.1247252971 0.1127050966 0.0948378369
	0.1269482970 0.1145213023 0.0962786898
	0.1291864067 0.1163515970 0.0977344289
	0.1314398050 0.1182034016 0.0992026329
	0.1337047964 0.1200674996 0.1006904021
	0.1359920055 0.1219405010 0.1021960005
	0.1382973045 0.1238282993 0.1037138999
	0.1406147927 0.1257331967 0.1052495018
	0.1429530978 0.1276489943 0.1068022996
	0.1453036964 0.1295824945 0.1083668992
	0.1476657987 0.1315266043 0.1099525020
	0.1500508040 0.1334788054 0.1115524024
	0.1524461955 0.1354573965 0.1131626964
	0.1548593938 0.1374479979 0.1147975996
	0.1572892964 0.1394518018 0.1164444983
	0.1597270072 0.1414680034 0.1181050986
	0.1621783972 0.1434909999 0.1197827980
	0.1646371931 0.1455283016 0.1214680970
	0.1671067029 0.1475757957 0.1231684014
	0.1695881933 0.1496292949 0.1248828992
	0.1720747054 0.1517004967 0.1266061962
	0.1745768040 0.1537802070 0.1283615977
	0.1770841032 0.1558783948 0.1301272064
	0.1796021014 0.1579937041 0.1319141984
	0.1821261942 0.1601195037 0.1337158978
	0.1846542060 0.1622675061 0.1355265975
	0.1871972978 0.1644203067 0.1373614073
	0.1897435039 0.1665845066 0.1392045021
	0.1922962070 0.1687586010 0.1410738975
	0.1948485970 0.1709450036 0.1429603994
	0.1974000037 0.1731521040 0.1448680013
	0.1999529004 0.1753689051 0.1467960030
	0.2025073022 0.1776115000 0.1487334073
	0.2050623000 0.1798598021 0.1506955028
	0.2076175958 0.1821341962 0.1526625007
	0.2101784945 0.1844155937 0.1546497941
	0.2127404958 0.1867152005 0.1566448063
	0.2153038979 0.1890224069 0.1586592048
	0.2178677022 0.1913391948 0.1606916934
	0.2204349041 0.1936641932 0.1627465039
	0.2230034024 0.1959953010 0.1648250967
	0.2255780995 0.1983426064 0.1669203043
	0.2281538993 0.2006970942 0.1690406948
	0.2307337970 0.2030775994 0.1711710989
	0.2333167940 0.2054647952 0.1733302027
	0.2359074056 0.2078783959 0.1754958034
	0.2384988964 0.2102957964 0.1776867956
	0.2410926074 0.2127331942 0.1798807979
	0.2436847985 0.2151719928 0.1820942014
	0.2462743968 0.2176246047 0.1843084991
	0.2488645017 0.2200776041 0.1865465939
	0.2514558136 0.2225456983 0.1887851954
	0.2540476024 0.2250140011 0.1910569072
	0.2566407025 0.2275063992 0.1933290064
	0.2592354119 0.2299994975 0.1956388056
	0.2618348897 0.2325156033 0.1979486048
	0.2644349933 0.2350329012 0.2002822012
	0.2670376897 0.2375658005 0.2026163042
	0.2696410120 0.2401002944 0.2049711943
	0.2722525895 0.2426490933 0.2073276043
	0.2748641074 0.2452007979 0.2097111940
	0.2774798870 0.2477629036 0.2120991051
	0.2800959945 0.2503288984 0.2145109028
	0.2827027142 0.2529033124 0.2169295996
	0.2853069007 0.2554830909 0.2193607986
	0.2879045010 0.2580693960 0.2217984051
	0.2904979885 0.2606629133 0.2242448032
	0.2930887938 0.2632611990 0.2266992033
	0.2956756949 0.2658706009 0.2291606069
	0.2982619107 0.2684814036 0.2316346020
	0.3008450866 0.2711029053 0.2341126055
	0.3034282923 0.2737244070 0.2366093993
	0.3060013056 0.2763522863 0.2391061932
	0.3085739017 0.2789807022 0.2416251004
	0.3111369014 0.2816146910 0.2441447973
	0.3136956990 0.2842512131 0.2466782033
	0.3162499070 0.2868914008 0.2492164969
	0.3187974095 0.2895368934 0.2517606020
	0.3213433921 0.2921831906 0.2543109953
	0.3238751888 0.2948344946 0.2568640113
	0.3264068961 0.2974858880 0.2594281137
	0.3289282918 0.3001478016 0.2619921863
	0.3314462900 0.3028118908 0.2645705938
	0.3339582086 0.3054809868 0.2671507895
	0.3364607096 0.3081552088 0.2697336972
	0.3389630914 0.3108294010 0.2723186910
	0.3414388001 0.3135038018 0.2749026120
	0.3439145088 0.3161781132 0.2774826884
	0.3463768065 0.3188591003 0.2800627947
	0.3488295972 0.3215422034 0.2826369107
	0.3512794971 0.3242281079 0.2852098048
	0.3537116945 0.3269194067 0.2877875865
	0.3561440110 0.3296107054 0.2903720140
	0.3585642874 0.3322994113 0.2929564118
	0.3609788120 0.3349879086 0.2955451012
	0.3633924127 0.3376730978 0.2981339097
	0.3658021092 0.3403542042 0.3007180095
	0.3682116866 0.3430353105 0.3032977879
	0.3706200123 0.3457179964 0.3058773875
	0.3730275035 0.3484008908 0.3084514141
	0.3754344881 0.3510805964 0.3110255003
	0.3778376877 0.3537563086 0.3135905862
	0.3802408874 0.3564321101 0.3161478043
	0.3826422989 0.3591000140 0.3187049925
	0.3850421906 0.3617669940 0.3212369084
	0.3874421120 0.3644312024 0.3237684965
	0.3898290098 0.3670895100 0.3262920082
	0.3922148049 0.3697476983 0.3288041949
	0.3945944011 0.3723874092 0.3313164115
	0.3969587982 0.3750202060 0.3338195086
	0.3993231058 0.3776504993 0.3363206089
	0.4016804099 0.3802587092 0.3388189077
	0.4040333927 0.3828668892 0.3413054943
	0.4063864946 0.3854654133 0.3437921107
	0.4087263942 0.3880515099 0.3462659121
	0.4110653996 0.3906376958 0.3487288952
	0.4134008884 0.3932111859 0.3511919975
	0.4157232046 0.3957807124 0.3536264896
	0.4180454910 0.3983494937 0.3560566008
	0.4203620851 0.4009037912 0.3584819138
	0.4226720035 0.4034580886 0.3608815968
	0.4249818921 0.4060049951 0.3632813096
	0.4272814989 0.4085350931 0.3656719923
	0.4295763969 0.4110653102 0.3680498004
	0.4318712056 0.4135862887 0.3704276979
	0.4341445863 0.4160991907 0.3727912009
	0.4364148080 0.4186122119 0.3751470149
	0.4386841953 0.4211213887 0.3775027096
	0.4409301877 0.4236291945 0.3798316121
	0.4431762993 0.4261370003 0.3821555972
	0.4454182088 0.4286366105 0.3844789863
	0.4476383030 0.4311352968 0.3867709041
	0.4498583972 0.4336335957 0.3890627027
	0.4520725906 0.4361194074 0.3913497925
	0.4542694986 0.4386051893 0.3936108947
	0.4564662874 0.4410878122 0.3958719075
	0.4586519897 0.4435504973 0.3981297910
	0.4608140886 0.4460130930 0.4003787935
	0.4629763067 0.4484688938 0.4026277065
	0.4651244879 0.4508990049 0.4048694074
	0.4672470987 0.4533290863 0.4070971012
	0.4693697989 0.4557510018 0.4093249142
	0.4714809954 0.4581488967 0.4115391076
	0.4735712111 0.4605467916 0.4137321115
	0.4756614864 0.4629383981 0.4159250855
	0.4777419865 0.4653125107 0.4181059897
	0.4798024893 0.4676867127 0.4202688932
	0.4818629026 0.4700528085 0.4224317074
	0.4839158952 0.4723933935 0.4245786965
	0.4859476089 0.4747340083 0.4266997874
	0.4879794121 0.4770675004 0.4288209081
	0.4900068939 0.4793699086 0.4309298098
	0.4920125008 0.4816722870 0.4330140054
	0.4940181971 0.4839723110 0.4350981116
	0.4960232973 0.4862492085 0.4371761978
	0.4980137050 0.4885261953 0.4392358065
	0.5000041127 0.4908030927 0.4412953854
	0.5019946098 0.4930540919 0.4433520138
	0.5039594769 0.4953044951 0.4453881085
	0.5059207082 0.4975548983 0.4474242032
	0.5078818798 0.4997824132 0.4494602084
	0.5098254085 0.5020049810 0.4514681101
	0.5117604136 0.5042275190 0.4534752965
	0.5136954188 0.5064237118 0.4554825127
	0.5156211853 0.5086045861 0.4574632049
	0.5175352097 0.5107855201 0.4594367146
	0.5194491744 0.5129476190 0.4614103138
	0.5213580728 0.5150821805 0.4633643031
	0.5232421756 0.5172169209 0.4653035104
	0.5251262784 0.5193458796 0.4672426879
	0.5270103812 0.5214424729 0.4691694975
	0.5288773179 0.5235390067 0.4710688889
	0.5307416916 0.5256354809 0.4729683995
	0.5326061249 0.5277007818 0.4748673141
	0.5344613791 0.5297605991 0.4767382145
	0.5363087058 0.5318204165 0.4786092043
	0.5381559134 0.5338671207 0.4804801047
	0.5400000215 0.5359017849 0.4823342860
	0.5418263078 0.5379365087 0.4841809869
	0.5436527133 0.5399680138 0.4860278070
	0.5454791188 0.5419824719 0.4878644049
	0.5472977161 0.5439968705 0.4896807075
	0.5491135716 0.5460113287 0.4914970100
	0.5509294868 0.5480144024 0.4933133125
	0.5527412295 0.5500137210 0.4951044023
	0.5545426011 0.5520130992 0.4968936145
	0.5563439727 0.5540094972 0.4986828864
	0.5581454039 0.5559996963 0.5004619956
	0.5599331260 0.5579897761 0.5022308230
	0.5617172718 0.5599799752 0.5039995909
	0.5635015965 0.5619543791 0.5057681203
	0.5652781725 0.5639256835 0.5075237751
	0.5670350790 0.5658969283 0.5092794895
	0.5687919259 0.5678616166 0.5110352039
	0.5705487728 0.5698119998 0.5127810836
	0.5722795725 0.5717625022 0.5145177245
	0.5740000010 0.5737128854 0.5162543058
	0.5757204890 0.5756404996 0.5179908276
	0.5774372816 0.5775611997 0.5197011828
	0.5791262984 0.5794818997 0.5214105248
	0.5808153152 0.5813961029 0.5231198072
	0.5825042129 0.5832800865 0.5248202085
	0.5841786861 0.5851641297 0.5265055895
	0.5858368874 0.5870479941 0.5281910896
	0.5874952078 0.5889140964 0.5298765898
	0.5891535282 0.5907651186 0.5315344930
	0.5907946825 0.5926162004 0.5331832170
	0.5924314260 0.5944672227 0.5348318219
	0.5940682292 0.5962749720 0.5364782810
	0.5957034230 0.5980765820 0.5381013751
	0.5973179936 0.5998781919 0.5397245884
	0.5989326239 0.6016728878 0.5413476825
	0.6005473137 0.6034333706 0.5429692268
	0.6021553278 0.6051939130 0.5445882082
	0.6037486792 0.6069543958 0.5462071896
	0.6053420901 0.6087045074 0.5478262901
	0.6069355011 0.6104400754 0.5494415760
	0.6085183024 0.6121757030 0.5510547757
	0.6100909710 0.6139113903 0.5526679754
	0.6116636992 0.6156324148 0.5542811751
	0.6132364273 0.6173446774 0.5558875799
	0.6147910953 0.6190569997 0.5574927926
	0.6163368225 0.6207693219 0.5590980053
	0.6178824902 0.6224603057 0.5607026815
	0.6194280982 0.6241456866 0.5622801781
	0.6209585071 0.6258311272 0.5638577938
	0.6224846840 0.6275166273 0.5654352903
	0.6240109205 0.6291700006 0.5670077801
	0.6255372167 0.6308205724 0.5685514212
	0.6270471811 0.6324712038 0.5700950027
	0.6285545826 0.6341215968 0.5716385841
	0.6300619841 0.6357386112 0.5731750131
	0.6315693855 0.6373555064 0.5746886730
	0.6330655813 0.6389724016 0.5762023926
	0.6345605254 0.6405878067 0.5777161121
	0.6360552907 0.6421716809 0.5792214870
	0.6375501156 0.6437556744 0.5807061791
	0.6390339136 0.6453396082 0.5821908116
	0.6405161023 0.6469221711 0.5836755037
	0.6419982910 0.6484758854 0.5851554871
	0.6434804797 0.6500297189 0.5866240859
	0.6449518800 0.6515833735 0.5880926847
	0.6464208961 0.6531370878 0.5895612240
	0.6478899121 0.6546549797 0.5910267234
	0.6493589282 0.6561728716 0.5924829245
	0.6508315802 0.6576908231 0.5939390063
	0.6523056030 0.6592087150 0.5953950882
	0.6537796259 0.6606941223 0.5968484879
	0.6552537084 0.6621763706 0.5982881188
	0.6567261219 0.6636587977 0.5997276902
	0.6581972837 0.6651412249 0.6011673808
	0.6596685052 0.6666092873 0.6026061773
	0.6611397266 0.6680734754 0.6040263772
	0.6626036763 0.6695376039 0.6054465771
	0.6640564799 0.6710017920 0.6068667769
	0.6655092835 0.6724609733 0.6082869768
	0.6669620872 0.6739168167 0.6096944213
	0.6684113145 0.6753727198 0.6110997796
	0.6698417068 0.6768286228 0.6125053167
	0.6712719798 0.6782851815 0.6139106750
	0.6727023125 0.6797429919 0.6153100133
	0.6741325855 0.6812009215 0.6167058945
	0.6755437255 0.6826586723 0.6181018949
	0.6769521236 0.6841160059 0.6194978952
	0.6783605218 0.6855689287 0.6208894253
	0.6797689795 0.6870219111 0.6222738028
	0.6811653972 0.6884748936 0.6236581206
	0.6825522780 0.6899278760 0.6250424981
	0.6839390993 0.6913648248 0.6264259219
	0.6853259206 0.6927976012 0.6277984977
	0.6867079735 0.6942304969 0.6291711926
	0.6880686283 0.6956632733 0.6305438280
	0.6894292831 0.6970888972 0.6319164038
	0.6907898784 0.6985052824 0.6332756281
	0.6921504736 0.6999217272 0.6346296072
	0.6934959888 0.7013381124 0.6359835863
	0.6948367953 0.7027540803 0.6373376250
	0.6961774826 0.7041571140 0.6386855245
	0.6975182295 0.7055600882 0.6400206089
	0.6988571882 0.7069631219 0.6413556933
	0.7001917958 0.7083662152 0.6426907778
	0.7015264034 0.7097566724 0.6440259218
	0.7028610110 0.7111378908 0.6453583837
	0.7041956186 0.7125192285 0.6466904879
	0.7055236101 0.7139005065 0.6480225921
	0.7068496943 0.7152801752 0.6493546963
	0.7081757784 0.7166393995 0.6506857872
	0.7095018029 0.7179986238 0.6520152092
	0.7108235955 0.7193577886 0.6533446908
	0.7121292949 0.7207170129 0.6546741128
	0.7134348750 0.7220675945 0.6560035944
	0.7147405148 0.7234103084 0.6573339105
	0.7160462141 0.7247529030 0.6586644053
	0.7173392177 0.7260956168 0.6599950194
	0.7186235189 0.7274382114 0.6613255143
	0.7199078798 0.7287701964 0.6626539230
	0.7211923003 0.7301012278 0.6639747024
	0.7224767208 0.7314321995 0.6652954817
	0.7237458229 0.7327631712 0.6666163206
	0.7250137925 0.7340887785 0.6679372191
	0.7262817025 0.7353991866 0.6692438722
	0.7275496721 0.7367095947 0.6705400944
	0.7288151979 0.7380200028 0.6718363166
	0.7300717235 0.7393304110 0.6731324792
	0.7313283086 0.7406290770 0.6744287014
	0.7325847745 0.7419185042 0.6757104993
	0.7338414192 0.7432078719 0.6769903898
	0.7350922823 0.7444974184 0.6782702208
	0.7363361716 0.7457867861 0.6795499921
	0.7375801206 0.7470659018 0.6808269024
	0.7388241291 0.7483425140 0.6820834875
	0.7400680184 0.7496191263 0.6833400726
	0.7413054109 0.7508956790 0.6845965981
	0.7425388098 0.7521722913 0.6858531833
	0.7437722087 0.7534267902 0.6871013045
	0.7450056076 0.7546814084 0.6883319020
	0.7462391257 0.7559359074 0.6895623803
	0.7474638224 0.7571905255 0.6907929778
	0.7486857176 0.7584406137 0.6920235753
	0.7499076128 0.7596641779 0.6932476759
	0.7511295080 0.7608876824 0.6944645047
	0.7523514032 0.7621111870 0.6956813931
	0.7535635829 0.7633348107 0.6968982816
	0.7547737956 0.7645512819 0.6981152296
	0.7559840083 0.7657446265 0.6993272901
	0.7571942210 0.7669377923 0.7005357742
	0.7584043741 0.7681310773 0.7017441988
	0.7596076727 0.7693244219 0.7029526830
	0.7608097196 0.7705097795 0.7041612267
	0.7620118260 0.7716736197 0.7053571939
	0.7632138729 0.7728374004 0.7065454125
	0.7644159794 0.7740011811 0.7077335715
	0.7655978799 0.7751650810 0.7089217901
	0.7667754889 0.7763243914 0.7101098895
	0.7679529786 0.7774704099 0.7112854123
	0.7691305876 0.7786164284 0.7124524117
	0.7703080773 0.7797623873 0.7136192918
	0.7714644074 0.7809084058 0.7147862911
	0.7726129889 0.7820516229 0.7159532905
	0.7737615705 0.7831820846 0.7171167135
	0.7749102116 0.7843126059 0.7182772160
	0.7760587931 0.7854431868 0.7194375992
	0.7771977186 0.7865737081 0.7205979824
	0.7783300877 0.7877029777 0.7217584252
	0.7794623971 0.7888091207 0.7229158282
	0.7805947065 0.7899152040 0.7240688205
	0.7817270160 0.7910214067 0.7252218723
	0.7828512192 0.7921274900 0.7263749242
	0.7839630246 0.7932336926 0.7275279164
	0.7850748897 0.7943174243 0.7286769748
	0.7861866951 0.7953978181 0.7298130989
	0.7872986197 0.7964780927 0.7309491038
	0.7884055972 0.7975584865 0.7320852280
	0.7894845009 0.7986388803 0.7332212925
	0.7905632854 0.7997053862 0.7343574166
	0.7916421294 0.8007637262 0.7354778051
	0.7927209735 0.8018221259 0.7365983129
	0.7937998176 0.8028805256 0.7377187014
	0.7948549986 0.8039388061 0.7388392091
	0.7959054112 0.8049921989 0.7399595976
	0.7969558835 0.8060358167 0.7410690188
	0.7980064154 0.8070793748 0.7421737909
	0.7990568280 0.8081229925 0.7432786822
	0.8000957966 0.8091667295 0.7443835735
	0.8011217117 0.8102102876 0.7454885244
	0.8021476269 0.8112317920 0.7465876937
	0.8031734824 0.8122528791 0.7476770878
	0.8041993976 0.8132740259 0.7487664819
	0.8052238822 0.8142951727 0.7498558760
	0.8062176704 0.8153163195 0.7509453297
	0.8072115183 0.8163194060 0.7520347238
	0.8082051873 0.8173090816 0.7531046867
	0.8091989756 0.8182986975 0.7541738749
	0.8101927042 0.8192883730 0.7552431822
	0.8111652136 0.8202779889 0.7563123703
	0.8121206760 0.8212653995 0.7573816776
	0.8130761981 0.8222320080 0.7584378123
	0.8140317798 0.8231986761 0.7594807744
	0.8149873018 0.8241654038 0.7605237961
	0.8159424067 0.8251320720 0.7615668178
	0.8168678880 0.8260987997 0.7626097202
	0.8177933097 0.8270537257 0.7636526823
	0.8187186718 0.8279997706 0.7646675706
	0.8196440935 0.8289458752 0.7656818032
	0.8205695152 0.8298919797 0.7666959763
	0.8214858174 0.8308380842 0.7677102089
	0.8223888278 0.8317841887 0.7687243819
	0.8232917786 0.8327031732 0.7697293162
	0.8241947889 0.8336216807 0.7707198262
	0.8250979185 0.8345401883 0.7717103958
	0.8260009289 0.8354586959 0.7727010250
	0.8268916011 0.8363772035 0.7736914754
	0.8277779818 0.8372876048 0.7746821046
	0.8286644816 0.8381816149 0.7756630182
	0.8295509219 0.8390756845 0.7766405940
	0.8304374218 0.8399696946 0.7776182890
	0.8313233852 0.8408638239 0.7785959840
	0.8321877122 0.8417577744 0.7795736194
	0.8330519795 0.8426352143 0.7805503011
	0.8339163065 0.8435022831 0.7815071940
	0.8347805738 0.8443694711 0.7824640870
	0.8356449008 0.8452367187 0.7834209204
	0.8365029097 0.8461037874 0.7843778133
	0.8373395801 0.8469709754 0.7853347063
	0.8381764293 0.8478137851 0.7862827182
	0.8390132189 0.8486523032 0.7872080207
	0.8398498893 0.8494908214 0.7881333232
	0.8406866789 0.8503292203 0.7890586257
	0.8415160179 0.8511676788 0.7899839282
	0.8423328996 0.8520057797 0.7909091711
	0.8431499004 0.8528186083 0.7918230891
	0.8439669013 0.8536313176 0.7927232981
	0.8447839022 0.8544440269 0.7936236262
	0.8456009030 0.8552566767 0.7945237756
	0.8464123011 0.8560693860 0.7954239845
	0.8472172022 0.8568791151 0.7963243127
	0.8480221033 0.8576657772 0.7972148061
	0.8488271236 0.8584524989 0.7980977297
	0.8496320248 0.8592392206 0.7989805937
	0.8504369259 0.8600258827 0.7998635173
	0.8512371778 0.8608126044 0.8007463813
	0.8520324230 0.8615955114 0.8016293049
	0.8528277278 0.8623574972 0.8024988174
	0.8536229134 0.8631194234 0.8033595085
	0.8544182181 0.8638814092 0.8042201996
	0.8552135229 0.8646433949 0.8050808907
	0.8559978008 0.8654053211 0.8059417009
	0.8567681909 0.8661652207 0.8068023920
	0.8575387001 0.8669108748 0.8076456189
	0.8583090901 0.8676565289 0.8084762096
	0.8590794802 0.8684021235 0.8093069196
	0.8598498702 0.8691477776 0.8101375103
	0.8606119752 0.8698933721 0.8109682202
	0.8613570929 0.8706384897 0.8117988706
	0.8621020913 0.8713684082 0.8126195073
	0.8628472090 0.8720982075 0.8134300709
	0.8635922074 0.8728280067 0.8142405748
	0.8643373251 0.8735578060 0.8150511980
	0.8650797009 0.8742876053 0.8158618212
	0.8658074141 0.8750174046 0.8166723847
	0.8665351272 0.8757197857 0.8174800873
	0.8672627807 0.8764181733 0.8182824254
	0.8679904938 0.8771166205 0.8190848231
	0.8687182069 0.8778150082 0.8198871017
	0.8694459200 0.8785135150 0.8206894994
	0.8701534271 0.8792119026 0.8214918971
	0.8708590865 0.8798918724 0.8222925067
	0.8715646863 0.8805618882 0.8230811954
	0.8722702861 0.8812319040 0.8238700032
	0.8729758859 0.8819019794 0.8246586919
	0.8736816049 0.8825719953 0.8254473805
	0.8743742704 0.8832420111 0.8262361884
	0.8750584722 0.8839061260 0.8270248771
	0.8757427931 0.8845593929 0.8277987242
	0.8764269948 0.8852127194 0.8285697103
	0.8771111965 0.8858659863 0.8293406963
	0.8777955174 0.8865193725 0.8301116824
	0.8784751296 0.8871726990 0.8308827281
	0.8791388869 0.8878260255 0.8316535950
	0.8798025846 0.8884590268 0.8324189782
	0.8804662824 0.8890919089 0.8331785202
	0.8811300993 0.8897247910 0.8339378834
	0.8817937970 0.8903576732 0.8346974254
	0.8824576139 0.8909906745 0.8354569077
	0.8831110001 0.8916236162 0.8362162709
