release/datafiles/colormanagement/filmic/filmic_to_0-70_1-03.spi1d
Version 1
From 0.000000 1.000000
Length 4096
Components 1
{
    0.0000000000000E+0
    1.3546595638040E-5
    2.7119409093229E-5
    4.0718490533262E-5
    5.4343890219558E-5
    6.7995658507426E-5
    8.1673845846238E-5
    9.5378502779586E-5
    1.0910967994546E-4
    1.2286742807640E-4
    1.3665179799967E-4
    1.5046284063746E-4
    1.6430060700698E-4
    1.7816514822069E-4
    1.9205651548645E-4
    2.0597476010769E-4
    2.1991993348356E-4
    2.3389208710913E-4
    2.4789127257554E-4
    2.6191754157019E-4
    2.7597094587686E-4
    2.9005153737594E-4
    3.0415936804458E-4
    3.1829448995685E-4
    3.3245695528390E-4
    3.4664681629417E-4
    3.6086412535353E-4
    3.7510893492548E-4
    3.8938129757127E-4
    4.0368126595014E-4
    4.1800889281943E-4
    4.3236423103482E-4
    4.4674733355042E-4
    4.6115825341903E-4
    4.7559704379223E-4
    4.9006375792064E-4
    5.0455844915402E-4
    5.1908117094149E-4
    5.3363197683168E-4
    5.4821092047292E-4
    5.6281805561340E-4
    5.7745343610138E-4
    5.9211711588532E-4
    6.0680914901407E-4
    6.2152958963709E-4
    6.3627849200454E-4
    6.5105591046755E-4
    6.6586189947834E-4
    6.8069651359040E-4
    6.9555980745870E-4
    7.1045183583983E-4
    7.2537265359221E-4
    7.4032231567624E-4
    7.5530087715449E-4
    7.7030839319191E-4
    7.8534491905595E-4
    8.0041051011679E-4
    8.1550522184749E-4
    8.3062910982419E-4
    8.4578222972627E-4
    8.6096463733655E-4
    8.7617638854145E-4
    8.9141753933121E-4
    9.0668814580003E-4
    9.2198826414625E-4
    9.3731795067258E-4
    9.5267726178623E-4
    9.6806625399912E-4
    9.8348498392806E-4
    9.9893350829494E-4
    1.0144118839269E-3
    1.0299201677564E-3
    1.0454584168218E-3
    1.0610266882670E-3
    1.0766250393420E-3
    1.0922535274029E-3
    1.1079122099123E-3
    1.1236011444392E-3
    1.1393203886594E-3
    1.1550700003557E-3
    1.1708500374178E-3
    1.1866605578428E-3
    1.2025016197353E-3
    1.2183732813076E-3
    1.2342756008797E-3
    1.2502086368797E-3
    1.2661724478440E-3
    1.2821670924174E-3
    1.2981926293532E-3
    1.3142491175135E-3
    1.3303366158695E-3
    1.3464551835015E-3
    1.3626048795991E-3
    1.3787857634616E-3
    1.3949978944978E-3
    1.4112413322266E-3
    1.4275161362770E-3
    1.4438223663883E-3
    1.4601600824103E-3
    1.4765293443035E-3
    1.4929302121391E-3
    1.5093627460997E-3
    1.5258270064790E-3
    1.5423230536820E-3
    1.5588509482257E-3
    1.5754107507387E-3
    1.5920025219617E-3
    1.6086263227475E-3
    1.6252822140617E-3
    1.6419702569820E-3
    1.6586905126994E-3
    1.6754430425176E-3
    1.6922279078536E-3
    1.7090451702378E-3
    1.7258948913143E-3
    1.7427771328408E-3
    1.7596919566890E-3
    1.7766394248450E-3
    1.7936195994091E-3
    1.8106325425961E-3
    1.8276783167359E-3
    1.8447569842730E-3
    1.8618686077673E-3
    1.8790132498940E-3
    1.8961909734438E-3
    1.9134018413233E-3
    1.9306459165550E-3
    1.9479232622775E-3
    1.9652339417459E-3
    1.9825780183318E-3
    1.9999555555235E-3
    2.0173666169262E-3
    2.0348112662626E-3
    2.0522895673724E-3
    2.0698015842131E-3
    2.0873473808598E-3
    2.1049270215056E-3
    2.1225405704620E-3
    2.1401880921585E-3
    2.1578696511435E-3
    2.1755853120840E-3
    2.1933351397660E-3
    2.2111191990948E-3
    2.2289375550949E-3
    2.2467902729106E-3
    2.2646774178058E-3
    2.2825990551647E-3
    2.3005552504913E-3
    2.3185460694103E-3
    2.3365715776670E-3
    2.3546318411275E-3
    2.3727269257788E-3
    2.3908568977293E-3
    2.4090218232088E-3
    2.4272217685687E-3
    2.4454568002823E-3
    2.4637269849450E-3
    2.4820323892744E-3
    2.5003730801106E-3
    2.5187491244165E-3
    2.5371605892778E-3
    2.5556075419032E-3
    2.5740900496250E-3
    2.5926081798987E-3
    2.6111620003039E-3
    2.6297515785437E-3
    2.6483769824458E-3
    2.6670382799621E-3
    2.6857355391689E-3
    2.7044688282675E-3
    2.7232382155841E-3
    2.7420437695703E-3
    2.7608855588030E-3
    2.7797636519845E-3
    2.7986781179434E-3
    2.8176290256340E-3
    2.8366164441371E-3
    2.8556404426599E-3
    2.8747010905364E-3
    2.8937984572273E-3
    2.9129326123206E-3
    2.9321036255317E-3
    2.9513115667034E-3
    2.9705565058065E-3
    2.9898385129395E-3
    3.0091576583293E-3
    3.0285140123313E-3
    3.0479076454293E-3
    3.0673386282363E-3
    3.0868070314941E-3
    3.1063129260737E-3
    3.1258563829761E-3
    3.1454374733315E-3
    3.1650562684003E-3
    3.1847128395731E-3
    3.2044072583709E-3
    3.2241395964450E-3
    3.2439099255780E-3
    3.2637183176831E-3
    3.2835648448052E-3
    3.3034495791202E-3
    3.3233725929361E-3
    3.3433339586927E-3
    3.3633337489619E-3
    3.3833720364479E-3
    3.4034488939878E-3
    3.4235643945512E-3
    3.4437186112408E-3
    3.4639116172927E-3
    3.4841434860763E-3
    3.5044142910948E-3
    3.5247241059854E-3
    3.5450730045193E-3
    3.5654610606022E-3
    3.5858883482743E-3
    3.6063549417106E-3
    3.6268609152214E-3
    3.6474063432519E-3
    3.6679913003832E-3
    3.6886158613318E-3
    3.7092801009503E-3
    3.7299840942274E-3
    3.7507279162884E-3
    3.7715116423950E-3
    3.7923353479459E-3
    3.8131991084768E-3
    3.8341029996608E-3
    3.8550470973086E-3
    3.8760314773684E-3
    3.8970562159267E-3
    3.9181213892082E-3
    3.9392270735757E-3
    3.9603733455312E-3
    3.9815602817154E-3
    4.0027879589080E-3
    4.0240564540283E-3
    4.0453658441350E-3
    4.0667162064270E-3
    4.0881076182428E-3
    4.1095401570617E-3
    4.1310139005031E-3
    4.1525289263274E-3
    4.1740853124361E-3
    4.1956831368716E-3
    4.2173224778180E-3
    4.2390034136012E-3
    4.2607260226889E-3
    4.2824903836908E-3
    4.3042965753594E-3
    4.3261446765894E-3
    4.3480347664188E-3
    4.3699669240284E-3
    4.3919412287425E-3
    4.4139577600288E-3
    4.4360165974992E-3
    4.4581178209091E-3
    4.4802615101588E-3
    4.5024477452926E-3
    4.5246766064998E-3
    4.5469481741148E-3
    4.5692625286170E-3
    4.5916197506315E-3
    4.6140199209290E-3
    4.6364631204262E-3
    4.6589494301858E-3
    4.6814789314174E-3
    4.7040517054767E-3
    4.7266678338667E-3
    4.7493273982375E-3
    4.7720304803865E-3
    4.7947771622587E-3
    4.8175675259471E-3
    4.8404016536927E-3
    4.8632796278851E-3
    4.8862015310621E-3
    4.9091674459107E-3
    4.9321774552668E-3
    4.9552316421158E-3
    4.9783300895923E-3
    5.0014728809812E-3
    5.0246600997171E-3
    5.0478918293851E-3
    5.0711681537207E-3
    5.0944891566103E-3
    5.1178549220913E-3
    5.1412655343523E-3
    5.1647210777336E-3
    5.1882216367272E-3
    5.2117672959770E-3
    5.2353581402793E-3
    5.2589942545828E-3
    5.2826757239892E-3
    5.3064026337529E-3
    5.3301750692817E-3
    5.3539931161369E-3
    5.3778568600335E-3
    5.4017663868406E-3
    5.4257217825814E-3
    5.4497231334338E-3
    5.4737705257301E-3
    5.4978640459580E-3
    5.5220037807601E-3
    5.5461898169347E-3
    5.5704222414358E-3
    5.5947011413734E-3
    5.6190266040136E-3
    5.6433987167792E-3
    5.6678175672496E-3
    5.6922832431614E-3
    5.7167958324081E-3
    5.7413554230410E-3
    5.7659621032692E-3
    5.7906159614594E-3
    5.8153170861371E-3
    5.8400655659858E-3
    5.8648614898483E-3
    5.8897049467258E-3
    5.9145960257794E-3
    5.9395348163294E-3
    5.9645214078558E-3
    5.9895558899989E-3
    6.0146383525590E-3
    6.0397688854974E-3
    6.0649475789357E-3
    6.0901745231568E-3
    6.1154498086051E-3
    6.1407735258862E-3
    6.1661457657678E-3
    6.1915666191797E-3
    6.2170361772139E-3
    6.2425545311250E-3
    6.2681217723307E-3
    6.2937379924115E-3
    6.3194032831116E-3
    6.3451177363387E-3
    6.3708814441643E-3
    6.3966944988242E-3
    6.4225569927186E-3
    6.4484690184124E-3
    6.4744306686353E-3
    6.5004420362824E-3
    6.5265032144141E-3
    6.5526142962567E-3
    6.5787753752023E-3
    6.6049865448093E-3
    6.6312478988028E-3
    6.6575595310744E-3
    6.6839215356828E-3
    6.7103340068542E-3
    6.7367970389821E-3
    6.7633107266280E-3
    6.7898751645213E-3
    6.8164904475601E-3
    6.8431566708108E-3
    6.8698739295087E-3
    6.8966423190585E-3
    6.9234619350339E-3
    6.9503328731788E-3
    6.9772552294065E-3
    7.0042290998009E-3
    7.0312545806163E-3
    7.0583317682776E-3
    7.0854607593809E-3
    7.1126416506933E-3
    7.1398745391537E-3
    7.1671595218728E-3
    7.1944966961333E-3
    7.2218861593901E-3
    7.2493280092710E-3
    7.2768223435765E-3
    7.3043692602803E-3
    7.3319688575295E-3
    7.3596212336450E-3
    7.3873264871216E-3
    7.4150847166281E-3
    7.4428960210083E-3
    7.4707604992802E-3
    7.4986782506373E-3
    7.5266493744481E-3
    7.5546739702570E-3
    7.5827521377839E-3
    7.6108839769251E-3
    7.6390695877532E-3
    7.6673090705174E-3
    7.6956025256440E-3
    7.7239500537364E-3
    7.7523517555756E-3
    7.7808077321201E-3
    7.8093180845068E-3
    7.8378829140508E-3
    7.8665023222455E-3
    7.8951764107635E-3
    7.9239052814565E-3
    7.9526890363555E-3
    7.9815277776711E-3
    8.0104216077941E-3
    8.0393706292954E-3
    8.0683749449264E-3
    8.0974346576193E-3
    8.1265498704873E-3
    8.1557206868252E-3
    8.1849472101092E-3
    8.2142295439973E-3
    8.2435677923299E-3
    8.2729620591298E-3
    8.3024124486024E-3
    8.3319190651362E-3
    8.3614820133030E-3
    8.3911013978582E-3
    8.4207773237409E-3
    8.4505098960744E-3
    8.4802992201664E-3
    8.5101454015094E-3
    8.5400485457807E-3
    8.5700087588428E-3
    8.6000261467439E-3
    8.6301008157178E-3
    8.6602328721847E-3
    8.6904224227508E-3
    8.7206695742092E-3
    8.7509744335398E-3
    8.7813371079097E-3
    8.8117577046735E-3
    8.8422363313737E-3
    8.8727730957408E-3
    8.9033681056935E-3
    8.9340214693393E-3
    8.9647332949745E-3
    8.9955036910846E-3
    9.0263327663446E-3
    9.0572206296192E-3
    9.0881673899633E-3
    9.1191731566220E-3
    9.1502380390309E-3
    9.1813621468167E-3
    9.2125455897973E-3
    9.2437884779817E-3
    9.2750909215712E-3
    9.3064530309587E-3
    9.3378749167295E-3
    9.3693566896618E-3
    9.4008984607263E-3
    9.4325003410872E-3
    9.4641624421018E-3
    9.4958848753217E-3
    9.5276677524919E-3
    9.5595111855523E-3
    9.5914152866372E-3
    9.6233801680756E-3
    9.6554059423920E-3
    9.6874927223062E-3
    9.7196406207340E-3
    9.7518497507869E-3
    9.7841202257731E-3
    9.8164521591972E-3
    9.8488456647609E-3
    9.8813008563630E-3
    9.9138178480998E-3
    9.9463967542656E-3
    9.9790376893525E-3
    1.0011740768051E-2
    1.0044506105251E-2
    1.0077333816040E-2
    1.0110224015706E-2
    1.0143176819736E-2
    1.0176192343817E-2
    1.0209270703836E-2
    1.0242412015880E-2
    1.0275616396237E-2
    1.0308883961397E-2
    1.0342214828051E-2
    1.0375609113089E-2
    1.0409066933607E-2
    1.0442588406899E-2
    1.0476173650466E-2
    1.0509822782008E-2
    1.0543535919429E-2
    1.0577313180838E-2
    1.0611154684546E-2
    1.0645060549068E-2
    1.0679030893124E-2
    1.0713065835637E-2
    1.0747165495738E-2
    1.0781329992760E-2
    1.0815559446242E-2
    1.0849853975930E-2
    1.0884213701775E-2
    1.0918638743934E-2
    1.0953129222772E-2
    1.0987685258860E-2
    1.1022306972975E-2
    1.1056994486104E-2
    1.1091747919441E-2
    1.1126567394386E-2
    1.1161453032549E-2
    1.1196404955750E-2
    1.1231423286016E-2
    1.1266508145584E-2
    1.1301659656900E-2
    1.1336877942621E-2
    1.1372163125614E-2
    1.1407515328954E-2
    1.1442934675931E-2
    1.1478421290042E-2
    1.1513975294998E-2
    1.1549596814721E-2
    1.1585285973345E-2
    1.1621042895216E-2
    1.1656867704892E-2
    1.1692760527145E-2
    1.1728721486959E-2
    1.1764750709533E-2
    1.1800848320279E-2
    1.1837014444822E-2
    1.1873249209003E-2
    1.1909552738878E-2
    1.1945925160714E-2
    1.1982366600999E-2
    1.2018877186433E-2
    1.2055457043932E-2
    1.2092106300630E-2
    1.2128825083875E-2
    1.2165613521233E-2
    1.2202471740489E-2
    1.2239399869642E-2
    1.2276398036910E-2
    1.2313466370730E-2
    1.2350604999756E-2
    1.2387814052862E-2
    1.2425093659138E-2
    1.2462443947897E-2
    1.2499865048669E-2
    1.2537357091205E-2
    1.2574920205474E-2
    1.2612554521669E-2
    1.2650260170200E-2
    1.2688037281700E-2
    1.2725885987024E-2
    1.2763806417246E-2
    1.2801798703665E-2
    1.2839862977800E-2
    1.2877999371393E-2
    1.2916208016411E-2
    1.2954489045040E-2
    1.2992842589693E-2
    1.3031268783005E-2
    1.3069767757835E-2
    1.3108339647269E-2
    1.3146984584613E-2
    1.3185702703403E-2
    1.3224494137396E-2
    1.3263359020577E-2
    1.3302297487156E-2
    1.3341309671570E-2
    1.3380395708482E-2
    1.3419555732782E-2
    1.3458789879586E-2
    1.3498098284239E-2
    1.3537481082313E-2
    1.3576938409608E-2
    1.3616470402152E-2
    1.3656077196204E-2
    1.3695758928247E-2
    1.3735515734999E-2
    1.3775347753403E-2
    1.3815255120635E-2
    1.3855237974099E-2
    1.3895296451431E-2
    1.3935430690497E-2
    1.3975640829394E-2
    1.4015927006451E-2
    1.4056289360228E-2
    1.4096728029518E-2
    1.4137243153345E-2
    1.4177834870967E-2
    1.4218503321874E-2
    1.4259248645789E-2
    1.4300070982671E-2
    1.4340970472709E-2
    1.4381947256329E-2
    1.4423001474191E-2
    1.4464133267189E-2
    1.4505342776452E-2
    1.4546630143346E-2
    1.4587995509471E-2
    1.4629439016664E-2
    1.4670960806998E-2
    1.4712561022782E-2
    1.4754239806563E-2
    1.4795997301125E-2
    1.4837833649489E-2
    1.4879748994915E-2
    1.4921743480899E-2
    1.4963817251179E-2
    1.5005970449728E-2
    1.5048203220761E-2
    1.5090515708731E-2
    1.5132908058330E-2
    1.5175380414492E-2
    1.5217932922390E-2
    1.5260565727438E-2
    1.5303278975291E-2
    1.5346072811846E-2
    1.5388947383239E-2
    1.5431902835851E-2
    1.5474939316303E-2
    1.5518056971461E-2
    1.5561255948430E-2
    1.5604536394562E-2
    1.5647898457450E-2
    1.5691342284931E-2
    1.5734868025087E-2
    1.5778475826245E-2
    1.5822165836973E-2
    1.5865938206088E-2
    1.5909793082651E-2
    1.5953730615967E-2
    1.5997750955590E-2
    1.6041854251317E-2
    1.6086040653194E-2
    1.6130310311512E-2
    1.6174663376810E-2
    1.6219099999874E-2
    1.6263620331740E-2
    1.6308224523687E-2
    1.6352912727249E-2
    1.6397685094202E-2
    1.6442541776576E-2
    1.6487482926648E-2
    1.6532508696946E-2
    1.6577619240245E-2
    1.6622814709574E-2
    1.6668095258209E-2
    1.6713461039680E-2
    1.6758912207766E-2
    1.6804448916499E-2
    1.6850071320160E-2
    1.6895779573286E-2
    1.6941573830663E-2
    1.6987454247331E-2
    1.7033420978584E-2
    1.7079474179968E-2
    1.7125614007282E-2
    1.7171840616580E-2
    1.7218154164171E-2
    1.7264554806616E-2
    1.7311042700734E-2
    1.7357618003596E-2
    1.7404280872532E-2
    1.7451031465123E-2
    1.7497869939211E-2
    1.7544796452891E-2
    1.7591811164516E-2
    1.7638914232697E-2
    1.7686105816299E-2
    1.7733386074448E-2
    1.7780755166527E-2
    1.7828213252175E-2
    1.7875760491293E-2
    1.7923397044039E-2
    1.7971123070830E-2
    1.8018938732342E-2
    1.8066844189512E-2
    1.8114839603537E-2
    1.8162925135873E-2
    1.8211100948237E-2
    1.8259367202610E-2
    1.8307724061229E-2
    1.8356171686596E-2
    1.8404710241475E-2
    1.8453339888891E-2
    1.8502060792131E-2
    1.8550873114746E-2
    1.8599777020551E-2
    1.8648772673622E-2
    1.8697860238299E-2
    1.8747039879189E-2
    1.8796311761159E-2
    1.8845676049344E-2
    1.8895132909142E-2
    1.8944682506218E-2
    1.8994325006500E-2
    1.9044060576184E-2
    1.9093889381732E-2
    1.9143811589870E-2
    1.9193827367594E-2
    1.9243936882166E-2
    1.9294140301113E-2
    1.9344437792233E-2
    1.9394829523591E-2
    1.9445315663518E-2
    1.9495896380616E-2
    1.9546571843756E-2
    1.9597342222077E-2
    1.9648207684987E-2
    1.9699168402165E-2
    1.9750224543559E-2
    1.9801376279389E-2
    1.9852623780143E-2
    1.9903967216583E-2
    1.9955406759739E-2
    2.0006942580916E-2
    2.0058574851688E-2
    2.0110303743903E-2
    2.0162129429680E-2
    2.0214052081412E-2
    2.0266071871765E-2
    2.0318188973676E-2
    2.0370403560358E-2
    2.0422715805299E-2
    2.0475125882258E-2
    2.0527633965270E-2
    2.0580240228646E-2
    2.0632944846971E-2
    2.0685747995105E-2
    2.0738649848183E-2
    2.0791650581620E-2
    2.0844750371102E-2
    2.0897949392594E-2
    2.0951247822340E-2
    2.1004645836858E-2
    2.1058143612944E-2
    2.1111741327674E-2
    2.1165439158399E-2
    2.1219237282750E-2
    2.1273135878636E-2
    2.1327135124247E-2
    2.1381235198049E-2
    2.1435436278790E-2
    2.1489738545497E-2
    2.1544142177477E-2
    2.1598647354317E-2
    2.1653254255885E-2
    2.1707963062331E-2
    2.1762773954084E-2
    2.1817687111857E-2
    2.1872702716644E-2
    2.1927820949720E-2
    2.1983041992644E-2
    2.2038366027257E-2
    2.2093793235683E-2
    2.2149323800329E-2
    2.2204957903886E-2
    2.2260695729329E-2
    2.2316537459916E-2
    2.2372483279192E-2
    2.2428533370983E-2
    2.2484687919404E-2
    2.2540947108852E-2
    2.2597311124012E-2
    2.2653780149853E-2
    2.2710354371631E-2
    2.2767033974887E-2
    2.2823819145453E-2
    2.2880710069442E-2
    2.2937706933259E-2
    2.2994809923594E-2
    2.3052019227427E-2
    2.3109335032023E-2
    2.3166757524937E-2
    2.3224286894014E-2
    2.3281923327387E-2
    2.3339667013477E-2
    2.3397518140995E-2
    2.3455476898944E-2
    2.3513543476613E-2
    2.3571718063586E-2
    2.3630000849734E-2
    2.3688392025220E-2
    2.3746891780499E-2
    2.3805500306316E-2
    2.3864217793709E-2
    2.3923044434007E-2
    2.3981980418833E-2
    2.4041025940099E-2
    2.4100181190014E-2
    2.4159446361077E-2
    2.4218821646082E-2
    2.4278307238115E-2
    2.4337903330559E-2
    2.4397610117088E-2
    2.4457427791672E-2
    2.4517356548574E-2
    2.4577396582355E-2
    2.4637548087869E-2
    2.4697811260265E-2
    2.4758186294989E-2
    2.4818673387784E-2
    2.4879272734688E-2
    2.4939984532034E-2
    2.5000808976455E-2
    2.5061746264879E-2
    2.5122796594532E-2
    2.5183960162938E-2
    2.5245237167918E-2
    2.5306627807591E-2
    2.5368132280377E-2
    2.5429750784991E-2
    2.5491483520449E-2
    2.5553330686066E-2
    2.5615292481457E-2
    2.5677369106534E-2
    2.5739560761512E-2
    2.5801867646906E-2
    2.5864289963530E-2
    2.5926827912498E-2
    2.5989481695229E-2
    2.6052251513438E-2
    2.6115137569145E-2
    2.6178140064672E-2
    2.6241259202640E-2
    2.6304495185975E-2
    2.6367848217904E-2
    2.6431318501959E-2
    2.6494906241971E-2
    2.6558611642078E-2
    2.6622434906720E-2
    2.6686376240640E-2
    2.6750435848886E-2
    2.6814613936811E-2
    2.6878910710071E-2
    2.6943326374627E-2
    2.7007861136746E-2
    2.7072515202998E-2
    2.7137288780262E-2
    2.7202182075719E-2
    2.7267195296858E-2
    2.7332328651473E-2
    2.7397582347667E-2
    2.7462956593847E-2
    2.7528451598727E-2
    2.7594067571329E-2
    2.7659804720984E-2
    2.7725663257327E-2
    2.7791643390303E-2
    2.7857745330166E-2
    2.7923969287476E-2
    2.7990315473102E-2
    2.8056784098225E-2
    2.8123375374330E-2
    2.8190089513214E-2
    2.8256926726984E-2
    2.8323887228056E-2
    2.8390971229155E-2
    2.8458178943318E-2
    2.8525510583890E-2
    2.8592966364528E-2
    2.8660546499201E-2
    2.8728251202187E-2
    2.8796080688077E-2
    2.8864035171771E-2
    2.8932114868484E-2
    2.9000319993740E-2
    2.9068650763377E-2
    2.9137107393544E-2
    2.9205690100705E-2
    2.9274399101634E-2
    2.9343234613419E-2
    2.9412196853462E-2
    2.9481286039479E-2
    2.9550502389497E-2
    2.9619846121859E-2
    2.9689317455221E-2
    2.9758916608556E-2
    2.9828643801147E-2
    2.9898499252595E-2
    2.9968483182815E-2
    3.0038595812038E-2
    3.0108837360809E-2
    3.0179208049988E-2
    3.0249708100753E-2
    3.0320337734597E-2
    3.0391097173329E-2
    3.0461986639073E-2
    3.0533006354272E-2
    3.0604156541684E-2
    3.0675437424385E-2
    3.0746849225768E-2
    3.0818392169542E-2
    3.0890066479736E-2
    3.0961872380693E-2
    3.1033810097079E-2
    3.1105879853873E-2
    3.1178081876377E-2
    3.1250416390207E-2
    3.1322883621301E-2
    3.1395483795914E-2
    3.1468217140621E-2
    3.1541083882316E-2
    3.1614084248213E-2
    3.1687218465845E-2
    3.1760486763063E-2
    3.1833889368042E-2
    3.1907426509274E-2
    3.1981098415573E-2
    3.2054905316071E-2
    3.2128847440224E-2
    3.2202925017806E-2
    3.2277138278915E-2
    3.2351487453968E-2
    3.2425972773702E-2
    3.2500594469180E-2
    3.2575352771783E-2
    3.2650247913215E-2
    3.2725280125502E-2
    3.2800449640993E-2
    3.2875756692358E-2
    3.2951201512590E-2
    3.3026784335005E-2
    3.3102505393242E-2
    3.3178364921263E-2
    3.3254363153352E-2
    3.3330500324118E-2
    3.3406776668493E-2
    3.3483192421732E-2
    3.3559747819415E-2
    3.3636443097444E-2
    3.3713278492046E-2
    3.3790254239774E-2
    3.3867370577503E-2
    3.3944627742434E-2
    3.4022025972091E-2
    3.4099565504325E-2
    3.4177246577311E-2
    3.4255069429548E-2
    3.4333034299863E-2
    3.4411141427405E-2
    3.4489391051651E-2
    3.4567783412404E-2
    3.4646318749790E-2
    3.4724997304263E-2
    3.4803819316603E-2
    3.4882785027917E-2
    3.4961894679635E-2
    3.5041148513518E-2
    3.5120546771649E-2
    3.5200089696442E-2
    3.5279777530635E-2
    3.5359610517294E-2
    3.5439588899812E-2
    3.5519712921908E-2
    3.5599982827631E-2
    3.5680398861354E-2
    3.5760961267781E-2
    3.5841670291940E-2
    3.5922526179191E-2
    3.6003529175218E-2
    3.6084679526035E-2
    3.6165977477984E-2
    3.6247423277735E-2
    3.6329017172285E-2
    3.6410759408962E-2
    3.6492650235421E-2
    3.6574689899645E-2
    3.6656878649946E-2
    3.6739216734967E-2
    3.6821704403676E-2
    3.6904341905373E-2
    3.6987129489687E-2
    3.7070067406574E-2
    3.7153155906320E-2
    3.7236395239543E-2
    3.7319785657188E-2
    3.7403327410528E-2
    3.7487020751170E-2
    3.7570865931046E-2
    3.7654863202421E-2
    3.7739012817888E-2
    3.7823315030371E-2
    3.7907770093124E-2
    3.7992378259731E-2
    3.8077139784105E-2
    3.8162054920489E-2
    3.8247123923459E-2
    3.8332347047919E-2
    3.8417724549104E-2
    3.8503256682580E-2
    3.8588943704241E-2
    3.8674785870315E-2
    3.8760783437359E-2
    3.8846936662260E-2
    3.8933245802238E-2
    3.9019711114841E-2
    3.9106332857949E-2
    3.9193111289774E-2
    3.9280046668857E-2
    3.9367139254072E-2
    3.9454389304622E-2
    3.9541797080042E-2
    3.9629362840198E-2
    3.9717086845288E-2
    3.9804969355839E-2
    3.9893010632712E-2
    3.9981210937097E-2
    4.0069570530517E-2
    4.0158089674823E-2
    4.0246768632202E-2
