release/datafiles/colormanagement/filmic/filmic_to_1.20_1-00.spi1d
Version 1
From 0.000000 1.000000
Length 4096
Components 1
{
    0.0000000000000E+0
    8.1846712034145E-7
    1.6396799073310E-6
    2.4636475671941E-6
    3.2903793369937E-6
    4.1198844847345E-6
    4.9521723094657E-6
    5.7872521413850E-6
    6.6251333419427E-6
    7.4658253039461E-6
    8.3093374516645E-6
    9.1556792409342E-6
    1.0004860159264E-5
    1.0856889725942E-5
    1.1711777492139E-5
    1.2569533041020E-5
    1.3430165987846E-5
    1.4293685980083E-5
    1.5160102697512E-5
    1.6029425852335E-5
    1.6901665189281E-5
    1.7776830485722E-5
    1.8654931551772E-5
    1.9535978230405E-5
    2.0419980397561E-5
    2.1306947962257E-5
    2.2196890866696E-5
    2.3089819086381E-5
    2.3985742630222E-5
    2.4884671540654E-5
    2.5786615893742E-5
    2.6691585799298E-5
    2.7599591400991E-5
    2.8510642876464E-5
    2.9424750437442E-5
    3.0341924329852E-5
    3.1262174833931E-5
    3.2185512264348E-5
    3.3111946970310E-5
    3.4041489335687E-5
    3.4974149779120E-5
    3.5909938754141E-5
    3.6848866749290E-5
    3.7790944288231E-5
    3.8736181929867E-5
    3.9684590268462E-5
    4.0636179933757E-5
    4.1590961591089E-5
    4.2548945941508E-5
    4.3510143721899E-5
    4.4474565705100E-5
    4.5442222700025E-5
    4.6413125551780E-5
    4.7387285141786E-5
    4.8364712387902E-5
    4.9345418244545E-5
    5.0329413702812E-5
    5.1316709790601E-5
    5.2307317572740E-5
    5.3301248151103E-5
    5.4298512664739E-5
    5.5299122289991E-5
    5.6303088240627E-5
    5.7310421767960E-5
    5.8321134160977E-5
    5.9335236746460E-5
    6.0352740889117E-5
    6.1373657991707E-5
    6.2397999495166E-5
    6.3425776878737E-5
    6.4457001660095E-5
    6.5491685395477E-5
    6.6529839679812E-5
    6.7571476146846E-5
    6.8616606469277E-5
    6.9665242358881E-5
    7.0717395566646E-5
    7.1773077882897E-5
    7.2832301137436E-5
    7.3895077199666E-5
    7.4961417978727E-5
    7.6031335423630E-5
    7.7104841523384E-5
    7.8181948307139E-5
    7.9262667844310E-5
    8.0347012244720E-5
    8.1434993658730E-5
    8.2526624277373E-5
    8.3621916332497E-5
    8.4720882096892E-5
    8.5823533884434E-5
    8.6929884050220E-5
    8.8039944990703E-5
    8.9153729143832E-5
    9.0271248989194E-5
    9.1392517048146E-5
    9.2517545883961E-5
    9.3646348101962E-5
    9.4778936349668E-5
    9.5915323316931E-5
    9.7055521736080E-5
    9.8199544382059E-5
    9.9347404072575E-5
    1.0049911366823E-4
    1.0165468607269E-4
    1.0281413423279E-4
    1.0397747113870E-4
    1.0514470982408E-4
    1.0631586336620E-4
    1.0749094488612E-4
    1.0866996754879E-4
    1.0985294456324E-4
    1.1103988918269E-4
    1.1223081470473E-4
    1.1342573447146E-4
    1.1462466186961E-4
    1.1582761033073E-4
    1.1703459333132E-4
    1.1824562439298E-4
    1.1946071708254E-4
    1.2067988501227E-4
    1.2190314183997E-4
    1.2313050126915E-4
    1.2436197704918E-4
    1.2559758297545E-4
    1.2683733288949E-4
    1.2808124067917E-4
    1.2932932027884E-4
    1.3058158566946E-4
    1.3183805087878E-4
    1.3309872998150E-4
    1.3436363709941E-4
    1.3563278640155E-4
    1.3690619210437E-4
    1.3818386847191E-4
    1.3946582981592E-4
    1.4075209049603E-4
    1.4204266491995E-4
    1.4333756754355E-4
    1.4463681287113E-4
    1.4594041545546E-4
    1.4724838989803E-4
    1.4856075084920E-4
    1.4987751300831E-4
    1.5119869112391E-4
    1.5252429999389E-4
    1.5385435446563E-4
    1.5518886943620E-4
    1.5652785985252E-4
    1.5787134071150E-4
    1.5921932706023E-4
    1.6057183399613E-4
    1.6192887666714E-4
    1.6329047027187E-4
    1.6465663005979E-4
    1.6602737133136E-4
    1.6740270943824E-4
    1.6878265978346E-4
    1.7016723782155E-4
    1.7155645905875E-4
    1.7295033905318E-4
    1.7434889341498E-4
    1.7575213780655E-4
    1.7716008794264E-4
    1.7857275959058E-4
    1.7999016857045E-4
    1.8141233075525E-4
    1.8283926207105E-4
    1.8427097849722E-4
    1.8570749606656E-4
    1.8714883086551E-4
    1.8859499903429E-4
    1.9004601676714E-4
    1.9150190031245E-4
    1.9296266597294E-4
    1.9442833010587E-4
    1.9589890912322E-4
    1.9737441949183E-4
    1.9885487773365E-4
    2.0034030042586E-4
    2.0183070420109E-4
    2.0332610574759E-4
    2.0482652180943E-4
    2.0633196918668E-4
    2.0784246473557E-4
    2.0935802536874E-4
    2.1087866805536E-4
    2.1240440982135E-4
    2.1393526774958E-4
    2.1547125898002E-4
    2.1701240070999E-4
    2.1855871019430E-4
    2.2011020474545E-4
    2.2166690173385E-4
    2.2322881858798E-4
    2.2479597279460E-4
    2.2636838189896E-4
    2.2794606350494E-4
    2.2952903527532E-4
    2.3111731493190E-4
    2.3271092025578E-4
    2.3430986908747E-4
    2.3591417932715E-4
    2.3752386893486E-4
    2.3913895593065E-4
    2.4075945839487E-4
    2.4238539446826E-4
    2.4401678235227E-4
    2.4565364030915E-4
    2.4729598666224E-4
    2.4894383979613E-4
    2.5059721815685E-4
    2.5225614025213E-4
    2.5392062465154E-4
    2.5559068998676E-4
    2.5726635495173E-4
    2.5894763830290E-4
    2.6063455885939E-4
    2.6232713550327E-4
    2.6402538717970E-4
    2.6572933289717E-4
    2.6743899172772E-4
    2.6915438280714E-4
    2.7087552533517E-4
    2.7260243857574E-4
    2.7433514185716E-4
    2.7607365457235E-4
    2.7781799617906E-4
    2.7956818620004E-4
    2.8132424422332E-4
    2.8308618990239E-4
    2.8485404295643E-4
    2.8662782317052E-4
    2.8840755039587E-4
    2.9019324455001E-4
    2.9198492561708E-4
    2.9378261364797E-4
    2.9558632876058E-4
    2.9739609114006E-4
    2.9921192103901E-4
    3.0103383877770E-4
    3.0286186474431E-4
    3.0469601939515E-4
    3.0653632325489E-4
    3.0838279691678E-4
    3.1023546104290E-4
    3.1209433636434E-4
    3.1395944368150E-4
    3.1583080386424E-4
    3.1770843785220E-4
    3.1959236665494E-4
    3.2148261135225E-4
    3.2337919309434E-4
    3.2528213310209E-4
    3.2719145266726E-4
    3.2910717315277E-4
    3.3102931599292E-4
    3.3295790269359E-4
    3.3489295483252E-4
    3.3683449405957E-4
    3.3878254209687E-4
    3.4073712073916E-4
    3.4269825185398E-4
    3.4466595738191E-4
    3.4664025933684E-4
    3.4862117980617E-4
    3.5060874095112E-4
    3.5260296500691E-4
    3.5460387428305E-4
    3.5661149116355E-4
    3.5862583810721E-4
    3.6064693764782E-4
    3.6267481239448E-4
    3.6470948503175E-4
    3.6675097832001E-4
    3.6879931509562E-4
    3.7085451827123E-4
    3.7291661083602E-4
    3.7498561585593E-4
    3.7706155647395E-4
    3.7914445591035E-4
    3.8123433746297E-4
    3.8333122450742E-4
    3.8543514049741E-4
    3.8754610896494E-4
    3.8966415352061E-4
    3.9178929785388E-4
    3.9392156573328E-4
    3.9606098100673E-4
    3.9820756760179E-4
    4.0036134952590E-4
    4.0252235086667E-4
    4.0469059579215E-4
    4.0686610855106E-4
    4.0904891347312E-4
    4.1123903496924E-4
    4.1343649753187E-4
    4.1564132573522E-4
    4.1785354423553E-4
    4.2007317777139E-4
    4.2230025116395E-4
    4.2453478931724E-4
    4.2677681721843E-4
    4.2902635993810E-4
    4.3128344263053E-4
    4.3354809053396E-4
    4.3582032897091E-4
    4.3810018334839E-4
    4.4038767915824E-4
    4.4268284197740E-4
    4.4498569746817E-4
    4.4729627137851E-4
    4.4961458954232E-4
    4.5194067787975E-4
    4.5427456239742E-4
    4.5661626918879E-4
    4.5896582443439E-4
    4.6132325440214E-4
    4.6368858544761E-4
    4.6606184401435E-4
    4.6844305663413E-4
    4.7083224992730E-4
    4.7322945060302E-4
    4.7563468545960E-4
    4.7804798138475E-4
    4.8046936535594E-4
    4.8289886444064E-4
    4.8533650579664E-4
    4.8778231667236E-4
    4.9023632440714E-4
    4.9269855643153E-4
    4.9516904026761E-4
    4.9764780352930E-4
    5.0013487392265E-4
    5.0263027924613E-4
    5.0513404739097E-4
    5.0764620634146E-4
    5.1016678417523E-4
    5.1269580906361E-4
    5.1523330927188E-4
    5.1777931315963E-4
    5.2033384918106E-4
    5.2289694588527E-4
    5.2546863191662E-4
    5.2804893601500E-4
    5.3063788701618E-4
    5.3323551385209E-4
    5.3584184555119E-4
    5.3845691123876E-4
    5.4108074013720E-4
    5.4371336156641E-4
    5.4635480494404E-4
    5.4900509978590E-4
    5.5166427570619E-4
    5.5433236241791E-4
    5.5700938973313E-4
    5.5969538756335E-4
    5.6239038591982E-4
    5.6509441491386E-4
    5.6780750475721E-4
    5.7052968576235E-4
    5.7326098834284E-4
    5.7600144301366E-4
    5.7875108039151E-4
    5.8150993119521E-4
    5.8427802624598E-4
    5.8705539646782E-4
    5.8984207288782E-4
    5.9263808663652E-4
    5.9544346894824E-4
    5.9825825116144E-4
    6.0108246471905E-4
    6.0391614116883E-4
    6.0675931216368E-4
    6.0961200946207E-4
    6.1247426492828E-4
    6.1534611053283E-4
    6.1822757835282E-4
    6.2111870057226E-4
    6.2401950948243E-4
    6.2693003748223E-4
    6.2985031707858E-4
    6.3278038088671E-4
    6.3572026163057E-4
    6.3866999214316E-4
    6.4162960536691E-4
    6.4459913435404E-4
    6.4757861226690E-4
    6.5056807237837E-4
    6.5356754807220E-4
    6.5657707284338E-4
    6.5959668029853E-4
    6.6262640415622E-4
    6.6566627824741E-4
    6.6871633651575E-4
    6.7177661301801E-4
    6.7484714192443E-4
    6.7792795751907E-4
    6.8101909420025E-4
    6.8412058648086E-4
    6.8723246898878E-4
    6.9035477646725E-4
    6.9348754377525E-4
    6.9663080588788E-4
    6.9978459789676E-4
    7.0294895501039E-4
    7.0612391255454E-4
    7.0930950597266E-4
    7.1250577082626E-4
    7.1571274279528E-4
    7.1893045767851E-4
    7.2215895139397E-4
    7.2539825997928E-4
    7.2864841959211E-4
    7.3190946651052E-4
    7.3518143713341E-4
    7.3846436798086E-4
    7.4175829569459E-4
    7.4506325703833E-4
    7.4837928889821E-4
    7.5170642828320E-4
    7.5504471232549E-4
    7.5839417828090E-4
    7.6175486352931E-4
    7.6512680557503E-4
    7.6851004204726E-4
    7.7190461070045E-4
    7.7531054941474E-4
    7.7872789619641E-4
    7.8215668917821E-4
    7.8559696661987E-4
    7.8904876690846E-4
    7.9251212855881E-4
    7.9598709021399E-4
    7.9947369064567E-4
    8.0297196875455E-4
    8.0648196357084E-4
    8.1000371425461E-4
    8.1353726009631E-4
    8.1708264051710E-4
    8.2063989506935E-4
    8.2420906343705E-4
    8.2779018543627E-4
    8.3138330101553E-4
    8.3498845025632E-4
    8.3860567337348E-4
    8.4223501071565E-4
    8.4587650276574E-4
    8.4953019014134E-4
    8.5319611359518E-4
    8.5687431401558E-4
    8.6056483242686E-4
    8.6426770998986E-4
    8.6798298800232E-4
    8.7171070789936E-4
    8.7545091125394E-4
    8.7920363977732E-4
    8.8296893531946E-4
    8.8674683986956E-4
    8.9053739555646E-4
    8.9434064464913E-4
    8.9815662955710E-4
    9.0198539283096E-4
    9.0582697716281E-4
    9.0968142538670E-4
    9.1354878047916E-4
    9.1742908555960E-4
    9.2132238389083E-4
    9.2522871887949E-4
    9.2914813407658E-4
    9.3308067317788E-4
    9.3702638002446E-4
    9.4098529860314E-4
    9.4495747304700E-4
    9.4894294763581E-4
    9.5294176679656E-4
    9.5695397510393E-4
    9.6097961728076E-4
    9.6501873819857E-4
    9.6907138287801E-4
    9.7313759648940E-4
    9.7721742435315E-4
    9.8131091194035E-4
    9.8541810487317E-4
    9.8953904892543E-4
    9.9367379002305E-4
    9.9782237424458E-4
    1.0019848478217E-3
    1.0061612571397E-3
    1.0103516487380E-3
    1.0145560693107E-3
    1.0187745657070E-3
    1.0230071849317E-3
    1.0272539741460E-3
    1.0315149806674E-3
    1.0357902519710E-3
    1.0400798356894E-3
    1.0443837796134E-3
    1.0487021316927E-3
    1.0530349400361E-3
    1.0573822529124E-3
    1.0617441187505E-3
    1.0661205861404E-3
    1.0705117038332E-3
    1.0749175207421E-3
    1.0793380859427E-3
    1.0837734486736E-3
    1.0882236583369E-3
    1.0926887644986E-3
    1.0971688168896E-3
    1.1016638654055E-3
    1.1061739601079E-3
    1.1106991512246E-3
    1.1152394891500E-3
    1.1197950244459E-3
    1.1243658078420E-3
    1.1289518902362E-3
    1.1335533226955E-3
    1.1381701564566E-3
    1.1428024429259E-3
    1.1474502336806E-3
    1.1521135804693E-3
    1.1567925352119E-3
    1.1614871500011E-3
    1.1661974771020E-3
    1.1709235689536E-3
    1.1756654781686E-3
    1.1804232575343E-3
    1.1851969600134E-3
    1.1899866387440E-3
    1.1947923470408E-3
    1.1996141383953E-3
    1.2044520664764E-3
    1.2093061851310E-3
    1.2141765483848E-3
    1.2190632104425E-3
    1.2239662256890E-3
    1.2288856486891E-3
    1.2338215341888E-3
    1.2387739371159E-3
    1.2437429125800E-3
    1.2487285158737E-3
    1.2537308024728E-3
    1.2587498280373E-3
    1.2637856484117E-3
    1.2688383196254E-3
    1.2739078978940E-3
    1.2789944396192E-3
    1.2840980013899E-3
    1.2892186399824E-3
    1.2943564123613E-3
    1.2995113756803E-3
    1.3046835872821E-3
    1.3098731046999E-3
    1.3150799856574E-3
    1.3203042880696E-3
    1.3255460700435E-3
    1.3308053898789E-3
    1.3360823060684E-3
    1.3413768772987E-3
    1.3466891624510E-3
    1.3520192206015E-3
    1.3573671110222E-3
    1.3627328931815E-3
    1.3681166267449E-3
    1.3735183715754E-3
    1.3789381877345E-3
    1.3843761354827E-3
    1.3898322752799E-3
    1.3953066677864E-3
    1.4007993738635E-3
    1.4063104545741E-3
    1.4118399711831E-3
    1.4173879851587E-3
    1.4229545581723E-3
    1.4285397520998E-3
    1.4341436290218E-3
    1.4397662512245E-3
    1.4454076812006E-3
    1.4510679816494E-3
    1.4567472154780E-3
    1.4624454458015E-3
    1.4681627359444E-3
    1.4738991494403E-3
    1.4796547500336E-3
    1.4854296016793E-3
    1.4912237685444E-3
    1.4970373150082E-3
    1.5028703056628E-3
    1.5087228053145E-3
    1.5145948789838E-3
    1.5204865919064E-3
    1.5263980095339E-3
    1.5323291975345E-3
    1.5382802217937E-3
    1.5442511484148E-3
    1.5502420437200E-3
    1.5562529742508E-3
    1.5622840067689E-3
    1.5683352082568E-3
    1.5744066459186E-3
    1.5804983871805E-3
    1.5866104996920E-3
    1.5927430513261E-3
    1.5988961101805E-3
    1.6050697445777E-3
    1.6112640230666E-3
    1.6174790144224E-3
    1.6237147876479E-3
    1.6299714119740E-3
    1.6362489568603E-3
    1.6425474919964E-3
    1.6488670873019E-3
    1.6552078129278E-3
    1.6615697392569E-3
    1.6679529369044E-3
    1.6743574767193E-3
    1.6807834297844E-3
    1.6872308674176E-3
    1.6936998611725E-3
    1.7001904828389E-3
    1.7067028044441E-3
    1.7132368982531E-3
    1.7197928367700E-3
    1.7263706927381E-3
    1.7329705391412E-3
    1.7395924492041E-3
    1.7462364963935E-3
    1.7529027544188E-3
    1.7595912972327E-3
    1.7663021990324E-3
    1.7730355342598E-3
    1.7797913776029E-3
    1.7865698039962E-3
    1.7933708886216E-3
    1.8001947069094E-3
    1.8070413345387E-3
    1.8139108474386E-3
    1.8208033217887E-3
    1.8277188340204E-3
    1.8346574608169E-3
    1.8416192791148E-3
    1.8486043661047E-3
    1.8556127992318E-3
    1.8626446561967E-3
    1.8697000149568E-3
    1.8767789537264E-3
    1.8838815509781E-3
    1.8910078854431E-3
    1.8981580361127E-3
    1.9053320822385E-3
    1.9125301033336E-3
    1.9197521791736E-3
    1.9269983897968E-3
    1.9342688155058E-3
    1.9415635368679E-3
    1.9488826347162E-3
    1.9562261901502E-3
    1.9635942845369E-3
    1.9709869995116E-3
    1.9784044169786E-3
    1.9858466191124E-3
    1.9933136883582E-3
    2.0008057074332E-3
    2.0083227593270E-3
    2.0158649273029E-3
    2.0234322948985E-3
    2.0310249459268E-3
    2.0386429644769E-3
    2.0462864349151E-3
    2.0539554418855E-3
    2.0616500703112E-3
    2.0693704053951E-3
    2.0771165326207E-3
    2.0848885377530E-3
    2.0926865068398E-3
    2.1005105262120E-3
    2.1083606824849E-3
    2.1162370625593E-3
    2.1241397536217E-3
    2.1320688431461E-3
    2.1400244188943E-3
    2.1480065689172E-3
    2.1560153815553E-3
    2.1640509454402E-3
    2.1721133494951E-3
    2.1802026829359E-3
    2.1883190352722E-3
    2.1964624963081E-3
    2.2046331561433E-3
    2.2128311051740E-3
    2.2210564340937E-3
    2.2293092338944E-3
    2.2375895958675E-3
    2.2458976116046E-3
    2.2542333729988E-3
    2.2625969722452E-3
    2.2709885018423E-3
    2.2794080545927E-3
    2.2878557236044E-3
    2.2963316022914E-3
    2.3048357843748E-3
    2.3133683638840E-3
    2.3219294351576E-3
    2.3305190928440E-3
    2.3391374319030E-3
    2.3477845476066E-3
    2.3564605355397E-3
    2.3651654916015E-3
    2.3738995120062E-3
    2.3826626932845E-3
    2.3914551322838E-3
    2.4002769261701E-3
    2.4091281724285E-3
    2.4180089688642E-3
    2.4269194136038E-3
    2.4358596050963E-3
    2.4448296421140E-3
    2.4538296237534E-3
    2.4628596494366E-3
    2.4719198189121E-3
    2.4810102322560E-3
    2.4901309898729E-3
    2.4992821924969E-3
    2.5084639411931E-3
    2.5176763373579E-3
    2.5269194827210E-3
    2.5361934793455E-3
    2.5454984296297E-3
    2.5548344363078E-3
    2.5642016024513E-3
    2.5736000314696E-3
    2.5830298271115E-3
    2.5924910934660E-3
    2.6019839349638E-3
    2.6115084563778E-3
    2.6210647628247E-3
    2.6306529597659E-3
    2.6402731530086E-3
    2.6499254487070E-3
    2.6596099533631E-3
    2.6693267738284E-3
    2.6790760173043E-3
    2.6888577913439E-3
    2.6986722038526E-3
    2.7085193630896E-3
    2.7183993776687E-3
    2.7283123565597E-3
    2.7382584090894E-3
    2.7482376449428E-3
    2.7582501741643E-3
    2.7682961071586E-3
    2.7783755546921E-3
    2.7884886278940E-3
    2.7986354382574E-3
    2.8088160976405E-3
    2.8190307182678E-3
    2.8292794127312E-3
    2.8395622939910E-3
    2.8498794753777E-3
    2.8602310705924E-3
    2.8706171937083E-3
    2.8810379591723E-3
    2.8914934818055E-3
    2.9019838768047E-3
    2.9125092597437E-3
    2.9230697465743E-3
    2.9336654536278E-3
    2.9442964976159E-3
    2.9549629956319E-3
    2.9656650651521E-3
    2.9764028240371E-3
    2.9871763905328E-3
    2.9979858832716E-3
    3.0088314212738E-3
    3.0197131239488E-3
    3.0306311110963E-3
    3.0415855029074E-3
    3.0525764199662E-3
    3.0636039832507E-3
    3.0746683141342E-3
    3.0857695343866E-3
    3.0969077661755E-3
    3.1080831320676E-3
    3.1192957550300E-3
    3.1305457584313E-3
    3.1418332660430E-3
    3.1531584020408E-3
    3.1645212910058E-3
    3.1759220579258E-3
    3.1873608281966E-3
    3.1988377276233E-3
    3.2103528824216E-3
    3.2219064192191E-3
    3.2334984650567E-3
    3.2451291473897E-3
    3.2567985940891E-3
    3.2685069334433E-3
    3.2802542941590E-3
    3.2920408053628E-3
    3.3038665966022E-3
    3.3157317978473E-3
    3.3276365394920E-3
    3.3395809523552E-3
    3.3515651676823E-3
    3.3635893171466E-3
    3.3756535328506E-3
    3.3877579473270E-3
    3.3999026935406E-3
    3.4120879048896E-3
    3.4243137152064E-3
    3.4365802587598E-3
    3.4488876702557E-3
    3.4612360848387E-3
    3.4736256380937E-3
    3.4860564660470E-3
    3.4985287051678E-3
    3.5110424923696E-3
    3.5235979650116E-3
    3.5361952609001E-3
    3.5488345182898E-3
    3.5615158758855E-3
    3.5742394728433E-3
    3.5870054487718E-3
    3.5998139437342E-3
    3.6126650982489E-3
    3.6255590532916E-3
    3.6384959502965E-3
    3.6514759311574E-3
    3.6644991382298E-3
    3.6775657143319E-3
    3.6906758027461E-3
    3.7038295472207E-3
    3.7170270919710E-3
    3.7302685816811E-3
    3.7435541615050E-3
    3.7568839770686E-3
    3.7702581744707E-3
    3.7836769002848E-3
    3.7971403015602E-3
    3.8106485258240E-3
    3.8242017210822E-3
    3.8378000358215E-3
    3.8514436190103E-3
    3.8651326201011E-3
    3.8788671890310E-3
    3.8926474762238E-3
    3.9064736325916E-3
    3.9203458095360E-3
    3.9342641589497E-3
    3.9482288332183E-3
    3.9622399852214E-3
    3.9762977683347E-3
    3.9904023364310E-3
    4.0045538438821E-3
    4.0187524455601E-3
    4.0329982968394E-3
    4.0472915535978E-3
    4.0616323722183E-3
    4.0760209095905E-3
    4.0904573231126E-3
    4.1049417706924E-3
    4.1194744107493E-3
    4.1340554022159E-3
    4.1486849045394E-3
    4.1633630776831E-3
    4.1780900821284E-3
    4.1928660788763E-3
    4.2076912294486E-3
    4.2225656958901E-3
    4.2374896407698E-3
    4.2524632271829E-3
    4.2674866187521E-3
    4.2825599796293E-3
    4.2976834744975E-3
    4.3128572685722E-3
    4.3280815276030E-3
    4.3433564178755E-3
    4.3586821062129E-3
    4.3740587599774E-3
    4.3894865470724E-3
    4.4049656359436E-3
    4.4204961955811E-3
    4.4360783955208E-3
    4.4517124058462E-3
    4.4673983971904E-3
    4.4831365407372E-3
    4.4989270082233E-3
    4.5147699719399E-3
    4.5306656047340E-3
    4.5466140800109E-3
    4.5626155717353E-3
    4.5786702544333E-3
    4.5947783031939E-3
    4.6109398936711E-3
    4.6271552020853E-3
    4.6434244052254E-3
    4.6597476804501E-3
    4.6761252056900E-3
    4.6925571594494E-3
    4.7090437208079E-3
    4.7255850694220E-3
    4.7421813855273E-3
    4.7588328499402E-3
    4.7755396440593E-3
    4.7923019498675E-3
    4.8091199499340E-3
    4.8259938274156E-3
    4.8429237660589E-3
    4.8599099502020E-3
    4.8769525647763E-3
    4.8940517953081E-3
    4.9112078279211E-3
    4.9284208493374E-3
    4.9456910468800E-3
    4.9630186084741E-3
    4.9804037226495E-3
    4.9978465785420E-3
    5.0153473658955E-3
    5.0329062750638E-3
    5.0505234970124E-3
    5.0681992233206E-3
    5.0859336461830E-3
    5.1037269584119E-3
    5.1215793534385E-3
    5.1394910253156E-3
    5.1574621687188E-3
    5.1754929789489E-3
    5.1935836519334E-3
    5.2117343842287E-3
    5.2299453730221E-3
    5.2482168161334E-3
    5.2665489120170E-3
    5.2849418597639E-3
    5.3033958591035E-3
    5.3219111104058E-3
    5.3404878146829E-3
    5.3591261735915E-3
    5.3778263894344E-3
    5.3965886651627E-3
    5.4154132043779E-3
    5.4343002113336E-3
    5.4532498909374E-3
    5.4722624487535E-3
    5.4913380910039E-3
    5.5104770245710E-3
    5.5296794569994E-3
    5.5489455964977E-3
    5.5682756519409E-3
    5.5876698328721E-3
    5.6071283495049E-3
    5.6266514127248E-3
    5.6462392340921E-3
    5.6658920258430E-3
    5.6856100008924E-3
    5.7053933728357E-3
    5.7252423559507E-3
    5.7451571651999E-3
    5.7651380162323E-3
    5.7851851253859E-3
    5.8052987096892E-3
    5.8254789868640E-3
    5.8457261753267E-3
    5.8660404941912E-3
    5.8864221632702E-3
    5.9068714030780E-3
    5.9273884348322E-3
    5.9479734804559E-3
    5.9686267625801E-3
    5.9893485045453E-3
    6.0101389304041E-3
    6.0309982649232E-3
    6.0519267335854E-3
    6.0729245625920E-3
    6.0939919788647E-3
    6.1151292100480E-3
    6.1363364845113E-3
    6.1576140313509E-3
    6.1789620803925E-3
    6.2003808621930E-3
    6.2218706080431E-3
    6.2434315499693E-3
    6.2650639207358E-3
    6.2867679538474E-3
    6.3085438835512E-3
    6.3303919448387E-3
    6.3523123734487E-3
    6.3743054058687E-3
    6.3963712793378E-3
    6.4185102318487E-3
    6.4407225021497E-3
    6.4630083297474E-3
    6.4853679549087E-3
    6.5078016186631E-3
    6.5303095628049E-3
    6.5528920298957E-3
    6.5755492632665E-3
