release/datafiles/colormanagement/filmic/filmic_to_0-60_1-04.spi1d
Version 1
From 0.000000 1.000000
Length 4096
Components 1
{
    0.0000000000000E+0
    2.2547506131860E-5
    4.5132073901206E-5
    6.7753762938042E-5
    9.0412632963947E-5
    1.1310874379219E-4
    1.3584215532786E-4
    1.5861292756800E-4
    1.8142112060171E-4
    2.0426679461029E-4
    2.2715000986738E-4
    2.5007082673907E-4
    2.7302930568399E-4
    2.9602550725352E-4
    3.1905949209184E-4
    3.4213132093611E-4
    3.6524105461655E-4
    3.8838875405662E-4
    4.1157448027309E-4
    4.3479829437621E-4
    4.5806025756983E-4
    4.8136043115151E-4
    5.0469887651266E-4
    5.2807565513868E-4
    5.5149082860905E-4
    5.7494445859749E-4
    5.9843660687211E-4
    6.2196733529546E-4
    6.4553670582475E-4
    6.6914478051192E-4
    6.9279162150377E-4
    7.1647729104213E-4
    7.4020185146394E-4
    7.6396536520142E-4
    7.8776789478217E-4
    8.1160950282930E-4
    8.3549025206159E-4
    8.5941020529359E-4
    8.8336942543575E-4
    9.0736797549456E-4
    9.3140591857269E-4
    9.5548331786910E-4
    9.7960023667917E-4
    1.0037567383949E-3
    1.0279528865048E-3
    1.0521887445944E-3
    1.0764643763461E-3
    1.1007798455393E-3
    1.1251352160509E-3
    1.1495305518547E-3
    1.1739659170223E-3
    1.1984413757228E-3
    1.2229569922231E-3
    1.2475128308878E-3
    1.2721089561796E-3
    1.2967454326595E-3
    1.3214223249864E-3
    1.3461396979179E-3
    1.3708976163099E-3
    1.3956961451172E-3
    1.4205353493932E-3
    1.4454152942902E-3
    1.4703360450598E-3
    1.4952976670524E-3
    1.5203002257181E-3
    1.5453437866062E-3
    1.5704284153657E-3
    1.5955541777452E-3
    1.6207211395934E-3
    1.6459293668586E-3
    1.6711789255896E-3
    1.6964698819352E-3
    1.7218023021447E-3
    1.7471762525678E-3
    1.7725917996550E-3
    1.7980490099575E-3
    1.8235479501274E-3
    1.8490886869179E-3
    1.8746712871834E-3
    1.9002958178795E-3
    1.9259623460634E-3
    1.9516709388939E-3
    1.9774216636313E-3
    2.0032145876379E-3
    2.0290497783782E-3
    2.0549273034185E-3
    2.0808472304275E-3
    2.1068096271763E-3
    2.1328145615386E-3
    2.1588621014906E-3
    2.1849523151114E-3
    2.2110852705831E-3
    2.2372610361908E-3
    2.2634796803229E-3
    2.2897412714709E-3
    2.3160458782300E-3
    2.3423935692991E-3
    2.3687844134807E-3
    2.3952184796811E-3
    2.4216958369109E-3
    2.4482165542847E-3
    2.4747807010214E-3
    2.5013883464442E-3
    2.5280395599813E-3
    2.5547344111652E-3
    2.5814729696334E-3
    2.6082553051284E-3
    2.6350814874979E-3
    2.6619515866946E-3
    2.6888656727768E-3
    2.7158238159084E-3
    2.7428260863589E-3
    2.7698725545034E-3
    2.7969632908233E-3
    2.8240983659059E-3
    2.8512778504447E-3
    2.8785018152397E-3
    2.9057703311972E-3
    2.9330834693304E-3
    2.9604413007591E-3
    2.9878438967100E-3
    3.0152913285169E-3
    3.0427836676209E-3
    3.0703209855704E-3
    3.0979033540210E-3
    3.1255308447364E-3
    3.1532035295876E-3
    3.1809214805537E-3
    3.2086847697219E-3
    3.2364934692873E-3
    3.2643476515538E-3
    3.2922473889331E-3
    3.3201927539461E-3
    3.3481838192220E-3
    3.3762206574991E-3
    3.4043033416246E-3
    3.4324319445550E-3
    3.4606065393558E-3
    3.4888271992023E-3
    3.5170939973790E-3
    3.5454070072805E-3
    3.5737663024110E-3
    3.6021719563846E-3
    3.6306240429258E-3
    3.6591226358693E-3
    3.6876678091601E-3
    3.7162596368539E-3
    3.7448981931169E-3
    3.7735835522265E-3
    3.8023157885707E-3
    3.8310949766487E-3
    3.8599211910713E-3
    3.8887945065603E-3
    3.9177149979492E-3
    3.9466827401833E-3
    3.9756978083195E-3
    4.0047602775270E-3
    4.0338702230867E-3
    4.0630277203922E-3
    4.0922328449492E-3
    4.1214856723760E-3
    4.1507862784037E-3
    4.1801347388762E-3
    4.2095311297502E-3
    4.2389755270957E-3
    4.2684680070960E-3
    4.2980086460477E-3
    4.3275975203609E-3
    4.3572347065595E-3
    4.3869202812811E-3
    4.4166543212775E-3
    4.4464369034145E-3
    4.4762681046719E-3
    4.5061480021445E-3
    4.5360766730410E-3
    4.5660541946853E-3
    4.5960806445159E-3
    4.6261561000863E-3
    4.6562806390652E-3
    4.6864543392364E-3
    4.7166772784994E-3
    4.7469495348691E-3
    4.7772711864760E-3
    4.8076423115666E-3
    4.8380629885034E-3
    4.8685332957650E-3
    4.8990533119462E-3
    4.9296231157583E-3
    4.9602427860294E-3
    4.9909124017038E-3
    5.0216320418432E-3
    5.0524017856259E-3
    5.0832217123477E-3
    5.1140919014214E-3
    5.1450124323775E-3
    5.1759833848639E-3
    5.2070048386463E-3
    5.2380768736083E-3
    5.2691995697515E-3
    5.3003730071958E-3
    5.3315972661793E-3
    5.3628724270584E-3
    5.3941985703085E-3
    5.4255757765235E-3
    5.4570041264163E-3
    5.4884837008187E-3
    5.5200145806820E-3
    5.5515968470765E-3
    5.5832305811922E-3
    5.6149158643388E-3
    5.6466527779455E-3
    5.6784414035617E-3
    5.7102818228568E-3
    5.7421741176205E-3
    5.7741183697626E-3
    5.8061146613137E-3
    5.8381630744251E-3
    5.8702636913686E-3
    5.9024165945373E-3
    5.9346218664452E-3
    5.9668795897276E-3
    5.9991898471413E-3
    6.0315527215645E-3
    6.0639682959973E-3
    6.0964366535614E-3
    6.1289578775007E-3
    6.1615320511812E-3
    6.1941592580912E-3
    6.2268395818412E-3
    6.2595731061647E-3
    6.2923599149177E-3
    6.3252000920790E-3
    6.3580937217506E-3
    6.3910408881577E-3
    6.4240416756486E-3
    6.4570961686955E-3
    6.4902044518937E-3
    6.5233666099626E-3
    6.5565827277456E-3
    6.5898528902099E-3
    6.6231771824472E-3
    6.6565556896733E-3
    6.6899884972286E-3
    6.7234756905784E-3
    6.7570173553125E-3
    6.7906135771459E-3
    6.8242644419186E-3
    6.8579700355958E-3
    6.8917304442684E-3
    6.9255457541524E-3
    6.9594160515900E-3
    6.9933414230490E-3
    7.0273219551232E-3
    7.0613577345326E-3
    7.0954488481237E-3
    7.1295953828691E-3
    7.1637974258684E-3
    7.1980550643476E-3
    7.2323683856599E-3
    7.2667374772854E-3
    7.3011624268315E-3
    7.3356433220328E-3
    7.3701802507517E-3
    7.4047733009779E-3
    7.4394225608293E-3
    7.4741281185515E-3
    7.5088900625182E-3
    7.5437084812315E-3
    7.5785834633219E-3
    7.6135150975485E-3
    7.6485034727988E-3
    7.6835486780896E-3
    7.7186508025664E-3
    7.7538099355041E-3
    7.7890261663067E-3
    7.8242995845079E-3
    7.8596302797707E-3
    7.8950183418883E-3
    7.9304638607833E-3
    7.9659669265089E-3
    8.0015276292482E-3
    8.0371460593147E-3
    8.0728223071525E-3
    8.1085564633364E-3
    8.1443486185719E-3
    8.1801988636955E-3
    8.2161072896751E-3
    8.2520739876095E-3
    8.2880990487291E-3
    8.3241825643959E-3
    8.3603246261036E-3
    8.3965253254778E-3
    8.4327847542762E-3
    8.4691030043886E-3
    8.5054801678372E-3
    8.5419163367765E-3
    8.5784116034939E-3
    8.6149660604096E-3
    8.6515798000764E-3
    8.6882529151807E-3
    8.7249854985417E-3
    8.7617776431123E-3
    8.7986294419788E-3
    8.8355409883613E-3
    8.8725123756136E-3
    8.9095436972238E-3
    8.9466350468137E-3
    8.9837865181400E-3
    9.0209982050934E-3
    9.0582702016993E-3
    9.0956026021181E-3
    9.1329955006449E-3
    9.1704489917099E-3
    9.2079631698785E-3
    9.2455381298517E-3
    9.2831739664658E-3
    9.3208707746928E-3
    9.3586286496406E-3
    9.3964476865530E-3
    9.4343279808102E-3
    9.4722696279283E-3
    9.5102727235600E-3
    9.5483373634949E-3
    9.5864636436588E-3
    9.6246516601147E-3
    9.6629015090628E-3
    9.7012132868401E-3
    9.7395870899214E-3
    9.7780230149186E-3
    9.8165211585815E-3
    9.8550816177978E-3
    9.8937044895928E-3
    9.9323898711303E-3
    9.9711378597122E-3
    1.0009948552779E-2
    1.0048822047909E-2
    1.0087758442820E-2
    1.0126757835370E-2
    1.0165820323552E-2
    1.0204946005503E-2
    1.0244134979495E-2
    1.0283387343944E-2
    1.0322703197401E-2
    1.0362082638560E-2
    1.0401525766253E-2
    1.0441032679455E-2
    1.0480603477277E-2
    1.0520238258975E-2
    1.0559937123941E-2
    1.0599700171711E-2
    1.0639527501961E-2
    1.0679419214508E-2
    1.0719375409309E-2
    1.0759396186464E-2
    1.0799481646214E-2
    1.0839631888940E-2
    1.0879847015168E-2
    1.0920127125564E-2
    1.0960472320934E-2
    1.1000882702231E-2
    1.1041358370546E-2
    1.1081899427116E-2
    1.1122505973317E-2
    1.1163178110672E-2
    1.1203915940843E-2
    1.1244719565637E-2
    1.1285589087006E-2
    1.1326524607043E-2
    1.1367526227985E-2
    1.1408594052213E-2
    1.1449728182252E-2
    1.1490928720772E-2
    1.1532195770585E-2
    1.1573529434649E-2
    1.1614929816067E-2
    1.1656397018085E-2
    1.1697931144095E-2
    1.1739532297634E-2
    1.1781200582382E-2
    1.1822936102168E-2
    1.1864738960964E-2
    1.1906609262887E-2
    1.1948547112202E-2
    1.1990552613317E-2
    1.2032625870790E-2
    1.2074766989321E-2
    1.2116976073759E-2
    1.2159253229099E-2
    1.2201598560481E-2
    1.2244012173194E-2
    1.2286494172673E-2
    1.2329044664500E-2
    1.2371663754405E-2
    1.2414351548265E-2
    1.2457108152103E-2
    1.2499933672091E-2
    1.2542828214551E-2
    1.2585791885949E-2
    1.2628824792902E-2
    1.2671927042174E-2
    1.2715098740677E-2
    1.2758339995475E-2
    1.2801650913775E-2
    1.2845031602939E-2
    1.2888482170473E-2
    1.2932002724036E-2
    1.2975593371434E-2
    1.3019254220623E-2
    1.3062985379709E-2
    1.3106786956949E-2
    1.3150659060747E-2
    1.3194601799661E-2
    1.3238615282394E-2
    1.3282699617806E-2
    1.3326854914902E-2
    1.3371081282840E-2
    1.3415378830929E-2
    1.3459747668629E-2
    1.3504187905550E-2
    1.3548699651456E-2
    1.3593283016259E-2
    1.3637938110024E-2
    1.3682665042970E-2
    1.3727463925465E-2
    1.3772334868030E-2
    1.3817277981339E-2
    1.3862293376216E-2
    1.3907381163641E-2
    1.3952541454744E-2
    1.3997774360808E-2
    1.4043079993271E-2
    1.4088458463723E-2
    1.4133909883906E-2
    1.4179434365716E-2
    1.4225032021204E-2
    1.4270702962574E-2
    1.4316447302183E-2
    1.4362265152543E-2
    1.4408156626319E-2
    1.4454121836332E-2
    1.4500160895556E-2
    1.4546273917120E-2
    1.4592461014308E-2
    1.4638722300560E-2
    1.4685057889468E-2
    1.4731467894783E-2
    1.4777952430408E-2
    1.4824511610403E-2
    1.4871145548984E-2
    1.4917854360522E-2
    1.4964638159545E-2
    1.5011497060735E-2
    1.5058431178933E-2
    1.5105440629134E-2
    1.5152525526492E-2
    1.5199685986314E-2
    1.5246922124068E-2
    1.5294234055376E-2
    1.5341621896018E-2
    1.5389085761931E-2
    1.5436625769212E-2
    1.5484242034110E-2
    1.5531934673038E-2
    1.5579703802562E-2
    1.5627549539409E-2
    1.5675472000463E-2
    1.5723471302765E-2
    1.5771547563517E-2
    1.5819700900078E-2
    1.5867931429966E-2
    1.5916239270858E-2
    1.5964624540589E-2
    1.6013087357156E-2
    1.6061627838712E-2
    1.6110246103571E-2
    1.6158942270207E-2
    1.6207716457253E-2
    1.6256568783502E-2
    1.6305499367906E-2
    1.6354508329580E-2
    1.6403595787797E-2
    1.6452761861991E-2
    1.6502006671756E-2
    1.6551330336849E-2
    1.6600732977184E-2
    1.6650214712841E-2
    1.6699775664056E-2
    1.6749415951231E-2
    1.6799135694926E-2
    1.6848935015864E-2
    1.6898814034931E-2
    1.6948772873171E-2
    1.6998811651795E-2
    1.7048930492173E-2
    1.7099129515838E-2
    1.7149408844485E-2
    1.7199768599973E-2
    1.7250208904323E-2
    1.7300729879718E-2
    1.7351331648506E-2
    1.7402014333196E-2
    1.7452778056461E-2
    1.7503622941139E-2
    1.7554549110230E-2
    1.7605556686898E-2
    1.7656645794471E-2
    1.7707816556441E-2
    1.7759069096463E-2
    1.7810403538360E-2
    1.7861820006115E-2
    1.7913318623877E-2
    1.7964899515962E-2
    1.8016562806848E-2
    1.8068308621179E-2
    1.8120137083764E-2
    1.8172048319578E-2
    1.8224042453761E-2
    1.8276119611617E-2
    1.8328279918618E-2
    1.8380523500402E-2
    1.8432850482770E-2
    1.8485260991691E-2
    1.8537755153302E-2
    1.8590333093903E-2
    1.8642994939963E-2
    1.8695740818115E-2
    1.8748570855163E-2
    1.8801485178073E-2
    1.8854483913982E-2
    1.8907567190193E-2
    1.8960735134174E-2
    1.9013987873565E-2
    1.9067325536169E-2
    1.9120748249960E-2
    1.9174256143078E-2
    1.9227849343832E-2
    1.9281527980698E-2
    1.9335292182322E-2
    1.9389142077518E-2
    1.9443077795267E-2
    1.9497099464720E-2
    1.9551207215196E-2
    1.9605401176184E-2
    1.9659681477342E-2
    1.9714048248496E-2
    1.9768501619642E-2
    1.9823041720945E-2
    1.9877668682742E-2
    1.9932382635537E-2
    1.9987183710004E-2
    2.0042072036988E-2
    2.0097047747505E-2
    2.0152110972738E-2
    2.0207261844045E-2
    2.0262500492950E-2
    2.0317827051151E-2
    2.0373241650516E-2
    2.0428744423081E-2
    2.0484335501057E-2
    2.0540015016825E-2
    2.0595783102937E-2
    2.0651639892115E-2
    2.0707585517255E-2
    2.0763620111423E-2
    2.0819743807857E-2
    2.0875956739969E-2
    2.0932259041340E-2
    2.0988650845724E-2
    2.1045132287050E-2
    2.1101703499416E-2
    2.1158364617094E-2
    2.1215115774529E-2
    2.1271957106339E-2
    2.1328888747313E-2
    2.1385910832415E-2
    2.1443023496782E-2
    2.1500226875725E-2
    2.1557521104726E-2
    2.1614906319442E-2
    2.1672382655705E-2
    2.1729950249519E-2
    2.1787609237062E-2
    2.1845359754687E-2
    2.1903201938922E-2
    2.1961135926466E-2
    2.2019161854196E-2
    2.2077279859162E-2
    2.2135490078588E-2
    2.2193792649874E-2
    2.2252187710595E-2
    2.2310675398501E-2
    2.2369255851515E-2
    2.2427929207738E-2
    2.2486695605446E-2
    2.2545555183089E-2
    2.2604508079295E-2
    2.2663554432864E-2
    2.2722694382776E-2
    2.2781928068186E-2
    2.2841255628422E-2
    2.2900677202992E-2
    2.2960192931579E-2
    2.3019802954042E-2
    2.3079507410417E-2
    2.3139306440918E-2
    2.3199200185932E-2
    2.3259188786028E-2
    2.3319272381947E-2
    2.3379451114612E-2
    2.3439725125120E-2
    2.3500094554746E-2
    2.3560559544943E-2
    2.3621120237342E-2
    2.3681776773750E-2
    2.3742529296154E-2
    2.3803377946719E-2
    2.3864322867784E-2
    2.3925364201872E-2
    2.3986502091681E-2
    2.4047736680087E-2
    2.4109068110146E-2
    2.4170496525092E-2
    2.4232022068338E-2
    2.4293644883476E-2
    2.4355365114276E-2
    2.4417182904688E-2
    2.4479098398840E-2
    2.4541111741041E-2
    2.4603223075779E-2
    2.4665432547719E-2
    2.4727740301710E-2
    2.4790146482777E-2
    2.4852651236126E-2
    2.4915254707144E-2
    2.4977957041396E-2
    2.5040758384629E-2
    2.5103658882769E-2
    2.5166658681923E-2
    2.5229757928378E-2
    2.5292956768602E-2
    2.5356255349244E-2
    2.5419653817131E-2
    2.5483152319276E-2
    2.5546751002867E-2
    2.5610450015279E-2
    2.5674249504063E-2
    2.5738149616954E-2
    2.5802150501868E-2
    2.5866252306902E-2
    2.5930455180336E-2
    2.5994759270629E-2
    2.6059164726424E-2
    2.6123671696544E-2
    2.6188280329997E-2
    2.6252990775970E-2
    2.6317803183833E-2
    2.6382717703139E-2
    2.6447734483622E-2
    2.6512853675201E-2
    2.6578075427973E-2
    2.6643399892223E-2
    2.6708827218416E-2
    2.6774357557198E-2
    2.6839991059401E-2
    2.6905727876039E-2
    2.6971568158308E-2
    2.7037512057590E-2
    2.7103559725446E-2
    2.7169711313624E-2
    2.7235966974055E-2
    2.7302326858851E-2
    2.7368791120310E-2
    2.7435359910913E-2
    2.7502033383326E-2
    2.7568811690396E-2
    2.7635694985157E-2
    2.7702683420825E-2
    2.7769777150802E-2
    2.7836976328673E-2
    2.7904281108207E-2
    2.7971691643358E-2
    2.8039208088265E-2
    2.8106830597250E-2
    2.8174559324823E-2
    2.8242394425674E-2
    2.8310336054681E-2
    2.8378384366908E-2
    2.8446539517600E-2
    2.8514801662190E-2
    2.8583170956296E-2
    2.8651647555720E-2
    2.8720231616450E-2
    2.8788923294661E-2
    2.8857722746709E-2
    2.8926630129141E-2
    2.8995645598687E-2
    2.9064769312261E-2
    2.9134001426965E-2
    2.9203342100088E-2
    2.9272791489102E-2
    2.9342349751667E-2
    2.9412017045628E-2
    2.9481793529016E-2
    2.9551679360050E-2
    2.9621674697134E-2
    2.9691779698859E-2
    2.9761994524000E-2
    2.9832319331522E-2
    2.9902754280575E-2
    2.9973299530496E-2
    3.0043955240807E-2
    3.0114721571220E-2
    3.0185598681631E-2
    3.0256586732124E-2
    3.0327685882971E-2
    3.0398896294629E-2
    3.0470218127744E-2
    3.0541651543148E-2
    3.0613196701861E-2
    3.0684853765089E-2
    3.0756622894228E-2
    3.0828504250859E-2
    3.0900497996751E-2
    3.0972604293861E-2
    3.1044823304334E-2
    3.1117155190502E-2
    3.1189600114885E-2
    3.1262158240190E-2
    3.1334829729314E-2
    3.1407614745340E-2
    3.1480513451540E-2
    3.1553526011373E-2
    3.1626652588486E-2
    3.1699893346717E-2
    3.1773248450088E-2
    3.1846718062812E-2
    3.1920302349291E-2
    3.1994001474111E-2
    3.2067815602053E-2
    3.2141744898080E-2
    3.2215789527347E-2
    3.2289949655198E-2
    3.2364225447165E-2
    3.2438617068966E-2
    3.2513124686512E-2
    3.2587748465900E-2
    3.2662488573417E-2
    3.2737345175537E-2
    3.2812318438926E-2
    3.2887408530437E-2
    3.2962615617111E-2
    3.3037939866181E-2
    3.3113381445066E-2
    3.3188940521377E-2
    3.3264617262911E-2
    3.3340411837657E-2
    3.3416324413791E-2
    3.3492355159680E-2
    3.3568504243880E-2
    3.3644771835136E-2
    3.3721158102382E-2
    3.3797663214743E-2
    3.3874287341530E-2
    3.3951030652248E-2
    3.4027893316589E-2
    3.4104875504434E-2
    3.4181977385855E-2
    3.4259199131114E-2
    3.4336540910661E-2
    3.4414002895136E-2
    3.4491585255371E-2
    3.4569288162384E-2
    3.4647111787387E-2
    3.4725056301778E-2
    3.4803121877146E-2
    3.4881308685272E-2
    3.4959616898124E-2
    3.5038046687862E-2
    3.5116598226835E-2
    3.5195271687581E-2
    3.5274067242829E-2
    3.5352985065499E-2
    3.5432025328700E-2
    3.5511188205730E-2
    3.5590473870079E-2
    3.5669882495427E-2
    3.5749414255641E-2
    3.5829069324782E-2
    3.5908847877100E-2
    3.5988750087034E-2
    3.6068776129213E-2
    3.6148926178459E-2
    3.6229200409780E-2
    3.6309598998379E-2
    3.6390122119644E-2
    3.6470769949158E-2
    3.6551542662691E-2
    3.6632440436205E-2
    3.6713463445850E-2
    3.6794611867970E-2
    3.6875885879096E-2
    3.6957285655950E-2
    3.7038811375445E-2
    3.7120463214685E-2
    3.7202241350962E-2
    3.7284145961759E-2
    3.7366177224751E-2
    3.7448335317801E-2
    3.7530620418964E-2
    3.7613032706484E-2
    3.7695572358797E-2
    3.7778239554527E-2
    3.7861034472489E-2
    3.7943957291690E-2
    3.8027008191326E-2
    3.8110187350782E-2
    3.8193494949634E-2
    3.8276931167651E-2
    3.8360496184788E-2
    3.8444190181192E-2
    3.8528013337201E-2
    3.8611965833343E-2
    3.8696047850334E-2
    3.8780259569084E-2
    3.8864601170689E-2
    3.8949072836438E-2
    3.9033674747809E-2
    3.9118407086470E-2
    3.9203270034281E-2
    3.9288263773288E-2
    3.9373388485732E-2
    3.9458644354039E-2
    3.9544031560830E-2
    3.9629550288912E-2
    3.9715200721284E-2
    3.9800983041134E-2
    3.9886897431840E-2
    3.9972944076971E-2
    4.0059123160284E-2
    4.0145434865728E-2
    4.0231879377439E-2
    4.0318456879746E-2
    4.0405167557165E-2
    4.0492011594403E-2
    4.0578989176356E-2
    4.0666100488111E-2
    4.0753345714942E-2
    4.0840725042316E-2
    4.0928238655886E-2
    4.1015886741497E-2
    4.1103669485182E-2
    4.1191587073165E-2
    4.1279639691857E-2
    4.1367827527860E-2
    4.1456150767965E-2
    4.1544609599152E-2
    4.1633204208590E-2
    4.1721934783638E-2
    4.1810801511842E-2
    4.1899804580940E-2
    4.1988944178856E-2
    4.2078220493705E-2
    4.2167633713790E-2
    4.2257184027603E-2
    4.2346871623825E-2
    4.2436696691326E-2
    4.2526659419162E-2
    4.2616759996582E-2
    4.2706998613020E-2
    4.2797375458100E-2
    4.2887890721634E-2
    4.2978544593623E-2
    4.3069337264254E-2
    4.3160268923906E-2
    4.3251339763143E-2
    4.3342549972719E-2
    4.3433899743574E-2
    4.3525389266839E-2
    4.3617018733829E-2
    4.3708788336049E-2
    4.3800698265194E-2
    4.3892748713141E-2
    4.3984939871961E-2
    4.4077271933907E-2
    4.4169745091422E-2
    4.4262359537138E-2
    4.4355115463871E-2
    4.4448013064626E-2
    4.4541052532594E-2
    4.4634234061155E-2
    4.4727557843874E-2
    4.4821024074505E-2
    4.4914632946986E-2
    4.5008384655443E-2
    4.5102279394189E-2
    4.5196317357725E-2
    4.5290498740734E-2
    4.5384823738089E-2
    4.5479292544849E-2
    4.5573905356259E-2
    4.5668662367747E-2
    4.5763563774931E-2
    4.5858609773614E-2
    4.5953800559783E-2
    4.6049136329611E-2
    4.6144617279459E-2
    4.6240243605871E-2
    4.6336015505577E-2
    4.6431933175493E-2
    4.6527996812718E-2
    4.6624206614539E-2
    4.6720562778426E-2
    4.6817065502033E-2
    4.6913714983202E-2
    4.7010511419957E-2
    4.7107455010506E-2
    4.7204545953244E-2
    4.7301784446747E-2
    4.7399170689777E-2
    4.7496704881281E-2
    4.7594387220388E-2
    4.7692217906411E-2
    4.7790197138848E-2
    4.7888325117379E-2
    4.7986602041867E-2
    4.8085028112361E-2
    4.8183603529091E-2
    4.8282328492470E-2
    4.8381203203094E-2
    4.8480227861742E-2
    4.8579402669377E-2
    4.8678727827142E-2
    4.8778203536363E-2
    4.8877829998550E-2
    4.8977607415392E-2
    4.9077535988764E-2
    4.9177615920718E-2
    4.9277847413492E-2
    4.9378230669502E-2
    4.9478765891348E-2
    4.9579453281810E-2
    4.9680293043849E-2
    4.9781285380608E-2
    4.9882430495408E-2
    4.9983728591753E-2
    5.0085179873328E-2
    5.0186784543997E-2
    5.0288542807803E-2
    5.0390454868971E-2
    5.0492520931906E-2
    5.0594741201191E-2
    5.0697115881589E-2
    5.0799645178043E-2
    5.0902329295675E-2
    5.1005168439786E-2
    5.1108162815855E-2
    5.1211312629540E-2
    5.1314618086678E-2
    5.1418079393284E-2
    5.1521696755552E-2
    5.1625470379853E-2
    5.1729400472736E-2
    5.1833487240926E-2
    5.1937730891329E-2
    5.2042131631026E-2
    5.2146689667274E-2
    5.2251405207510E-2
    5.2356278459345E-2
    5.2461309630567E-2
    5.2566498929142E-2
    5.2671846563210E-2
    5.2777352741088E-2
    5.2883017671269E-2
    5.2988841562421E-2
    5.3094824623387E-2
    5.3200967063187E-2
    5.3307269091013E-2
    5.3413730916234E-2
    5.3520352748393E-2
    5.3627134797208E-2
    5.3734077272569E-2
    5.3841180384543E-2
    5.3948444343368E-2
    5.4055869359456E-2
    5.4163455643395E-2
    5.4271203405943E-2
    5.4379112858032E-2
    5.4487184210766E-2
    5.4595417675422E-2
    5.4703813463451E-2
    5.4812371786472E-2
    5.4921092856280E-2
    5.5029976884838E-2
    5.5139024084283E-2
    5.5248234666921E-2
    5.5357608845231E-2
    5.5467146831861E-2
