release/datafiles/colormanagement/filmic/filmic_desat_33.cube
TITLE "filmic_desat_33"
# A Downgraded version of the Filmic LUT, original spi3d LUT has size of 65, this one is down to 33
LUT_3D_SIZE 5
0.0001758 0.0001758 0.0001758
0.2500000 0.0001758 0.0001758
0.5000000 0.0001758 0.0001758
0.7500000 0.4649270 0.4649270
1.0000000 1.0000000 1.0000000
0.0001758 0.2500000 0.0001758
0.2500000 0.2500000 0.0001758
0.5000000 0.2500000 0.0001758
0.7500000 0.4662750 0.4649270
1.0000000 1.0000000 1.0000000
0.0001758 0.5000000 0.0001758
0.2500000 0.5000000 0.0001758
0.5000000 0.5000000 0.0001758
0.7500000 0.5248140 0.4649270
1.0000000 1.0000000 1.0000000
0.4649270 0.7500000 0.4649270
0.4662750 0.7500000 0.4649270
0.5248140 0.7500000 0.4649270
0.7500000 0.7500000 0.4649270
1.0000000 1.0000000 1.0000000
1.0000000 1.0000000 1.0000000
1.0000000 1.0000000 1.0000000
1.0000000 1.0000000 1.0000000
1.0000000 1.0000000 1.0000000
1.0000000 1.0000000 1.0000000
0.0001758 0.0001758 0.2500000
0.2500000 0.0001758 0.2500000
0.5000000 0.0001758 0.2500000
0.7500000 0.4649270 0.4662750
1.0000000 1.0000000 1.0000000
0.0001758 0.2500000 0.2500000
0.2500000 0.2500000 0.2500000
0.5000000 0.2500000 0.2500000
0.7500000 0.4662750 0.4662750
1.0000000 1.0000000 1.0000000
0.0001758 0.5000000 0.2500000
0.2500000 0.5000000 0.2500000
0.5000000 0.5000000 0.2500000
0.7500000 0.5248140 0.4662750
1.0000000 1.0000000 1.0000000
0.4649270 0.7500000 0.4662750
0.4662750 0.7500000 0.4662750
0.5248140 0.7500000 0.4662750
0.7500000 0.7500000 0.4662750
1.0000000 1.0000000 1.0000000
1.0000000 1.0000000 1.0000000
1.0000000 1.0000000 1.0000000
1.0000000 1.0000000 1.0000000
1.0000000 1.0000000 1.0000000
1.0000000 1.0000000 1.0000000
0.0001758 0.0001758 0.5000000
0.2500000 0.0001758 0.5000000
0.5000000 0.0001758 0.5000000
0.7500000 0.4649270 0.5248140
1.0000000 1.0000000 1.0000000
0.0001758 0.2500000 0.5000000
0.2500000 0.2500000 0.5000000
0.5000000 0.2500000 0.5000000
0.7500000 0.4662750 0.5248140
1.0000000 1.0000000 1.0000000
0.0001758 0.5000000 0.5000000
0.2500000 0.5000000 0.5000000
0.5000000 0.5000000 0.5000000
0.7500000 0.5248140 0.5248140
1.0000000 1.0000000 1.0000000
0.4649270 0.7500000 0.5248140
0.4662750 0.7500000 0.5248140
0.5248140 0.7500000 0.5248140
0.7500000 0.7500000 0.5248140
1.0000000 1.0000000 1.0000000
1.0000000 1.0000000 1.0000000
1.0000000 1.0000000 1.0000000
1.0000000 1.0000000 1.0000000
1.0000000 1.0000000 1.0000000
1.0000000 1.0000000 1.0000000
0.4649270 0.4649270 0.7500000
0.4662750 0.4649270 0.7500000
0.5248140 0.4649270 0.7500000
0.7500000 0.4649270 0.7500000
1.0000000 1.0000000 1.0000000
0.4649270 0.4662750 0.7500000
0.4662750 0.4662750 0.7500000
0.5248140 0.4662750 0.7500000
0.7500000 0.4662750 0.7500000
1.0000000 1.0000000 1.0000000
0.4649270 0.5248140 0.7500000
0.4662750 0.5248140 0.7500000
0.5248140 0.5248140 0.7500000
0.7500000 0.5248140 0.7500000
1.0000000 1.0000000 1.0000000
0.4649270 0.7500000 0.7500000
0.4662750 0.7500000 0.7500000
0.5248140 0.7500000 0.7500000
0.7500000 0.7500000 0.7500000
1.0000000 1.0000000 1.0000000
1.0000000 1.0000000 1.0000000
1.0000000 1.0000000 1.0000000
1.0000000 1.0000000 1.0000000
1.0000000 1.0000000 1.0000000
1.0000000 1.0000000 1.0000000
1.0000000 1.0000000 1.0000000
1.0000000 1.0000000 1.0000000
1.0000000 1.0000000 1.0000000
1.0000000 1.0000000 1.0000000
1.0000000 1.0000000 1.0000000
1.0000000 1.0000000 1.0000000
1.0000000 1.0000000 1.0000000
1.0000000 1.0000000 1.0000000
1.0000000 1.0000000 1.0000000
1.0000000 1.0000000 1.0000000
1.0000000 1.0000000 1.0000000
1.0000000 1.0000000 1.0000000
1.0000000 1.0000000 1.0000000
1.0000000 1.0000000 1.0000000
1.0000000 1.0000000 1.0000000
1.0000000 1.0000000 1.0000000
1.0000000 1.0000000 1.0000000
1.0000000 1.0000000 1.0000000
1.0000000 1.0000000 1.0000000
1.0000000 1.0000000 1.0000000
1.0000000 1.0000000 1.0000000
1.0000000 1.0000000 1.0000000
1.0000000 1.0000000 1.0000000
1.0000000 1.0000000 1.0000000
1.0000000 1.0000000 1.0000000
