release/datafiles/colormanagement/filmic/filmic_to_0-35_1-30.spi1d
Version 1
From 0.000000 1.000000
Length 4096
Components 1
{
    0.0000000000000E+0
    5.9973202403113E-5
    1.2000306906271E-4
    1.8008965102724E-4
    2.4023299938559E-4
    3.0043316526705E-4
    3.6069019984138E-4
    4.2100415431882E-4
    4.8137507995013E-4
    5.4180302802653E-4
    6.0228804987980E-4
    6.6283019688233E-4
    7.2342952044696E-4
    7.8408607202724E-4
    8.4479990311727E-4
    9.0557106525180E-4
    9.6639961000620E-4
    1.0272855889965E-3
    1.0882290538796E-3
    1.1492300563527E-3
    1.2102886481541E-3
    1.2714048810628E-3
    1.3325788068983E-3
    1.3938104775212E-3
    1.4550999448326E-3
    1.5164472607748E-3
    1.5778524773305E-3
    1.6393156465236E-3
    1.7008368204186E-3
    1.7624160511211E-3
    1.8240533907776E-3
    1.8857488915754E-3
    1.9475026057429E-3
    2.0093145855492E-3
    2.0711848833048E-3
    2.1331135513608E-3
    2.1951006421096E-3
    2.2571462079845E-3
    2.3192503014598E-3
    2.3814129750512E-3
    2.4436342813150E-3
    2.5059142728491E-3
    2.5682530022922E-3
    2.6306505223243E-3
    2.6931068856665E-3
    2.7556221450811E-3
    2.8181963533717E-3
    2.8808295633830E-3
    2.9435218280009E-3
    3.0062732001529E-3
    3.0690837328073E-3
    3.1319534789740E-3
    3.1948824917040E-3
    3.2578708240900E-3
    3.3209185292657E-3
    3.3840256604063E-3
    3.4471922707282E-3
    3.5104184134897E-3
    3.5737041419898E-3
    3.6370495095697E-3
    3.7004545696114E-3
    3.7639193755388E-3
    3.8274439808172E-3
    3.8910284389532E-3
    3.9546728034951E-3
    4.0183771280329E-3
    4.0821414661979E-3
    4.1459658716630E-3
    4.2098503981429E-3
    4.2737950993937E-3
    4.3378000292132E-3
    4.4018652414409E-3
    4.4659907899580E-3
    4.5301767286872E-3
    4.5944231115931E-3
    4.6587299926820E-3
    4.7230974260017E-3
    4.7875254656421E-3
    4.8520141657346E-3
    4.9165635804526E-3
    4.9811737640110E-3
    5.0458447706670E-3
    5.1105766547191E-3
    5.1753694705080E-3
    5.2402232724162E-3
    5.3051381148681E-3
    5.3701140523299E-3
    5.4351511393100E-3
    5.5002494303583E-3
    5.5654089800672E-3
    5.6306298430705E-3
    5.6959120740444E-3
    5.7612557277071E-3
    5.8266608588185E-3
    5.8921275221809E-3
    5.9576557726385E-3
    6.0232456650775E-3
    6.0888972544263E-3
    6.1546105956555E-3
    6.2203857437777E-3
    6.2862227538475E-3
    6.3521216809619E-3
    6.4180825802601E-3
    6.4841055069232E-3
    6.5501905161748E-3
    6.6163376632805E-3
    6.6825470035484E-3
    6.7488185923286E-3
    6.8151524850137E-3
    6.8815487370383E-3
    6.9480074038796E-3
    7.0145285410569E-3
    7.0811122041319E-3
    7.1477584487089E-3
    7.2144673304341E-3
    7.2812389049965E-3
    7.3480732281273E-3
    7.4149703556001E-3
    7.4819303432310E-3
    7.5489532468785E-3
    7.6160391224437E-3
    7.6831880258701E-3
    7.7504000131435E-3
    7.8176751402925E-3
    7.8850134633882E-3
    7.9524150385439E-3
    8.0198799219160E-3
    8.0874081697030E-3
    8.1549998381462E-3
    8.2226549835295E-3
    8.2903736621794E-3
    8.3581559304651E-3
    8.4260018447983E-3
    8.4939114616334E-3
    8.5618848374677E-3
    8.6299220288409E-3
    8.6980230923356E-3
    8.7661880845770E-3
    8.8344170622331E-3
    8.9027100820148E-3
    8.9710672006755E-3
    9.0394884750116E-3
    9.1079739618622E-3
    9.1765237181092E-3
    9.2451378006774E-3
    9.3138162665344E-3
    9.3825591726908E-3
    9.4513665761998E-3
    9.5202385341577E-3
    9.5891751037037E-3
    9.6581763420198E-3
    9.7272423063310E-3
    9.7963730539053E-3
    9.8655686420537E-3
    9.9348291281299E-3
    1.0004154569531E-2
    1.0073545023697E-2
    1.0143000548110E-2
    1.0212521200297E-2
    1.0282107037826E-2
    1.0351758118310E-2
    1.0421474499403E-2
    1.0491256238805E-2
    1.0561103394256E-2
    1.0631016023541E-2
    1.0700994184487E-2
    1.0771037934965E-2
    1.0841147332889E-2
    1.0911322436216E-2
    1.0981563302946E-2
    1.1051869991123E-2
    1.1122242558834E-2
    1.1192681064208E-2
    1.1263185565418E-2
    1.1333756120682E-2
    1.1404392788258E-2
    1.1475095626449E-2
    1.1545864693603E-2
    1.1616700048108E-2
    1.1687601748397E-2
    1.1758569852947E-2
    1.1829604420276E-2
    1.1900705508950E-2
    1.1971873177572E-2
    1.2043107484794E-2
    1.2114408489308E-2
    1.2185776249850E-2
    1.2257210825202E-2
    1.2328712274186E-2
    1.2400280655669E-2
    1.2471916028561E-2
    1.2543618451817E-2
    1.2615387984433E-2
    1.2687224685451E-2
    1.2759128613954E-2
    1.2831099829071E-2
    1.2903138389973E-2
    1.2975244355875E-2
    1.3047417786035E-2
    1.3119658739757E-2
    1.3191967276384E-2
    1.3264343455307E-2
    1.3336787335959E-2
    1.3409298977816E-2
    1.3481878440399E-2
    1.3554525783271E-2
    1.3627241066040E-2
    1.3700024348356E-2
    1.3772875689916E-2
    1.3845795150457E-2
    1.3918782789763E-2
    1.3991838667658E-2
    1.4064962844013E-2
    1.4138155378741E-2
    1.4211416331800E-2
    1.4284745763190E-2
    1.4358143732957E-2
    1.4431610301190E-2
    1.4505145528019E-2
    1.4578749473623E-2
    1.4652422198221E-2
    1.4726163762077E-2
    1.4799974225499E-2
    1.4873853648838E-2
    1.4947802092490E-2
    1.5021819616895E-2
    1.5095906282535E-2
    1.5170062149939E-2
    1.5244287279676E-2
    1.5318581732363E-2
    1.5392945568659E-2
    1.5467378849265E-2
    1.5541881634930E-2
    1.5616453986444E-2
    1.5691095964643E-2
    1.5765807630404E-2
    1.5840589044651E-2
    1.5915440268351E-2
    1.5990361362514E-2
    1.6065352388196E-2
    1.6140413406496E-2
    1.6215544478557E-2
    1.6290745665566E-2
    1.6366017028754E-2
    1.6441358629396E-2
    1.6516770528812E-2
    1.6592252788366E-2
    1.6667805469465E-2
    1.6743428633560E-2
    1.6819122342148E-2
    1.6894886656769E-2
    1.6970721639007E-2
    1.7046627350490E-2
    1.7122603852891E-2
    1.7198651207926E-2
    1.7274769477357E-2
    1.7350958722988E-2
    1.7427219006669E-2
    1.7503550390293E-2
    1.7579952935799E-2
    1.7656426705167E-2
    1.7732971760425E-2
    1.7809588163643E-2
    1.7886275976936E-2
    1.7963035262462E-2
    1.8039866082426E-2
    1.8116768499074E-2
    1.8193742574699E-2
    1.8270788371636E-2
    1.8347905952268E-2
    1.8425095379017E-2
    1.8502356714354E-2
    1.8579690020793E-2
    1.8657095360890E-2
    1.8734572797249E-2
    1.8812122392515E-2
    1.8889744209381E-2
    1.8967438310581E-2
    1.9045204758896E-2
    1.9123043617149E-2
    1.9200954948208E-2
    1.9278938814988E-2
    1.9356995280446E-2
    1.9435124407583E-2
    1.9513326259446E-2
    1.9591600899125E-2
    1.9669948389756E-2
    1.9748368794518E-2
    1.9826862176636E-2
    1.9905428599378E-2
    1.9984068126058E-2
    2.0062780820032E-2
    2.0141566744704E-2
    2.0220425963519E-2
    2.0299358539969E-2
    2.0378364537589E-2
    2.0457444019960E-2
    2.0536597050706E-2
    2.0615823693497E-2
    2.0695124012046E-2
    2.0774498070112E-2
    2.0853945931498E-2
    2.0933467660050E-2
    2.1013063319662E-2
    2.1092732974269E-2
    2.1172476687853E-2
    2.1252294524440E-2
    2.1332186548100E-2
    2.1412152822948E-2
    2.1492193413143E-2
    2.1572308382891E-2
    2.1652497796439E-2
    2.1732761718081E-2
    2.1813100212156E-2
    2.1893513343045E-2
    2.1974001175177E-2
    2.2054563773024E-2
    2.2135201201101E-2
    2.2215913523971E-2
    2.2296700806239E-2
    2.2377563112556E-2
    2.2458500507618E-2
    2.2539513056164E-2
    2.2620600822980E-2
    2.2701763872893E-2
    2.2783002270780E-2
    2.2864316081558E-2
    2.2945705370191E-2
    2.3027170201687E-2
    2.3108710641099E-2
    2.3190326753525E-2
    2.3272018604107E-2
    2.3353786258032E-2
    2.3435629780532E-2
    2.3517549236884E-2
    2.3599544692409E-2
    2.3681616212472E-2
    2.3763763862485E-2
    2.3845987707903E-2
    2.3928287814227E-2
    2.4010664247002E-2
    2.4093117071816E-2
    2.4175646354306E-2
    2.4258252160150E-2
    2.4340934555072E-2
    2.4423693604842E-2
    2.4506529375272E-2
    2.4589441932223E-2
    2.4672431341595E-2
    2.4755497669339E-2
    2.4838640981446E-2
    2.4921861343954E-2
    2.5005158822946E-2
    2.5088533484548E-2
    2.5171985394934E-2
    2.5255514620319E-2
    2.5339121226965E-2
    2.5422805281179E-2
    2.5506566849312E-2
    2.5590405997761E-2
    2.5674322792965E-2
    2.5758317301410E-2
    2.5842389589629E-2
    2.5926539724194E-2
    2.6010767771727E-2
    2.6095073798894E-2
    2.6179457872402E-2
    2.6263920059008E-2
    2.6348460425511E-2
    2.6433079038755E-2
    2.6517775965629E-2
    2.6602551273067E-2
    2.6687405028048E-2
    2.6772337297597E-2
    2.6857348148780E-2
    2.6942437648712E-2
    2.7027605864551E-2
    2.7112852863500E-2
    2.7198178712807E-2
    2.7283583479764E-2
    2.7369067231710E-2
    2.7454630036025E-2
    2.7540271960139E-2
    2.7625993071523E-2
    2.7711793437693E-2
    2.7797673126212E-2
    2.7883632204686E-2
    2.7969670740767E-2
    2.8055788802152E-2
    2.8141986456580E-2
    2.8228263771839E-2
    2.8314620815759E-2
    2.8401057656216E-2
    2.8487574361130E-2
    2.8574170998467E-2
    2.8660847636237E-2
    2.8747604342496E-2
    2.8834441185342E-2
    2.8921358232922E-2
    2.9008355553424E-2
    2.9095433215082E-2
    2.9182591286177E-2
    2.9269829835033E-2
    2.9357148930017E-2
    2.9444548639545E-2
    2.9532029032074E-2
    2.9619590176108E-2
    2.9707232140196E-2
    2.9794954992929E-2
    2.9882758802948E-2
    2.9970643638933E-2
    3.0058609569612E-2
    3.0146656663759E-2
    3.0234784990190E-2
    3.0322994617767E-2
    3.0411285615396E-2
    3.0499658052030E-2
    3.0588111996665E-2
    3.0676647518342E-2
    3.0765264686147E-2
    3.0853963569211E-2
    3.0942744236709E-2
    3.1031606757862E-2
    3.1120551201935E-2
    3.1209577638238E-2
    3.1298686136126E-2
    3.1387876764997E-2
    3.1477149594297E-2
    3.1566504693515E-2
    3.1655942132183E-2
    3.1745461979882E-2
    3.1835064306233E-2
    3.1924749180905E-2
    3.2014516673612E-2
    3.2104366854109E-2
    3.2194299792201E-2
    3.2284315557733E-2
    3.2374414220598E-2
    3.2464595850731E-2
    3.2554860518115E-2
    3.2645208292775E-2
    3.2735639244781E-2
    3.2826153444249E-2
    3.2916750961340E-2
    3.3007431866257E-2
    3.3098196229250E-2
    3.3189044120613E-2
    3.3279975610685E-2
    3.3370990769850E-2
    3.3462089668535E-2
    3.3553272377213E-2
    3.3644538966402E-2
    3.3735889506663E-2
    3.3827324068604E-2
    3.3918842722875E-2
    3.4010445540173E-2
    3.4102132591238E-2
    3.4193903946855E-2
    3.4285759677855E-2
    3.4377699855111E-2
    3.4469724549543E-2
    3.4561833832114E-2
    3.4654027773832E-2
    3.4746306445750E-2
    3.4838669918966E-2
    3.4931118264620E-2
    3.5023651553901E-2
    3.5116269858038E-2
    3.5208973248307E-2
    3.5301761796028E-2
    3.5394635572565E-2
    3.5487594649329E-2
    3.5580639097771E-2
    3.5673768989391E-2
    3.5766984395730E-2
    3.5860285388376E-2
    3.5953672038960E-2
    3.6047144419159E-2
    3.6140702600692E-2
    3.6234346655324E-2
    3.6328076654865E-2
    3.6421892671168E-2
    3.6515794776131E-2
    3.6609783041698E-2
    3.6703857539854E-2
    3.6798018342631E-2
    3.6892265522105E-2
    3.6986599150396E-2
    3.7081019299667E-2
    3.7175526042129E-2
    3.7270119450033E-2
    3.7364799595678E-2
    3.7459566551404E-2
    3.7554420389599E-2
    3.7649361182692E-2
    3.7744389003157E-2
    3.7839503923515E-2
    3.7934706016327E-2
    3.8029995354201E-2
    3.8125372009789E-2
    3.8220836055786E-2
    3.8316387564934E-2
    3.8412026610015E-2
    3.8507753263858E-2
    3.8603567599337E-2
    3.8699469689367E-2
    3.8795459606909E-2
    3.8891537424970E-2
    3.8987703216597E-2
    3.9083957054885E-2
    3.9180299012971E-2
    3.9276729164036E-2
    3.9373247581306E-2
    3.9469854338050E-2
    3.9566549507583E-2
    3.9663333163262E-2
    3.9760205378489E-2
    3.9857166226710E-2
    3.9954215781415E-2
    4.0051354116138E-2
    4.0148581304455E-2
    4.0245897419990E-2
    4.0343302536408E-2
    4.0440796727418E-2
    4.0538380066774E-2
    4.0636052628274E-2
    4.0733814485759E-2
    4.0831665713114E-2
    4.0929606384268E-2
    4.1027636573194E-2
    4.1125756353910E-2
    4.1223965800475E-2
    4.1322264986994E-2
    4.1420653987615E-2
    4.1519132876530E-2
    4.1617701727976E-2
    4.1716360616230E-2
    4.1815109615618E-2
    4.1913948800504E-2
    4.2012878245301E-2
    4.2111898024462E-2
    4.2211008212485E-2
    4.2310208883911E-2
    4.2409500113327E-2
    4.2508881975360E-2
    4.2608354544684E-2
    4.2707917896013E-2
    4.2807572104108E-2
    4.2907317243771E-2
    4.3007153389850E-2
    4.3107080617234E-2
    4.3207099000857E-2
    4.3307208615696E-2
    4.3407409536771E-2
    4.3507701839147E-2
    4.3608085597930E-2
    4.3708560888272E-2
    4.3809127785366E-2
    4.3909786364451E-2
    4.4010536700806E-2
    4.4111378869757E-2
    4.4212312946670E-2
    4.4313339006956E-2
    4.4414457126070E-2
    4.4515667379509E-2
    4.4616969842812E-2
    4.4718364591565E-2
    4.4819851701393E-2
    4.4921431247967E-2
    4.5023103307000E-2
    4.5124867954248E-2
    4.5226725265511E-2
    4.5328675316632E-2
    4.5430718183496E-2
    4.5532853942031E-2
    4.5635082668209E-2
    4.5737404438046E-2
    4.5839819327598E-2
    4.5942327412967E-2
    4.6044928770296E-2
    4.6147623475770E-2
    4.6250411605621E-2
    4.6353293236120E-2
    4.6456268443582E-2
    4.6559337304365E-2
    4.6662499894871E-2
    4.6765756291541E-2
    4.6869106570864E-2
    4.6972550809367E-2
    4.7076089083623E-2
    4.7179721470247E-2
    4.7283448045894E-2
    4.7387268887266E-2
    4.7491184071104E-2
    4.7595193674194E-2
    4.7699297773363E-2
    4.7803496445482E-2
    4.7907789767462E-2
    4.8012177816260E-2
    4.8116660668873E-2
    4.8221238402342E-2
    4.8325911093748E-2
    4.8430678820217E-2
    4.8535541658916E-2
    4.8640499687054E-2
    4.8745552981885E-2
    4.8850701620703E-2
    4.8955945680843E-2
    4.9061285239686E-2
    4.9166720374652E-2
    4.9272251163204E-2
    4.9377877682849E-2
    4.9483600011133E-2
    4.9589418225647E-2
    4.9695332404023E-2
    4.9801342623935E-2
    4.9907448963098E-2
    5.0013651499271E-2
    5.0119950310255E-2
    5.0226345473890E-2
    5.0332837068061E-2
    5.0439425170695E-2
    5.0546109859758E-2
    5.0652891213261E-2
    5.0759769309254E-2
    5.0866744225832E-2
    5.0973816041129E-2
    5.1080984833322E-2
    5.1188250680629E-2
    5.1295613661312E-2
    5.1403073853671E-2
    5.1510631336050E-2
    5.1618286186835E-2
    5.1726038484451E-2
    5.1833888307368E-2
    5.1941835734094E-2
    5.2049880843182E-2
    5.2158023713223E-2
    5.2266264422852E-2
    5.2374603050744E-2
    5.2483039675616E-2
    5.2591574376227E-2
    5.2700207231375E-2
    5.2808938319902E-2
    5.2917767720689E-2
    5.3026695512659E-2
    5.3135721774778E-2
    5.3244846586049E-2
    5.3354070025521E-2
    5.3463392172280E-2
    5.3572813105456E-2
    5.3682332904217E-2
    5.3791951647775E-2
    5.3901669415382E-2
    5.4011486286329E-2
    5.4121402339951E-2
    5.4231417655622E-2
    5.4341532312756E-2
    5.4451746390810E-2
    5.4562059969280E-2
    5.4672473127705E-2
    5.4782985945661E-2
    5.4893598502767E-2
    5.5004310878683E-2
    5.5115123153109E-2
    5.5226035405785E-2
    5.5337047716492E-2
    5.5448160165052E-2
    5.5559372831325E-2
    5.5670685795216E-2
    5.5782099136665E-2
    5.5893612935657E-2
    5.6005227272214E-2
    5.6116942226400E-2
    5.6228757878319E-2
    5.6340674308115E-2
    5.6452691595971E-2
    5.6564809822111E-2
    5.6677029066801E-2
    5.6789349410345E-2
    5.6901770933086E-2
    5.7014293715410E-2
    5.7126917837739E-2
    5.7239643380539E-2
    5.7352470424314E-2
    5.7465399049606E-2
    5.7578429337000E-2
    5.7691561367119E-2
    5.7804795220626E-2
    5.7918130978224E-2
    5.8031568720654E-2
    5.8145108528699E-2
    5.8258750483181E-2
    5.8372494664959E-2
    5.8486341154934E-2
    5.8600290034047E-2
    5.8714341383276E-2
    5.8828495283640E-2
    5.8942751816197E-2
    5.9057111062043E-2
    5.9171573102316E-2
    5.9286138018190E-2
    5.9400805890880E-2
    5.9515576801640E-2
    5.9630450831762E-2
    5.9745428062580E-2
    5.9860508575462E-2
    5.9975692451819E-2
    6.0090979773100E-2
    6.0206370620792E-2
    6.0321865076421E-2
    6.0437463221552E-2
    6.0553165137790E-2
    6.0668970906775E-2
    6.0784880610190E-2
    6.0900894329754E-2
    6.1017012147225E-2
    6.1133234144399E-2
    6.1249560403113E-2
    6.1365991005239E-2
    6.1482526032689E-2
    6.1599165567414E-2
    6.1715909691402E-2
    6.1832758486680E-2
    6.1949712035312E-2
    6.2066770419402E-2
    6.2183933721091E-2
    6.2301202022558E-2
    6.2418575406020E-2
    6.2536053953733E-2
    6.2653637747989E-2
    6.2771326871119E-2
    6.2889121405493E-2
    6.3007021433517E-2
    6.3125027037634E-2
    6.3243138300327E-2
    6.3361355304116E-2
    6.3479678131558E-2
    6.3598106865246E-2
    6.3716641587814E-2
    6.3835282381931E-2
    6.3954029330304E-2
    6.4072882515677E-2
    6.4191842020832E-2
    6.4310907928588E-2
    6.4430080321800E-2
    6.4549359283363E-2
    6.4668744896205E-2
    6.4788237243296E-2
    6.4907836407637E-2
    6.5027542472272E-2
    6.5147355520278E-2
    6.5267275634770E-2
    6.5387302898901E-2
    6.5507437395857E-2
    6.5627679208865E-2
    6.5748028421186E-2
    6.5868485116119E-2
    6.5989049376999E-2
    6.6109721287197E-2
    6.6230500930120E-2
    6.6351388389214E-2
    6.6472383747959E-2
    6.6593487089870E-2
    6.6714698498503E-2
    6.6836018057444E-2
    6.6957445850321E-2
    6.7078981960794E-2
    6.7200626472560E-2
    6.7322379469353E-2
    6.7444241034941E-2
    6.7566211253131E-2
    6.7688290207762E-2
    6.7810477982711E-2
    6.7932774661891E-2
    6.8055180329248E-2
    6.8177695068767E-2
    6.8300318964465E-2
    6.8423052100398E-2
    6.8545894560656E-2
    6.8668846429362E-2
    6.8791907790677E-2
    6.8915078728798E-2
    6.9038359327953E-2
    6.9161749672410E-2
    6.9285249846469E-2
    6.9408859934466E-2
    6.9532580020770E-2
    6.9656410189789E-2
    6.9780350525962E-2
    6.9904401113765E-2
    7.0028562037707E-2
    7.0152833382333E-2
    7.0277215232222E-2
    7.0401707671987E-2
    7.0526310786276E-2
    7.0651024659772E-2
    7.0775849377192E-2
    7.0900785023286E-2
    7.1025831682840E-2
    7.1150989440673E-2
    7.1276258381638E-2
    7.1401638590624E-2
    7.1527130152551E-2
    7.1652733152375E-2
    7.1778447675086E-2
    7.1904273805705E-2
    7.2030211629290E-2
    7.2156261230931E-2
    7.2282422695753E-2
    7.2408696108912E-2
    7.2535081555599E-2
    7.2661579121040E-2
    7.2788188890491E-2
    7.2914910949243E-2
    7.3041745382621E-2
    7.3168692275982E-2
    7.3295751714717E-2
    7.3422923784248E-2
    7.3550208570033E-2
    7.3677606157560E-2
    7.3805116632351E-2
    7.3932740079961E-2
    7.4060476585978E-2
    7.4188326236022E-2
    7.4316289115745E-2
    7.4444365310833E-2
    7.4572554907003E-2
    7.4700857990005E-2
    7.4829274645621E-2
    7.4957804959665E-2
    7.5086449017985E-2
    7.5215206906458E-2
    7.5344078710996E-2
    7.5473064517540E-2
    7.5602164412066E-2
    7.5731378480579E-2
    7.5860706809117E-2
    7.5990149483751E-2
    7.6119706590581E-2
    7.6249378215739E-2
    7.6379164445391E-2
    7.6509065365732E-2
    7.6639081062988E-2
    7.6769211623417E-2
    7.6899457133310E-2
    7.7029817678985E-2
    7.7160293346796E-2
    7.7290884223123E-2
    7.7421590394380E-2
    7.7552411947011E-2
    7.7683348967491E-2
    7.7814401542325E-2
    7.7945569758049E-2
    7.8076853701229E-2
    7.8208253458463E-2
    7.8339769116378E-2
    7.8471400761630E-2
    7.8603148480909E-2
    7.8735012360932E-2
    7.8866992488446E-2
    7.8999088950230E-2
    7.9131301833091E-2
    7.9263631223868E-2
    7.9396077209427E-2
    7.9528639876666E-2
    7.9661319312511E-2
    7.9794115603919E-2
    7.9927028837875E-2
    8.0060059101394E-2
    8.0193206481521E-2
    8.0326471065330E-2
    8.0459852939922E-2
    8.0593352192430E-2
    8.0726968910014E-2
    8.0860703179864E-2
    8.0994555089199E-2
    8.1128524725265E-2
    8.1262612175338E-2
    8.1396817526724E-2
    8.1531140866754E-2
    8.1665582282790E-2
    8.1800141862222E-2
    8.1934819692468E-2
    8.2069615860973E-2
    8.2204530455213E-2
    8.2339563562688E-2
    8.2474715270930E-2
    8.2609985667496E-2
    8.2745374839973E-2
    8.2880882875972E-2
    8.3016509863137E-2
    8.3152255889134E-2
    8.3288121041660E-2
    8.3424105408439E-2
    8.3560209077220E-2
    8.3696432135782E-2
    8.3832774671930E-2
    8.3969236773495E-2
    8.4105818528336E-2
    8.4242520024338E-2
    8.4379341349414E-2
    8.4516282591504E-2
    8.4653343838572E-2
    8.4790525178611E-2
    8.4927826699638E-2
    8.5065248489700E-2
    8.5202790636867E-2
    8.5340453229235E-2
    8.5478236354929E-2
    8.5616140102098E-2
    8.5754164558916E-2
    8.5892309813584E-2
    8.6030575954329E-2
    8.6168963069402E-2
    8.6307471247083E-2
    8.6446100575673E-2
    8.6584851143501E-2
    8.6723723038920E-2
    8.6862716350310E-2
    8.7001831166075E-2
    8.7141067574642E-2
    8.7280425664466E-2
    8.7419905524026E-2
    8.7559507241824E-2
    8.7699230906388E-2
    8.7839076606270E-2
    8.7979044430048E-2
    8.8119134466323E-2
    8.8259346803718E-2
    8.8399681530885E-2
    8.8540138736496E-2
    8.8680718509248E-2
    8.8821420937864E-2
    8.8962246111087E-2
    8.9103194117687E-2
    8.9244265046455E-2
    8.9385458986208E-2
    8.9526776025784E-2
    8.9668216254046E-2
    8.9809779759879E-2
    8.9951466632192E-2
    9.0093276959916E-2
    9.0235210832005E-2
    9.0377268337438E-2
    9.0519449565213E-2
    9.0661754604353E-2
    9.0804183543904E-2
    9.0946736472932E-2
    9.1089413480528E-2
    9.1232214655802E-2
    9.1375140087890E-2
    9.1518189865947E-2
    9.1661364079150E-2
    9.1804662816699E-2
    9.1948086167817E-2
    9.2091634221744E-2
    9.2235307067747E-2
    9.2379104795110E-2
    9.2523027493141E-2
    9.2667075251168E-2
    9.2811248158540E-2
    9.2955546304627E-2
    9.3099969778820E-2
    9.3244518670532E-2
    9.3389193069194E-2
    9.3533993064261E-2
    9.3678918745204E-2
    9.3823970201519E-2
    9.3969147522719E-2
    9.4114450798339E-2
    9.4259880117932E-2
    9.4405435571074E-2
    9.4551117247357E-2
    9.4696925236396E-2
    9.4842859627823E-2
    9.4988920511293E-2
    9.5135107976475E-2
    9.5281422113063E-2
    9.5427863010767E-2
    9.5574430759316E-2
    9.5721125448459E-2
    9.5867947167964E-2
    9.6014896007615E-2
    9.6161972057219E-2
    9.6309175406599E-2
    9.6456506145595E-2
    9.6603964364068E-2
    9.6751550151897E-2
    9.6899263598977E-2
    9.7047104795222E-2
    9.7195073830565E-2
    9.7343170794954E-2
    9.7491395778358E-2
    9.7639748870761E-2
    9.7788230162165E-2
    9.7936839742589E-2
