release/datafiles/colormanagement/filmic/filmic_desat_33.cube
TITLE "filmic_desat_33"
# A Downgraded version of the Filmic LUT, original spi3d LUT has size of 65, this one is down to 33
LUT_3D_SIZE 9
0.0001758 0.0001758 0.0001758
0.1250000 0.0001758 0.0001758
0.2500000 0.0001758 0.0001758
0.3750000 0.0001758 0.0001758
0.5000000 0.0001758 0.0001758
0.6250000 0.0001758 0.0001758
0.7500000 0.4649270 0.4649270
0.8750000 0.7365330 0.7365330
1.0000000 1.0000000 1.0000000
0.0001758 0.1250000 0.0001758
0.1250000 0.1250000 0.0001758
0.2500000 0.1250000 0.0001758
0.3750000 0.1250000 0.0001758
0.5000000 0.1250000 0.0001758
0.6250000 0.1250000 0.0001758
0.7500000 0.4650670 0.4649270
0.8750000 0.7365340 0.7365330
1.0000000 1.0000000 1.0000000
0.0001758 0.2500000 0.0001758
0.1250000 0.2500000 0.0001758
0.2500000 0.2500000 0.0001758
0.3750000 0.2500000 0.0001758
0.5000000 0.2500000 0.0001758
0.6250000 0.2500000 0.0001758
0.7500000 0.4662750 0.4649270
0.8750000 0.7365450 0.7365330
1.0000000 1.0000000 1.0000000
0.0001758 0.3750000 0.0001758
0.1250000 0.3750000 0.0001758
0.2500000 0.3750000 0.0001758
0.3750000 0.3750000 0.0001758
0.5000000 0.3750000 0.0001758
0.6250000 0.3750000 0.0001758
0.7500000 0.4758630 0.4649270
0.8750000 0.7366330 0.7365330
1.0000000 1.0000000 1.0000000
0.0001758 0.5000000 0.0001758
0.1250000 0.5000000 0.0001758
0.2500000 0.5000000 0.0001758
0.3750000 0.5000000 0.0001758
0.5000000 0.5000000 0.0001758
0.6250000 0.5000000 0.0001758
0.7500000 0.5248140 0.4649270
0.8750000 0.7373970 0.7365330
1.0000000 1.0000000 1.0000000
0.0001758 0.6250000 0.0001758
0.1250000 0.6250000 0.0001758
0.2500000 0.6250000 0.0001758
0.3750000 0.6250000 0.0001758
0.5000000 0.6250000 0.0001758
0.6250000 0.6250000 0.0001758
0.7500000 0.6281030 0.4649270
0.8750000 0.7436680 0.7365330
1.0000000 1.0000000 1.0000000
0.4649270 0.7500000 0.4649270
0.4650670 0.7500000 0.4649270
0.4662750 0.7500000 0.4649270
0.4758630 0.7500000 0.4649270
0.5248140 0.7500000 0.4649270
0.6281030 0.7500000 0.4649270
0.7500000 0.7500000 0.4649270
0.8750000 0.7806590 0.7365330
1.0000000 1.0000000 1.0000000
0.7365330 0.8750000 0.7365330
0.7365340 0.8750000 0.7365330
0.7365450 0.8750000 0.7365330
0.7366330 0.8750000 0.7365330
0.7373970 0.8750000 0.7365330
0.7436680 0.8750000 0.7365330
0.7806590 0.8750000 0.7365330
0.8750000 0.8750000 0.7365330
1.0000000 1.0000000 1.0000000
1.0000000 1.0000000 1.0000000
1.0000000 1.0000000 1.0000000
1.0000000 1.0000000 1.0000000
1.0000000 1.0000000 1.0000000
1.0000000 1.0000000 1.0000000
1.0000000 1.0000000 1.0000000
1.0000000 1.0000000 1.0000000
1.0000000 1.0000000 1.0000000
1.0000000 1.0000000 1.0000000
0.0001758 0.0001758 0.1250000
0.1250000 0.0001758 0.1250000
0.2500000 0.0001758 0.1250000
0.3750000 0.0001758 0.1250000
0.5000000 0.0001758 0.1250000
0.6250000 0.0001758 0.1250000
0.7500000 0.4649270 0.4650670
0.8750000 0.7365330 0.7365340
1.0000000 1.0000000 1.0000000
0.0001758 0.1250000 0.1250000
0.1250000 0.1250000 0.1250000
0.2500000 0.1250000 0.1250000
0.3750000 0.1250000 0.1250000
0.5000000 0.1250000 0.1250000
0.6250000 0.1250000 0.1250000
0.7500000 0.4650670 0.4650670
0.8750000 0.7365340 0.7365340
1.0000000 1.0000000 1.0000000
0.0001758 0.2500000 0.1250000
0.1250000 0.2500000 0.1250000
0.2500000 0.2500000 0.1250000
0.3750000 0.2500000 0.1250000
0.5000000 0.2500000 0.1250000
0.6250000 0.2500000 0.1250000
0.7500000 0.4662750 0.4650670
0.8750000 0.7365450 0.7365340
1.0000000 1.0000000 1.0000000
0.0001758 0.3750000 0.1250000
0.1250000 0.3750000 0.1250000
0.2500000 0.3750000 0.1250000
0.3750000 0.3750000 0.1250000
0.5000000 0.3750000 0.1250000
0.6250000 0.3750000 0.1250000
0.7500000 0.4758630 0.4650670
0.8750000 0.7366330 0.7365340
1.0000000 1.0000000 1.0000000
0.0001758 0.5000000 0.1250000
0.1250000 0.5000000 0.1250000
0.2500000 0.5000000 0.1250000
0.3750000 0.5000000 0.1250000
0.5000000 0.5000000 0.1250000
0.6250000 0.5000000 0.1250000
0.7500000 0.5248140 0.4650670
0.8750000 0.7373970 0.7365340
1.0000000 1.0000000 1.0000000
0.0001758 0.6250000 0.1250000
0.1250000 0.6250000 0.1250000
0.2500000 0.6250000 0.1250000
0.3750000 0.6250000 0.1250000
0.5000000 0.6250000 0.1250000
0.6250000 0.6250000 0.1250000
0.7500000 0.6281030 0.4650670
0.8750000 0.7436680 0.7365340
1.0000000 1.0000000 1.0000000
0.4649270 0.7500000 0.4650670
0.4650670 0.7500000 0.4650670
0.4662750 0.7500000 0.4650670
0.4758630 0.7500000 0.4650670
0.5248140 0.7500000 0.4650670
0.6281030 0.7500000 0.4650670
0.7500000 0.7500000 0.4650670
0.8750000 0.7806590 0.7365340
1.0000000 1.0000000 1.0000000
0.7365330 0.8750000 0.7365340
0.7365340 0.8750000 0.7365340
0.7365450 0.8750000 0.7365340
0.7366330 0.8750000 0.7365340
0.7373970 0.8750000 0.7365340
0.7436680 0.8750000 0.7365340
0.7806590 0.8750000 0.7365340
0.8750000 0.8750000 0.7365340
1.0000000 1.0000000 1.0000000
1.0000000 1.0000000 1.0000000
1.0000000 1.0000000 1.0000000
1.0000000 1.0000000 1.0000000
1.0000000 1.0000000 1.0000000
1.0000000 1.0000000 1.0000000
1.0000000 1.0000000 1.0000000
1.0000000 1.0000000 1.0000000
1.0000000 1.0000000 1.0000000
1.0000000 1.0000000 1.0000000
0.0001758 0.0001758 0.2500000
0.1250000 0.0001758 0.2500000
0.2500000 0.0001758 0.2500000
0.3750000 0.0001758 0.2500000
0.5000000 0.0001758 0.2500000
0.6250000 0.0001758 0.2500000
0.7500000 0.4649270 0.4662750
0.8750000 0.7365330 0.7365450
1.0000000 1.0000000 1.0000000
0.0001758 0.1250000 0.2500000
0.1250000 0.1250000 0.2500000
0.2500000 0.1250000 0.2500000
0.3750000 0.1250000 0.2500000
0.5000000 0.1250000 0.2500000
0.6250000 0.1250000 0.2500000
0.7500000 0.4650670 0.4662750
0.8750000 0.7365340 0.7365450
1.0000000 1.0000000 1.0000000
0.0001758 0.2500000 0.2500000
0.1250000 0.2500000 0.2500000
0.2500000 0.2500000 0.2500000
0.3750000 0.2500000 0.2500000
0.5000000 0.2500000 0.2500000
0.6250000 0.2500000 0.2500000
0.7500000 0.4662750 0.4662750
0.8750000 0.7365450 0.7365450
1.0000000 1.0000000 1.0000000
0.0001758 0.3750000 0.2500000
0.1250000 0.3750000 0.2500000
0.2500000 0.3750000 0.2500000
0.3750000 0.3750000 0.2500000
0.5000000 0.3750000 0.2500000
0.6250000 0.3750000 0.2500000
0.7500000 0.4758630 0.4662750
0.8750000 0.7366330 0.7365450
1.0000000 1.0000000 1.0000000
0.0001758 0.5000000 0.2500000
0.1250000 0.5000000 0.2500000
0.2500000 0.5000000 0.2500000
0.3750000 0.5000000 0.2500000
0.5000000 0.5000000 0.2500000
0.6250000 0.5000000 0.2500000
0.7500000 0.5248140 0.4662750
0.8750000 0.7373970 0.7365450
1.0000000 1.0000000 1.0000000
0.0001758 0.6250000 0.2500000
0.1250000 0.6250000 0.2500000
0.2500000 0.6250000 0.2500000
0.3750000 0.6250000 0.2500000
0.5000000 0.6250000 0.2500000
0.6250000 0.6250000 0.2500000
0.7500000 0.6281030 0.4662750
0.8750000 0.7436680 0.7365450
1.0000000 1.0000000 1.0000000
0.4649270 0.7500000 0.4662750
0.4650670 0.7500000 0.4662750
0.4662750 0.7500000 0.4662750
0.4758630 0.7500000 0.4662750
0.5248140 0.7500000 0.4662750
0.6281030 0.7500000 0.4662750
0.7500000 0.7500000 0.4662750
0.8750000 0.7806590 0.7365450
1.0000000 1.0000000 1.0000000
0.7365330 0.8750000 0.7365450
0.7365340 0.8750000 0.7365450
0.7365450 0.8750000 0.7365450
0.7366330 0.8750000 0.7365450
0.7373970 0.8750000 0.7365450
0.7436680 0.8750000 0.7365450
0.7806590 0.8750000 0.7365450
0.8750000 0.8750000 0.7365450
1.0000000 1.0000000 1.0000000
1.0000000 1.0000000 1.0000000
1.0000000 1.0000000 1.0000000
1.0000000 1.0000000 1.0000000
1.0000000 1.0000000 1.0000000
1.0000000 1.0000000 1.0000000
1.0000000 1.0000000 1.0000000
1.0000000 1.0000000 1.0000000
1.0000000 1.0000000 1.0000000
1.0000000 1.0000000 1.0000000
0.0001758 0.0001758 0.3750000
0.1250000 0.0001758 0.3750000
0.2500000 0.0001758 0.3750000
0.3750000 0.0001758 0.3750000
0.5000000 0.0001758 0.3750000
0.6250000 0.0001758 0.3750000
0.7500000 0.4649270 0.4758630
0.8750000 0.7365330 0.7366330
1.0000000 1.0000000 1.0000000
0.0001758 0.1250000 0.3750000
0.1250000 0.1250000 0.3750000
0.2500000 0.1250000 0.3750000
0.3750000 0.1250000 0.3750000
0.5000000 0.1250000 0.3750000
0.6250000 0.1250000 0.3750000
0.7500000 0.4650670 0.4758630
0.8750000 0.7365340 0.7366330
1.0000000 1.0000000 1.0000000
0.0001758 0.2500000 0.3750000
0.1250000 0.2500000 0.3750000
0.2500000 0.2500000 0.3750000
0.3750000 0.2500000 0.3750000
0.5000000 0.2500000 0.3750000
0.6250000 0.2500000 0.3750000
0.7500000 0.4662750 0.4758630
0.8750000 0.7365450 0.7366330
1.0000000 1.0000000 1.0000000
0.0001758 0.3750000 0.3750000
0.1250000 0.3750000 0.3750000
0.2500000 0.3750000 0.3750000
0.3750000 0.3750000 0.3750000
0.5000000 0.3750000 0.3750000
0.6250000 0.3750000 0.3750000
0.7500000 0.4758630 0.4758630
0.8750000 0.7366330 0.7366330
1.0000000 1.0000000 1.0000000
0.0001758 0.5000000 0.3750000
0.1250000 0.5000000 0.3750000
0.2500000 0.5000000 0.3750000
0.3750000 0.5000000 0.3750000
0.5000000 0.5000000 0.3750000
0.6250000 0.5000000 0.3750000
0.7500000 0.5248140 0.4758630
0.8750000 0.7373970 0.7366330
1.0000000 1.0000000 1.0000000
0.0001758 0.6250000 0.3750000
0.1250000 0.6250000 0.3750000
0.2500000 0.6250000 0.3750000
0.3750000 0.6250000 0.3750000
0.5000000 0.6250000 0.3750000
0.6250000 0.6250000 0.3750000
0.7500000 0.6281030 0.4758630
0.8750000 0.7436680 0.7366330
1.0000000 1.0000000 1.0000000
0.4649270 0.7500000 0.4758630
0.4650670 0.7500000 0.4758630
0.4662750 0.7500000 0.4758630
0.4758630 0.7500000 0.4758630
0.5248140 0.7500000 0.4758630
0.6281030 0.7500000 0.4758630
0.7500000 0.7500000 0.4758630
0.8750000 0.7806590 0.7366330
1.0000000 1.0000000 1.0000000
0.7365330 0.8750000 0.7366330
0.7365340 0.8750000 0.7366330
0.7365450 0.8750000 0.7366330
0.7366330 0.8750000 0.7366330
0.7373970 0.8750000 0.7366330
0.7436680 0.8750000 0.7366330
0.7806590 0.8750000 0.7366330
0.8750000 0.8750000 0.7366330
1.0000000 1.0000000 1.0000000
1.0000000 1.0000000 1.0000000
1.0000000 1.0000000 1.0000000
1.0000000 1.0000000 1.0000000
1.0000000 1.0000000 1.0000000
1.0000000 1.0000000 1.0000000
1.0000000 1.0000000 1.0000000
1.0000000 1.0000000 1.0000000
1.0000000 1.0000000 1.0000000
1.0000000 1.0000000 1.0000000
0.0001758 0.0001758 0.5000000
0.1250000 0.0001758 0.5000000
0.2500000 0.0001758 0.5000000
0.3750000 0.0001758 0.5000000
0.5000000 0.0001758 0.5000000
0.6250000 0.0001758 0.5000000
0.7500000 0.4649270 0.5248140
0.8750000 0.7365330 0.7373970
1.0000000 1.0000000 1.0000000
0.0001758 0.1250000 0.5000000
0.1250000 0.1250000 0.5000000
0.2500000 0.1250000 0.5000000
0.3750000 0.1250000 0.5000000
0.5000000 0.1250000 0.5000000
0.6250000 0.1250000 0.5000000
0.7500000 0.4650670 0.5248140
0.8750000 0.7365340 0.7373970
1.0000000 1.0000000 1.0000000
0.0001758 0.2500000 0.5000000
0.1250000 0.2500000 0.5000000
0.2500000 0.2500000 0.5000000
0.3750000 0.2500000 0.5000000
0.5000000 0.2500000 0.5000000
0.6250000 0.2500000 0.5000000
0.7500000 0.4662750 0.5248140
0.8750000 0.7365450 0.7373970
1.0000000 1.0000000 1.0000000
0.0001758 0.3750000 0.5000000
0.1250000 0.3750000 0.5000000
0.2500000 0.3750000 0.5000000
0.3750000 0.3750000 0.5000000
0.5000000 0.3750000 0.5000000
0.6250000 0.3750000 0.5000000
0.7500000 0.4758630 0.5248140
0.8750000 0.7366330 0.7373970
1.0000000 1.0000000 1.0000000
0.0001758 0.5000000 0.5000000
0.1250000 0.5000000 0.5000000
0.2500000 0.5000000 0.5000000
0.3750000 0.5000000 0.5000000
0.5000000 0.5000000 0.5000000
0.6250000 0.5000000 0.5000000
0.7500000 0.5248140 0.5248140
0.8750000 0.7373970 0.7373970
1.0000000 1.0000000 1.0000000
0.0001758 0.6250000 0.5000000
0.1250000 0.6250000 0.5000000
0.2500000 0.6250000 0.5000000
0.3750000 0.6250000 0.5000000
0.5000000 0.6250000 0.5000000
0.6250000 0.6250000 0.5000000
0.7500000 0.6281030 0.5248140
0.8750000 0.7436680 0.7373970
1.0000000 1.0000000 1.0000000
0.4649270 0.7500000 0.5248140
0.4650670 0.7500000 0.5248140
0.4662750 0.7500000 0.5248140
0.4758630 0.7500000 0.5248140
0.5248140 0.7500000 0.5248140
0.6281030 0.7500000 0.5248140
0.7500000 0.7500000 0.5248140
0.8750000 0.7806590 0.7373970
1.0000000 1.0000000 1.0000000
0.7365330 0.8750000 0.7373970
0.7365340 0.8750000 0.7373970
0.7365450 0.8750000 0.7373970
0.7366330 0.8750000 0.7373970
0.7373970 0.8750000 0.7373970
0.7436680 0.8750000 0.7373970
0.7806590 0.8750000 0.7373970
0.8750000 0.8750000 0.7373970
1.0000000 1.0000000 1.0000000
1.0000000 1.0000000 1.0000000
1.0000000 1.0000000 1.0000000
1.0000000 1.0000000 1.0000000
1.0000000 1.0000000 1.0000000
1.0000000 1.0000000 1.0000000
1.0000000 1.0000000 1.0000000
1.0000000 1.0000000 1.0000000
1.0000000 1.0000000 1.0000000
1.0000000 1.0000000 1.0000000
0.0001758 0.0001758 0.6250000
0.1250000 0.0001758 0.6250000
0.2500000 0.0001758 0.6250000
0.3750000 0.0001758 0.6250000
0.5000000 0.0001758 0.6250000
0.6250000 0.0001758 0.6250000
0.7500000 0.4649270 0.6281030
0.8750000 0.7365330 0.7436680
1.0000000 1.0000000 1.0000000
0.0001758 0.1250000 0.6250000
0.1250000 0.1250000 0.6250000
0.2500000 0.1250000 0.6250000
0.3750000 0.1250000 0.6250000
0.5000000 0.1250000 0.6250000
0.6250000 0.1250000 0.6250000
0.7500000 0.4650670 0.6281030
0.8750000 0.7365340 0.7436680
1.0000000 1.0000000 1.0000000
0.0001758 0.2500000 0.6250000
0.1250000 0.2500000 0.6250000
0.2500000 0.2500000 0.6250000
0.3750000 0.2500000 0.6250000
0.5000000 0.2500000 0.6250000
0.6250000 0.2500000 0.6250000
0.7500000 0.4662750 0.6281030
0.8750000 0.7365450 0.7436680
1.0000000 1.0000000 1.0000000
0.0001758 0.3750000 0.6250000
0.1250000 0.3750000 0.6250000
0.2500000 0.3750000 0.6250000
0.3750000 0.3750000 0.6250000
0.5000000 0.3750000 0.6250000
0.6250000 0.3750000 0.6250000
0.7500000 0.4758630 0.6281030
0.8750000 0.7366330 0.7436680
1.0000000 1.0000000 1.0000000
0.0001758 0.5000000 0.6250000
0.1250000 0.5000000 0.6250000
0.2500000 0.5000000 0.6250000
0.3750000 0.5000000 0.6250000
0.5000000 0.5000000 0.6250000
0.6250000 0.5000000 0.6250000
0.7500000 0.5248140 0.6281030
0.8750000 0.7373970 0.7436680
1.0000000 1.0000000 1.0000000
0.0001758 0.6250000 0.6250000
0.1250000 0.6250000 0.6250000
0.2500000 0.6250000 0.6250000
0.3750000 0.6250000 0.6250000
0.5000000 0.6250000 0.6250000
0.6250000 0.6250000 0.6250000
0.7500000 0.6281030 0.6281030
0.8750000 0.7436680 0.7436680
1.0000000 1.0000000 1.0000000
0.4649270 0.7500000 0.6281030
0.4650670 0.7500000 0.6281030
0.4662750 0.7500000 0.6281030
0.4758630 0.7500000 0.6281030
0.5248140 0.7500000 0.6281030
0.6281030 0.7500000 0.6281030
0.7500000 0.7500000 0.6281030
0.8750000 0.7806590 0.7436680
1.0000000 1.0000000 1.0000000
0.7365330 0.8750000 0.7436680
0.7365340 0.8750000 0.7436680
0.7365450 0.8750000 0.7436680
0.7366330 0.8750000 0.7436680
0.7373970 0.8750000 0.7436680
0.7436680 0.8750000 0.7436680
0.7806590 0.8750000 0.7436680
0.8750000 0.8750000 0.7436680
1.0000000 1.0000000 1.0000000
1.0000000 1.0000000 1.0000000
1.0000000 1.0000000 1.0000000
1.0000000 1.0000000 1.0000000
1.0000000 1.0000000 1.0000000
1.0000000 1.0000000 1.0000000
1.0000000 1.0000000 1.0000000
1.0000000 1.0000000 1.0000000
1.0000000 1.0000000 1.0000000
1.0000000 1.0000000 1.0000000
0.4649270 0.4649270 0.7500000
0.4650670 0.4649270 0.7500000
0.4662750 0.4649270 0.7500000
0.4758630 0.4649270 0.7500000
0.5248140 0.4649270 0.7500000
0.6281030 0.4649270 0.7500000
0.7500000 0.4649270 0.7500000
0.8750000 0.7365330 0.7806590
1.0000000 1.0000000 1.0000000
0.4649270 0.4650670 0.7500000
0.4650670 0.4650670 0.7500000
0.4662750 0.4650670 0.7500000
0.4758630 0.4650670 0.7500000
0.5248140 0.4650670 0.7500000
0.6281030 0.4650670 0.7500000
0.7500000 0.4650670 0.7500000
0.8750000 0.7365340 0.7806590
1.0000000 1.0000000 1.0000000
0.4649270 0.4662750 0.7500000
0.4650670 0.4662750 0.7500000
0.4662750 0.4662750 0.7500000
0.4758630 0.4662750 0.7500000
0.5248140 0.4662750 0.7500000
0.6281030 0.4662750 0.7500000
0.7500000 0.4662750 0.7500000
0.8750000 0.7365450 0.7806590
1.0000000 1.0000000 1.0000000
0.4649270 0.4758630 0.7500000
0.4650670 0.4758630 0.7500000
0.4662750 0.4758630 0.7500000
0.4758630 0.4758630 0.7500000
0.5248140 0.4758630 0.7500000
0.6281030 0.4758630 0.7500000
0.7500000 0.4758630 0.7500000
0.8750000 0.7366330 0.7806590
1.0000000 1.0000000 1.0000000
0.4649270 0.5248140 0.7500000
0.4650670 0.5248140 0.7500000
0.4662750 0.5248140 0.7500000
0.4758630 0.5248140 0.7500000
0.5248140 0.5248140 0.7500000
0.6281030 0.5248140 0.7500000
0.7500000 0.5248140 0.7500000
0.8750000 0.7373970 0.7806590
1.0000000 1.0000000 1.0000000
0.4649270 0.6281030 0.7500000
0.4650670 0.6281030 0.7500000
0.4662750 0.6281030 0.7500000
0.4758630 0.6281030 0.7500000
0.5248140 0.6281030 0.7500000
0.6281030 0.6281030 0.7500000
0.7500000 0.6281030 0.7500000
0.8750000 0.7436680 0.7806590
1.0000000 1.0000000 1.0000000
0.4649270 0.7500000 0.7500000
0.4650670 0.7500000 0.7500000
0.4662750 0.7500000 0.7500000
0.4758630 0.7500000 0.7500000
0.5248140 0.7500000 0.7500000
0.6281030 0.7500000 0.7500000
0.7500000 0.7500000 0.7500000
0.8750000 0.7806590 0.7806590
1.0000000 1.0000000 1.0000000
0.7365330 0.8750000 0.7806590
0.7365340 0.8750000 0.7806590
0.7365450 0.8750000 0.7806590
0.7366330 0.8750000 0.7806590
0.7373970 0.8750000 0.7806590
0.7436680 0.8750000 0.7806590
0.7806590 0.8750000 0.7806590
0.8750000 0.8750000 0.7806590
1.0000000 1.0000000 1.0000000
1.0000000 1.0000000 1.0000000
1.0000000 1.0000000 1.0000000
1.0000000 1.0000000 1.0000000
1.0000000 1.0000000 1.0000000
1.0000000 1.0000000 1.0000000
1.0000000 1.0000000 1.0000000
1.0000000 1.0000000 1.0000000
1.0000000 1.0000000 1.0000000
1.0000000 1.0000000 1.0000000
0.7365330 0.7365330 0.8750000
0.7365340 0.7365330 0.8750000
0.7365450 0.7365330 0.8750000
0.7366330 0.7365330 0.8750000
0.7373970 0.7365330 0.8750000
0.7436680 0.7365330 0.8750000
0.7806590 0.7365330 0.8750000
0.8750000 0.7365330 0.8750000
1.0000000 1.0000000 1.0000000
0.7365330 0.7365340 0.8750000
0.7365340 0.7365340 0.8750000
0.7365450 0.7365340 0.8750000
0.7366330 0.7365340 0.8750000
0.7373970 0.7365340 0.8750000
0.7436680 0.7365340 0.8750000
0.7806590 0.7365340 0.8750000
0.8750000 0.7365340 0.8750000
1.0000000 1.0000000 1.0000000
0.7365330 0.7365450 0.8750000
0.7365340 0.7365450 0.8750000
0.7365450 0.7365450 0.8750000
0.7366330 0.7365450 0.8750000
0.7373970 0.7365450 0.8750000
0.7436680 0.7365450 0.8750000
0.7806590 0.7365450 0.8750000
0.8750000 0.7365450 0.8750000
1.0000000 1.0000000 1.0000000
0.7365330 0.7366330 0.8750000
0.7365340 0.7366330 0.8750000
0.7365450 0.7366330 0.8750000
0.7366330 0.7366330 0.8750000
0.7373970 0.7366330 0.8750000
0.7436680 0.7366330 0.8750000
0.7806590 0.7366330 0.8750000
0.8750000 0.7366330 0.8750000
1.0000000 1.0000000 1.0000000
0.7365330 0.7373970 0.8750000
0.7365340 0.7373970 0.8750000
0.7365450 0.7373970 0.8750000
0.7366330 0.7373970 0.8750000
0.7373970 0.7373970 0.8750000
0.7436680 0.7373970 0.8750000
0.7806590 0.7373970 0.8750000
0.8750000 0.7373970 0.8750000
1.0000000 1.0000000 1.0000000
0.7365330 0.7436680 0.8750000
0.7365340 0.7436680 0.8750000
0.7365450 0.7436680 0.8750000
0.7366330 0.7436680 0.8750000
0.7373970 0.7436680 0.8750000
0.7436680 0.7436680 0.8750000
0.7806590 0.7436680 0.8750000
0.8750000 0.7436680 0.8750000
1.0000000 1.0000000 1.0000000
0.7365330 0.7806590 0.8750000
0.7365340 0.7806590 0.8750000
0.7365450 0.7806590 0.8750000
0.7366330 0.7806590 0.8750000
0.7373970 0.7806590 0.8750000
0.7436680 0.7806590 0.8750000
0.7806590 0.7806590 0.8750000
0.8750000 0.7806590 0.8750000
1.0000000 1.0000000 1.0000000
0.7365330 0.8750000 0.8750000
0.7365340 0.8750000 0.8750000
0.7365450 0.8750000 0.8750000
0.7366330 0.8750000 0.8750000
0.7373970 0.8750000 0.8750000
0.7436680 0.8750000 0.8750000
0.7806590 0.8750000 0.8750000
0.8750000 0.8750000 0.8750000
1.0000000 1.0000000 1.0000000
1.0000000 1.0000000 1.0000000
1.0000000 1.0000000 1.0000000
1.0000000 1.0000000 1.0000000
1.0000000 1.0000000 1.0000000
1.0000000 1.0000000 1.0000000
1.0000000 1.0000000 1.0000000
1.0000000 1.0000000 1.0000000
1.0000000 1.0000000 1.0000000
1.0000000 1.0000000 1.0000000
1.0000000 1.0000000 1.0000000
1.0000000 1.0000000 1.0000000
1.0000000 1.0000000 1.0000000
1.0000000 1.0000000 1.0000000
1.0000000 1.0000000 1.0000000
1.0000000 1.0000000 1.0000000
1.0000000 1.0000000 1.0000000
1.0000000 1.0000000 1.0000000
1.0000000 1.0000000 1.0000000
1.0000000 1.0000000 1.0000000
1.0000000 1.0000000 1.0000000
1.0000000 1.0000000 1.0000000
1.0000000 1.0000000 1.0000000
1.0000000 1.0000000 1.0000000
1.0000000 1.0000000 1.0000000
1.0000000 1.0000000 1.0000000
1.0000000 1.0000000 1.0000000
1.0000000 1.0000000 1.0000000
1.0000000 1.0000000 1.0000000
1.0000000 1.0000000 1.0000000
1.0000000 1.0000000 1.0000000
1.0000000 1.0000000 1.0000000
1.0000000 1.0000000 1.0000000
1.0000000 1.0000000 1.0000000
1.0000000 1.0000000 1.0000000
1.0000000 1.0000000 1.0000000
1.0000000 1.0000000 1.0000000
1.0000000 1.0000000 1.0000000
1.0000000 1.0000000 1.0000000
1.0000000 1.0000000 1.0000000
1.0000000 1.0000000 1.0000000
1.0000000 1.0000000 1.0000000
1.0000000 1.0000000 1.0000000
1.0000000 1.0000000 1.0000000
1.0000000 1.0000000 1.0000000
1.0000000 1.0000000 1.0000000
1.0000000 1.0000000 1.0000000
1.0000000 1.0000000 1.0000000
1.0000000 1.0000000 1.0000000
1.0000000 1.0000000 1.0000000
1.0000000 1.0000000 1.0000000
1.0000000 1.0000000 1.0000000
1.0000000 1.0000000 1.0000000
1.0000000 1.0000000 1.0000000
1.0000000 1.0000000 1.0000000
1.0000000 1.0000000 1.0000000
1.0000000 1.0000000 1.0000000
1.0000000 1.0000000 1.0000000
1.0000000 1.0000000 1.0000000
1.0000000 1.0000000 1.0000000
1.0000000 1.0000000 1.0000000
1.0000000 1.0000000 1.0000000
1.0000000 1.0000000 1.0000000
1.0000000 1.0000000 1.0000000
1.0000000 1.0000000 1.0000000
1.0000000 1.0000000 1.0000000
1.0000000 1.0000000 1.0000000
1.0000000 1.0000000 1.0000000
1.0000000 1.0000000 1.0000000
1.0000000 1.0000000 1.0000000
1.0000000 1.0000000 1.0000000
1.0000000 1.0000000 1.0000000
1.0000000 1.0000000 1.0000000
1.0000000 1.0000000 1.0000000
1.0000000 1.0000000 1.0000000
1.0000000 1.0000000 1.0000000
1.0000000 1.0000000 1.0000000
1.0000000 1.0000000 1.0000000
1.0000000 1.0000000 1.0000000
1.0000000 1.0000000 1.0000000
1.0000000 1.0000000 1.0000000
1.0000000 1.0000000 1.0000000
1.0000000 1.0000000 1.0000000
1.0000000 1.0000000 1.0000000
1.0000000 1.0000000 1.0000000
1.0000000 1.0000000 1.0000000
1.0000000 1.0000000 1.0000000
1.0000000 1.0000000 1.0000000
1.0000000 1.0000000 1.0000000
1.0000000 1.0000000 1.0000000
1.0000000 1.0000000 1.0000000
