release/datafiles/colormanagement/filmic/filmic_desat_33.cube
TITLE "filmic_desat_33"
# A Downgraded version of the Filmic LUT, original spi3d LUT has size of 65, this one is down to 33
LUT_3D_SIZE 33
0.0001758 0.0001758 0.0001758
0.0312500 0.0001758 0.0001758
0.0625000 0.0001758 0.0001758
0.0937500 0.0001758 0.0001758
0.1250000 0.0001758 0.0001758
0.1562500 0.0001758 0.0001758
0.1875000 0.0001758 0.0001758
0.2187500 0.0001758 0.0001758
0.2500000 0.0001758 0.0001758
0.2812500 0.0001758 0.0001758
0.3125000 0.0001758 0.0001758
0.3437500 0.0001758 0.0001758
0.3750000 0.0001758 0.0001758
0.4062500 0.0001758 0.0001758
0.4375000 0.0001758 0.0001758
0.4687500 0.0001758 0.0001758
0.5000000 0.0001758 0.0001758
0.5312500 0.0001758 0.0001758
0.5625000 0.0001758 0.0001758
0.5937500 0.0001758 0.0001758
0.6250000 0.0001758 0.0001758
0.6562500 0.1912200 0.1912200
0.6875000 0.3074550 0.3074550
0.7187500 0.3908380 0.3908380
0.7500000 0.4649270 0.4649270
0.7812500 0.5350120 0.5350120
0.8125000 0.6030980 0.6030980
0.8437500 0.6701130 0.6701130
0.8750000 0.7365330 0.7365330
0.9062500 0.8026170 0.8026170
0.9375000 0.8685070 0.8685070
0.9687500 0.9342860 0.9342860
1.0000000 1.0000000 1.0000000
0.0001758 0.0312500 0.0001758
0.0312500 0.0312500 0.0001758
0.0625000 0.0312500 0.0001758
0.0937500 0.0312500 0.0001758
0.1250000 0.0312500 0.0001758
0.1562500 0.0312500 0.0001758
0.1875000 0.0312500 0.0001758
0.2187500 0.0312500 0.0001758
0.2500000 0.0312500 0.0001758
0.2812500 0.0312500 0.0001758
0.3125000 0.0312500 0.0001758
0.3437500 0.0312500 0.0001758
0.3750000 0.0312500 0.0001758
0.4062500 0.0312500 0.0001758
0.4375000 0.0312500 0.0001758
0.4687500 0.0312500 0.0001758
0.5000000 0.0312500 0.0001758
0.5312500 0.0312500 0.0001758
0.5625000 0.0312500 0.0001758
0.5937500 0.0312500 0.0001758
0.6250000 0.0312500 0.0001758
0.6562500 0.1927030 0.1912200
0.6875000 0.3076550 0.3074550
0.7187500 0.3908860 0.3908380
0.7500000 0.4649400 0.4649270
0.7812500 0.5350160 0.5350120
0.8125000 0.6030990 0.6030980
0.8437500 0.6701130 0.6701130
0.8750000 0.7365330 0.7365330
0.9062500 0.8026170 0.8026170
0.9375000 0.8685070 0.8685070
0.9687500 0.9342860 0.9342860
1.0000000 1.0000000 1.0000000
0.0001758 0.0625000 0.0001758
0.0312500 0.0625000 0.0001758
0.0625000 0.0625000 0.0001758
0.0937500 0.0625000 0.0001758
0.1250000 0.0625000 0.0001758
0.1562500 0.0625000 0.0001758
0.1875000 0.0625000 0.0001758
0.2187500 0.0625000 0.0001758
0.2500000 0.0625000 0.0001758
0.2812500 0.0625000 0.0001758
0.3125000 0.0625000 0.0001758
0.3437500 0.0625000 0.0001758
0.3750000 0.0625000 0.0001758
0.4062500 0.0625000 0.0001758
0.4375000 0.0625000 0.0001758
0.4687500 0.0625000 0.0001758
0.5000000 0.0625000 0.0001758
0.5312500 0.0625000 0.0001758
0.5625000 0.0625000 0.0001758
0.5937500 0.0625000 0.0001758
0.6250000 0.0625000 0.0001758
0.6562500 0.1951750 0.1912200
0.6875000 0.3079990 0.3074550
0.7187500 0.3909670 0.3908380
0.7500000 0.4649620 0.4649270
0.7812500 0.5350220 0.5350120
0.8125000 0.6031010 0.6030980
0.8437500 0.6701140 0.6701130
0.8750000 0.7365340 0.7365330
0.9062500 0.8026170 0.8026170
0.9375000 0.8685070 0.8685070
0.9687500 0.9342860 0.9342860
1.0000000 1.0000000 1.0000000
0.0001758 0.0937500 0.0001758
0.0312500 0.0937500 0.0001758
0.0625000 0.0937500 0.0001758
0.0937500 0.0937500 0.0001758
0.1250000 0.0937500 0.0001758
0.1562500 0.0937500 0.0001758
0.1875000 0.0937500 0.0001758
0.2187500 0.0937500 0.0001758
0.2500000 0.0937500 0.0001758
0.2812500 0.0937500 0.0001758
0.3125000 0.0937500 0.0001758
0.3437500 0.0937500 0.0001758
0.3750000 0.0937500 0.0001758
0.4062500 0.0937500 0.0001758
0.4375000 0.0937500 0.0001758
0.4687500 0.0937500 0.0001758
0.5000000 0.0937500 0.0001758
0.5312500 0.0937500 0.0001758
0.5625000 0.0937500 0.0001758
0.5937500 0.0937500 0.0001758
0.6250000 0.0937500 0.0001758
0.6562500 0.1991930 0.1912200
0.6875000 0.3085840 0.3074550
0.7187500 0.3911060 0.3908380
0.7500000 0.4650000 0.4649270
0.7812500 0.5350340 0.5350120
0.8125000 0.6031040 0.6030980
0.8437500 0.6701150 0.6701130
0.8750000 0.7365340 0.7365330
0.9062500 0.8026170 0.8026170
0.9375000 0.8685070 0.8685070
0.9687500 0.9342860 0.9342860
1.0000000 1.0000000 1.0000000
0.0001758 0.1250000 0.0001758
0.0312500 0.1250000 0.0001758
0.0625000 0.1250000 0.0001758
0.0937500 0.1250000 0.0001758
0.1250000 0.1250000 0.0001758
0.1562500 0.1250000 0.0001758
0.1875000 0.1250000 0.0001758
0.2187500 0.1250000 0.0001758
0.2500000 0.1250000 0.0001758
0.2812500 0.1250000 0.0001758
0.3125000 0.1250000 0.0001758
0.3437500 0.1250000 0.0001758
0.3750000 0.1250000 0.0001758
0.4062500 0.1250000 0.0001758
0.4375000 0.1250000 0.0001758
0.4687500 0.1250000 0.0001758
0.5000000 0.1250000 0.0001758
0.5312500 0.1250000 0.0001758
0.5625000 0.1250000 0.0001758
0.5937500 0.1250000 0.0001758
0.6250000 0.1250000 0.0001758
0.6562500 0.2055040 0.1912200
0.6875000 0.3095760 0.3074550
0.7187500 0.3913440 0.3908380
0.7500000 0.4650670 0.4649270
0.7812500 0.5350530 0.5350120
0.8125000 0.6031100 0.6030980
0.8437500 0.6701170 0.6701130
0.8750000 0.7365340 0.7365330
0.9062500 0.8026170 0.8026170
0.9375000 0.8685070 0.8685070
0.9687500 0.9342860 0.9342860
1.0000000 1.0000000 1.0000000
0.0001758 0.1562500 0.0001758
0.0312500 0.1562500 0.0001758
0.0625000 0.1562500 0.0001758
0.0937500 0.1562500 0.0001758
0.1250000 0.1562500 0.0001758
0.1562500 0.1562500 0.0001758
0.1875000 0.1562500 0.0001758
0.2187500 0.1562500 0.0001758
0.2500000 0.1562500 0.0001758
0.2812500 0.1562500 0.0001758
0.3125000 0.1562500 0.0001758
0.3437500 0.1562500 0.0001758
0.3750000 0.1562500 0.0001758
0.4062500 0.1562500 0.0001758
0.4375000 0.1562500 0.0001758
0.4687500 0.1562500 0.0001758
0.5000000 0.1562500 0.0001758
0.5312500 0.1562500 0.0001758
0.5625000 0.1562500 0.0001758
0.5937500 0.1562500 0.0001758
0.6250000 0.1562500 0.0001758
0.6562500 0.2149590 0.1912200
0.6875000 0.3112430 0.3074550
0.7187500 0.3917520 0.3908380
0.7500000 0.4651800 0.4649270
0.7812500 0.5350870 0.5350120
0.8125000 0.6031210 0.6030980
0.8437500 0.6701200 0.6701130
0.8750000 0.7365350 0.7365330
0.9062500 0.8026170 0.8026170
0.9375000 0.8685070 0.8685070
0.9687500 0.9342860 0.9342860
1.0000000 1.0000000 1.0000000
0.0001758 0.1875000 0.0001758
0.0312500 0.1875000 0.0001758
0.0625000 0.1875000 0.0001758
0.0937500 0.1875000 0.0001758
0.1250000 0.1875000 0.0001758
0.1562500 0.1875000 0.0001758
0.1875000 0.1875000 0.0001758
0.2187500 0.1875000 0.0001758
0.2500000 0.1875000 0.0001758
0.2812500 0.1875000 0.0001758
0.3125000 0.1875000 0.0001758
0.3437500 0.1875000 0.0001758
0.3750000 0.1875000 0.0001758
0.4062500 0.1875000 0.0001758
0.4375000 0.1875000 0.0001758
0.4687500 0.1875000 0.0001758
0.5000000 0.1875000 0.0001758
0.5312500 0.1875000 0.0001758
0.5625000 0.1875000 0.0001758
0.5937500 0.1875000 0.0001758
0.6250000 0.1875000 0.0001758
0.6562500 0.2282840 0.1912200
0.6875000 0.3139990 0.3074550
0.7187500 0.3924460 0.3908380
0.7500000 0.4653750 0.4649270
0.7812500 0.5351440 0.5350120
0.8125000 0.6031380 0.6030980
0.8437500 0.6701250 0.6701130
0.8750000 0.7365370 0.7365330
0.9062500 0.8026180 0.8026170
0.9375000 0.8685070 0.8685070
0.9687500 0.9342860 0.9342860
1.0000000 1.0000000 1.0000000
0.0001758 0.2187500 0.0001758
0.0312500 0.2187500 0.0001758
0.0625000 0.2187500 0.0001758
0.0937500 0.2187500 0.0001758
0.1250000 0.2187500 0.0001758
0.1562500 0.2187500 0.0001758
0.1875000 0.2187500 0.0001758
0.2187500 0.2187500 0.0001758
0.2500000 0.2187500 0.0001758
0.2812500 0.2187500 0.0001758
0.3125000 0.2187500 0.0001758
0.3437500 0.2187500 0.0001758
0.3750000 0.2187500 0.0001758
0.4062500 0.2187500 0.0001758
0.4375000 0.2187500 0.0001758
0.4687500 0.2187500 0.0001758
0.5000000 0.2187500 0.0001758
0.5312500 0.2187500 0.0001758
0.5625000 0.2187500 0.0001758
0.5937500 0.2187500 0.0001758
0.6250000 0.2187500 0.0001758
0.6562500 0.2457880 0.1912200
0.6875000 0.3184480 0.3074550
0.7187500 0.3936200 0.3908380
0.7500000 0.4657070 0.4649270
0.7812500 0.5352430 0.5350120
0.8125000 0.6031680 0.6030980
0.8437500 0.6701340 0.6701130
0.8750000 0.7365400 0.7365330
0.9062500 0.8026190 0.8026170
0.9375000 0.8685070 0.8685070
0.9687500 0.9342860 0.9342860
1.0000000 1.0000000 1.0000000
0.0001758 0.2500000 0.0001758
0.0312500 0.2500000 0.0001758
0.0625000 0.2500000 0.0001758
0.0937500 0.2500000 0.0001758
0.1250000 0.2500000 0.0001758
0.1562500 0.2500000 0.0001758
0.1875000 0.2500000 0.0001758
0.2187500 0.2500000 0.0001758
0.2500000 0.2500000 0.0001758
0.2812500 0.2500000 0.0001758
0.3125000 0.2500000 0.0001758
0.3437500 0.2500000 0.0001758
0.3750000 0.2500000 0.0001758
0.4062500 0.2500000 0.0001758
0.4375000 0.2500000 0.0001758
0.4687500 0.2500000 0.0001758
0.5000000 0.2500000 0.0001758
0.5312500 0.2500000 0.0001758
0.5625000 0.2500000 0.0001758
0.5937500 0.2500000 0.0001758
0.6250000 0.2500000 0.0001758
0.6562500 0.2672170 0.1912200
0.6875000 0.3253740 0.3074550
0.7187500 0.3955820 0.3908380
0.7500000 0.4662750 0.4649270
0.7812500 0.5354130 0.5350120
0.8125000 0.6032200 0.6030980
0.8437500 0.6701500 0.6701130
0.8750000 0.7365450 0.7365330
0.9062500 0.8026200 0.8026170
0.9375000 0.8685080 0.8685070
0.9687500 0.9342860 0.9342860
1.0000000 1.0000000 1.0000000
0.0001758 0.2812500 0.0001758
0.0312500 0.2812500 0.0001758
0.0625000 0.2812500 0.0001758
0.0937500 0.2812500 0.0001758
0.1250000 0.2812500 0.0001758
0.1562500 0.2812500 0.0001758
0.1875000 0.2812500 0.0001758
0.2187500 0.2812500 0.0001758
0.2500000 0.2812500 0.0001758
0.2812500 0.2812500 0.0001758
0.3125000 0.2812500 0.0001758
0.3437500 0.2812500 0.0001758
0.3750000 0.2812500 0.0001758
0.4062500 0.2812500 0.0001758
0.4375000 0.2812500 0.0001758
0.4687500 0.2812500 0.0001758
0.5000000 0.2812500 0.0001758
0.5312500 0.2812500 0.0001758
0.5625000 0.2812500 0.0001758
0.5937500 0.2812500 0.0001758
0.6250000 0.2812500 0.0001758
0.6562500 0.2918740 0.1912200
0.6875000 0.3356250 0.3074550
0.7187500 0.3988060 0.3908380
0.7500000 0.4672370 0.4649270
0.7812500 0.5357030 0.5350120
0.8125000 0.6033080 0.6030980
0.8437500 0.6701770 0.6701130
0.8750000 0.7365530 0.7365330
0.9062500 0.8026220 0.8026170
0.9375000 0.8685080 0.8685070
0.9687500 0.9342860 0.9342860
1.0000000 1.0000000 1.0000000
0.0001758 0.3125000 0.0001758
0.0312500 0.3125000 0.0001758
0.0625000 0.3125000 0.0001758
0.0937500 0.3125000 0.0001758
0.1250000 0.3125000 0.0001758
0.1562500 0.3125000 0.0001758
0.1875000 0.3125000 0.0001758
0.2187500 0.3125000 0.0001758
0.2500000 0.3125000 0.0001758
0.2812500 0.3125000 0.0001758
0.3125000 0.3125000 0.0001758
0.3437500 0.3125000 0.0001758
0.3750000 0.3125000 0.0001758
0.4062500 0.3125000 0.0001758
0.4375000 0.3125000 0.0001758
0.4687500 0.3125000 0.0001758
0.5000000 0.3125000 0.0001758
0.5312500 0.3125000 0.0001758
0.5625000 0.3125000 0.0001758
0.5937500 0.3125000 0.0001758
0.6250000 0.3125000 0.0001758
0.6562500 0.3189110 0.1912200
0.6875000 0.3498570 0.3074550
0.7187500 0.4039590 0.3908380
0.7500000 0.4688550 0.4649270
0.7812500 0.5361980 0.5350120
0.8125000 0.6034600 0.6030980
0.8437500 0.6702240 0.6701130
0.8750000 0.7365670 0.7365330
0.9062500 0.8026260 0.8026170
0.9375000 0.8685100 0.8685070
0.9687500 0.9342860 0.9342860
1.0000000 1.0000000 1.0000000
0.0001758 0.3437500 0.0001758
0.0312500 0.3437500 0.0001758
0.0625000 0.3437500 0.0001758
0.0937500 0.3437500 0.0001758
0.1250000 0.3437500 0.0001758
0.1562500 0.3437500 0.0001758
0.1875000 0.3437500 0.0001758
0.2187500 0.3437500 0.0001758
0.2500000 0.3437500 0.0001758
0.2812500 0.3437500 0.0001758
0.3125000 0.3437500 0.0001758
0.3437500 0.3437500 0.0001758
0.3750000 0.3437500 0.0001758
0.4062500 0.3437500 0.0001758
0.4375000 0.3437500 0.0001758
0.4687500 0.3437500 0.0001758
0.5000000 0.3437500 0.0001758
0.5312500 0.3437500 0.0001758
0.5625000 0.3437500 0.0001758
0.5937500 0.3437500 0.0001758
0.6250000 0.3437500 0.0001758
0.6562500 0.3475590 0.1912200
0.6875000 0.3682610 0.3074550
0.7187500 0.4118630 0.3908380
0.7500000 0.4715330 0.4649270
0.7812500 0.5370390 0.5350120
0.8125000 0.6037200 0.6030980
0.8437500 0.6703040 0.6701130
0.8750000 0.7365910 0.7365330
0.9062500 0.8026340 0.8026170
0.9375000 0.8685110 0.8685070
0.9687500 0.9342870 0.9342860
1.0000000 1.0000000 1.0000000
0.0001758 0.3750000 0.0001758
0.0312500 0.3750000 0.0001758
0.0625000 0.3750000 0.0001758
0.0937500 0.3750000 0.0001758
0.1250000 0.3750000 0.0001758
0.1562500 0.3750000 0.0001758
0.1875000 0.3750000 0.0001758
0.2187500 0.3750000 0.0001758
0.2500000 0.3750000 0.0001758
0.2812500 0.3750000 0.0001758
0.3125000 0.3750000 0.0001758
0.3437500 0.3750000 0.0001758
0.3750000 0.3750000 0.0001758
0.4062500 0.3750000 0.0001758
0.4375000 0.3750000 0.0001758
0.4687500 0.3750000 0.0001758
0.5000000 0.3750000 0.0001758
0.5312500 0.3750000 0.0001758
0.5625000 0.3750000 0.0001758
0.5937500 0.3750000 0.0001758
0.6250000 0.3750000 0.0001758
0.6562500 0.3772400 0.1912200
0.6875000 0.3904650 0.3074550
0.7187500 0.4233390 0.3908380
0.7500000 0.4758630 0.4649270
0.7812500 0.5384570 0.5350120
0.8125000 0.6041650 0.6030980
0.8437500 0.6704410 0.6701130
0.8750000 0.7366330 0.7365330
0.9062500 0.8026460 0.8026170
0.9375000 0.8685150 0.8685070
0.9687500 0.9342870 0.9342860
1.0000000 1.0000000 1.0000000
0.0001758 0.4062500 0.0001758
0.0312500 0.4062500 0.0001758
0.0625000 0.4062500 0.0001758
0.0937500 0.4062500 0.0001758
0.1250000 0.4062500 0.0001758
0.1562500 0.4062500 0.0001758
0.1875000 0.4062500 0.0001758
0.2187500 0.4062500 0.0001758
0.2500000 0.4062500 0.0001758
0.2812500 0.4062500 0.0001758
0.3125000 0.4062500 0.0001758
0.3437500 0.4062500 0.0001758
0.3750000 0.4062500 0.0001758
0.4062500 0.4062500 0.0001758
0.4375000 0.4062500 0.0001758
0.4687500 0.4062500 0.0001758
0.5000000 0.4062500 0.0001758
0.5312500 0.4062500 0.0001758
0.5625000 0.4062500 0.0001758
0.5937500 0.4062500 0.0001758
0.6250000 0.4062500 0.0001758
0.6562500 0.4075570 0.1912200
0.6875000 0.4157160 0.3074550
0.7187500 0.4389170 0.3908380
0.7500000 0.4826220 0.4649270
0.7812500 0.5408150 0.5350120
0.8125000 0.6049210 0.6030980
0.8437500 0.6706770 0.6701130
0.8750000 0.7367040 0.7365330
0.9062500 0.8026670 0.8026170
0.9375000 0.8685200 0.8685070
0.9687500 0.9342880 0.9342860
1.0000000 1.0000000 1.0000000
0.0001758 0.4375000 0.0001758
0.0312500 0.4375000 0.0001758
0.0625000 0.4375000 0.0001758
0.0937500 0.4375000 0.0001758
0.1250000 0.4375000 0.0001758
0.1562500 0.4375000 0.0001758
0.1875000 0.4375000 0.0001758
0.2187500 0.4375000 0.0001758
0.2500000 0.4375000 0.0001758
0.2812500 0.4375000 0.0001758
0.3125000 0.4375000 0.0001758
0.3437500 0.4375000 0.0001758
0.3750000 0.4375000 0.0001758
0.4062500 0.4375000 0.0001758
0.4375000 0.4375000 0.0001758
0.4687500 0.4375000 0.0001758
0.5000000 0.4375000 0.0001758
0.5312500 0.4375000 0.0001758
0.5625000 0.4375000 0.0001758
0.5937500 0.4375000 0.0001758
0.6250000 0.4375000 0.0001758
0.6562500 0.4382570 0.1912200
0.6875000 0.4431650 0.3074550
0.7187500 0.4586060 0.3908380
0.7500000 0.4926580 0.4649270
0.7812500 0.5446550 0.5350120
0.8125000 0.6061980 0.6030980
0.8437500 0.6710790 0.6701130
0.8750000 0.7368270 0.7365330
0.9062500 0.8027030 0.8026170
0.9375000 0.8685300 0.8685070
0.9687500 0.9342900 0.9342860
1.0000000 1.0000000 1.0000000
0.0001758 0.4687500 0.0001758
0.0312500 0.4687500 0.0001758
0.0625000 0.4687500 0.0001758
0.0937500 0.4687500 0.0001758
0.1250000 0.4687500 0.0001758
0.1562500 0.4687500 0.0001758
0.1875000 0.4687500 0.0001758
0.2187500 0.4687500 0.0001758
0.2500000 0.4687500 0.0001758
0.2812500 0.4687500 0.0001758
0.3125000 0.4687500 0.0001758
0.3437500 0.4687500 0.0001758
0.3750000 0.4687500 0.0001758
0.4062500 0.4687500 0.0001758
0.4375000 0.4687500 0.0001758
0.4687500 0.4687500 0.0001758
0.5000000 0.4687500 0.0001758
0.5312500 0.4687500 0.0001758
0.5625000 0.4687500 0.0001758
0.5937500 0.4687500 0.0001758
0.6250000 0.4687500 0.0001758
0.6562500 0.4691840 0.1912200
0.6875000 0.4720820 0.3074550
0.7187500 0.4818810 0.3908380
0.7500000 0.5066470 0.4649270
0.7812500 0.5507110 0.5350120
0.8125000 0.6083280 0.6030980
0.8437500 0.6717630 0.6701130
0.8750000 0.7370370 0.7365330
0.9062500 0.8027640 0.8026170
0.9375000 0.8685460 0.8685070
0.9687500 0.9342940 0.9342860
1.0000000 1.0000000 1.0000000
0.0001758 0.5000000 0.0001758
0.0312500 0.5000000 0.0001758
0.0625000 0.5000000 0.0001758
0.0937500 0.5000000 0.0001758
0.1250000 0.5000000 0.0001758
0.1562500 0.5000000 0.0001758
0.1875000 0.5000000 0.0001758
0.2187500 0.5000000 0.0001758
0.2500000 0.5000000 0.0001758
0.2812500 0.5000000 0.0001758
0.3125000 0.5000000 0.0001758
0.3437500 0.5000000 0.0001758
0.3750000 0.5000000 0.0001758
0.4062500 0.5000000 0.0001758
0.4375000 0.5000000 0.0001758
0.4687500 0.5000000 0.0001758
0.5000000 0.5000000 0.0001758
0.5312500 0.5000000 0.0001758
0.5625000 0.5000000 0.0001758
0.5937500 0.5000000 0.0001758
0.6250000 0.5000000 0.0001758
0.6562500 0.5002460 0.1912200
0.6875000 0.5019300 0.3074550
0.7187500 0.5079270 0.3908380
0.7500000 0.5248140 0.4649270
0.7812500 0.5598320 0.5350120
0.8125000 0.6118150 0.6030980
0.8437500 0.6729210 0.6701130
0.8750000 0.7373970 0.7365330
0.9062500 0.8028700 0.8026170
0.9375000 0.8685750 0.8685070
0.9687500 0.9343000 0.9342860
1.0000000 1.0000000 1.0000000
0.0001758 0.5312500 0.0001758
0.0312500 0.5312500 0.0001758
0.0625000 0.5312500 0.0001758
0.0937500 0.5312500 0.0001758
0.1250000 0.5312500 0.0001758
0.1562500 0.5312500 0.0001758
0.1875000 0.5312500 0.0001758
0.2187500 0.5312500 0.0001758
0.2500000 0.5312500 0.0001758
0.2812500 0.5312500 0.0001758
0.3125000 0.5312500 0.0001758
0.3437500 0.5312500 0.0001758
0.3750000 0.5312500 0.0001758
0.4062500 0.5312500 0.0001758
0.4375000 0.5312500 0.0001758
0.4687500 0.5312500 0.0001758
0.5000000 0.5312500 0.0001758
0.5312500 0.5312500 0.0001758
0.5625000 0.5312500 0.0001758
0.5937500 0.5312500 0.0001758
0.6250000 0.5312500 0.0001758
0.6562500 0.5313860 0.1912200
0.6875000 0.5323480 0.3074550
0.7187500 0.5359180 0.3908380
0.7500000 0.5468150 0.4649270
0.7812500 0.5727660 0.5350120
0.8125000 0.6173550 0.6030980
0.8437500 0.6748570 0.6701130
0.8750000 0.7380100 0.7365330
0.9062500 0.8030520 0.8026170
0.9375000 0.8686230 0.8685070
0.9687500 0.9343100 0.9342860
1.0000000 1.0000000 1.0000000
0.0001758 0.5625000 0.0001758
0.0312500 0.5625000 0.0001758
0.0625000 0.5625000 0.0001758
0.0937500 0.5625000 0.0001758
0.1250000 0.5625000 0.0001758
0.1562500 0.5625000 0.0001758
0.1875000 0.5625000 0.0001758
0.2187500 0.5625000 0.0001758
0.2500000 0.5625000 0.0001758
0.2812500 0.5625000 0.0001758
0.3125000 0.5625000 0.0001758
0.3437500 0.5625000 0.0001758
0.3750000 0.5625000 0.0001758
0.4062500 0.5625000 0.0001758
0.4375000 0.5625000 0.0001758
0.4687500 0.5625000 0.0001758
0.5000000 0.5625000 0.0001758
0.5312500 0.5625000 0.0001758
0.5625000 0.5625000 0.0001758
0.5937500 0.5625000 0.0001758
0.6250000 0.5625000 0.0001758
0.6562500 0.5625720 0.1912200
0.6875000 0.5631090 0.3074550
0.7187500 0.5651840 0.3908380
0.7500000 0.5719120 0.4649270
0.7812500 0.5898740 0.5350120
0.8125000 0.6257870 0.6030980
0.8437500 0.6780410 0.6701130
0.8750000 0.7390490 0.7365330
0.9062500 0.8033620 0.8026170
0.9375000 0.8687070 0.8685070
0.9687500 0.9343270 0.9342860
1.0000000 1.0000000 1.0000000
0.0001758 0.5937500 0.0001758
0.0312500 0.5937500 0.0001758
0.0625000 0.5937500 0.0001758
0.0937500 0.5937500 0.0001758
0.1250000 0.5937500 0.0001758
0.1562500 0.5937500 0.0001758
0.1875000 0.5937500 0.0001758
0.2187500 0.5937500 0.0001758
0.2500000 0.5937500 0.0001758
0.2812500 0.5937500 0.0001758
0.3125000 0.5937500 0.0001758
0.3437500 0.5937500 0.0001758
0.3750000 0.5937500 0.0001758
0.4062500 0.5937500 0.0001758
0.4375000 0.5937500 0.0001758
0.4687500 0.5937500 0.0001758
0.5000000 0.5937500 0.0001758
0.5312500 0.5937500 0.0001758
0.5625000 0.5937500 0.0001758
0.5937500 0.5937500 0.0001758
0.6250000 0.5937500 0.0001758
0.6562500 0.5937840 0.1912200
0.6875000 0.5940720 0.3074550
0.7187500 0.5952470 0.3908380
0.7500000 0.5992550 0.4649270
0.7812500 0.6109530 0.5350120
0.8125000 0.6379040 0.6030980
0.8437500 0.6831340 0.6701130
0.8750000 0.7407910 0.7365330
0.9062500 0.8038920 0.8026170
0.9375000 0.8688500 0.8685070
0.9687500 0.9343570 0.9342860
1.0000000 1.0000000 1.0000000
0.0001758 0.6250000 0.0001758
0.0312500 0.6250000 0.0001758
0.0625000 0.6250000 0.0001758
0.0937500 0.6250000 0.0001758
0.1250000 0.6250000 0.0001758
0.1562500 0.6250000 0.0001758
0.1875000 0.6250000 0.0001758
0.2187500 0.6250000 0.0001758
0.2500000 0.6250000 0.0001758
0.2812500 0.6250000 0.0001758
0.3125000 0.6250000 0.0001758
0.3437500 0.6250000 0.0001758
0.3750000 0.6250000 0.0001758
0.4062500 0.6250000 0.0001758
0.4375000 0.6250000 0.0001758
0.4687500 0.6250000 0.0001758
0.5000000 0.6250000 0.0001758
0.5312500 0.6250000 0.0001758
0.5625000 0.6250000 0.0001758
0.5937500 0.6250000 0.0001758
0.6250000 0.6250000 0.0001758
0.6562500 0.6250130 0.1912200
0.6875000 0.6251550 0.3074550
0.7187500 0.6257950 0.3908380
0.7500000 0.6281030 0.4649270
0.7812500 0.6353400 0.5350120
0.8125000 0.6541640 0.6030980
0.8437500 0.6909560 0.6701130
0.8750000 0.7436680 0.7365330
0.9062500 0.8047920 0.8026170
0.9375000 0.8690960 0.8685070
0.9687500 0.9344080 0.9342860
1.0000000 1.0000000 1.0000000
0.1912200 0.6562500 0.1912200
0.1927030 0.6562500 0.1912200
0.1951750 0.6562500 0.1912200
0.1991930 0.6562500 0.1912200
0.2055040 0.6562500 0.1912200
0.2149590 0.6562500 0.1912200
0.2282840 0.6562500 0.1912200
0.2457880 0.6562500 0.1912200
0.2672170 0.6562500 0.1912200
0.2918740 0.6562500 0.1912200
0.3189110 0.6562500 0.1912200
0.3475590 0.6562500 0.1912200
0.3772400 0.6562500 0.1912200
0.4075570 0.6562500 0.1912200
0.4382570 0.6562500 0.1912200
0.4691840 0.6562500 0.1912200
0.5002460 0.6562500 0.1912200
0.5313860 0.6562500 0.1912200
0.5625720 0.6562500 0.1912200
0.5937840 0.6562500 0.1912200
0.6250130 0.6562500 0.1912200
0.6562500 0.6562500 0.1912200
0.6875000 0.6563070 0.3074550
0.7187500 0.6566320 0.3908380
0.7500000 0.6579080 0.4649270
0.7812500 0.6621850 0.5350120
0.8125000 0.6744820 0.6030980
0.8437500 0.7023290 0.6701130
0.8750000 0.7483010 0.7365330
0.9062500 0.8063060 0.8026170
0.9375000 0.8695150 0.8685070
0.9687500 0.9344950 0.9342860
1.0000000 1.0000000 1.0000000
0.3074550 0.6875000 0.3074550
0.3076550 0.6875000 0.3074550
0.3079990 0.6875000 0.3074550
0.3085840 0.6875000 0.3074550
0.3095760 0.6875000 0.3074550
0.3112430 0.6875000 0.3074550
0.3139990 0.6875000 0.3074550
0.3184480 0.6875000 0.3074550
0.3253740 0.6875000 0.3074550
0.3356250 0.6875000 0.3074550
0.3498570 0.6875000 0.3074550
0.3682610 0.6875000 0.3074550
0.3904650 0.6875000 0.3074550
0.4157160 0.6875000 0.3074550
0.4431650 0.6875000 0.3074550
0.4720820 0.6875000 0.3074550
0.5019300 0.6875000 0.3074550
0.5323480 0.6875000 0.3074550
0.5631090 0.6875000 0.3074550
0.5940720 0.6875000 0.3074550
0.6251550 0.6875000 0.3074550
0.6563070 0.6875000 0.3074550
0.6875000 0.6875000 0.3074550
0.7187500 0.6876410 0.3908380
0.7500000 0.6883010 0.4649270
0.7812500 0.6907080 0.5350120
0.8125000 0.6982650 0.6030980
0.8437500 0.7177980 0.6701130
0.8750000 0.7554840 0.7365330
0.9062500 0.8088180 0.8026170
0.9375000 0.8702290 0.8685070
0.9687500 0.9346450 0.9342860
1.0000000 1.0000000 1.0000000
0.3908380 0.7187500 0.3908380
0.3908860 0.7187500 0.3908380
0.3909670 0.7187500 0.3908380
0.3911060 0.7187500 0.3908380
0.3913440 0.7187500 0.3908380
0.3917520 0.7187500 0.3908380
0.3924460 0.7187500 0.3908380
0.3936200 0.7187500 0.3908380
0.3955820 0.7187500 0.3908380
0.3988060 0.7187500 0.3908380
0.4039590 0.7187500 0.3908380
0.4118630 0.7187500 0.3908380
0.4233390 0.7187500 0.3908380
0.4389170 0.7187500 0.3908380
0.4586060 0.7187500 0.3908380
0.4818810 0.7187500 0.3908380
0.5079270 0.7187500 0.3908380
0.5359180 0.7187500 0.3908380
0.5651840 0.7187500 0.3908380
0.5952470 0.7187500 0.3908380
0.6257950 0.7187500 0.3908380
0.6566320 0.7187500 0.3908380
0.6876410 0.7187500 0.3908380
0.7187500 0.7187500 0.3908380
0.7500000 0.7190460 0.4649270
0.7812500 0.7203100 0.5350120
0.8125000 0.7246800 0.6030980
0.8437500 0.7373850 0.6701130
0.8750000 0.7660610 0.7365330
0.9062500 0.8128970 0.8026170
0.9375000 0.8714350 0.8685070
0.9687500 0.9349020 0.9342860
1.0000000 1.0000000 1.0000000
0.4649270 0.7500000 0.4649270
0.4649400 0.7500000 0.4649270
0.4649620 0.7500000 0.4649270
