release/datafiles/colormanagement/filmic/filmic_to_0-85_1-011.spi1d
Version 1
From 0.000000 1.000000
Length 4096
Components 1
{
    0.0000000000000E+0
    6.1905883461422E-6
    1.2395818351271E-5
    1.8615724480636E-5
    2.4850341279825E-5
    3.1099703374958E-5
    3.7363845472860E-5
    4.3642802361259E-5
    4.9936608908955E-5
    5.6245300066019E-5
    6.2568910863968E-5
    6.8907476415959E-5
    7.5261031916971E-5
    8.1629612643992E-5
    8.8013253956208E-5
    9.4411991295188E-5
    1.0082586018508E-4
    1.0725489623277E-4
    1.1369913512813E-4
    1.2015861264415E-4
    1.2663336463714E-4
    1.3312342704695E-4
    1.3962883589712E-4
    1.4614962729511E-4
    1.5268583743244E-4
    1.5923750258495E-4
    1.6580465911293E-4
    1.7238734346136E-4
    1.7898559216004E-4
    1.8559944182387E-4
    1.9222892915298E-4
    1.9887409093292E-4
    2.0553496403492E-4
    2.1221158541601E-4
    2.1890399211926E-4
    2.2561222127395E-4
    2.3233631009579E-4
    2.3907629588712E-4
    2.4583221603707E-4
    2.5260410802179E-4
    2.5939200940464E-4
    2.6619595783638E-4
    2.7301599105541E-4
    2.7985214688788E-4
    2.8670446324800E-4
    2.9357297813814E-4
    3.0045772964912E-4
    3.0735875596034E-4
    3.1427609534001E-4
    3.2120978614537E-4
    3.2815986682285E-4
    3.3512637590831E-4
    3.4210935202723E-4
    3.4910883389492E-4
    3.5612486031669E-4
    3.6315747018811E-4
    3.7020670249519E-4
    3.7727259631455E-4
    3.8435519081369E-4
    3.9145452525116E-4
    3.9857063897676E-4
    4.0570357143177E-4
    4.1285336214914E-4
    4.2002005075371E-4
    4.2720367696241E-4
    4.3440428058447E-4
    4.4162190152165E-4
    4.4885657976840E-4
    4.5610835541213E-4
    4.6337726863338E-4
    4.7066335970606E-4
    4.7796666899762E-4
    4.8528723696931E-4
    4.9262510417637E-4
    4.9998031126823E-4
    5.0735289898876E-4
    5.1474290817644E-4
    5.2215037976462E-4
    5.2957535478168E-4
    5.3701787435130E-4
    5.4447797969266E-4
    5.5195571212063E-4
    5.5945111304601E-4
    5.6696422397575E-4
    5.7449508651316E-4
    5.8204374235813E-4
    5.8961023330734E-4
    5.9719460125450E-4
    6.0479688819054E-4
    6.1241713620387E-4
    6.2005538748056E-4
    6.2771168430458E-4
    6.3538606905803E-4
    6.4307858422135E-4
    6.5078927237352E-4
    6.5851817619235E-4
    6.6626533845463E-4
    6.7403080203640E-4
    6.8181460991315E-4
    6.8961680516005E-4
    6.9743743095220E-4
    7.0527653056481E-4
    7.1313414737348E-4
    7.2101032485437E-4
    7.2890510658447E-4
    7.3681853624182E-4
    7.4475065760572E-4
    7.5270151455696E-4
    7.6067115107809E-4
    7.6865961125360E-4
    7.7666693927017E-4
    7.8469317941689E-4
    7.9273837608554E-4
    8.0080257377073E-4
    8.0888581707023E-4
    8.1698815068514E-4
    8.2510961942012E-4
    8.3325026818369E-4
    8.4141014198838E-4
    8.4958928595102E-4
    8.5778774529295E-4
    8.6600556534029E-4
    8.7424279152410E-4
    8.8249946938072E-4
    8.9077564455193E-4
    8.9907136278520E-4
    9.0738666993396E-4
    9.1572161195780E-4
    9.2407623492276E-4
    9.3245058500150E-4
    9.4084470847359E-4
    9.4925865172575E-4
    9.5769246125207E-4
    9.6614618365426E-4
    9.7461986564189E-4
    9.8311355403264E-4
    9.9162729575254E-4
    1.0001611378362E-3
    1.0087151274271E-3
    1.0172893117778E-3
    1.0258837382501E-3
    1.0344984543155E-3
    1.0431335075553E-3
    1.0517889456607E-3
    1.0604648164334E-3
    1.0691611677857E-3
    1.0778780477404E-3
    1.0866155044317E-3
    1.0953735861050E-3
    1.1041523411172E-3
    1.1129518179371E-3
    1.1217720651453E-3
    1.1306131314352E-3
    1.1394750656123E-3
    1.1483579165951E-3
    1.1572617334152E-3
    1.1661865652175E-3
    1.1751324612604E-3
    1.1840994709162E-3
    1.1930876436714E-3
    1.2020970291266E-3
    1.2111276769972E-3
    1.2201796371133E-3
    1.2292529594202E-3
    1.2383476939786E-3
    1.2474638909648E-3
    1.2566016006710E-3
    1.2657608735055E-3
    1.2749417599929E-3
    1.2841443107749E-3
    1.2933685766096E-3
    1.3026146083726E-3
    1.3118824570568E-3
    1.3211721737731E-3
    1.3304838097500E-3
    1.3398174163346E-3
    1.3491730449921E-3
    1.3585507473070E-3
    1.3679505749823E-3
    1.3773725798406E-3
    1.3868168138241E-3
    1.3962833289948E-3
    1.4057721775347E-3
    1.4152834117462E-3
    1.4248170840525E-3
    1.4343732469976E-3
    1.4439519532467E-3
    1.4535532555864E-3
    1.4631772069250E-3
    1.4728238602931E-3
    1.4824932688432E-3
    1.4921854858505E-3
    1.5019005647130E-3
    1.5116385589518E-3
    1.5213995222114E-3
    1.5311835082599E-3
    1.5409905709892E-3
    1.5508207644157E-3
    1.5606741426799E-3
    1.5705507600474E-3
    1.5804506709085E-3
    1.5903739297790E-3
    1.6003205913003E-3
    1.6102907102395E-3
    1.6202843414900E-3
    1.6303015400715E-3
    1.6403423611306E-3
    1.6504068599406E-3
    1.6604950919023E-3
    1.6706071125440E-3
    1.6807429775218E-3
    1.6909027426199E-3
    1.7010864637509E-3
    1.7112941969562E-3
    1.7215259984061E-3
    1.7317819244001E-3
    1.7420620313674E-3
    1.7523663758670E-3
    1.7626950145879E-3
    1.7730480043495E-3
    1.7834254021023E-3
    1.7938272649272E-3
    1.8042536500369E-3
    1.8147046147754E-3
    1.8251802166186E-3
    1.8356805131747E-3
    1.8462055621842E-3
    1.8567554215204E-3
    1.8673301491897E-3
    1.8779298033318E-3
    1.8885544422199E-3
    1.8992041242615E-3
    1.9098789079979E-3
    1.9205788521052E-3
    1.9313040153942E-3
    1.9420544568109E-3
    1.9528302354367E-3
    1.9636314104886E-3
    1.9744580413198E-3
    1.9853101874199E-3
    1.9961879084147E-3
    2.0070912640674E-3
    2.0180203142782E-3
    2.0289751190848E-3
    2.0399557386629E-3
    2.0509622333262E-3
    2.0619946635269E-3
    2.0730530898559E-3
    2.0841375730433E-3
    2.0952481739585E-3
    2.1063849536105E-3
    2.1175479731483E-3
    2.1287372938613E-3
    2.1399529771794E-3
    2.1511950846735E-3
    2.1624636780556E-3
    2.1737588191794E-3
    2.1850805700403E-3
    2.1964289927759E-3
    2.2078041496663E-3
    2.2192061031345E-3
    2.2306349157464E-3
    2.2420906502114E-3
    2.2535733693826E-3
    2.2650831362573E-3
    2.2766200139770E-3
    2.2881840658279E-3
    2.2997753552414E-3
    2.3113939457939E-3
    2.3230399012078E-3
    2.3347132853512E-3
    2.3464141622387E-3
    2.3581425960311E-3
    2.3698986510367E-3
    2.3816823917107E-3
    2.3934938826558E-3
    2.4053331886229E-3
    2.4172003745110E-3
    2.4290955053675E-3
    2.4410186463889E-3
    2.4529698629208E-3
    2.4649492204583E-3
    2.4769567846465E-3
    2.4889926212805E-3
    2.5010567963060E-3
    2.5131493758197E-3
    2.5252704260693E-3
    2.5374200134540E-3
    2.5495982045250E-3
    2.5618050659855E-3
    2.5740406646914E-3
    2.5863050676512E-3
    2.5985983420268E-3
    2.6109205551336E-3
    2.6232717744408E-3
    2.6356520675716E-3
    2.6480615023041E-3
    2.6605001465710E-3
    2.6729680684602E-3
    2.6854653362154E-3
    2.6979920182358E-3
    2.7105481830772E-3
    2.7231338994517E-3
    2.7357492362285E-3
    2.7483942624338E-3
    2.7610690472516E-3
    2.7737736600238E-3
    2.7865081702506E-3
    2.7992726475908E-3
    2.8120671618621E-3
    2.8248917830417E-3
    2.8377465812663E-3
    2.8506316268326E-3
    2.8635469901979E-3
    2.8764927419800E-3
    2.8894689529578E-3
    2.9024756940717E-3
    2.9155130364238E-3
    2.9285810512784E-3
    2.9416798100622E-3
    2.9548093843646E-3
    2.9679698459386E-3
    2.9811612667002E-3
    2.9943837187298E-3
    3.0076372742716E-3
    3.0209220057348E-3
    3.0342379856934E-3
    3.0475852868865E-3
    3.0609639822194E-3
    3.0743741447629E-3
    3.0878158477546E-3
    3.1012891645986E-3
    3.1147941688664E-3
    3.1283309342967E-3
    3.1418995347963E-3
    3.1555000444401E-3
    3.1691325374715E-3
    3.1827970883030E-3
    3.1964937715164E-3
    3.2102226618631E-3
    3.2239838342647E-3
    3.2377773638130E-3
    3.2516033257708E-3
    3.2654617955718E-3
    3.2793528488216E-3
    3.2932765612974E-3
    3.3072330089488E-3
    3.3212222678980E-3
    3.3352444144402E-3
    3.3492995250441E-3
    3.3633876763520E-3
    3.3775089451806E-3
    3.3916634085207E-3
    3.4058511435385E-3
    3.4200722275752E-3
    3.4343267381475E-3
    3.4486147529485E-3
    3.4629363498475E-3
    3.4772916068905E-3
    3.4916806023010E-3
    3.5061034144797E-3
    3.5205601220055E-3
    3.5350508036354E-3
    3.5495755383052E-3
    3.5641344051300E-3
    3.5787274834041E-3
    3.5933548526017E-3
    3.6080165923774E-3
    3.6227127825663E-3
    3.6374435031846E-3
    3.6522088344299E-3
    3.6670088566816E-3
    3.6818436505013E-3
    3.6967132966332E-3
    3.7116178760045E-3
    3.7265574697257E-3
    3.7415321590912E-3
    3.7565420255795E-3
    3.7715871508535E-3
    3.7866676167614E-3
    3.8017835053365E-3
    3.8169348987978E-3
    3.8321218795507E-3
    3.8473445301869E-3
    3.8626029334853E-3
    3.8778971724119E-3
    3.8932273301205E-3
    3.9085934899532E-3
    3.9239957354406E-3
    3.9394341503021E-3
    3.9549088184467E-3
    3.9704198239729E-3
    3.9859672511697E-3
    4.0015511845163E-3
    4.0171717086833E-3
    4.0328289085324E-3
    4.0485228691171E-3
    4.0642536756833E-3
    4.0800214136694E-3
    4.0958261687069E-3
    4.1116680266207E-3
    4.1275470734296E-3
    4.1434633953465E-3
    4.1594170787793E-3
    4.1754082103307E-3
    4.1914368767991E-3
    4.2075031651789E-3
    4.2236071626606E-3
    4.2397489566316E-3
    4.2559286346766E-3
    4.2721462845777E-3
    4.2884019943152E-3
    4.3046958520678E-3
    4.3210279462131E-3
    4.3373983653278E-3
    4.3538071981886E-3
    4.3702545337721E-3
    4.3867404612556E-3
    4.4032650700175E-3
    4.4198284496373E-3
    4.4364306898967E-3
    4.4530718807793E-3
    4.4697521124719E-3
    4.4864714753639E-3
    4.5032300600486E-3
    4.5200279573232E-3
    4.5368652581893E-3
    4.5537420538535E-3
    4.5706584357274E-3
    4.5876144954286E-3
    4.6046103247808E-3
    4.6216460158142E-3
    4.6387216607661E-3
    4.6558373520813E-3
    4.6729931824125E-3
    4.6901892446207E-3
    4.7074256317758E-3
    4.7247024371567E-3
    4.7420197542523E-3
    4.7593776767613E-3
    4.7767762985931E-3
    4.7942157138681E-3
    4.8116960169182E-3
    4.8292173022871E-3
    4.8467796647308E-3
    4.8643831992182E-3
    4.8820280009313E-3
    4.8997141652660E-3
    4.9174417878320E-3
    4.9352109644539E-3
    4.9530217911712E-3
    4.9708743642387E-3
    4.9887687801275E-3
    5.0067051355248E-3
    5.0246835273347E-3
    5.0427040526788E-3
    5.0607668088960E-3
    5.0788718935440E-3
    5.0970194043986E-3
    5.1152094394551E-3
    5.1334420969283E-3
    5.1517174752529E-3
    5.1700356730843E-3
    5.1883967892988E-3
    5.2068009229940E-3
    5.2252481734895E-3
    5.2437386403272E-3
    5.2622724232721E-3
    5.2808496223120E-3
    5.2994703376588E-3
    5.3181346697485E-3
    5.3368427192417E-3
    5.3555945870245E-3
    5.3743903742081E-3
    5.3932301821302E-3
    5.4121141123550E-3
    5.4310422666735E-3
    5.4500147471045E-3
    5.4690316558946E-3
    5.4880930955189E-3
    5.5071991686815E-3
    5.5263499783159E-3
    5.5455456275853E-3
    5.5647862198835E-3
    5.5840718588351E-3
    5.6034026482958E-3
    5.6227786923534E-3
    5.6422000953278E-3
    5.6616669617717E-3
    5.6811793964710E-3
    5.7007375044455E-3
    5.7203413909491E-3
    5.7399911614702E-3
    5.7596869217328E-3
    5.7794287776963E-3
    5.7992168355562E-3
    5.8190512017448E-3
    5.8389319829315E-3
    5.8588592860234E-3
    5.8788332181655E-3
    5.8988538867416E-3
    5.9189213993745E-3
    5.9390358639266E-3
    5.9591973885006E-3
    5.9794060814394E-3
    5.9996620513273E-3
    6.0199654069900E-3
    6.0403162574953E-3
    6.0607147121537E-3
    6.0811608805186E-3
    6.1016548723870E-3
    6.1221967978001E-3
    6.1427867670435E-3
    6.1634248906480E-3
    6.1841112793900E-3
    6.2048460442917E-3
    6.2256292966224E-3
    6.2464611478979E-3
    6.2673417098821E-3
    6.2882710945867E-3
    6.3092494142721E-3
    6.3302767814479E-3
    6.3513533088733E-3
    6.3724791095575E-3
    6.3936542967605E-3
    6.4148789839935E-3
    6.4361532850193E-3
    6.4574773138529E-3
    6.4788511847620E-3
    6.5002750122676E-3
    6.5217489111444E-3
    6.5432729964213E-3
    6.5648473833821E-3
    6.5864721875658E-3
    6.6081475247672E-3
    6.6298735110376E-3
    6.6516502626849E-3
    6.6734778962747E-3
    6.6953565286303E-3
    6.7172862768333E-3
    6.7392672582246E-3
    6.7612995904044E-3
    6.7833833912328E-3
    6.8055187788306E-3
    6.8277058715797E-3
    6.8499447881233E-3
    6.8722356473671E-3
    6.8945785684792E-3
    6.9169736708910E-3
    6.9394210742975E-3
    6.9619208986582E-3
    6.9844732641970E-3
    7.0070782914035E-3
    7.0297361010329E-3
    7.0524468141069E-3
    7.0752105519142E-3
    7.0980274360107E-3
    7.1208975882207E-3
    7.1438211306368E-3
    7.1667981856206E-3
    7.1898288758036E-3
    7.2129133240872E-3
    7.2360516536438E-3
    7.2592439879169E-3
    7.2824904506217E-3
    7.3057911657459E-3
    7.3291462575502E-3
    7.3525558505685E-3
    7.3760200696089E-3
    7.3995390397539E-3
    7.4231128863612E-3
    7.4467417350640E-3
    7.4704257117719E-3
    7.4941649426712E-3
    7.5179595542253E-3
    7.5418096731758E-3
    7.5657154265424E-3
    7.5896769416239E-3
    7.6136943459987E-3
    7.6377677675252E-3
    7.6618973343424E-3
    7.6860831748706E-3
    7.7103254178119E-3
    7.7346241921505E-3
    7.7589796271537E-3
    7.7833918523722E-3
    7.8078609976407E-3
    7.8323871930784E-3
    7.8569705690898E-3
    7.8816112563651E-3
    7.9063093858805E-3
    7.9310650888994E-3
    7.9558784969724E-3
    7.9807497419382E-3
    8.0056789559239E-3
    8.0306662713459E-3
    8.0557118209101E-3
    8.0808157376130E-3
    8.1059781547415E-3
    8.1311992058742E-3
    8.1564790248817E-3
    8.1818177459271E-3
    8.2072155034666E-3
    8.2326724322501E-3
    8.2581886673220E-3
    8.2837643440214E-3
    8.3093995979830E-3
    8.3350945651373E-3
    8.3608493817117E-3
    8.3866641842306E-3
    8.4125391095164E-3
    8.4384742946897E-3
    8.4644698771701E-3
    8.4905259946769E-3
    8.5166427852292E-3
    8.5428203871471E-3
    8.5690589390520E-3
    8.5953585798671E-3
    8.6217194488182E-3
    8.6481416854340E-3
    8.6746254295471E-3
    8.7011708212941E-3
    8.7277780011168E-3
    8.7544471097622E-3
    8.7811782882833E-3
    8.8079716780401E-3
    8.8348274206995E-3
    8.8617456582363E-3
    8.8887265329338E-3
    8.9157701873844E-3
    8.9428767644901E-3
    8.9700464074631E-3
    8.9972792598263E-3
    9.0245754654144E-3
    9.0519351683739E-3
    9.0793585131640E-3
    9.1068456445571E-3
    9.1343967076396E-3
    9.1620118478123E-3
    9.1896912107910E-3
    9.2174349426073E-3
    9.2452431896091E-3
    9.2731160984611E-3
    9.3010538161456E-3
    9.3290564899631E-3
    9.3571242675326E-3
    9.3852572967927E-3
    9.4134557260019E-3
    9.4417197037391E-3
    9.4700493789048E-3
    9.4984449007208E-3
    9.5269064187318E-3
    9.5554340828052E-3
    9.5840280431324E-3
    9.6126884502287E-3
    9.6414154549347E-3
    9.6702092084162E-3
    9.6990698621654E-3
    9.7279975680012E-3
    9.7569924780697E-3
    9.7860547448454E-3
    9.8151845211311E-3
    9.8443819600592E-3
    9.8736472150916E-3
    9.9029804400211E-3
    9.9323817889714E-3
    9.9618514163982E-3
    9.9913894770894E-3
    1.0020996126166E-2
    1.0050671519083E-2
    1.0080415811630E-2
    1.0110229159929E-2
    1.0140111720442E-2
    1.0170063649963E-2
    1.0200085105625E-2
    1.0230176244899E-2
    1.0260337225592E-2
    1.0290568205852E-2
    1.0320869344165E-2
    1.0351240799357E-2
    1.0381682730596E-2
    1.0412195297390E-2
    1.0442778659589E-2
    1.0473432977386E-2
    1.0504158411318E-2
    1.0534955122264E-2
    1.0565823271449E-2
    1.0596763020444E-2
    1.0627774531163E-2
    1.0658857965869E-2
    1.0690013487171E-2
    1.0721241258026E-2
    1.0752541441739E-2
    1.0783914201966E-2
    1.0815359702709E-2
    1.0846878108324E-2
    1.0878469583516E-2
    1.0910134293342E-2
    1.0941872403213E-2
    1.0973684078890E-2
    1.1005569486490E-2
    1.1037528792483E-2
    1.1069562163695E-2
    1.1101669767306E-2
    1.1133851770854E-2
    1.1166108342234E-2
    1.1198439649696E-2
    1.1230845861852E-2
    1.1263327147669E-2
    1.1295883676477E-2
    1.1328515617964E-2
    1.1361223142180E-2
    1.1394006419535E-2
    1.1426865620804E-2
    1.1459800917123E-2
    1.1492812479990E-2
    1.1525900481272E-2
    1.1559065093195E-2
    1.1592306488355E-2
    1.1625624839713E-2
    1.1659020320595E-2
    1.1692493104698E-2
    1.1726043366083E-2
    1.1759671279185E-2
    1.1793377018804E-2
    1.1827160760112E-2
    1.1861022678653E-2
    1.1894962950340E-2
    1.1928981751462E-2
    1.1963079258677E-2
    1.1997255649018E-2
    1.2031511099895E-2
    1.2065845789089E-2
    1.2100259894758E-2
    1.2134753595437E-2
    1.2169327070038E-2
    1.2203980497851E-2
    1.2238714058542E-2
    1.2273527932158E-2
    1.2308422299127E-2
    1.2343397340255E-2
    1.2378453236729E-2
    1.2413590170120E-2
    1.2448808322380E-2
    1.2484107875844E-2
    1.2519489013231E-2
    1.2554951917646E-2
    1.2590496772577E-2
    1.2626123761899E-2
    1.2661833069874E-2
    1.2697624881150E-2
    1.2733499380764E-2
    1.2769456754141E-2
    1.2805497187096E-2
    1.2841620865834E-2
    1.2877827976950E-2
    1.2914118707431E-2
    1.2950493244656E-2
    1.2986951776397E-2
    1.3023494490820E-2
    1.3060121576483E-2
    1.3096833222341E-2
    1.3133629617745E-2
    1.3170510952440E-2
    1.3207477416571E-2
    1.3244529200677E-2
    1.3281666495698E-2
    1.3318889492973E-2
    1.3356198384240E-2
    1.3393593361638E-2
    1.3431074617707E-2
    1.3468642345387E-2
    1.3506296738025E-2
    1.3544037989367E-2
    1.3581866293565E-2
    1.3619781845176E-2
    1.3657784839160E-2
    1.3695875470887E-2
    1.3734053936131E-2
    1.3772320431074E-2
    1.3810675152306E-2
    1.3849118296827E-2
    1.3887650062045E-2
    1.3926270645781E-2
    1.3964980246264E-2
    1.4003779062137E-2
    1.4042667292454E-2
    1.4081645136683E-2
    1.4120712794706E-2
    1.4159870466819E-2
    1.4199118353733E-2
    1.4238456656576E-2
    1.4277885576894E-2
    1.4317405316646E-2
    1.4357016078214E-2
    1.4396718064396E-2
    1.4436511478411E-2
    1.4476396523897E-2
    1.4516373404914E-2
    1.4556442325944E-2
    1.4596603491891E-2
    1.4636857108082E-2
    1.4677203380267E-2
    1.4717642514623E-2
    1.4758174717750E-2
    1.4798800196675E-2
    1.4839519158852E-2
    1.4880331812163E-2
    1.4921238364916E-2
    1.4962239025850E-2
    1.5003334004133E-2
    1.5044523509363E-2
    1.5085807751569E-2
    1.5127186941214E-2
    1.5168661289189E-2
    1.5210231006823E-2
    1.5251896305877E-2
    1.5293657398545E-2
    1.5335514497458E-2
    1.5377467815685E-2
    1.5419517566729E-2
    1.5461663964531E-2
    1.5503907223471E-2
    1.5546247558369E-2
    1.5588685184483E-2
    1.5631220317511E-2
    1.5673853173595E-2
    1.5716583969317E-2
    1.5759412921701E-2
    1.5802340248216E-2
    1.5845366166774E-2
    1.5888490895733E-2
    1.5931714653896E-2
    1.5975037660511E-2
    1.6018460135275E-2
    1.6061982298332E-2
    1.6105604370274E-2
    1.6149326572143E-2
    1.6193149125430E-2
    1.6237072252078E-2
    1.6281096174480E-2
    1.6325221115482E-2
    1.6369447298383E-2
    1.6413774946935E-2
    1.6458204285345E-2
    1.6502735538274E-2
    1.6547368930839E-2
    1.6592104688615E-2
    1.6636943037632E-2
    1.6681884204381E-2
    1.6726928415808E-2
    1.6772075899321E-2
    1.6817326882788E-2
    1.6862681594537E-2
    1.6908140263358E-2
    1.6953703118503E-2
    1.6999370389689E-2
    1.7045142307094E-2
    1.7091019101363E-2
    1.7137001003605E-2
    1.7183088245395E-2
    1.7229281058775E-2
    1.7275579676255E-2
    1.7321984330813E-2
    1.7368495255896E-2
    1.7415112685420E-2
    1.7461836853773E-2
    1.7508667995812E-2
    1.7555606346869E-2
    1.7602652142744E-2
    1.7649805619716E-2
    1.7697067014535E-2
    1.7744436564424E-2
    1.7791914507086E-2
    1.7839501080697E-2
    1.7887196523913E-2
    1.7935001075863E-2
    1.7982914976160E-2
    1.8030938464893E-2
    1.8079071782632E-2
    1.8127315170427E-2
    1.8175668869811E-2
    1.8224133122798E-2
    1.8272708171885E-2
    1.8321394260052E-2
    1.8370191630766E-2
    1.8419100527977E-2
    1.8468121196121E-2
    1.8517253880121E-2
    1.8566498825388E-2
    1.8615856277820E-2
    1.8665326483804E-2
    1.8714909690217E-2
    1.8764606144426E-2
    1.8814416094290E-2
    1.8864339788159E-2
    1.8914377474874E-2
    1.8964529403772E-2
    1.9014795824683E-2
    1.9065176987930E-2
    1.9115673144334E-2
    1.9166284545210E-2
    1.9217011442372E-2
    1.9267854088130E-2
    1.9318812735293E-2
    1.9369887637168E-2
    1.9421079047565E-2
    1.9472387220791E-2
    1.9523812411655E-2
    1.9575354875471E-2
    1.9627014868052E-2
    1.9678792645717E-2
    1.9730688465287E-2
    1.9782702584090E-2
    1.9834835259959E-2
    1.9887086751233E-2
    1.9939457316759E-2
    1.9991947215891E-2
    2.0044556708492E-2
    2.0097286054935E-2
    2.0150135516101E-2
    2.0203105353385E-2
    2.0256195828691E-2
    2.0309407204436E-2
    2.0362739743550E-2
    2.0416193709477E-2
    2.0469769366175E-2
    2.0523466978117E-2
    2.0577286810293E-2
    2.0631229128208E-2
    2.0685294197886E-2
    2.0739482285868E-2
    2.0793793659213E-2
    2.0848228585503E-2
    2.0902787332836E-2
    2.0957470169833E-2
    2.1012277365637E-2
    2.1067209189912E-2
    2.1122265912848E-2
    2.1177447805155E-2
    2.1232755138070E-2
    2.1288188183355E-2
    2.1343747213298E-2
    2.1399432500714E-2
    2.1455244318944E-2
    2.1511182941858E-2
    2.1567248643857E-2
    2.1623441699867E-2
    2.1679762385349E-2
    2.1736210976293E-2
    2.1792787749220E-2
    2.1849492981184E-2
    2.1906326949774E-2
    2.1963289933110E-2
    2.2020382209849E-2
    2.2077604059181E-2
    2.2134955760835E-2
    2.2192437595075E-2
    2.2250049842701E-2
    2.2307792785055E-2
    2.2365666704013E-2
    2.2423671881996E-2
    2.2481808601961E-2
    2.2540077147408E-2
    2.2598477802377E-2
    2.2657010851454E-2
    2.2715676579764E-2
    2.2774475272978E-2
    2.2833407217312E-2
    2.2892472699525E-2
    2.2951672006924E-2
    2.3011005427362E-2
    2.3070473249240E-2
    2.3130075761504E-2
    2.3189813253653E-2
    2.3249686015733E-2
    2.3309694338341E-2
    2.3369838512623E-2
    2.3430118830279E-2
    2.3490535583560E-2
    2.3551089065269E-2
    2.3611779568765E-2
    2.3672607387958E-2
    2.3733572817317E-2
    2.3794676151863E-2
    2.3855917687175E-2
    2.3917297719390E-2
    2.3978816545199E-2
    2.4040474461857E-2
    2.4102271767173E-2
    2.4164208759518E-2
    2.4226285737824E-2
    2.4288503001582E-2
    2.4350860850848E-2
    2.4413359586238E-2
    2.4475999508931E-2
    2.4538780920671E-2
