release/datafiles/colormanagement/filmic/filmic_to_0.99_1-0075.spi1d
Version 1
From 0.000000 1.000000
Length 4096
Components 1
{
    0.0000000000000E+0
    2.7818000588204E-6
    5.5712862287959E-6
    8.3684797068371E-6
    1.1173401748090E-5
    1.3986073666094E-5
    1.6806516832943E-5
    1.9634752679446E-5
    2.2470802695285E-5
    2.5314688429173E-5
    2.8166431489022E-5
    3.1026053542099E-5
    3.3893576315187E-5
    3.6769021594752E-5
    3.9652411227101E-5
    4.2543767118549E-5
    4.5443111235579E-5
    4.8350465605006E-5
    5.1265852314146E-5
    5.4189293510975E-5
    5.7120811404300E-5
    6.0060428263917E-5
    6.3008166420787E-5
    6.5964048267193E-5
    6.8928096256914E-5
    7.1900332905389E-5
    7.4880780789886E-5
    7.7869462549671E-5
    8.0866400886175E-5
    8.3871618563166E-5
    8.6885138406915E-5
    8.9906983306369E-5
    9.2937176213323E-5
    9.5975740142587E-5
    9.9022698172160E-5
    1.0207807344340E-4
    1.0514188916121E-4
    1.0821416859418E-4
    1.1129493507479E-4
    1.1438421199958E-4
    1.1748202282931E-4
    1.2058839108913E-4
    1.2370334036880E-4
    1.2682689432280E-4
    1.2995907667056E-4
    1.3309991119662E-4
    1.3624942175079E-4
    1.3940763224835E-4
    1.4257456667020E-4
    1.4575024906310E-4
    1.4893470353977E-4
    1.5212795427912E-4
    1.5533002552641E-4
    1.5854094159344E-4
    1.6176072685875E-4
    1.6498940576775E-4
    1.6822700283294E-4
    1.7147354263409E-4
    1.7472904981841E-4
    1.7799354910075E-4
    1.8126706526377E-4
    1.8454962315812E-4
    1.8784124770264E-4
    1.9114196388455E-4
    1.9445179675961E-4
    1.9777077145232E-4
    2.0109891315613E-4
    2.0443624713358E-4
    2.0778279871652E-4
    2.1113859330630E-4
    2.1450365637395E-4
    2.1787801346036E-4
    2.2126169017649E-4
    2.2465471220354E-4
    2.2805710529316E-4
    2.3146889526764E-4
    2.3489010802007E-4
    2.3832076951457E-4
    2.4176090578649E-4
    2.4521054294254E-4
    2.4866970716107E-4
    2.5213842469220E-4
    2.5561672185803E-4
    2.5910462505287E-4
    2.6260216074337E-4
    2.6610935546878E-4
    2.6962623584113E-4
    2.7315282854540E-4
    2.7668916033974E-4
    2.8023525805568E-4
    2.8379114859830E-4
    2.8735685894644E-4
    2.9093241615294E-4
    2.9451784734477E-4
    2.9811317972328E-4
    3.0171844056439E-4
    3.0533365721880E-4
    3.0895885711217E-4
    3.1259406774535E-4
    3.1623931669456E-4
    3.1989463161161E-4
    3.2356004022412E-4
    3.2723557033568E-4
    3.3092124982611E-4
    3.3461710665161E-4
    3.3832316884503E-4
    3.4203946451602E-4
    3.4576602185128E-4
    3.4950286911474E-4
    3.5325003464780E-4
    3.5700754686950E-4
    3.6077543427678E-4
    3.6455372544463E-4
    3.6834244902636E-4
    3.7214163375378E-4
    3.7595130843744E-4
    3.7977150196678E-4
    3.8360224331044E-4
    3.8744356151639E-4
    3.9129548571218E-4
    3.9515804510517E-4
    3.9903126898271E-4
    4.0291518671240E-4
    4.0680982774226E-4
    4.1071522160099E-4
    4.1463139789816E-4
    4.1855838632445E-4
    4.2249621665184E-4
    4.2644491873387E-4
    4.3040452250583E-4
    4.3437505798501E-4
    4.3835655527087E-4
    4.4234904454532E-4
    4.4635255607293E-4
    4.5036712020112E-4
    4.5439276736042E-4
    4.5842952806469E-4
    4.6247743291131E-4
    4.6653651258148E-4
    4.7060679784036E-4
    4.7468831953736E-4
    4.7878110860635E-4
    4.8288519606588E-4
    4.8700061301941E-4
    4.9112739065555E-4
    4.9526556024829E-4
    4.9941515315721E-4
    5.0357620082776E-4
    5.0774873479141E-4
    5.1193278666599E-4
    5.1612838815582E-4
    5.2033557105201E-4
    5.2455436723269E-4
    5.2878480866320E-4
    5.3302692739637E-4
    5.3728075557275E-4
    5.4154632542084E-4
    5.4582366925731E-4
    5.5011281948728E-4
    5.5441380860452E-4
    5.5872666919171E-4
    5.6305143392067E-4
    5.6738813555262E-4
    5.7173680693840E-4
    5.7609748101872E-4
    5.8047019082440E-4
    5.8485496947662E-4
    5.8925185018717E-4
    5.9366086625867E-4
    5.9808205108484E-4
    6.0251543815074E-4
    6.0696106103301E-4
    6.1141895340011E-4
    6.1588914901260E-4
    6.2037168172336E-4
    6.2486658547785E-4
    6.2937389431435E-4
    6.3389364236421E-4
    6.3842586385214E-4
    6.4297059309640E-4
    6.4752786450911E-4
    6.5209771259646E-4
    6.5668017195898E-4
    6.6127527729180E-4
    6.6588306338492E-4
    6.7050356512341E-4
    6.7513681748774E-4
    6.7978285555398E-4
    6.8444171449408E-4
    6.8911342957615E-4
    6.9379803616466E-4
    6.9849556972077E-4
    7.0320606580254E-4
    7.0792956006522E-4
    7.1266608826149E-4
    7.1741568624175E-4
    7.2217838995435E-4
    7.2695423544589E-4
    7.3174325886145E-4
    7.3654549644489E-4
    7.4136098453907E-4
    7.4618975958619E-4
    7.5103185812796E-4
    7.5588731680597E-4
    7.6075617236187E-4
    7.6563846163772E-4
    7.7053422157619E-4
    7.7544348922087E-4
    7.8036630171653E-4
    7.8530269630942E-4
    7.9025271034748E-4
    7.9521638128070E-4
    8.0019374666130E-4
    8.0518484414409E-4
    8.1018971148669E-4
    8.1520838654985E-4
    8.2024090729766E-4
    8.2528731179793E-4
    8.3034763822236E-4
    8.3542192484691E-4
    8.4051021005203E-4
    8.4561253232293E-4
    8.5072893024991E-4
    8.5585944252863E-4
    8.6100410796035E-4
    8.6616296545226E-4
    8.7133605401776E-4
    8.7652341277673E-4
    8.8172508095580E-4
    8.8694109788870E-4
    8.9217150301647E-4
    8.9741633588782E-4
    9.0267563615937E-4
    9.0794944359595E-4
    9.1323779807090E-4
    9.1854073956637E-4
    9.2385830817359E-4
    9.2919054409318E-4
    9.3453748763543E-4
    9.3989917922062E-4
    9.4527565937928E-4
    9.5066696875251E-4
    9.5607314809229E-4
    9.6149423826173E-4
    9.6693028023541E-4
    9.7238131509969E-4
    9.7784738405295E-4
    9.8332852840596E-4
    9.8882478958213E-4
    9.9433620911784E-4
    9.9986282866275E-4
    1.0054046899801E-3
    1.0109618349469E-3
    1.0165343055545E-3
    1.0221221439086E-3
    1.0277253922299E-3
    1.0333440928539E-3
    1.0389782882317E-3
    1.0446280209301E-3
    1.0502933336320E-3
    1.0559742691364E-3
    1.0616708703593E-3
    1.0673831803335E-3
    1.0731112422089E-3
    1.0788550992532E-3
    1.0846147948521E-3
    1.0903903725093E-3
    1.0961818758472E-3
    1.1019893486070E-3
    1.1078128346491E-3
    1.1136523779533E-3
    1.1195080226194E-3
    1.1253798128673E-3
    1.1312677930372E-3
    1.1371720075902E-3
    1.1430925011087E-3
    1.1490293182961E-3
    1.1549825039779E-3
    1.1609521031017E-3
    1.1669381607372E-3
    1.1729407220772E-3
    1.1789598324373E-3
    1.1849955372567E-3
    1.1910478820982E-3
    1.1971169126487E-3
    1.2032026747194E-3
    1.2093052142464E-3
    1.2154245772908E-3
    1.2215608100389E-3
    1.2277139588031E-3
    1.2338840700214E-3
    1.2400711902587E-3
    1.2462753662063E-3
    1.2524966446826E-3
    1.2587350726336E-3
    1.2649906971328E-3
    1.2712635653821E-3
    1.2775537247116E-3
    1.2838612225803E-3
    1.2901861065763E-3
    1.2965284244172E-3
    1.3028882239504E-3
    1.3092655531534E-3
    1.3156604601344E-3
    1.3220729931323E-3
    1.3285032005172E-3
    1.3349511307909E-3
    1.3414168325871E-3
    1.3479003546715E-3
    1.3544017459429E-3
    1.3609210554326E-3
    1.3674583323055E-3
    1.3740136258601E-3
    1.3805869855290E-3
    1.3871784608792E-3
    1.3937881016124E-3
    1.4004159575654E-3
    1.4070620787105E-3
    1.4137265151560E-3
    1.4204093171461E-3
    1.4271105350617E-3
    1.4338302194209E-3
    1.4405684208786E-3
    1.4473251902277E-3
    1.4541005783991E-3
    1.4608946364620E-3
    1.4677074156243E-3
    1.4745389672332E-3
    1.4813893427754E-3
    1.4882585938774E-3
    1.4951467723059E-3
    1.5020539299683E-3
    1.5089801189130E-3
    1.5159253913297E-3
    1.5228897995500E-3
    1.5298733960474E-3
    1.5368762334382E-3
    1.5438983644813E-3
    1.5509398420789E-3
    1.5580007192772E-3
    1.5650810492659E-3
    1.5721808853794E-3
    1.5793002810970E-3
    1.5864392900429E-3
    1.5935979659871E-3
    1.6007763628453E-3
    1.6079745346799E-3
    1.6151925356997E-3
    1.6224304202608E-3
    1.6296882428668E-3
    1.6369660581690E-3
    1.6442639209674E-3
    1.6515818862102E-3
    1.6589200089951E-3
    1.6662783445691E-3
    1.6736569483290E-3
    1.6810558758221E-3
    1.6884751827461E-3
    1.6959149249501E-3
    1.7033751584344E-3
    1.7108559393513E-3
    1.7183573240053E-3
    1.7258793688537E-3
    1.7334221305068E-3
    1.7409856657286E-3
    1.7485700314366E-3
    1.7561752847029E-3
    1.7638014827545E-3
    1.7714486829730E-3
    1.7791169428960E-3
    1.7868063202170E-3
    1.7945168727856E-3
    1.8022486586084E-3
    1.8100017358492E-3
    1.8177761628294E-3
    1.8255719980283E-3
    1.8333893000839E-3
    1.8412281277929E-3
    1.8490885401112E-3
    1.8569705961547E-3
    1.8648743551992E-3
    1.8727998766811E-3
    1.8807472201979E-3
    1.8887164455084E-3
    1.8967076125333E-3
    1.9047207813555E-3
    1.9127560122207E-3
    1.9208133655377E-3
    1.9288929018787E-3
    1.9369946819801E-3
    1.9451187667427E-3
    1.9532652172321E-3
    1.9614340946791E-3
    1.9696254604803E-3
    1.9778393761987E-3
    1.9860759035637E-3
    1.9943351044716E-3
    2.0026170409865E-3
    2.0109217753402E-3
    2.0192493699330E-3
    2.0275998873341E-3
    2.0359733902817E-3
    2.0443699416840E-3
    2.0527896046191E-3
    2.0612324423361E-3
    2.0696985182546E-3
    2.0781878959663E-3
    2.0867006392345E-3
    2.0952368119949E-3
    2.1037964783564E-3
    2.1123797026009E-3
    2.1209865491842E-3
    2.1296170827364E-3
    2.1382713680622E-3
    2.1469494701415E-3
    2.1556514541300E-3
    2.1643773853593E-3
    2.1731273293375E-3
    2.1819013517498E-3
    2.1906995184590E-3
    2.1995218955058E-3
    2.2083685491091E-3
    2.2172395456670E-3
    2.2261349517568E-3
    2.2350548341357E-3
    2.2439992597410E-3
    2.2529682956911E-3
    2.2619620092855E-3
    2.2709804680054E-3
    2.2800237395143E-3
    2.2890918916582E-3
    2.2981849924666E-3
    2.3073031101524E-3
    2.3164463131127E-3
    2.3256146699291E-3
    2.3348082493687E-3
    2.3440271203836E-3
    2.3532713521125E-3
    2.3625410138805E-3
    2.3718361751995E-3
    2.3811569057694E-3
    2.3905032754778E-3
    2.3998753544009E-3
    2.4092732128040E-3
    2.4186969211419E-3
    2.4281465500595E-3
    2.4376221703920E-3
    2.4471238531659E-3
    2.4566516695989E-3
    2.4662056911011E-3
    2.4757859892748E-3
    2.4853926359155E-3
    2.4950257030121E-3
    2.5046852627478E-3
    2.5143713875001E-3
    2.5240841498417E-3
    2.5338236225407E-3
    2.5435898785616E-3
    2.5533829910652E-3
    2.5632030334095E-3
    2.5730500791502E-3
    2.5829242020411E-3
    2.5928254760346E-3
    2.6027539752825E-3
    2.6127097741360E-3
    2.6226929471467E-3
    2.6327035690670E-3
    2.6427417148504E-3
    2.6528074596524E-3
    2.6629008788307E-3
    2.6730220479459E-3
    2.6831710427620E-3
    2.6933479392468E-3
    2.7035528135728E-3
    2.7137857421172E-3
    2.7240468014630E-3
    2.7343360683990E-3
    2.7446536199208E-3
    2.7549995332309E-3
    2.7653738857397E-3
    2.7757767550658E-3
    2.7862082190364E-3
    2.7966683556881E-3
    2.8071572432674E-3
    2.8176749602311E-3
    2.8282215852469E-3
    2.8387971971943E-3
    2.8494018751644E-3
    2.8600356984612E-3
    2.8706987466017E-3
    2.8813910993168E-3
    2.8921128365515E-3
    2.9028640384657E-3
    2.9136447854345E-3
    2.9244551580491E-3
    2.9352952371172E-3
    2.9461651036636E-3
    2.9570648389307E-3
    2.9679945243789E-3
    2.9789542416876E-3
    2.9899440727555E-3
    3.0009640997011E-3
    3.0120144048634E-3
    3.0230950708025E-3
    3.0342061803002E-3
    3.0453478163602E-3
    3.0565200622092E-3
    3.0677230012972E-3
    3.0789567172982E-3
    3.0902212941105E-3
    3.1015168158577E-3
    3.1128433668891E-3
    3.1242010317800E-3
    3.1355898953328E-3
    3.1470100425773E-3
    3.1584615587711E-3
    3.1699445294007E-3
    3.1814590401817E-3
    3.1930051770594E-3
    3.2045830262098E-3
    3.2161926740394E-3
    3.2278342071868E-3
    3.2395077125225E-3
    3.2512132771498E-3
    3.2629509884055E-3
    3.2747209338603E-3
    3.2865232013196E-3
    3.2983578788240E-3
    3.3102250546497E-3
    3.3221248173098E-3
    3.3340572555538E-3
    3.3460224583694E-3
    3.3580205149823E-3
    3.3700515148572E-3
    3.3821155476980E-3
    3.3942127034492E-3
    3.4063430722956E-3
    3.4185067446636E-3
    3.4307038112215E-3
    3.4429343628802E-3
    3.4551984907938E-3
    3.4674962863603E-3
    3.4798278412222E-3
    3.4921932472670E-3
    3.5045925966281E-3
    3.5170259816851E-3
    3.5294934950648E-3
    3.5419952296416E-3
    3.5545312785380E-3
    3.5671017351257E-3
    3.5797066930257E-3
    3.5923462461094E-3
    3.6050204884990E-3
    3.6177295145681E-3
    3.6304734189427E-3
    3.6432522965012E-3
    3.6560662423757E-3
    3.6689153519524E-3
    3.6817997208722E-3
    3.6947194450313E-3
    3.7076746205821E-3
    3.7206653439336E-3
    3.7336917117522E-3
    3.7467538209623E-3
    3.7598517687471E-3
    3.7729856525491E-3
    3.7861555700707E-3
    3.7993616192752E-3
    3.8126038983870E-3
    3.8258825058928E-3
    3.8391975405418E-3
    3.8525491013466E-3
    3.8659372875840E-3
    3.8793621987952E-3
    3.8928239347870E-3
    3.9063225956324E-3
    3.9198582816710E-3
    3.9334310935097E-3
    3.9470411320237E-3
    3.9606884983570E-3
    3.9743732939231E-3
    3.9880956204056E-3
    4.0018555797591E-3
    4.0156532742096E-3
    4.0294888062554E-3
    4.0433622786679E-3
    4.0572737944920E-3
    4.0712234570469E-3
    4.0852113699270E-3
    4.0992376370024E-3
    4.1133023624196E-3
    4.1274056506023E-3
    4.1415476062520E-3
    4.1557283343488E-3
    4.1699479401522E-3
    4.1842065292015E-3
    4.1985042073168E-3
    4.2128410805996E-3
    4.2272172554336E-3
    4.2416328384851E-3
    4.2560879367043E-3
    4.2705826573256E-3
    4.2851171078682E-3
    4.2996913961373E-3
    4.3143056302244E-3
    4.3289599185083E-3
    4.3436543696556E-3
    4.3583890926218E-3
    4.3731641966513E-3
    4.3879797912792E-3
    4.4028359863311E-3
    4.4177328919242E-3
    4.4326706184681E-3
    4.4476492766656E-3
    4.4626689775130E-3
    4.4777298323015E-3
    4.4928319526174E-3
    4.5079754503430E-3
    4.5231604376576E-3
    4.5383870270379E-3
    4.5536553312591E-3
    4.5689654633951E-3
    4.5843175368199E-3
    4.5997116652081E-3
    4.6151479625354E-3
    4.6306265430798E-3
    4.6461475214221E-3
    4.6617110124467E-3
    4.6773171313424E-3
    4.6929659936031E-3
    4.7086577150287E-3
    4.7243924117258E-3
    4.7401702001084E-3
    4.7559911968989E-3
    4.7718555191285E-3
    4.7877632841384E-3
    4.8037146095803E-3
    4.8197096134171E-3
    4.8357484139242E-3
    4.8518311296896E-3
    4.8679578796152E-3
    4.8841287829175E-3
    4.9003439591279E-3
    4.9166035280944E-3
    4.9329076099816E-3
    4.9492563252717E-3
    4.9656497947656E-3
    4.9820881395833E-3
    4.9985714811651E-3
    5.0150999412720E-3
    5.0316736419867E-3
    5.0482927057144E-3
    5.0649572551837E-3
    5.0816674134472E-3
    5.0984233038825E-3
    5.1152250501929E-3
    5.1320727764083E-3
    5.1489666068860E-3
    5.1659066663112E-3
    5.1828930796985E-3
    5.1999259723922E-3
    5.2170054700672E-3
    5.2341316987299E-3
    5.2513047847191E-3
    5.2685248547066E-3
    5.2857920356982E-3
    5.3031064550347E-3
    5.3204682403924E-3
    5.3378775197839E-3
    5.3553344215596E-3
    5.3728390744075E-3
    5.3903916073550E-3
    5.4079921497693E-3
    5.4256408313580E-3
    5.4433377821707E-3
    5.4610831325989E-3
    5.4788770133778E-3
    5.4967195555865E-3
    5.5146108906489E-3
    5.5325511503349E-3
    5.5505404667611E-3
    5.5685789723916E-3
    5.5866668000387E-3
    5.6048040828643E-3
    5.6229909543801E-3
    5.6412275484489E-3
    5.6595139992856E-3
    5.6778504414575E-3
    5.6962370098856E-3
    5.7146738398456E-3
    5.7331610669683E-3
    5.7516988272408E-3
    5.7702872570075E-3
    5.7889264929705E-3
    5.8076166721912E-3
    5.8263579320904E-3
    5.8451504104497E-3
    5.8639942454124E-3
    5.8828895754841E-3
    5.9018365395338E-3
    5.9208352767947E-3
    5.9398859268653E-3
    5.9589886297099E-3
    5.9781435256599E-3
    5.9973507554145E-3
    6.0166104600418E-3
    6.0359227809794E-3
    6.0552878600355E-3
    6.0747058393899E-3
    6.0941768615946E-3
    6.1137010695751E-3
    6.1332786066310E-3
    6.1529096164372E-3
    6.1725942430446E-3
    6.1923326308811E-3
    6.2121249247524E-3
    6.2319712698433E-3
    6.2518718117183E-3
    6.2718266963223E-3
    6.2918360699824E-3
    6.3119000794079E-3
    6.3320188716916E-3
    6.3521925943110E-3
    6.3724213951288E-3
    6.3927054223940E-3
    6.4130448247432E-3
    6.4334397512007E-3
    6.4538903511806E-3
    6.4743967744865E-3
    6.4949591713137E-3
    6.5155776922490E-3
    6.5362524882726E-3
    6.5569837107583E-3
    6.5777715114750E-3
    6.5986160425876E-3
    6.6195174566575E-3
    6.6404759066443E-3
    6.6614915459059E-3
    6.6825645282005E-3
    6.7036950076864E-3
    6.7248831389242E-3
    6.7461290768767E-3
    6.7674329769104E-3
    6.7887949947968E-3
    6.8102152867125E-3
    6.8316940092410E-3
    6.8532313193733E-3
    6.8748273745089E-3
    6.8964823324569E-3
    6.9181963514370E-3
    6.9399695900802E-3
    6.9618022074304E-3
    6.9836943629447E-3
    7.0056462164949E-3
    7.0276579283682E-3
    7.0497296592686E-3
    7.0718615703173E-3
    7.0940538230543E-3
    7.1163065794390E-3
    7.1386200018514E-3
    7.1609942530932E-3
    7.1834294963885E-3
    7.2059258953853E-3
    7.2284836141559E-3
    7.2511028171984E-3
    7.2737836694377E-3
    7.2965263362263E-3
    7.3193309833453E-3
    7.3421977770059E-3
    7.3651268838497E-3
    7.3881184709505E-3
    7.4111727058146E-3
    7.4342897563825E-3
    7.4574697910296E-3
    7.4807129785671E-3
    7.5040194882433E-3
    7.5273894897448E-3
    7.5508231531969E-3
    7.5743206491656E-3
    7.5978821486576E-3
    7.6215078231222E-3
    7.6451978444519E-3
    7.6689523849837E-3
    7.6927716175000E-3
    7.7166557152296E-3
    7.7406048518491E-3
    7.7646192014835E-3
    7.7886989387078E-3
    7.8128442385474E-3
    7.8370552764799E-3
    7.8613322284357E-3
    7.8856752707992E-3
    7.9100845804098E-3
    7.9345603345632E-3
    7.9591027110123E-3
    7.9837118879684E-3
    8.0083880441020E-3
    8.0331313585443E-3
    8.0579420108880E-3
    8.0828201811886E-3
    8.1077660499653E-3
    8.1327797982021E-3
    8.1578616073491E-3
    8.1830116593235E-3
    8.2082301365106E-3
    8.2335172217650E-3
    8.2588730984116E-3
    8.2842979502471E-3
    8.3097919615405E-3
    8.3353553170345E-3
    8.3609882019471E-3
    8.3866908019716E-3
    8.4124633032790E-3
    8.4383058925180E-3
    8.4642187568169E-3
    8.4902020837843E-3
    8.5162560615106E-3
    8.5423808785687E-3
    8.5685767240153E-3
    8.5948437873923E-3
    8.6211822587273E-3
    8.6475923285356E-3
    8.6740741878206E-3
    8.7006280280753E-3
    8.7272540412834E-3
    8.7539524199203E-3
    8.7807233569544E-3
    8.8075670458482E-3
    8.8344836805596E-3
    8.8614734555428E-3
    8.8885365657495E-3
    8.9156732066301E-3
    8.9428835741352E-3
    8.9701678647160E-3
    8.9975262753263E-3
    9.0249590034231E-3
    9.0524662469679E-3
    9.0800482044280E-3
    9.1077050747776E-3
    9.1354370574989E-3
    9.1632443525834E-3
    9.1911271605329E-3
    9.2190856823610E-3
    9.2471201195940E-3
    9.2752306742720E-3
    9.3034175489504E-3
    9.3316809467009E-3
    9.3600210711129E-3
    9.3884381262942E-3
    9.4169323168728E-3
    9.4455038479976E-3
    9.4741529253401E-3
    9.5028797550949E-3
    9.5316845439816E-3
    9.5605674992458E-3
    9.5895288286599E-3
    9.6185687405249E-3
    9.6476874436713E-3
    9.6768851474603E-3
    9.7061620617851E-3
    9.7355183970721E-3
    9.7649543642821E-3
    9.7944701749115E-3
    9.8240660409936E-3
    9.8537421750998E-3
    9.8834987903407E-3
    9.9133361003675E-3
    9.9432543193732E-3
    9.9732536620938E-3
    1.0003334343810E-2
    1.0033496580346E-2
    1.0063740588075E-2
    1.0094066583918E-2
    1.0124474785344E-2
    1.0154965410373E-2
    1.0185538677576E-2
    1.0216194806078E-2
    1.0246934015558E-2
    1.0277756526250E-2
    1.0308662558945E-2
    1.0339652334992E-2
    1.0370726076298E-2
    1.0401884005333E-2
    1.0433126345126E-2
    1.0464453319271E-2
    1.0495865151925E-2
    1.0527362067812E-2
    1.0558944292220E-2
    1.0590612051009E-2
    1.0622365570605E-2
    1.0654205078006E-2
    1.0686130800782E-2
    1.0718142967075E-2
    1.0750241805604E-2
    1.0782427545662E-2
    1.0814700417118E-2
    1.0847060650422E-2
    1.0879508476601E-2
    1.0912044127264E-2
    1.0944667834604E-2
    1.0977379831394E-2
    1.1010180350994E-2
    1.1043069627351E-2
    1.1076047894996E-2
    1.1109115389052E-2
    1.1142272345230E-2
    1.1175518999834E-2
    1.1208855589760E-2
    1.1242282352497E-2
    1.1275799526130E-2
    1.1309407349340E-2
    1.1343106061407E-2
    1.1376895902210E-2
    1.1410777112227E-2
    1.1444749932540E-2
    1.1478814604832E-2
    1.1512971371393E-2
    1.1547220475117E-2
    1.1581562159505E-2
    1.1615996668667E-2
    1.1650524247324E-2
    1.1685145140806E-2
    1.1719859595058E-2
    1.1754667856636E-2
    1.1789570172713E-2
    1.1824566791078E-2
    1.1859657960138E-2
    1.1894843928920E-2
    1.1930124947070E-2
    1.1965501264856E-2
    1.2000973133172E-2
    1.2036540803532E-2
    1.2072204528081E-2
    1.2107964559587E-2
    1.2143821151450E-2
    1.2179774557698E-2
    1.2215825032991E-2
    1.2251972832621E-2
    1.2288218212517E-2
    1.2324561429239E-2
    1.2361002739989E-2
    1.2397542402603E-2
    1.2434180675559E-2
    1.2470917817974E-2
    1.2507754089611E-2
    1.2544689750873E-2
    1.2581725062809E-2
    1.2618860287117E-2
    1.2656095686140E-2
    1.2693431522871E-2
    1.2730868060955E-2
    1.2768405564688E-2
    1.2806044299019E-2
    1.2843784529554E-2
    1.2881626522551E-2
    1.2919570544931E-2
    1.2957616864271E-2
    1.2995765748809E-2
    1.3034017467443E-2
    1.3072372289739E-2
    1.3110830485922E-2
    1.3149392326887E-2
    1.3188058084196E-2
    1.3226828030079E-2
    1.3265702437435E-2
    1.3304681579837E-2
    1.3343765731531E-2
    1.3382955167437E-2
    1.3422250163150E-2
    1.3461650994943E-2
    1.3501157939769E-2
    1.3540771275259E-2
    1.3580491279729E-2
    1.3620318232173E-2
    1.3660252412276E-2
    1.3700294100402E-2
    1.3740443577609E-2
    1.3780701125638E-2
    1.3821067026924E-2
    1.3861541564593E-2
    1.3902125022462E-2
    1.3942817685046E-2
    1.3983619837552E-2
    1.4024531765889E-2
    1.4065553756660E-2
    1.4106686097173E-2
    1.4147929075433E-2
    1.4189282980153E-2
    1.4230748100747E-2
    1.4272324727337E-2
    1.4314013150751E-2
    1.4355813662528E-2
    1.4397726554916E-2
    1.4439752120875E-2
    1.4481890654080E-2
    1.4524142448918E-2
    1.4566507800494E-2
