release/datafiles/colormanagement/filmic/filmic_to_0-48_1-09.spi1d
Version 1
From 0.000000 1.000000
Length 4096
Components 1
{
    0.0000000000000E+0
    3.8071194186105E-5
    7.6191797945641E-5
    1.1436187302051E-4
    1.5258148122314E-4
    1.9085068443662E-4
    2.2916954461466E-4
    2.6753812378176E-4
    3.0595648403317E-4
    3.4442468753504E-4
    3.8294279652444E-4
    4.2151087330939E-4
    4.6012898026901E-4
    4.9879717985350E-4
    5.3751553458421E-4
    5.7628410705378E-4
    6.1510295992610E-4
    6.5397215593645E-4
    6.9289175789149E-4
    7.3186182866941E-4
    7.7088243121990E-4
    8.0995362856429E-4
    8.4907548379557E-4
    8.8824806007843E-4
    9.2747142064941E-4
    9.6674562881684E-4
    1.0060707479610E-3
    1.0454468415342E-3
    1.0848739730607E-3
    1.1243522061369E-3
    1.1638816044313E-3
    1.2034622316848E-3
    1.2430941517104E-3
    1.2827774283936E-3
    1.3225121256921E-3
    1.3622983076364E-3
    1.4021360383292E-3
    1.4420253819461E-3
    1.4819664027351E-3
    1.5219591650170E-3
    1.5620037331854E-3
    1.6021001717069E-3
    1.6422485451208E-3
    1.6824489180394E-3
    1.7227013551481E-3
    1.7630059212053E-3
    1.8033626810427E-3
    1.8437716995651E-3
    1.8842330417507E-3
    1.9247467726507E-3
    1.9653129573902E-3
    2.0059316611675E-3
    2.0466029492543E-3
    2.0873268869961E-3
    2.1281035398121E-3
    2.1689329731949E-3
    2.2098152527112E-3
    2.2507504440013E-3
    2.2917386127796E-3
    2.3327798248343E-3
    2.3738741460277E-3
    2.4150216422962E-3
    2.4562223796502E-3
    2.4974764241744E-3
    2.5387838420279E-3
    2.5801446994439E-3
    2.6215590627301E-3
    2.6630269982687E-3
    2.7045485725162E-3
    2.7461238520041E-3
    2.7877529033380E-3
    2.8294357931986E-3
    2.8711725883413E-3
    2.9129633555960E-3
    2.9548081618680E-3
    2.9967070741370E-3
    3.0386601594582E-3
    3.0806674849616E-3
    3.1227291178523E-3
    3.1648451254106E-3
    3.2070155749923E-3
    3.2492405340282E-3
    3.2915200700246E-3
    3.3338542505633E-3
    3.3762431433015E-3
    3.4186868159719E-3
    3.4611853363830E-3
    3.5037387724189E-3
    3.5463471920393E-3
    3.5890106632800E-3
    3.6317292542524E-3
    3.6745030331439E-3
    3.7173320682179E-3
    3.7602164278139E-3
    3.8031561803475E-3
    3.8461513943103E-3
    3.8892021382704E-3
    3.9323084808720E-3
    3.9754704908356E-3
    4.0186882369584E-3
    4.0619617881138E-3
    4.1052912132518E-3
    4.1486765813990E-3
    4.1921179616588E-3
    4.2356154232112E-3
    4.2791690353128E-3
    4.3227788672974E-3
    4.3664449885755E-3
    4.4101674686345E-3
    4.4539463770390E-3
    4.4977817834305E-3
    4.5416737575278E-3
    4.5856223691268E-3
    4.6296276881007E-3
    4.6736897844000E-3
    4.7178087280528E-3
    4.7619845891642E-3
    4.8062174379172E-3
    4.8505073445722E-3
    4.8948543794673E-3
    4.9392586130182E-3
    4.9837201157185E-3
    5.0282389581394E-3
    5.0728152109302E-3
    5.1174489448179E-3
    5.1621402306076E-3
    5.2068891391826E-3
    5.2516957415041E-3
    5.2965601086114E-3
    5.3414823116224E-3
    5.3864624217328E-3
    5.4315005102172E-3
    5.4765966484281E-3
    5.5217509077968E-3
    5.5669633598329E-3
    5.6122340761250E-3
    5.6575631283398E-3
    5.7029505882231E-3
    5.7483965275993E-3
    5.7939010183717E-3
    5.8394641325226E-3
    5.8850859421130E-3
    5.9307665192830E-3
    5.9765059362520E-3
    6.0223042653182E-3
    6.0681615788591E-3
    6.1140779493316E-3
    6.1600534492717E-3
    6.2060881512948E-3
    6.2521821280960E-3
    6.2983354524495E-3
    6.3445481972093E-3
    6.3908204353088E-3
    6.4371522397614E-3
    6.4835436836598E-3
    6.5299948401768E-3
    6.5765057825650E-3
    6.6230765841568E-3
    6.6697073183645E-3
    6.7163980586807E-3
    6.7631488786778E-3
    6.8099598520085E-3
    6.8568310524056E-3
    6.9037625536822E-3
    6.9507544297318E-3
    6.9978067545280E-3
    7.0449196021252E-3
    7.0920930466580E-3
    7.1393271623418E-3
    7.1866220234723E-3
    7.2339777044262E-3
    7.2813942796606E-3
    7.3288718237136E-3
    7.3764104112042E-3
    7.4240101168321E-3
    7.4716710153781E-3
    7.5193931817039E-3
    7.5671766907523E-3
    7.6150216175475E-3
    7.6629280371945E-3
    7.7108960248797E-3
    7.7589256558709E-3
    7.8070170055172E-3
    7.8551701492492E-3
    7.9033851625787E-3
    7.9516621210994E-3
    8.0000011004865E-3
    8.0484021764966E-3
    8.0968654249684E-3
    8.1453909218220E-3
    8.1939787430598E-3
    8.2426289647655E-3
    8.2913416631052E-3
    8.3401169143268E-3
    8.3889547947604E-3
    8.4378553808180E-3
    8.4868187489940E-3
    8.5358449758648E-3
    8.5849341380893E-3
    8.6340863124087E-3
    8.6833015756465E-3
    8.7325800047087E-3
    8.7819216765838E-3
    8.8313266683431E-3
    8.8807950571401E-3
    8.9303269202114E-3
    8.9799223348761E-3
    9.0295813785362E-3
    9.0793041286765E-3
    9.1290906628647E-3
    9.1789410587516E-3
    9.2288553940708E-3
    9.2788337466393E-3
    9.3288761943568E-3
    9.3789828152067E-3
    9.4291536872553E-3
    9.4793888886523E-3
    9.5296884976308E-3
    9.5800525925072E-3
    9.6304812516815E-3
    9.6809745536373E-3
    9.7315325769416E-3
    9.7821554002450E-3
    9.8328431022822E-3
    9.8835957618711E-3
    9.9344134579139E-3
    9.9852962693963E-3
    1.0036244275388E-2
    1.0087257555043E-2
    1.0138336187599E-2
    1.0189480252378E-2
    1.0240689828785E-2
    1.0291964996312E-2
    1.0343305834532E-2
    1.0394712423104E-2
    1.0446184841771E-2
    1.0497723170361E-2
    1.0549327488786E-2
    1.0600997877043E-2
    1.0652734415211E-2
    1.0704537183458E-2
    1.0756406262034E-2
    1.0808341731273E-2
    1.0860343671596E-2
    1.0912412163508E-2
    1.0964547287598E-2
    1.1016749124540E-2
    1.1069017755096E-2
    1.1121353260108E-2
    1.1173755720508E-2
    1.1226225217311E-2
    1.1278761831615E-2
    1.1331365644608E-2
    1.1384036737560E-2
    1.1436775191827E-2
    1.1489581088852E-2
    1.1542454510160E-2
    1.1595395537365E-2
    1.1648404252166E-2
    1.1701480736347E-2
    1.1754625071776E-2
    1.1807837340410E-2
    1.1861117624290E-2
    1.1914466005543E-2
    1.1967882566382E-2
    1.2021367389106E-2
    1.2074920556100E-2
    1.2128542149836E-2
    1.2182232252871E-2
    1.2235990947848E-2
    1.2289818317497E-2
    1.2343714444633E-2
    1.2397679412160E-2
    1.2451713303065E-2
    1.2505816200425E-2
    1.2559988187400E-2
    1.2614229347239E-2
    1.2668539763277E-2
    1.2722919518934E-2
    1.2777368697719E-2
    1.2831887383228E-2
    1.2886475659141E-2
    1.2941133609227E-2
    1.2995861317341E-2
    1.3050658867427E-2
    1.3105526343512E-2
    1.3160463829714E-2
    1.3215471410236E-2
    1.3270549169369E-2
    1.3325697191491E-2
    1.3380915561066E-2
    1.3436204362648E-2
    1.3491563680875E-2
    1.3546993600476E-2
    1.3602494206265E-2
    1.3658065583143E-2
    1.3713707816102E-2
    1.3769420990217E-2
    1.3825205190654E-2
    1.3881060502666E-2
    1.3936987011593E-2
    1.3992984802863E-2
    1.4049053961992E-2
    1.4105194574585E-2
    1.4161406726333E-2
    1.4217690503016E-2
    1.4274045990502E-2
    1.4330473274747E-2
    1.4386972441795E-2
    1.4443543577779E-2
    1.4500186768920E-2
    1.4556902101526E-2
    1.4613689661994E-2
    1.4670549536810E-2
    1.4727481812549E-2
    1.4784486575872E-2
    1.4841563913531E-2
    1.4898713912365E-2
    1.4955936659303E-2
    1.5013232241362E-2
    1.5070600745646E-2
    1.5128042259352E-2
    1.5185556869761E-2
    1.5243144664246E-2
    1.5300805730269E-2
    1.5358540155377E-2
    1.5416348027212E-2
    1.5474229433501E-2
    1.5532184462060E-2
    1.5590213200796E-2
    1.5648315737704E-2
    1.5706492160870E-2
    1.5764742558466E-2
    1.5823067018756E-2
    1.5881465630093E-2
    1.5939938480918E-2
    1.5998485659763E-2
    1.6057107255249E-2
    1.6115803356086E-2
    1.6174574051074E-2
    1.6233419429104E-2
    1.6292339579154E-2
    1.6351334590293E-2
    1.6410404551680E-2
    1.6469549552565E-2
    1.6528769682285E-2
    1.6588065030269E-2
    1.6647435686035E-2
    1.6706881739191E-2
    1.6766403279437E-2
    1.6826000396560E-2
    1.6885673180440E-2
    1.6945421721044E-2
    1.7005246108432E-2
    1.7065146432752E-2
    1.7125122784246E-2
    1.7185175253241E-2
    1.7245303930160E-2
    1.7305508905511E-2
    1.7365790269896E-2
    1.7426148114007E-2
    1.7486582528627E-2
    1.7547093604627E-2
    1.7607681432970E-2
    1.7668346104712E-2
    1.7729087710997E-2
    1.7789906343060E-2
    1.7850802092228E-2
    1.7911775049917E-2
    1.7972825307636E-2
    1.8033952956984E-2
    1.8095158089650E-2
    1.8156440797416E-2
    1.8217801172153E-2
    1.8279239305825E-2
    1.8340755290485E-2
    1.8402349218279E-2
    1.8464021181443E-2
    1.8525771272306E-2
    1.8587599583285E-2
    1.8649506206892E-2
    1.8711491235728E-2
    1.8773554762486E-2
    1.8835696879951E-2
    1.8897917680999E-2
    1.8960217258597E-2
    1.9022595705805E-2
    1.9085053115773E-2
    1.9147589581743E-2
    1.9210205197050E-2
    1.9272900055118E-2
    1.9335674249467E-2
    1.9398527873704E-2
    1.9461461021530E-2
    1.9524473786740E-2
    1.9587566263217E-2
    1.9650738544938E-2
    1.9713990725971E-2
    1.9777322900479E-2
    1.9840735162713E-2
    1.9904227607017E-2
    1.9967800327830E-2
    2.0031453419680E-2
    2.0095186977188E-2
    2.0159001095069E-2
    2.0222895868126E-2
    2.0286871391260E-2
    2.0350927759459E-2
    2.0415065067807E-2
    2.0479283411479E-2
    2.0543582885742E-2
    2.0607963585957E-2
    2.0672425607576E-2
    2.0736969046144E-2
    2.0801593997298E-2
    2.0866300556770E-2
    2.0931088820381E-2
    2.0995958884048E-2
    2.1060910843778E-2
    2.1125944795673E-2
    2.1191060835926E-2
    2.1256259060824E-2
    2.1321539566747E-2
    2.1386902450166E-2
    2.1452347807648E-2
    2.1517875735849E-2
    2.1583486331521E-2
    2.1649179691509E-2
    2.1714955912748E-2
    2.1780815092271E-2
    2.1846757327199E-2
    2.1912782714749E-2
    2.1978891352231E-2
    2.2045083337047E-2
    2.2111358766694E-2
    2.2177717738760E-2
    2.2244160350928E-2
    2.2310686700975E-2
    2.2377296886768E-2
    2.2443991006271E-2
    2.2510769157539E-2
    2.2577631438722E-2
    2.2644577948063E-2
    2.2711608783897E-2
    2.2778724044655E-2
    2.2845923828860E-2
    2.2913208235128E-2
    2.2980577362171E-2
    2.3048031308792E-2
    2.3115570173889E-2
    2.3183194056454E-2
    2.3250903055571E-2
    2.3318697270420E-2
    2.3386576800274E-2
    2.3454541744498E-2
    2.3522592202553E-2
    2.3590728273993E-2
    2.3658950058466E-2
    2.3727257655714E-2
    2.3795651165572E-2
    2.3864130687971E-2
    2.3932696322935E-2
    2.4001348170580E-2
    2.4070086331118E-2
    2.4138910904856E-2
    2.4207821992194E-2
    2.4276819693624E-2
    2.4345904109736E-2
    2.4415075341211E-2
    2.4484333488826E-2
    2.4553678653451E-2
    2.4623110936052E-2
    2.4692630437687E-2
    2.4762237259509E-2
    2.4831931502766E-2
    2.4901713268801E-2
    2.4971582659048E-2
    2.5041539775040E-2
    2.5111584718400E-2
    2.5181717590848E-2
    2.5251938494197E-2
    2.5322247530357E-2
    2.5392644801330E-2
    2.5463130409212E-2
    2.5533704456195E-2
    2.5604367044566E-2
    2.5675118276705E-2
    2.5745958255088E-2
    2.5816887082283E-2
    2.5887904860957E-2
    2.5959011693867E-2
    2.6030207683868E-2
    2.6101492933907E-2
    2.6172867547028E-2
    2.6244331626369E-2
    2.6315885275161E-2
    2.6387528596733E-2
    2.6459261694506E-2
    2.6531084671996E-2
    2.6602997632815E-2
    2.6675000680670E-2
    2.6747093919361E-2
    2.6819277452784E-2
    2.6891551384930E-2
    2.6963915819885E-2
    2.7036370861830E-2
    2.7108916615038E-2
    2.7181553183882E-2
    2.7254280672825E-2
    2.7327099186429E-2
    2.7400008829348E-2
    2.7473009706333E-2
    2.7546101922228E-2
    2.7619285581974E-2
    2.7692560790605E-2
    2.7765927653252E-2
    2.7839386275141E-2
    2.7912936761590E-2
    2.7986579218016E-2
    2.8060313749928E-2
    2.8134140462933E-2
    2.8208059462730E-2
    2.8282070855116E-2
    2.8356174745981E-2
    2.8430371241311E-2
    2.8504660447188E-2
    2.8579042469786E-2
    2.8653517415379E-2
    2.8728085390331E-2
    2.8802746501106E-2
    2.8877500854260E-2
    2.8952348556444E-2
    2.9027289714407E-2
    2.9102324434991E-2
    2.9177452825134E-2
    2.9252674991869E-2
    2.9327991042324E-2
    2.9403401083723E-2
    2.9478905223385E-2
    2.9554503568723E-2
    2.9630196227247E-2
    2.9705983306562E-2
    2.9781864914368E-2
    2.9857841158459E-2
    2.9933912146727E-2
    3.0010077987157E-2
    3.0086338787831E-2
    3.0162694656925E-2
    3.0239145702711E-2
    3.0315692033555E-2
    3.0392333757921E-2
    3.0469070984367E-2
    3.0545903821545E-2
    3.0622832378203E-2
    3.0699856763187E-2
    3.0776977085435E-2
    3.0854193453981E-2
    3.0931505977956E-2
    3.1008914766584E-2
    3.1086419929187E-2
    3.1164021575180E-2
    3.1241719814075E-2
    3.1319514755479E-2
    3.1397406509092E-2
    3.1475395184714E-2
    3.1553480892237E-2
    3.1631663741649E-2
    3.1709943843033E-2
    3.1788321306569E-2
    3.1866796242530E-2
    3.1945368761287E-2
    3.2024038973303E-2
    3.2102806989141E-2
    3.2181672919455E-2
    3.2260636874996E-2
    3.2339698966610E-2
    3.2418859305241E-2
    3.2498118001923E-2
    3.2577475167791E-2
    3.2656930914071E-2
    3.2736485352087E-2
    3.2816138593258E-2
    3.2895890749096E-2
    3.2975741931211E-2
    3.3055692251307E-2
    3.3135741821184E-2
    3.3215890752737E-2
    3.3296139157956E-2
    3.3376487148926E-2
    3.3456934837829E-2
    3.3537482336940E-2
    3.3618129758631E-2
    3.3698877215368E-2
    3.3779724819714E-2
    3.3860672684324E-2
    3.3941720921952E-2
    3.4022869645445E-2
    3.4104118967745E-2
    3.4185469001891E-2
    3.4266919861015E-2
    3.4348471658346E-2
    3.4430124507208E-2
    3.4511878521018E-2
    3.4593733813291E-2
    3.4675690497635E-2
    3.4757748687754E-2
    3.4839908497448E-2
    3.4922170040610E-2
    3.5004533431230E-2
    3.5086998783392E-2
    3.5169566211275E-2
    3.5252235829154E-2
    3.5335007751399E-2
    3.5417882092472E-2
    3.5500858966935E-2
    3.5583938489441E-2
    3.5667120774740E-2
    3.5750405937676E-2
    3.5833794093188E-2
    3.5917285356310E-2
    3.6000879842172E-2
    3.6084577665996E-2
    3.6168378943103E-2
    3.6252283788905E-2
    3.6336292318911E-2
    3.6420404648724E-2
    3.6504620894042E-2
    3.6588941170657E-2
    3.6673365594458E-2
    3.6757894281427E-2
    3.6842527347639E-2
    3.6927264909267E-2
    3.7012107082578E-2
    3.7097053983931E-2
    3.7182105729783E-2
    3.7267262436683E-2
    3.7352524221277E-2
    3.7437891200302E-2
    3.7523363490594E-2
    3.7608941209080E-2
    3.7694624472782E-2
    3.7780413398818E-2
    3.7866308104400E-2
    3.7952308706832E-2
    3.8038415323517E-2
    3.8124628071947E-2
    3.8210947069713E-2
    3.8297372434496E-2
    3.8383904284076E-2
    3.8470542736323E-2
    3.8557287909204E-2
    3.8644139920778E-2
    3.8731098889199E-2
    3.8818164932717E-2
    3.8905338169674E-2
    3.8992618718505E-2
    3.9080006697742E-2
    3.9167502226009E-2
    3.9255105422025E-2
    3.9342816404602E-2
    3.9430635292646E-2
    3.9518562205157E-2
    3.9606597261231E-2
    3.9694740580053E-2
    3.9782992280907E-2
    3.9871352483167E-2
    3.9959821306303E-2
    4.0048398869876E-2
    4.0137085293544E-2
    4.0225880697057E-2
    4.0314785200257E-2
    4.0403798923082E-2
    4.0492921985563E-2
    4.0582154507823E-2
    4.0671496610080E-2
    4.0760948412644E-2
    4.0850510035920E-2
    4.0940181600405E-2
    4.1029963226689E-2
    4.1119855035457E-2
    4.1209857147485E-2
    4.1299969683643E-2
    4.1390192764896E-2
    4.1480526512298E-2
    4.1570971047000E-2
    4.1661526490244E-2
    4.1752192963365E-2
    4.1842970587791E-2
    4.1933859485043E-2
    4.2024859776734E-2
    4.2115971584572E-2
    4.2207195030356E-2
    4.2298530235976E-2
    4.2389977323419E-2
    4.2481536414761E-2
    4.2573207632171E-2
    4.2664991097912E-2
    4.2756886934338E-2
    4.2848895263896E-2
    4.2941016209125E-2
    4.3033249892657E-2
    4.3125596437215E-2
    4.3218055965616E-2
    4.3310628600768E-2
    4.3403314465670E-2
    4.3496113683416E-2
    4.3589026377188E-2
    4.3682052670264E-2
    4.3775192686012E-2
    4.3868446547890E-2
    4.3961814379452E-2
    4.4055296304339E-2
    4.4148892446288E-2
    4.4242602929125E-2
    4.4336427876769E-2
    4.4430367413228E-2
    4.4524421662604E-2
    4.4618590749090E-2
    4.4712874796970E-2
    4.4807273930618E-2
    4.4901788274502E-2
    4.4996417953179E-2
    4.5091163091297E-2
    4.5186023813597E-2
    4.5281000244909E-2
    4.5376092510154E-2
    4.5471300734346E-2
    4.5566625042588E-2
    4.5662065560073E-2
    4.5757622412088E-2
    4.5853295724006E-2
    4.5949085621294E-2
    4.6044992229509E-2
    4.6141015674298E-2
    4.6237156081397E-2
    4.6333413576634E-2
    4.6429788285928E-2
    4.6526280335287E-2
    4.6622889850807E-2
    4.6719616958679E-2
    4.6816461785179E-2
    4.6913424456676E-2
    4.7010505099629E-2
    4.7107703840583E-2
    4.7205020806178E-2
    4.7302456123140E-2
    4.7400009918285E-2
    4.7497682318520E-2
    4.7595473450840E-2
    4.7693383442331E-2
    4.7791412420166E-2
    4.7889560511609E-2
    4.7987827844012E-2
    4.8086214544817E-2
    4.8184720741554E-2
    4.8283346561843E-2
    4.8382092133393E-2
    4.8480957584000E-2
    4.8579943041550E-2
    4.8679048634019E-2
    4.8778274489467E-2
    4.8877620736048E-2
    4.8977087502000E-2
    4.9076674915653E-2
    4.9176383105422E-2
    4.9276212199811E-2
    4.9376162327414E-2
    4.9476233616910E-2
    4.9576426197069E-2
    4.9676740196747E-2
    4.9777175744887E-2
    4.9877732970521E-2
    4.9978412002768E-2
    5.0079212970836E-2
    5.0180136004018E-2
    5.0281181231695E-2
    5.0382348783337E-2
    5.0483638788500E-2
    5.0585051376825E-2
    5.0686586678044E-2
    5.0788244821973E-2
    5.0890025938515E-2
    5.0991930157661E-2
    5.1093957609487E-2
    5.1196108424158E-2
    5.1298382731923E-2
    5.1400780663119E-2
    5.1503302348167E-2
    5.1605947917578E-2
    5.1708717501945E-2
    5.1811611231949E-2
    5.1914629238357E-2
    5.2017771652022E-2
    5.2121038603882E-2
    5.2224430224960E-2
    5.2327946646366E-2
    5.2431587999295E-2
    5.2535354415027E-2
    5.2639246024927E-2
    5.2743262960445E-2
    5.2847405353117E-2
    5.2951673334564E-2
    5.3056067036491E-2
    5.3160586590687E-2
    5.3265232129028E-2
    5.3370003783472E-2
    5.3474901686064E-2
    5.3579925968930E-2
    5.3685076764283E-2
    5.3790354204420E-2
    5.3895758421720E-2
    5.4001289548649E-2
    5.4106947717753E-2
    5.4212733061665E-2
    5.4318645713099E-2
    5.4424685804855E-2
    5.4530853469815E-2
    5.4637148840945E-2
    5.4743572051292E-2
    5.4850123233989E-2
    5.4956802522250E-2
    5.5063610049372E-2
    5.5170545948737E-2
    5.5277610353806E-2
    5.5384803398125E-2
    5.5492125215321E-2
    5.5599575939105E-2
    5.5707155703268E-2
    5.5814864641686E-2
    5.5922702888313E-2
    5.6030670577188E-2
    5.6138767842430E-2
    5.6246994818241E-2
    5.6355351638903E-2
    5.6463838438780E-2
    5.6572455352318E-2
    5.6681202514043E-2
    5.6790080058561E-2
    5.6899088120562E-2
    5.7008226834814E-2
    5.7117496336167E-2
    5.7226896759550E-2
    5.7336428239975E-2
    5.7446090912531E-2
    5.7555884912391E-2
    5.7665810374803E-2
    5.7775867435100E-2
    5.7886056228692E-2
    5.7996376891068E-2
    5.8106829557798E-2
    5.8217414364532E-2
    5.8328131446997E-2
    5.8438980941001E-2
    5.8549962982429E-2
    5.8661077707248E-2
    5.8772325251500E-2
    5.8883705751309E-2
    5.8995219342875E-2
    5.9106866162477E-2
    5.9218646346472E-2
    5.9330560031297E-2
    5.9442607353465E-2
    5.9554788449565E-2
    5.9667103456268E-2
    5.9779552510320E-2
    5.9892135748544E-2
    6.0004853307841E-2
    6.0117705325189E-2
    6.0230691937643E-2
    6.0343813282334E-2
    6.0457069496472E-2
    6.0570460717341E-2
    6.0683987082301E-2
    6.0797648728792E-2
    6.0911445794325E-2
    6.1025378416492E-2
    6.1139446732957E-2
    6.1253650881462E-2
    6.1367990999822E-2
    6.1482467225930E-2
    6.1597079697753E-2
    6.1711828553334E-2
    6.1826713930789E-2
    6.1941735968309E-2
    6.2056894804163E-2
    6.2172190576691E-2
    6.2287623424307E-2
    6.2403193485502E-2
    6.2518900898839E-2
    6.2634745802956E-2
    6.2750728336563E-2
    6.2866848638444E-2
    6.2983106847459E-2
    6.3099503102538E-2
    6.3216037542685E-2
    6.3332710306978E-2
    6.3449521534567E-2
    6.3566471364673E-2
    6.3683559936593E-2
    6.3800787389693E-2
    6.3918153863413E-2
    6.4035659497264E-2
    6.4153304430829E-2
    6.4271088803764E-2
    6.4389012755793E-2
    6.4507076426715E-2
    6.4625279956398E-2
    6.4743623484782E-2
    6.4862107151878E-2
    6.4980731097765E-2
    6.5099495462597E-2
    6.5218400386594E-2
    6.5337446010048E-2
    6.5456632473321E-2
    6.5575959916845E-2
    6.5695428481121E-2
    6.5815038306719E-2
    6.5934789534279E-2
    6.6054682304511E-2
    6.6174716758192E-2
    6.6294893036169E-2
    6.6415211279356E-2
    6.6535671628738E-2
    6.6656274225366E-2
    6.6777019210359E-2
    6.6897906724905E-2
    6.7018936910260E-2
    6.7140109907746E-2
    6.7261425858752E-2
    6.7382884904737E-2
    6.7504487187223E-2
    6.7626232847802E-2
    6.7748122028131E-2
    6.7870154869933E-2
    6.7992331514998E-2
    6.8114652105182E-2
    6.8237116782407E-2
    6.8359725688659E-2
    6.8482478965992E-2
    6.8605376756523E-2
    6.8728419202435E-2
    6.8851606445975E-2
    6.8974938629457E-2
    6.9098415895257E-2
    6.9222038385816E-2
    6.9345806243639E-2
    6.9469719611295E-2
    6.9593778631418E-2
    6.9717983446703E-2
    6.9842334199910E-2
    6.9966831033861E-2
    7.0091474091442E-2
    7.0216263515600E-2
    7.0341199449348E-2
    7.0466282035757E-2
    7.0591511417962E-2
    7.0716887739161E-2
    7.0842411142612E-2
    7.0968081771635E-2
    7.1093899769610E-2
    7.1219865279981E-2
    7.1345978446251E-2
    7.1472239411982E-2
    7.1598648320800E-2
    7.1725205316389E-2
    7.1851910542493E-2
    7.1978764142916E-2
    7.2105766261522E-2
    7.2232917042234E-2
    7.2360216629034E-2
    7.2487665165964E-2
    7.2615262797124E-2
    7.2743009666671E-2
    7.2870905918822E-2
    7.2998951697852E-2
    7.3127147148095E-2
    7.3255492413939E-2
    7.3383987639832E-2
    7.3512632970279E-2
    7.3641428549843E-2
    7.3770374523141E-2
    7.3899471034847E-2
    7.4028718229695E-2
    7.4158116252470E-2
    7.4287665248016E-2
    7.4417365361232E-2
    7.4547216737071E-2
    7.4677219520543E-2
    7.4807373856712E-2
    7.4937679890697E-2
    7.5068137767671E-2
    7.5198747632862E-2
    7.5329509631551E-2
    7.5460423909073E-2
    7.5591490610817E-2
    7.5722709882225E-2
    7.5854081868792E-2
