release/datafiles/colormanagement/luts/camera_response/agfa_agfacolor_futura_100.spi1d
Version 1
From 0.0 1.0
Length 1024
Components 3
{
	0.0000000000 0.0000000000 0.0000000000
	0.0187414307 0.0199415907 0.0138841104
	0.0330222212 0.0346524492 0.0255766194
	0.0449542291 0.0472631715 0.0357697308
	0.0556400903 0.0585798696 0.0450413786
	0.0654912964 0.0689996779 0.0536506996
	0.0747707486 0.0787579194 0.0617258511
	0.0836306289 0.0879753232 0.0693477094
	0.0921674594 0.0967618302 0.0766232982
	0.1004453003 0.1051589996 0.0835988298
	0.1085427999 0.1132052019 0.0902485028
	0.1164767966 0.1209279969 0.0966249332
	0.1242111027 0.1283497959 0.1027311981
	0.1316560954 0.1354517043 0.1085847020
	0.1387570053 0.1422473937 0.1142328009
	0.1455107033 0.1487720013 0.1196969002
	0.1519546062 0.1550467014 0.1249829978
	0.1581331939 0.1611181051 0.1301161945
	0.1640816927 0.1669937074 0.1350999027
	0.1698216051 0.1726770997 0.1399576068
	0.1753643006 0.1782052964 0.1447027028
	0.1807104945 0.1835688949 0.1493282020
	0.1858936995 0.1887871027 0.1538430005
	0.1909191012 0.1938627958 0.1582642943
	0.1958166957 0.1988143027 0.1625947952
	0.2005814016 0.2036329061 0.1668373942
	0.2052128017 0.2083510011 0.1709935963
	0.2097522020 0.2129525989 0.1750802994
	0.2141969949 0.2174569964 0.1790975928
	0.2185294926 0.2218813002 0.1830428988
	0.2227485031 0.2262317985 0.1869215071
	0.2268646061 0.2304809988 0.1907352060
	0.2308858931 0.2346275002 0.1944852024
	0.2348421067 0.2386894971 0.1981807947
	0.2387396991 0.2426760942 0.2018260062
	0.2425788045 0.2466064990 0.2054218054
	0.2463494986 0.2504898012 0.2089662999
	0.2500706017 0.2543140054 0.2124685943
	0.2537479997 0.2580659986 0.2159260958
	0.2573781013 0.2617495954 0.2193453014
	0.2609572113 0.2653856874 0.2227171957
	0.2644815147 0.2689718008 0.2260479033
	0.2679471076 0.2725043893 0.2293380946
	0.2713502049 0.2759802938 0.2325894982
	0.2746953070 0.2793953121 0.2358044982
	0.2779825926 0.2827470899 0.2389748991
	0.2812089920 0.2860386968 0.2421178967
	0.2843785882 0.2892819047 0.2452265024
	0.2875038087 0.2924897075 0.2482994944
	0.2905904055 0.2956646979 0.2513419092
	0.2936390042 0.2988075912 0.2543503046
	0.2966530025 0.3019191027 0.2573288083
	0.2996253073 0.3050011992 0.2602812052
	0.3025568128 0.3080531061 0.2632032037
	0.3054536879 0.3110767007 0.2660993040
	0.3083193004 0.3140729070 0.2689616978
	0.3111566007 0.3170422912 0.2717953026
	0.3139680028 0.3199853003 0.2746086121
	0.3167569935 0.3229024112 0.2773948908
	0.3195263147 0.3257946074 0.2801466882
	0.3222785890 0.3286626935 0.2828755975
	0.3250167072 0.3315044045 0.2855885029
	0.3277421892 0.3343142867 0.2882772982
	0.3304488063 0.3370938897 0.2909384072
	0.3331305087 0.3398444057 0.2935771048
	0.3357870877 0.3425664902 0.2961899042
	0.3384202123 0.3452622890 0.2987827063
	0.3410323858 0.3479284048 0.3013578057
	0.3436256051 0.3505629897 0.3039124906
	0.3462015092 0.3531686962 0.3064478934
	0.3487611115 0.3557462096 0.3089591861
	0.3513003886 0.3582991958 0.3114418983
	0.3538151979 0.3608300984 0.3139019012
	0.3563049138 0.3633398116 0.3163512051
	0.3587693870 0.3658294976 0.3187870085
	0.3612132072 0.3682993948 0.3212068081
	0.3636367023 0.3707447946 0.3236055970
	0.3660412133 0.3731693029 0.3259812891
	0.3684293032 0.3755750954 0.3283393085
	0.3708001971 0.3779630959 0.3306787014
	0.3731575906 0.3803366125 0.3330000043
	0.3754999042 0.3826906979 0.3352980912
	0.3778310120 0.3850283921 0.3375810087
	0.3801496029 0.3873493969 0.3398480117
	0.3824588060 0.3896577060 0.3421055973
	0.3847584128 0.3919534981 0.3443531990
	0.3870503008 0.3942336142 0.3465890884
	0.3893356919 0.3964999914 0.3488120139
	0.3916150033 0.3987481892 0.3510178924
	0.3938865066 0.4009808004 0.3532077074
	0.3961476088 0.4031977952 0.3553779125
	0.3983986080 0.4054017067 0.3575282991
	0.4006389976 0.4075945020 0.3596653938
	0.4028654993 0.4097732902 0.3617888093
	0.4050788879 0.4119321108 0.3638970852
	0.4072808027 0.4140745103 0.3659907877
	0.4094718099 0.4162018001 0.3680689037
	0.4116508067 0.4183138907 0.3701283038
	0.4138199985 0.4204131961 0.3721699119
	0.4159773886 0.4225000143 0.3741934001
	0.4181219041 0.4245725870 0.3761979938
	0.4202522039 0.4266324937 0.3781862855
	0.4223701060 0.4286797941 0.3801617920
	0.4244759083 0.4307178855 0.3821251094
	0.4265703857 0.4327476919 0.3840759993
	0.4286541939 0.4347653985 0.3860141933
	0.4307268858 0.4367690086 0.3879393041
	0.4327893853 0.4387587011 0.3898504972
	0.4348411858 0.4407365918 0.3917472959
	0.4368841052 0.4427039027 0.3936302960
	0.4389176071 0.4446617961 0.3954991102
	0.4409425855 0.4466080964 0.3973535895
	0.4429590106 0.4485442936 0.3991936147
	0.4449672103 0.4504688084 0.4010188878
	0.4469676912 0.4523817897 0.4028322101
	0.4489580095 0.4542838037 0.4046368897
	0.4509370923 0.4561766982 0.4064337909
	0.4529055953 0.4580585063 0.4082230031
	0.4548639059 0.4599294066 0.4100044966
	0.4568125904 0.4617907107 0.4117785990
	0.4587523937 0.4636436999 0.4135451913
	0.4606837034 0.4654872119 0.4153045118
	0.4626069963 0.4673207998 0.4170565009
	0.4645206034 0.4691432118 0.4188013971
	0.4664235115 0.4709551036 0.4205392003
	0.4683176875 0.4727576971 0.4222700000
	0.4702025950 0.4745520949 0.4239938855
	0.4720798135 0.4763393104 0.4257110059
	0.4739468098 0.4781185091 0.4274213910
	0.4758000970 0.4798890054 0.4291251004
	0.4776405096 0.4816485941 0.4308224022
	0.4794681072 0.4833956063 0.4325130880
	0.4812825918 0.4851314127 0.4341974854
	0.4830833077 0.4868572056 0.4358755946
	0.4848699868 0.4885736108 0.4375469983
	0.4866446853 0.4902822077 0.4392102063
	0.4884060025 0.4919806123 0.4408645928
	0.4901559949 0.4936690032 0.4425103962
	0.4918906093 0.4953497946 0.4441474974
	0.4936125875 0.4970211089 0.4457770884
	0.4953204989 0.4986830056 0.4473989010
	0.4970144928 0.5003349185 0.4490132928
	0.4986953139 0.5019772053 0.4506205916
	0.5003637075 0.5036125779 0.4522204101
	0.5020195842 0.5052385926 0.4538131952
	0.5036631227 0.5068594813 0.4553956985
	0.5052949190 0.5084728003 0.4569694102
	0.5069147944 0.5100775957 0.4585345089
	0.5085229874 0.5116732717 0.4600914121
	0.5101199746 0.5132597089 0.4616405070
	0.5117021203 0.5148342848 0.4631803036
	0.5132743120 0.5164015293 0.4647122920
	0.5148364902 0.5179616809 0.4662373960
	0.5163900852 0.5195158124 0.4677560031
	0.5179367065 0.5210649967 0.4692681134
	0.5194708109 0.5226017237 0.4707722962
	0.5209966898 0.5241310000 0.4722703099
	0.5225142241 0.5256524086 0.4737617075
	0.5240231752 0.5271654725 0.4752461910
	0.5255233049 0.5286697149 0.4767219126
	0.5270152092 0.5301663876 0.4781898856
	0.5284978151 0.5316576958 0.4796513021
	0.5299711823 0.5331442952 0.4811064899
	0.5314347148 0.5346261263 0.4825553000
	0.5328863859 0.5360969901 0.4839963913
	0.5343297124 0.5375598073 0.4854325056
	0.5357651711 0.5390148759 0.4868634939
	0.5371924043 0.5404617190 0.4882858992
	0.5386118293 0.5419015884 0.4897007942
	0.5400264859 0.5433354974 0.4911100864
	0.5414369702 0.5447630286 0.4925136864
	0.5428367853 0.5461803079 0.4939090908
	0.5442283750 0.5475915074 0.4952997863
	0.5456125736 0.5489966869 0.4966861010
	0.5469890237 0.5503935814 0.4980660975
	0.5483577847 0.5517833829 0.4994400144
	0.5497220755 0.5531684160 0.5008088946
	0.5510820746 0.5545488000 0.5021709800
	0.5524330139 0.5559220910 0.5035272837
	0.5537772775 0.5572903156 0.5048794746
	0.5551130772 0.5586516261 0.5062263012
	0.5564405918 0.5600048900 0.5075680017
	0.5577619076 0.5613521934 0.5089064837
	0.5590745807 0.5626906157 0.5102406740
	0.5603765249 0.5640223026 0.5115708113
	0.5616722703 0.5653495193 0.5128980279
	0.5629596710 0.5666700006 0.5142201185
	0.5642386079 0.5679866076 0.5155370831
	0.5655131936 0.5692998171 0.5168507099
	0.5667812824 0.5706049204 0.5181574225
	0.5680419207 0.5719022155 0.5194594264
	0.5692980289 0.5731946230 0.5207582712
	0.5705438852 0.5744786859 0.5220487118
	0.5717846751 0.5757588148 0.5233348012
	0.5730205774 0.5770344734 0.5246167183
	0.5742480159 0.5783056021 0.5258914828
	0.5754718184 0.5795726776 0.5271635056
	0.5766893029 0.5808308721 0.5284305811
	0.5778992176 0.5820825100 0.5296934247
	0.5791049004 0.5833303928 0.5309540033
	0.5802994967 0.5845699906 0.5322073102
	0.5814914107 0.5858064890 0.5334576964
	0.5826792121 0.5870373845 0.5347031951
	0.5838587284 0.5882629156 0.5359424949
	0.5850344896 0.5894858837 0.5371791124
	0.5861983895 0.5906990170 0.5384079218
	0.5873590708 0.5919092894 0.5396336913
	0.5885140896 0.5931131840 0.5408535004
	0.5896620154 0.5943115950 0.5420675278
	0.5908060074 0.5955064297 0.5432779789
	0.5919439793 0.5966913104 0.5444819927
	0.5930796266 0.5978732705 0.5456839800
	0.5942065120 0.5990452170 0.5468795896
	0.5953297019 0.6002144217 0.5480728745
	0.5964481235 0.6013793945 0.5492628813
	0.5975626111 0.6025397182 0.5504478812
	0.5986750126 0.6036971211 0.5516301990
	0.5997776985 0.6048492789 0.5528064966
	0.6008782983 0.6060000062 0.5539814234
	0.6019700170 0.6071417928 0.5551493764
	0.6030591130 0.6082807779 0.5563148260
	0.6041415930 0.6094110012 0.5574722886
	0.6052209735 0.6105381846 0.5586267710
	0.6062965989 0.6116611958 0.5597772002
	0.6073693037 0.6127799749 0.5609225035
	0.6084402800 0.6138954759 0.5620642900
	0.6095039845 0.6150087714 0.5632020831
	0.6105654836 0.6161211729 0.5643385053
	0.6116194725 0.6172274947 0.5654675961
	0.6126726270 0.6183326840 0.5665956140
	0.6137179732 0.6194270253 0.5677173734
	0.6147624254 0.6205205917 0.5688384175
	0.6157985926 0.6216076016 0.5699521899
	0.6168330908 0.6226931810 0.5710644722
	0.6178600788 0.6237692833 0.5721685290
	0.6188859940 0.6248437166 0.5732709169
	0.6199086905 0.6259111166 0.5743672848
	0.6209291220 0.6269769073 0.5754616857
	0.6219440103 0.6280378103 0.5765504241
	0.6229550838 0.6290960908 0.5776373744
	0.6239585876 0.6301478148 0.5787205100
	0.6249598265 0.6311972737 0.5798012018
	0.6259567142 0.6322420239 0.5808768868
	0.6269508004 0.6332836747 0.5819506049
	0.6279395223 0.6343185902 0.5830199718
	0.6289266944 0.6353514194 0.5840864778
	0.6299108863 0.6363787055 0.5851466060
	0.6308935285 0.6374046803 0.5862044096
	0.6318724751 0.6384266019 0.5872561932
	0.6328493953 0.6394464970 0.5883064270
	0.6338198781 0.6404585242 0.5893509984
	0.6347895861 0.6414691806 0.5903946757
	0.6357561946 0.6424723268 0.5914332867
	0.6367220879 0.6434748769 0.5924714208
	0.6376814246 0.6444696784 0.5935050249
	0.6386405826 0.6454644799 0.5945385098
	0.6395891905 0.6464499831 0.5955650806
	0.6405377984 0.6474351883 0.5965915918
	0.6414811015 0.6484122276 0.5976113081
	0.6424236894 0.6493877172 0.5986298919
	0.6433591843 0.6503596902 0.5996431708
	0.6442922950 0.6513301134 0.6006544828
	0.6452214122 0.6522970200 0.6016616821
	0.6461476088 0.6532608867 0.6026659012
	0.6470720768 0.6542214155 0.6036679745
	0.6479939222 0.6551764011 0.6046671867
	0.6489133239 0.6561300755 0.6056650281
	0.6498240829 0.6570777893 0.6066576838
	0.6507347226 0.6580253839 0.6076505184
	0.6516370177 0.6589658856 0.6086354852
	0.6525393128 0.6599062085 0.6096205115
	0.6534368992 0.6608443856 0.6105999947
	0.6543331146 0.6617819071 0.6115779877
	0.6552255750 0.6627163291 0.6125519276
	0.6561149955 0.6636475921 0.6135221124
	0.6570025086 0.6645767093 0.6144911051
	0.6578854918 0.6654986143 0.6154568195
	0.6587684155 0.6664205790 0.6164224744
	0.6596441269 0.6673378944 0.6173813939
	0.6605197787 0.6682549715 0.6183400750
	0.6613910794 0.6691666245 0.6192939878
	0.6622604132 0.6700754762 0.6202455163
	0.6631278992 0.6709814072 0.6211943030
	0.6639922857 0.6718816757 0.6221385002
	0.6648563147 0.6727818251 0.6230823994
	0.6657119989 0.6736767888 0.6240196228
	0.6665678024 0.6745718122 0.6249567270
	0.6674181819 0.6754602790 0.6258906126
	0.6682661772 0.6763452888 0.6268228889
	0.6691122055 0.6772282124 0.6277527809
	0.6699538231 0.6781055927 0.6286767125
	0.6707953811 0.6789829731 0.6296005249
	0.6716330051 0.6798558831 0.6305189133
	0.6724700928 0.6807280779 0.6314365268
	0.6733044982 0.6815952063 0.6323506832
	0.6741359830 0.6824558973 0.6332612038
	0.6749671102 0.6833165288 0.6341714263
	0.6757913828 0.6841681004 0.6350759864
	0.6766155958 0.6850196719 0.6359806061
	0.6774365902 0.6858676076 0.6368827224
	0.6782553792 0.6867125034 0.6377828121
	0.6790735126 0.6875569224 0.6386821270
	0.6798856854 0.6883959174 0.6395736933
	0.6806979775 0.6892347932 0.6404653192
	0.6815052032 0.6900711060 0.6413521171
	0.6823093295 0.6909055114 0.6422356963
	0.6831128001 0.6917393804 0.6431186795
	0.6839104891 0.6925656199 0.6439942718
	0.6847081780 0.6933919191 0.6448698044
	0.6855018735 0.6942142844 0.6457418203
	0.6862921715 0.6950333118 0.6466106772
	0.6870825291 0.6958522201 0.6474797130
	0.6878690720 0.6966655254 0.6483433247
	0.6886556149 0.6974784732 0.6492068768
	0.6894404888 0.6982899904 0.6500678062
	0.6902230978 0.6990988851 0.6509246230
	0.6910058260 0.6999077797 0.6517813802
	0.6917819977 0.7007126808 0.6526325941
	0.6925566792 0.7015163898 0.6534823179
	0.6933307052 0.7023192048 0.6543310285
	0.6941010952 0.7031159997 0.6551743746
	0.6948714852 0.7039129138 0.6560177207
	0.6956394911 0.7047072053 0.6568580866
	0.6964054704 0.7054989934 0.6576957107
	0.6971715093 0.7062907815 0.6585332751
	0.6979302764 0.7070775032 0.6593660116
	0.6986879110 0.7078630924 0.6601977944
	0.6994447112 0.7086477280 0.6610285044
	0.7001975179 0.7094256878 0.6618531942
	0.7009503245 0.7102035880 0.6626778245
	0.7017009258 0.7109789848 0.6634991765
	0.7024487853 0.7117509246 0.6643164158
	0.7031968236 0.7125229239 0.6651335955
	0.7039384246 0.7132899761 0.6659477949
	0.7046775222 0.7140548825 0.6667606831
	0.7054166198 0.7148197889 0.6675736904
	0.7061507106 0.7155792713 0.6683797836
	0.7068846226 0.7163382769 0.6691855788
	0.7076175213 0.7170966268 0.6699900031
	0.7083460093 0.7178505063 0.6707876921
	0.7090746164 0.7186043859 0.6715853810
	0.7098006010 0.7193557024 0.6723811030
	0.7105224729 0.7201020122 0.6731733084
	0.7112444043 0.7208483219 0.6739653945
	0.7119640112 0.7215924263 0.6747537851
	0.7126817703 0.7223345041 0.6755387783
	0.7133995891 0.7230767012 0.6763237715
	0.7141135931 0.7238159776 0.6771062016
	0.7148258090 0.7245538831 0.6778873205
	0.7155380249 0.7252917290 0.6786683798
	0.7162464857 0.7260233164 0.6794440746
	0.7169541717 0.7267531157 0.6802182794
	0.7176619172 0.7274829149 0.6809926033
	0.7183669209 0.7282087207 0.6817620993
	0.7190716863 0.7289338708 0.6825309992
	0.7197765708 0.7296590209 0.6832998991
	0.7204757929 0.7303797007 0.6840652823
	0.7211748958 0.7311002016 0.6848304868
	0.7218738794 0.7318205833 0.6855955124
	0.7225683928 0.7325310707 0.6863517165
	0.7232629061 0.7332416177 0.6871078014
	0.7239571810 0.7339518070 0.6878635883
	0.7246487141 0.7346547842 0.6886121035
	0.7253403068 0.7353578210 0.6893606782
	0.7260314226 0.7360606194 0.6901090145
	0.7267171741 0.7367588282 0.6908516884
	0.7274029255 0.7374569178 0.6915943027
	0.7280883789 0.7381548882 0.6923367977
	0.7287694812 0.7388454080 0.6930751204
	0.7294505239 0.7395359278 0.6938133836
	0.7301315069 0.7402263880 0.6945515871
	0.7308093905 0.7409111261 0.6952871084
	0.7314873934 0.7415956259 0.6960226297
	0.7321652770 0.7422801256 0.6967579722
	0.7328376770 0.7429602146 0.6974878907
	0.7335097790 0.7436398268 0.6982172132
	0.7341818213 0.7443194985 0.6989465952
	0.7348498106 0.7449948192 0.6996716261
	0.7355170250 0.7456691861 0.7003955841
	0.7361841202 0.7463434935 0.7011196017
	0.7368490100 0.7470148206 0.7018402219
	0.7375128865 0.7476845980 0.7025592923
	0.7381768227 0.7483543754 0.7032784224
	0.7388374209 0.7490217090 0.7039942741
	0.7394952774 0.7496867180 0.7047075033
	0.7401531935 0.7503517270 0.7054206133
	0.7408087254 0.7510150075 0.7061315775
	0.7414602041 0.7516747713 0.7068389058
	0.7421118021 0.7523347139 0.7075461149
	0.7427623868 0.7529938221 0.7082526088
	0.7434083819 0.7536479831 0.7089549899
	0.7440543175 0.7543023229 0.7096574903
	0.7447003126 0.7549564838 0.7103599906
	0.7453430295 0.7556046247 0.7110564113
	0.7459853888 0.7562519908 0.7117524743
	0.7466279268 0.7568994761 0.7124484777
	0.7472671270 0.7575436831 0.7131392956
	0.7479048967 0.7581862807 0.7138277888
	0.7485427260 0.7588288784 0.7145162225
	0.7491782904 0.7594693899 0.7152029276
	0.7498108149 0.7601066232 0.7158870101
	0.7504433990 0.7607436776 0.7165712118
	0.7510756254 0.7613803744 0.7172548175
	0.7517048120 0.7620109916 0.7179335952
	0.7523341179 0.7626414895 0.7186123133
	0.7529633045 0.7632719874 0.7192909718
	0.7535892129 0.7638990879 0.7199658751
	0.7542141080 0.7645248771 0.7206395268
	0.7548390031 0.7651507258 0.7213131785
	0.7554618716 0.7657744884 0.7219849825
	0.7560818791 0.7663950920 0.7226539254
	0.7567018270 0.7670155764 0.7233228087
	0.7573217154 0.7676361799 0.7239916921
	0.7579385042 0.7682504058 0.7246547937
	0.7585554123 0.7688643932 0.7253178954
	0.7591722012 0.7694783807 0.7259808779
	0.7597867250 0.7700899839 0.7266423702
	0.7603995204 0.7706995010 0.7273027897
	0.7610123158 0.7713090181 0.7279632092
	0.7616242766 0.7719178796 0.7286229730
	0.7622311115 0.7725210786 0.7292783856
	0.7628380060 0.7731242776 0.7299337983
	0.7634449005 0.7737274170 0.7305892110
	0.7640485764 0.7743269205 0.7312399149
	0.7646508217 0.7749242187 0.7318879962
	0.7652528882 0.7755215168 0.7325360775
	0.7658544779 0.7761185169 0.7331836224
	0.7664529085 0.7767131925 0.7338275909
	0.7670513988 0.7773079872 0.7344716191
	0.7676498294 0.7779027224 0.7351155877
	0.7682449222 0.7784941196 0.7357556820
	0.7688378096 0.7790830731 0.7363932133
	0.7694306970 0.7796722054 0.7370308042
	0.7700235248 0.7802610993 0.7376680970
	0.7706120014 0.7808436155 0.7383009791
	0.7712004781 0.7814261913 0.7389338017
	0.7717890739 0.7820088267 0.7395666242
	0.7723761201 0.7825897932 0.7401980758
	0.7729613185 0.7831684947 0.7408279777
	0.7735465169 0.7837471962 0.7414578199
	0.7741317749 0.7843258977 0.7420876026
	0.7747126818 0.7849006057 0.7427113056
	0.7752926946 0.7854743004 0.7433335781
	0.7758728266 0.7860481143 0.7439559102
	0.7764521241 0.7866209745 0.7445772886
	0.7770282030 0.7871890068 0.7451937795
	0.7776042223 0.7877569795 0.7458102703
	0.7781801820 0.7883250117 0.7464267015
	0.7787547708 0.7888916135 0.7470412850
	0.7793279290 0.7894564271 0.7476536036
	0.7799009085 0.7900211811 0.7482659817
	0.7804740071 0.7905859947 0.7488783002
	0.7810425162 0.7911475897 0.7494871020
	0.7816095948 0.7917081714 0.7500947714
	0.7821766734 0.7922688127 0.7507023811
	0.7827436924 0.7928293943 0.7513099909
	0.7833052278 0.7933837771 0.7519133091
	0.7838668227 0.7939382195 0.7525165081
	0.7844284177 0.7944926023 0.7531198263
	0.7849892974 0.7950457931 0.7537218928
	0.7855485082 0.7955945134 0.7543202043
	0.7861077189 0.7961432934 0.7549185157
	0.7866668105 0.7966920733 0.7555168867
	0.7872235775 0.7972388268 0.7561128139
	0.7877774239 0.7977824807 0.7567057014
	0.7883312106 0.7983261943 0.7572985291
	0.7888849974 0.7988699079 0.7578914165
	0.7894352078 0.7994105816 0.7584812045
	0.7899829745 0.7999492288 0.7590687871
	0.7905306816 0.8004878163 0.7596564889
	0.7910785079 0.8010262847 0.7602441907
	0.7916234732 0.8015617132 0.7608277798
	0.7921676040 0.8020955920 0.7614096999
	0.7927116752 0.8026295900 0.7619916797
	0.7932558060 0.8031635284 0.7625735998
	0.7937961221 0.8036941886 0.7631514072
	0.7943354845 0.8042240739 0.7637282014
	0.7948749065 0.8047538996 0.7643049955
	0.7954143286 0.8052837849 0.7648817897
	0.7959489822 0.8058102131 0.7654550076
	0.7964830995 0.8063359261 0.7660276294
	0.7970170975 0.8068616986 0.7666001916
	0.7975512147 0.8073874712 0.7671728134
	0.7980824709 0.8079090118 0.7677428126
	0.7986134887 0.8084300160 0.7683125138
	0.7991445065 0.8089510202 0.7688822150
	0.7996755242 0.8094719052 0.7694519162
	0.8002029061 0.8099884987 0.7700183988
	0.8007299900 0.8105044961 0.7705844045
	0.8012570143 0.8110203743 0.7711504102
	0.8017840981 0.8115363717 0.7717164755
	0.8023071289 0.8120499849 0.7722783089
	0.8028293848 0.8125631213 0.7728394866
	0.8033518195 0.8130761981 0.7734007239
	0.8038741946 0.8135892749 0.7739619017
	0.8043946028 0.8140997291 0.7745202780
	0.8049145937 0.8146092296 0.7750778794
	0.8054345250 0.8151187897 0.7756354809
	0.8059545159 0.8156284094 0.7761932015
	0.8064721823 0.8161345720 0.7767478228
	0.8069888949 0.8166393042 0.7773010731
	0.8075056076 0.8171439767 0.7778543830
	0.8080223203 0.8176487088 0.7784076929
	0.8085361123 0.8181504011 0.7789580226
	0.8090476990 0.8186495900 0.7795059085
	0.8095592856 0.8191487789 0.7800536752
	0.8100708723 0.8196480274 0.7806016207
	0.8105810881 0.8201459050 0.7811478972
	0.8110890985 0.8206415176 0.7816914916
	0.8115971088 0.8211370707 0.7822352052
	0.8121051788 0.8216326833 0.7827789187
	0.8126127720 0.8221275210 0.7833216786
	0.8131183982 0.8226181865 0.7838603854
	0.8136240244 0.8231089115 0.7843990922
	0.8141295910 0.8235995770 0.7849379182
	0.8146352172 0.8240903020 0.7854766250
	0.8151367903 0.8245751858 0.7860131264
	0.8156381249 0.8250597119 0.7865493894
	0.8161394000 0.8255441785 0.7870855927
	0.8166406751 0.8260285854 0.7876219153
	0.8171395063 0.8265116215 0.7881566286
	0.8176370263 0.8269937038 0.7886903286
	0.8181344867 0.8274759054 0.7892240882
	0.8186320066 0.8279579878 0.7897579074
	0.8191282749 0.8284389973 0.7902898192
	0.8196223974 0.8289175034 0.7908182740
	0.8201165795 0.8293960094 0.7913469076
	0.8206107020 0.8298745155 0.7918754220
	0.8211048245 0.8303530216 0.7924038768
	0.8215956092 0.8308256269 0.7929295897
	0.8220863938 0.8312981129 0.7934553027
	0.8225771785 0.8317705989 0.7939808965
	0.8230679035 0.8322430849 0.7945066094
	0.8235569000 0.8327139020 0.7950305939
	0.8240448236 0.8331835866 0.7955533862
	0.8245326281 0.8336532116 0.7960761786
	0.8250204921 0.8341228962 0.7965989709
	0.8255078197 0.8345921040 0.7971209884
	0.8259931803 0.8350595236 0.7976391912
	0.8264786005 0.8355268240 0.7981575131
	0.8269640207 0.8359941840 0.7986757159
	0.8274493814 0.8364614844 0.7991939783
	0.8279315829 0.8369246721 0.7997112274
	0.8284127116 0.8373864293 0.8002278805
	0.8288937807 0.8378480077 0.8007447124
	0.8293749094 0.8383095860 0.8012614250
	0.8298550248 0.8387699723 0.8017773032
	0.8303318024 0.8392266035 0.8022907972
	0.8308085799 0.8396831751 0.8028041720
	0.8312854171 0.8401398063 0.8033176064
	0.8317621946 0.8405963778 0.8038309813
	0.8322365880 0.8410515785 0.8043408990
	0.8327100277 0.8415061831 0.8048493266
	0.8331834078 0.8419607878 0.8053576946
	0.8336567879 0.8424153924 0.8058661222
	0.8341296911 0.8428695202 0.8063743114
	0.8345996737 0.8433197737 0.8068807125
	0.8350697160 0.8437700868 0.8073871136
	0.8355396986 0.8442202806 0.8078935146
	0.8360096812 0.8446705937 0.8083999157
	0.8364778757 0.8451184034 0.8089042902
	0.8369445801 0.8455640078 0.8094068766
	0.8374112248 0.8460094929 0.8099095225
	0.8378779292 0.8464550972 0.8104121089
	0.8383445144 0.8469007015 0.8109146953
	0.8388080001 0.8473442197 0.8114140034
	0.8392711878 0.8477873802 0.8119127750
	0.8397343159 0.8482306004 0.8124117255
	0.8401975036 0.8486738801 0.8129106164
	0.8406596780 0.8491165042 0.8134090900
	0.8411186934 0.8495569229 0.8139066100
	0.8415778279 0.8499972224 0.8144040108
	0.8420367837 0.8504375815 0.8149014711
	0.8424957991 0.8508778811 0.8153988719
	0.8429536819 0.8513162136 0.8158944249
	0.8434103727 0.8517522812 0.8163877130
	0.8438671231 0.8521882892 0.8168810010
	0.8443238139 0.8526242971 0.8173742890
	0.8447803855 0.8530603051 0.8178675771
	0.8452352881 0.8534938097 0.8183590770
	0.8456894159 0.8539261818 0.8188499212
	0.8461434841 0.8543586731 0.8193408251
	0.8465976715 0.8547911048 0.8198316097
	0.8470517993 0.8552235961 0.8203225136
	0.8475030065 0.8556535244 0.8208127022
	0.8479539752 0.8560830951 0.8213027716
	0.8484050035 0.8565127254 0.8217929006
	0.8488559723 0.8569422960 0.8222830892
	0.8493067026 0.8573716283 0.8227729201
	0.8497545719 0.8577967286 0.8232586980
	0.8502025008 0.8582218885 0.8237444758
	0.8506504297 0.8586469889 0.8242303133
	0.8510982990 0.8590722084 0.8247160912
	0.8515453935 0.8594967723 0.8252013922
	0.8519896269 0.8599187732 0.8256844878
	0.8524339199 0.8603408933 0.8261677027
	0.8528780937 0.8607628942 0.8266509175
	0.8533223867 0.8611850142 0.8271340728
