release/datafiles/colormanagement/luts/camera_response/agfa_agfacolor_ultra_050.spi1d
Version 1
From 0.0 1.0
Length 1024
Components 3
{
	0.0000000000 0.0000000000 0.0000000000
	0.0261295997 0.0275282897 0.0193712804
	0.0436814092 0.0463444404 0.0334131084
	0.0581157207 0.0624009110 0.0459993482
	0.0707884133 0.0767784268 0.0574880093
	0.0822683722 0.0900187567 0.0680924430
	0.0928523093 0.1023626998 0.0779986978
	0.1027420014 0.1139826998 0.0873259678
	0.1121006012 0.1249416992 0.0962512568
	0.1209674031 0.1352714002 0.1049458012
	0.1293299943 0.1450500935 0.1134937033
	0.1372125000 0.1543603987 0.1219277978
	0.1446518004 0.1632550061 0.1302694976
	0.1517110020 0.1717393994 0.1385125965
	0.1584471017 0.1798606068 0.1466525048
	0.1648889929 0.1876538992 0.1546880007
	0.1710644960 0.1951581985 0.1626233011
	0.1769893020 0.2023999989 0.1704642028
	0.1826931983 0.2093926072 0.1781909019
	0.1881920993 0.2161574960 0.1858115941
	0.1935151964 0.2226887047 0.1933328062
	0.1986732930 0.2290194929 0.2007412016
	0.2036796063 0.2351579070 0.2080101967
	0.2085503936 0.2411172986 0.2151511014
	0.2132862955 0.2469058037 0.2221754044
	0.2178914994 0.2525430918 0.2290547043
	0.2223861068 0.2580389082 0.2357912064
	0.2267823070 0.2634046972 0.2423840016
	0.2310760021 0.2686296105 0.2488331944
	0.2352629006 0.2737227976 0.2551515996
	0.2393413931 0.2787044942 0.2613373995
	0.2433319986 0.2835777998 0.2673675120
	0.2472561002 0.2883430123 0.2732523978
	0.2511121929 0.2930105031 0.2790116072
	0.2549034059 0.2975909114 0.2846449912
	0.2586241066 0.3020789027 0.2901515961
	0.2622672915 0.3064748049 0.2955358922
	0.2658410072 0.3107773066 0.3008053899
	0.2693549097 0.3150070012 0.3059557974
	0.2728112042 0.3191769123 0.3109906018
	0.2762080133 0.3232814074 0.3159134090
	0.2795439959 0.3273217976 0.3207265139
	0.2828184962 0.3312951028 0.3254382014
	0.2860270143 0.3351995945 0.3300522864
	0.2891789079 0.3390446007 0.3345699012
	0.2922790051 0.3428247869 0.3389827907
	0.2953406870 0.3465405107 0.3433066905
	0.2983652055 0.3501957953 0.3475450873
	0.3013558090 0.3538022935 0.3517045081
	0.3043130934 0.3573650122 0.3557837009
	0.3072336018 0.3608897924 0.3597820997
	0.3101125956 0.3643819094 0.3637022078
	0.3129473925 0.3678374887 0.3675518930
	0.3157351017 0.3712525070 0.3713383079
	0.3184793890 0.3746286929 0.3750616014
	0.3211834133 0.3779700100 0.3787159920
	0.3238503933 0.3812797964 0.3823012114
	0.3264833987 0.3845624030 0.3858228922
	0.3290852010 0.3878163993 0.3892802894
	0.3316572905 0.3910405934 0.3926731944
	0.3341959119 0.3942339122 0.3960165083
	0.3367032111 0.3973953128 0.3993082047
	0.3391802907 0.4005222023 0.4025487006
	0.3416261971 0.4036155939 0.4057467878
	0.3440423906 0.4066751897 0.4088996053
	0.3464320898 0.4097003937 0.4120030999
	0.3487968147 0.4126878977 0.4150581956
	0.3511416912 0.4156408012 0.4180706143
	0.3534660041 0.4185580909 0.4210394919
	0.3557670116 0.4214420021 0.4239597917
	0.3580501974 0.4243034124 0.4268440902
	0.3603110015 0.4271419048 0.4296903014
	0.3625530899 0.4299592078 0.4325061142
	0.3647739887 0.4327593148 0.4352906942
	0.3669759929 0.4355489016 0.4380438924
	0.3691574037 0.4383288026 0.4407683015
	0.3713135123 0.4410988092 0.4434654117
	0.3734453022 0.4438571036 0.4461325109
	0.3755545914 0.4466049075 0.4487735927
	0.3776372969 0.4493390918 0.4513854980
	0.3797005117 0.4520614147 0.4539698958
	0.3817447126 0.4547702968 0.4565226138
	0.3837673068 0.4574646056 0.4590449929
	0.3857727945 0.4601452947 0.4615412056
	0.3877620995 0.4628106952 0.4640046060
	0.3897323012 0.4654597938 0.4664371908
	0.3916867077 0.4680936038 0.4688445032
	0.3936245143 0.4707117081 0.4712260067
	0.3955442011 0.4733099043 0.4735803902
	0.3974477053 0.4758862853 0.4759103060
	0.3993369937 0.4784410894 0.4782153070
	0.4012120068 0.4809744954 0.4804973900
	0.4030661881 0.4834777117 0.4827564061
	0.4049043059 0.4859539866 0.4849967062
	0.4067262113 0.4884032905 0.4872167110
	0.4085322917 0.4908267856 0.4894092977
	0.4103249907 0.4932255149 0.4915755093
	0.4121057093 0.4955982864 0.4937163889
	0.4138723910 0.4979467094 0.4958330989
	0.4156245887 0.5002682805 0.4979225099
	0.4173628986 0.5025631189 0.4999859035
	0.4190871119 0.5048316121 0.5020250082
	0.4207980931 0.5070779920 0.5040426254
	0.4224953055 0.5093029141 0.5060408115
	0.4241782129 0.5115067959 0.5080217719
	0.4258452058 0.5136871934 0.5099846721
	0.4274975955 0.5158441067 0.5119276047
	0.4291372001 0.5179803967 0.5138525963
	0.4307664931 0.5200970173 0.5157613158
	0.4323846996 0.5221933722 0.5176572204
	0.4339928925 0.5242717862 0.5195353031
	0.4355897009 0.5263323784 0.5213940144
	0.4371742010 0.5283774137 0.5232350826
	0.4387458861 0.5304070115 0.5250611901
	0.4403051138 0.5324196219 0.5268712044
	0.4418540895 0.5344129205 0.5286645889
	0.4433917105 0.5363882184 0.5304409266
	0.4449174106 0.5383464098 0.5322008729
	0.4464308918 0.5402891040 0.5339469910
	0.4479325116 0.5422176123 0.5356794000
	0.4494239092 0.5441330075 0.5373972058
	0.4509055912 0.5460358262 0.5391005874
	0.4523760974 0.5479230881 0.5407894254
	0.4538336098 0.5497955084 0.5424653888
	0.4552780986 0.5516521931 0.5441265702
	0.4567125142 0.5534964204 0.5457723737
	0.4581381083 0.5553289056 0.5474044085
	0.4595550001 0.5571491718 0.5490232706
	0.4609611034 0.5589544773 0.5506296158
	0.4623560905 0.5607442260 0.5522220135
	0.4637416899 0.5625196099 0.5537992120
	0.4651190937 0.5642817020 0.5553634167
	0.4664886892 0.5660303235 0.5569143295
	0.4678488970 0.5677667856 0.5584530830
	0.4691990018 0.5694890022 0.5599805117
	0.4705401957 0.5711963773 0.5614979267
	0.4718737006 0.5728896260 0.5630066991
	0.4731974900 0.5745667219 0.5645061731
	0.4745135009 0.5762310028 0.5659909844
	0.4758217931 0.5778843760 0.5674638748
	0.4771224856 0.5795271993 0.5689262748
	0.4784156084 0.5811589956 0.5703796744
	0.4796993136 0.5827751756 0.5718243718
	0.4809752107 0.5843808055 0.5732576847
	0.4822460115 0.5859761834 0.5746794939
	0.4835121036 0.5875607729 0.5760902762
	0.4847720861 0.5891314745 0.5774900913
	0.4860242903 0.5906872153 0.5788798928
	0.4872705042 0.5922328234 0.5802617073
	0.4885112047 0.5937690735 0.5816357136
	0.4897463918 0.5952950716 0.5830007195
	0.4909757972 0.5968127251 0.5843585134
	0.4922001958 0.5983219147 0.5857095718
	0.4934197068 0.5998219848 0.5870532990
	0.4946334958 0.6013069153 0.5883836150
	0.4958420992 0.6027836800 0.5897060037
	0.4970462918 0.6042528749 0.5910214186
	0.4982447922 0.6057118773 0.5923281908
	0.4994386137 0.6071583033 0.5936253071
	0.5006300211 0.6085960865 0.5949164033
	0.5018193126 0.6100246906 0.5962014794
	0.5030052066 0.6114413142 0.5974758863
	0.5041871071 0.6128522754 0.5987439752
	0.5053647161 0.6142578721 0.6000061035
	0.5065345168 0.6156520247 0.6012579203
	0.5077012181 0.6170390844 0.6025043726
	0.5088649988 0.6184194088 0.6037459970
	0.5100249052 0.6197851896 0.6049779058
	0.5111827254 0.6211447716 0.6062039733
	0.5123385787 0.6224983931 0.6074249148
	0.5134863853 0.6238390207 0.6086357832
	0.5146304965 0.6251735091 0.6098436117
	0.5157698989 0.6265006065 0.6110476255
	0.5169038177 0.6278185248 0.6122431159
	0.5180357099 0.6291317940 0.6134337187
	0.5191645026 0.6304373145 0.6146162748
	0.5202901959 0.6317332983 0.6157922149
	0.5214136243 0.6330240965 0.6169643998
	0.5225296021 0.6343023181 0.6181287766
	0.5236412883 0.6355733275 0.6192877889
	0.5247489214 0.6368368864 0.6204416752
	0.5258507133 0.6380882263 0.6215860248
	0.5269507170 0.6393350959 0.6227265000
	0.5280470252 0.6405732036 0.6238588095
	0.5291407108 0.6418051720 0.6249852777
	0.5302323103 0.6430323720 0.6261076927
	0.5313162208 0.6442492008 0.6272221208
	0.5323973894 0.6454623938 0.6283330917
	0.5334717035 0.6466655731 0.6294345856
	0.5345426798 0.6478630900 0.6305302978
	0.5356101990 0.6490542889 0.6316205263
	0.5366739035 0.6502388120 0.6327043772
	0.5377362967 0.6514207721 0.6337860823
	0.5387936831 0.6525934935 0.6348581910
	0.5398488045 0.6537632942 0.6359266043
	0.5408974290 0.6549249887 0.6369863153
	0.5419415236 0.6560810804 0.6380411983
	0.5429813266 0.6572313905 0.6390917897
	0.5440160036 0.6583732963 0.6401355863
	0.5450487137 0.6595116258 0.6411771178
	0.5460764766 0.6606398225 0.6422092915
	0.5471035242 0.6617661715 0.6432397962
	0.5481255054 0.6628851295 0.6442614794
	0.5491452217 0.6640012264 0.6452804804
	0.5501583219 0.6651095748 0.6462923288
	0.5511676073 0.6662127972 0.6473004222
	0.5521715879 0.6673082113 0.6483036280
	0.5531716943 0.6683982015 0.6493026018
	0.5541684031 0.6694834828 0.6502984166
	0.5551614761 0.6705622077 0.6512870789
	0.5561527014 0.6716372967 0.6522722840
	0.5571410060 0.6727038026 0.6532505155
	0.5581284165 0.6737673879 0.6542266011
	0.5591105223 0.6748213768 0.6551975012
	0.5600913763 0.6758732796 0.6561676264
	0.5610644817 0.6769148111 0.6571305990
	0.5620365143 0.6779549718 0.6580929756
	0.5630018115 0.6789849997 0.6590462923
	0.5639665723 0.6800143123 0.6599991918
	0.5649260283 0.6810361147 0.6609457731
	0.5658853054 0.6820576191 0.6618922949
	0.5668407083 0.6830697060 0.6628310084
	0.5677961111 0.6840814948 0.6637696028
	0.5687469244 0.6850817800 0.6646987200
	0.5696974993 0.6860815883 0.6656274796
	0.5706422925 0.6870731711 0.6665499806
	0.5715867281 0.6880642176 0.6674721837
	0.5725247860 0.6890473962 0.6683868766
	0.5734621882 0.6900296211 0.6693009138
	0.5743951201 0.6910039783 0.6702064872
	0.5753269792 0.6919766068 0.6711105704
	0.5762560964 0.6929423809 0.6720092893
	0.5771843195 0.6939054728 0.6729062796
	0.5781095028 0.6948626041 0.6737989187
	0.5790330768 0.6958160996 0.6746891737
	0.5799536109 0.6967654824 0.6755756736
	0.5808709860 0.6977106929 0.6764587164
	0.5817859769 0.6986532807 0.6773390174
	0.5826966763 0.6995912194 0.6782149076
	0.5836061835 0.7005271912 0.6790891886
	0.5845115781 0.7014548779 0.6799582839
	0.5854169130 0.7023826241 0.6808270812
	0.5863186121 0.7033014894 0.6816880107
	0.5872203112 0.7042204142 0.6825488806
	0.5881202817 0.7051343918 0.6834049821
	0.5890197754 0.7060474157 0.6842601895
	0.5899165869 0.7069560289 0.6851115227
	0.5908117294 0.7078614831 0.6859601736
	0.5917043090 0.7087628841 0.6868060231
	0.5925924778 0.7096565962 0.6876469851
	0.5934802294 0.7105495930 0.6884872913
	0.5943630934 0.7114354968 0.6893228889
	0.5952460170 0.7123214006 0.6901584268
	0.5961257815 0.7132012248 0.6909888983
	0.5970050097 0.7140796185 0.6918182969
	0.5978829861 0.7149519920 0.6926438212
	0.5987598896 0.7158185244 0.6934657097
	0.5996358991 0.7166832089 0.6942861080
	0.6005082130 0.7175390124 0.6951001883
	0.6013805866 0.7183946967 0.6959143281
	0.6022471786 0.7192428708 0.6967222095
	0.6031126976 0.7200896144 0.6975290179
	0.6039757133 0.7209308743 0.6983324289
	0.6048358083 0.7217659950 0.6991323233
	0.6056957245 0.7226004004 0.6999315023
	0.6065520048 0.7234249711 0.7007243037
	0.6074082851 0.7242496014 0.7015169859
	0.6082630754 0.7250695229 0.7023050785
	0.6091169715 0.7258870006 0.7030910850
	0.6099703908 0.7267029285 0.7038756013
	0.6108219028 0.7275134921 0.7046552896
	0.6116734743 0.7283241749 0.7054349184
	0.6125208139 0.7291293740 0.7062094212
	0.6133667827 0.7299330831 0.7069824934
	0.6142112017 0.7307348251 0.7077537179
	0.6150516868 0.7315317988 0.7085208297
	0.6158921719 0.7323288918 0.7092878222
	0.6167293787 0.7331209779 0.7100501060
	0.6175658107 0.7339118123 0.7108113170
	0.6184015274 0.7347002029 0.7115700245
	0.6192352176 0.7354820967 0.7123227715
	0.6200687885 0.7362639904 0.7130755782
	0.6209005713 0.7370405197 0.7138231993
	0.6217315793 0.7378150225 0.7145689726
	0.6225616932 0.7385885119 0.7153139710
	0.6233869195 0.7393574119 0.7160546780
	0.6242122054 0.7401263118 0.7167953849
	0.6250342131 0.7408906817 0.7175316215
	0.6258537173 0.7416514754 0.7182646990
	0.6266732216 0.7424122095 0.7189977765
	0.6274886131 0.7431641817 0.7197247744
	0.6283037066 0.7439156771 0.7204515934
	0.6291179061 0.7446653247 0.7211769223
	0.6299300790 0.7454105020 0.7218992710
	0.6307423115 0.7461556792 0.7226216197
	0.6315525770 0.7468963265 0.7233393788
	0.6323618293 0.7476344109 0.7240548134
	0.6331710219 0.7483724952 0.7247703075
	0.6339744925 0.7491027117 0.7254779935
	0.6347777843 0.7498325706 0.7261853814
	0.6355797052 0.7505611777 0.7268915772
	0.6363769770 0.7512856722 0.7275938988
	0.6371744275 0.7520102859 0.7282962799
	0.6379693747 0.7527318001 0.7289955020
	0.6387621760 0.7534502149 0.7296919227
	0.6395549774 0.7541685104 0.7303882241
	0.6403455138 0.7548798919 0.7310792208
	0.6411350965 0.7555885911 0.7317686081
	0.6419246793 0.7562974095 0.7324578762
	0.6427112222 0.7570006847 0.7331432104
	0.6434975863 0.7577037215 0.7338283062
	0.6442831755 0.7584059834 0.7345126271
	0.6450635195 0.7591038942 0.7351925969
	0.6458438039 0.7598018050 0.7358726263
	0.6466221809 0.7604972720 0.7365499139
	0.6473965049 0.7611867189 0.7372214794
	0.6481707096 0.7618761063 0.7378931046
	0.6489428878 0.7625625134 0.7385625839
	0.6497123837 0.7632448077 0.7392295003
	0.6504818797 0.7639272213 0.7398964167
	0.6512495279 0.7646067142 0.7405610085
	0.6520156264 0.7652835846 0.7412236929
	0.6527817249 0.7659605145 0.7418864965
	0.6535456181 0.7666330934 0.7425445914
	0.6543081999 0.7673028111 0.7432000041
	0.6550709009 0.7679725885 0.7438554168
	0.6558291912 0.7686370015 0.7445067167
	0.6565855742 0.7692987919 0.7451562285
	0.6573420167 0.7699605227 0.7458056808
	0.6580939889 0.7706184983 0.7464519739
	0.6588441133 0.7712748051 0.7470970154
	0.6595942974 0.7719311118 0.7477421165
	0.6603410244 0.7725834250 0.7483826876
	0.6610863209 0.7732340097 0.7490215898
	0.6618314981 0.7738845944 0.7496606112
	0.6625742912 0.7745307088 0.7502961755
	0.6633158922 0.7751746774 0.7509304881
	0.6640574932 0.7758187056 0.7515646815
	0.6647968292 0.7764587998 0.7521967888
	0.6655347943 0.7770963907 0.7528278232
	0.6662726998 0.7777339816 0.7534586787
	0.6670070887 0.7783685923 0.7540869117
	0.6677386165 0.7790005803 0.7547128797
	0.6684702039 0.7796326280 0.7553389072
	0.6691988707 0.7802624106 0.7559623122
	0.6699240804 0.7808893919 0.7565826774
	0.6706492901 0.7815164924 0.7572029829
	0.6713730097 0.7821415067 0.7578222752
	0.6720930934 0.7827615142 0.7584391832
	0.6728131771 0.7833815813 0.7590560913
	0.6735327840 0.7840009928 0.7596722841
	0.6742489934 0.7846158147 0.7602841854
	0.6749653220 0.7852305174 0.7608960867
	0.6756814718 0.7858452797 0.7615079880
	0.6763954163 0.7864570022 0.7621135712
	0.6771090031 0.7870684266 0.7627189159
	0.6778227091 0.7876799107 0.7633240819
	0.6785330772 0.7882875800 0.7639262080
	0.6792423129 0.7888938189 0.7645270228
	0.6799514294 0.7894999981 0.7651277781
	0.6806576848 0.7901020050 0.7657262087
	0.6813606024 0.7906988859 0.7663218975
	0.6820635200 0.7912957072 0.7669175863
	0.6827654839 0.7918915749 0.7675123215
	0.6834632158 0.7924820781 0.7681027055
	0.6841610074 0.7930727005 0.7686930895
	0.6848587990 0.7936632037 0.7692834735
	0.6855531931 0.7942507863 0.7698693871
	0.6862471104 0.7948378921 0.7704545856
	0.6869410276 0.7954249978 0.7710397840
	0.6876335144 0.7960084081 0.7716224790
	0.6883248091 0.7965881228 0.7722026706
	0.6890159845 0.7971677780 0.7727829218
	0.6897066236 0.7977464795 0.7733623981
	0.6903933287 0.7983182073 0.7739374042
	0.6910800934 0.7988898158 0.7745124102
	0.6917667985 0.7994614840 0.7750874162
	0.6924489737 0.8000293970 0.7756578922
	0.6931294799 0.8005958796 0.7762268782
	0.6938099861 0.8011624217 0.7767959237
	0.6944890022 0.8017272949 0.7773637772
	0.6951643825 0.8022881746 0.7779290080
	0.6958398223 0.8028491139 0.7784942985
	0.6965152025 0.8034101129 0.7790595293
	0.6971874237 0.8039643764 0.7796214223
	0.6978589892 0.8045170903 0.7801826000
	0.6985304952 0.8050699234 0.7807437778
	0.6992011070 0.8056213260 0.7813032866
	0.6998698711 0.8061696291 0.7818598151
	0.7005386949 0.8067178130 0.7824162841
	0.7012075186 0.8072661161 0.7829726934
	0.7018737197 0.8078114986 0.7835255265
	0.7025392056 0.8083561063 0.7840774059
	0.7032046914 0.8089007139 0.7846292853
	0.7038692236 0.8094440103 0.7851802707
	0.7045302987 0.8099824190 0.7857282162
	0.7051913738 0.8105208278 0.7862762213
	0.7058525085 0.8110591769 0.7868241072
	0.7065104842 0.8115934730 0.7873699069
	0.7071666718 0.8121252060 0.7879143953
	0.7078229189 0.8126569986 0.7884590030
	0.7084791064 0.8131887913 0.7890034914
	0.7091314793 0.8137164712 0.7895429134
	0.7097837925 0.8142442107 0.7900823951
	0.7104362249 0.8147718906 0.7906218171
	0.7110877037 0.8152979016 0.7911595106
	0.7117375135 0.8158202767 0.7916939855
	0.7123872042 0.8163427114 0.7922285199
	0.7130370140 0.8168652058 0.7927629948
	0.7136846781 0.8173835278 0.7932949066
	0.7143312097 0.8178995252 0.7938255072
	0.7149778008 0.8184155226 0.7943559885
	0.7156242728 0.8189315200 0.7948865891
	0.7162669897 0.8194420934 0.7954136133
	0.7169092894 0.8199520707 0.7959402800
	0.7175515890 0.8204621077 0.7964671254
	0.7181931138 0.8209713101 0.7969928980
	0.7188305855 0.8214758039 0.7975142002
	0.7194681168 0.8219804168 0.7980353832
	0.7201055884 0.8224849105 0.7985566258
	0.7207418084 0.8229876161 0.7990764976
	0.7213757038 0.8234868050 0.7995939851
	0.7220094800 0.8239858747 0.8001114726
	0.7226433158 0.8244851232 0.8006290197
	0.7232757807 0.8249812126 0.8011451960
	0.7239069939 0.8254746199 0.8016602993
	0.7245383263 0.8259679079 0.8021754026
	0.7251694798 0.8264611959 0.8026905060
	0.7257997990 0.8269500136 0.8032016754
	0.7264295220 0.8274360895 0.8037108779
	0.7270591855 0.8279222846 0.8042200804
	0.7276890278 0.8284084797 0.8047292829
	0.7283164263 0.8288906813 0.8052350879
	0.7289428711 0.8293713927 0.8057398200
	0.7295694947 0.8298521042 0.8062443733
	0.7301961184 0.8303328753 0.8067491055
	0.7308188081 0.8308109045 0.8072515130
	0.7314406037 0.8312882185 0.8077533245
	0.7320623994 0.8317655921 0.8082550764
	0.7326841950 0.8322429061 0.8087568879
	0.7333028913 0.8327162862 0.8092550039
	0.7339209914 0.8331888914 0.8097522855
	0.7345389724 0.8336614966 0.8102496862
	0.7351570725 0.8341341019 0.8107470274
	0.7357730865 0.8346002102 0.8112403154
	0.7363885045 0.8350648880 0.8117327094
	0.7370039821 0.8355295062 0.8122249842
	0.7376194000 0.8359941244 0.8127173781
	0.7382336855 0.8364549279 0.8132079244
	0.7388474941 0.8369144201 0.8136978149
	0.7394614220 0.8373739719 0.8141875863
	0.7400751710 0.8378335238 0.8146774769
	0.7406880260 0.8382915258 0.8151652813
	0.7413002849 0.8387488127 0.8156523108
	0.7419126034 0.8392060995 0.8161392212
	0.7425248027 0.8396633863 0.8166260719
	0.7431349754 0.8401176929 0.8171094060
	0.7437434196 0.8405694962 0.8175901175
	0.7443519235 0.8410212994 0.8180707097
	0.7449604273 0.8414732218 0.8185513020
	0.7455673218 0.8419228196 0.8190304041
	0.7461718917 0.8423690200 0.8195071220
	0.7467764020 0.8428152204 0.8199838996
	0.7473809719 0.8432614207 0.8204606771
	0.7479851246 0.8437070847 0.8209370971
	0.7485867739 0.8441503048 0.8214123249
	0.7491886020 0.8445935845 0.8218876123
	0.7497903705 0.8450369239 0.8223627806
	0.7503920794 0.8454802036 0.8228381276
	0.7509921193 0.8459206223 0.8233087063
	0.7515920997 0.8463609219 0.8237791061
	0.7521920204 0.8468011022 0.8242496252
	0.7527918816 0.8472414017 0.8247200251
	0.7533906102 0.8476775289 0.8251867890
	0.7539888024 0.8481116891 0.8256520033
	0.7545868754 0.8485457897 0.8261172175
	0.7551851273 0.8489800096 0.8265823722
	0.7557817101 0.8494123220 0.8270465136
	0.7563759089 0.8498412967 0.8275086880
	0.7569699883 0.8502702713 0.8279709816
	0.7575641274 0.8506993055 0.8284332156
	0.7581582069 0.8511282802 0.8288952708
	0.7587482929 0.8515555859 0.8293542862
	0.7593383789 0.8519830108 0.8298131824
	0.7599285841 0.8524103165 0.8302720785
	0.7605187297 0.8528376222 0.8307309747
	0.7611069083 0.8532627225 0.8311864138
	0.7616940141 0.8536863923 0.8316398859
	0.7622811198 0.8541101217 0.8320934176
	0.7628682852 0.8545337915 0.8325468898
	0.7634549737 0.8549563885 0.8329998851
	0.7640401125 0.8553745747 0.8334509134
	0.7646251917 0.8557928205 0.8339020014
	0.7652102113 0.8562110066 0.8343530297
	0.7657952905 0.8566291928 0.8348039985
	0.7663789988 0.8570433855 0.8352537155
	0.7669621110 0.8574560881 0.8357028961
	0.7675452232 0.8578686714 0.8361520767
	0.7681282163 0.8582813144 0.8366013169
	0.7687104940 0.8586933017 0.8370494843
	0.7692893744 0.8591027856 0.8374937177
	0.7698683143 0.8595123291 0.8379380107
	0.7704473138 0.8599218130 0.8383821845
	0.7710261941 0.8603312969 0.8388264775
	0.7716023922 0.8607382774 0.8392679095
	0.7721772194 0.8611438274 0.8397077918
	0.7727519870 0.8615493774 0.8401476741
	0.7733268142 0.8619549870 0.8405876756
	0.7739014030 0.8623604178 0.8410274982
	0.7744730115 0.8627613187 0.8414660096
	0.7750446200 0.8631622195 0.8419045210
	0.7756162882 0.8635631800 0.8423430920
	0.7761878967 0.8639640808 0.8427816033
	0.7767586112 0.8643633723 0.8432186246
	0.7773280144 0.8647603989 0.8436536789
	0.7778974175 0.8651574254 0.8440887928
	0.7784668207 0.8655543923 0.8445239067
	0.7790362835 0.8659514189 0.8449590206
	0.7796040773 0.8663460016 0.8453900218
	0.7801712751 0.8667395711 0.8458197117
	0.7807385921 0.8671333194 0.8462492824
	0.7813057899 0.8675270081 0.8466789722
	0.7818729877 0.8679206967 0.8471086025
	0.7824358940 0.8683102727 0.8475356102
	0.7829989195 0.8686999083 0.8479626775
	0.7835618258 0.8690894842 0.8483896852
	0.7841247916 0.8694791198 0.8488166928
	0.7846866846 0.8698676229 0.8492432833
	0.7852454185 0.8702524900 0.8496683240
	0.7858040929 0.8706374168 0.8500934243
	0.7863628268 0.8710222244 0.8505184054
	0.7869215012 0.8714070916 0.8509433866
	0.7874788046 0.8717902899 0.8513662815
	0.7880342007 0.8721709847 0.8517863750
	0.7885895967 0.8725517988 0.8522065282
	0.7891449928 0.8729326129 0.8526266217
	0.7897003293 0.8733134270 0.8530467153
	0.7902544141 0.8736922145 0.8534634113
	0.7908074260 0.8740695715 0.8538776040
	0.7913604975 0.8744469285 0.8542917967
	0.7919135094 0.8748242259 0.8547059894
	0.7924665213 0.8752015829 0.8551203012
	0.7930179834 0.8755767941 0.8555328250
	0.7935686111 0.8759508729 0.8559445739
	0.7941192985 0.8763250709 0.8563563824
	0.7946699858 0.8766993284 0.8567680717
	0.7952206731 0.8770734072 0.8571798801
	0.7957680821 0.8774452806 0.8575891852
	0.7963144183 0.8778162003 0.8579975963
	0.7968606949 0.8781871796 0.8584060073
	0.7974069715 0.8785582185 0.8588144183
	0.7979531884 0.8789290786 0.8592228293
	0.7984963059 0.8792970777 0.8596280217
	0.7990381718 0.8796638846 0.8600320816
	0.7995802164 0.8800308108 0.8604362011
	0.8001220822 0.8803976774 0.8608403206
	0.8006640077 0.8807644844 0.8612444997
	0.8012034893 0.8811290264 0.8616467714
	0.8017420173 0.8814923167 0.8620483875
	0.8022804856 0.8818557262 0.8624501228
	0.8028190136 0.8822190762 0.8628516793
	0.8033574820 0.8825824857 0.8632534146
	0.8038944006 0.8829445243 0.8636533022
	0.8044304252 0.8833057880 0.8640521765
	0.8049663901 0.8836669922 0.8644511104
	0.8055024147 0.8840281963 0.8648499846
	0.8060383797 0.8843894005 0.8652489185
	0.8065730929 0.8847498894 0.8656460047
	0.8071064949 0.8851096034 0.8660413027
	0.8076400161 0.8854691982 0.8664366007
	0.8081734180 0.8858289123 0.8668318987
	0.8087068796 0.8861885071 0.8672271967
	0.8092389107 0.8865470290 0.8676213026
	0.8097679019 0.8869025707 0.8680127263
	0.8102967739 0.8872582912 0.8684040904
	0.8108258247 0.8876140118 0.8687955141
	0.8113546968 0.8879696727 0.8691868782
	0.8118832111 0.8883249760 0.8695781231
	0.8124076724 0.8886772990 0.8699674010
	0.8129323125 0.8890296221 0.8703566790
	0.8134567738 0.8893818855 0.8707460165
	0.8139812946 0.8897342086 0.8711354136
	0.8145058155 0.8900865912 0.8715246916
	0.8150272965 0.8904371858 0.8719115257
	0.8155483007 0.8907874227 0.8722978830
	0.8160691857 0.8911375999 0.8726842999
	0.8165901899 0.8914877772 0.8730705976
	0.8171110749 0.8918380141 0.8734570146
	0.8176307082 0.8921874762 0.8738412857
	0.8181489706 0.8925362229 0.8742238879
	0.8186672926 0.8928849101 0.8746063709
	0.8191856146 0.8932335973 0.8749889135
	0.8197038770 0.8935822845 0.8753713965
	0.8202217817 0.8939304948 0.8757534027
	0.8207373023 0.8942753077 0.8761324286
	0.8212528825 0.8946201801 0.8765113950
	0.8217685223 0.8949649930 0.8768904209
	0.8222841024 0.8953098059 0.8772693872
