release/datafiles/colormanagement/luts/camera_response/agfa_agfacolor_futura_200.spi1d
Version 1
From 0.0 1.0
Length 1024
Components 3
{
	0.0000000000 0.0000000000 0.0000000000
	0.0190759301 0.0202765409 0.0141122499
	0.0335491784 0.0352048501 0.0259871501
	0.0456284918 0.0479410589 0.0363161191
	0.0564305596 0.0593791306 0.0456890501
	0.0664090514 0.0698935464 0.0543796085
	0.0757837966 0.0797363967 0.0625370890
	0.0847331807 0.0890476108 0.0702239573
	0.0933608115 0.0979082435 0.0775574669
	0.1017175987 0.1063619033 0.0845922306
	0.1099015996 0.1144784987 0.0912967026
	0.1179269999 0.1222776026 0.0977132320
	0.1257234961 0.1297329068 0.1038620025
	0.1332069039 0.1368501037 0.1097526997
	0.1403385997 0.1436758041 0.1154337972
	0.1471385062 0.1502327025 0.1209276021
	0.1536355019 0.1565580070 0.1262387037
	0.1598660052 0.1626631021 0.1313958019
	0.1658526063 0.1685642004 0.1363987029
	0.1715987027 0.1742689013 0.1412739009
	0.1771457046 0.1798011959 0.1460293978
	0.1825121045 0.1851902008 0.1506731957
	0.1877036989 0.1904155016 0.1552059054
	0.1927496940 0.1955112070 0.1596464962
	0.1976590008 0.2004680932 0.1639927030
	0.2024216950 0.2053215951 0.1682489067
	0.2070800066 0.2100495994 0.1724233031
	0.2116314024 0.2146542072 0.1765283942
	0.2160694003 0.2191715986 0.1805596054
	0.2203907967 0.2236115038 0.1845162958
	0.2246263027 0.2279452980 0.1884078979
	0.2287762016 0.2321790010 0.1922432035
	0.2328651994 0.2363519073 0.1960130930
	0.2368912995 0.2404530942 0.1997288018
	0.2408396006 0.2444870025 0.2033921927
	0.2446998060 0.2484596968 0.2069972008
	0.2484990954 0.2523579001 0.2105585039
	0.2522394061 0.2561706901 0.2140689939
	0.2559157014 0.2599090934 0.2175384015
	0.2595242858 0.2635894120 0.2209592015
	0.2630606890 0.2672078013 0.2243333012
	0.2665264904 0.2707605064 0.2276653051
	0.2699350119 0.2742443085 0.2309532017
	0.2732954025 0.2776700854 0.2342132032
	0.2766172886 0.2810553908 0.2374293953
	0.2799009979 0.2844128013 0.2406121045
	0.2831490934 0.2877435088 0.2437624931
	0.2863624096 0.2910458148 0.2468758970
	0.2895404994 0.2943179011 0.2499558926
	0.2926771045 0.2975485921 0.2530024946
	0.2957693934 0.3007347882 0.2560170889
	0.2988215983 0.3038783967 0.2590034902
	0.3018361032 0.3069826961 0.2619606853
	0.3048140109 0.3100473881 0.2648896873
	0.3077591062 0.3130752146 0.2677848041
	0.3106676936 0.3160668910 0.2706494033
	0.3135369122 0.3190228045 0.2734929919
	0.3163697124 0.3219431043 0.2763096094
	0.3191707134 0.3248273134 0.2790902853
	0.3219430149 0.3276773989 0.2818470001
	0.3246892989 0.3305040896 0.2845870852
	0.3274120092 0.3333109021 0.2873024046
	0.3301134109 0.3360993862 0.2899892926
	0.3327957988 0.3388687074 0.2926526964
	0.3354612887 0.3416137993 0.2952902913
	0.3381122947 0.3443362117 0.2979075015
	0.3407450020 0.3470380008 0.3005059063
	0.3433603942 0.3497211039 0.3030832112
	0.3459551930 0.3523826003 0.3056401014
	0.3485282063 0.3550176919 0.3081726134
	0.3510803878 0.3576203883 0.3106764853
	0.3536134064 0.3601945937 0.3131647110
	0.3561300039 0.3627431095 0.3156422973
	0.3586291075 0.3652668893 0.3181054890
	0.3611052930 0.3677676916 0.3205488920
	0.3635632992 0.3702487946 0.3229709864
	0.3660041094 0.3727082908 0.3253682852
	0.3684245944 0.3751434982 0.3277472854
	0.3708260059 0.3775567114 0.3301078975
	0.3732075989 0.3799484968 0.3324497938
	0.3755733967 0.3823226094 0.3347747028
	0.3779214025 0.3846783042 0.3370811045
	0.3802560866 0.3870177865 0.3393734097
	0.3825756013 0.3893364966 0.3416540921
	0.3848834038 0.3916386962 0.3439235091
	0.3871786892 0.3939253986 0.3461782932
	0.3894636929 0.3961988091 0.3484173119
	0.3917393088 0.3984617889 0.3506391943
	0.3940058053 0.4007127881 0.3528397083
	0.3962653875 0.4029492140 0.3550203145
	0.3985182941 0.4051673114 0.3571819961
	0.4007658064 0.4073692858 0.3593285978
	0.4030055106 0.4095577896 0.3614608049
	0.4052354097 0.4117330909 0.3635764122
	0.4074552953 0.4138962030 0.3656741083
	0.4096668959 0.4160450995 0.3677546084
	0.4118706882 0.4181813896 0.3698169887
	0.4140650928 0.4203011096 0.3718580902
	0.4162524045 0.4224058986 0.3738800883
	0.4184325933 0.4244979024 0.3758884072
	0.4206056893 0.4265781939 0.3778842986
	0.4227721095 0.4286450148 0.3798668981
	0.4249303937 0.4306966066 0.3818354011
	0.4270783961 0.4327369034 0.3837904930
	0.4292162061 0.4347665906 0.3857319951
	0.4313440025 0.4367870986 0.3876594007
	0.4334617853 0.4388001859 0.3895725906
	0.4355661869 0.4407989085 0.3914704919
	0.4376563132 0.4427832961 0.3933526874
	0.4397337139 0.4447549880 0.3952197134
	0.4417980909 0.4467160106 0.3970730901
	0.4438503087 0.4486671090 0.3989152014
	0.4458903074 0.4506083131 0.4007458985
	0.4479185045 0.4525383115 0.4025672972
	0.4499352872 0.4544585049 0.4043807089
	0.4519383013 0.4563668966 0.4061861932
	0.4539265931 0.4582642913 0.4079838991
	0.4559009075 0.4601486921 0.4097737968
	0.4578616917 0.4620200992 0.4115560949
	0.4598096013 0.4638800919 0.4133307934
	0.4617452919 0.4657298028 0.4150981009
	0.4636693895 0.4675683081 0.4168579876
	0.4655824006 0.4693951011 0.4186106920
	0.4674822092 0.4712128043 0.4203560948
	0.4693683088 0.4730215073 0.4220944047
	0.4712423086 0.4748198092 0.4238258004
	0.4731037021 0.4766085148 0.4255501926
	0.4749540985 0.4783886969 0.4272677004
	0.4767911136 0.4801594913 0.4289785922
	0.4786145985 0.4819203913 0.4306828082
	0.4804255068 0.4836716056 0.4323804080
	0.4822244942 0.4854123890 0.4340715110
	0.4840112031 0.4871422946 0.4357562065
	0.4857847989 0.4888612926 0.4374346137
	0.4875457883 0.4905700088 0.4391067922
	0.4892955124 0.4922698140 0.4407728910
	0.4910339117 0.4939587116 0.4424329102
	0.4927617908 0.4956364036 0.4440839887
	0.4944767952 0.4973056912 0.4457261860
	0.4961803854 0.4989677966 0.4473606944
	0.4978719950 0.5006220937 0.4489873052
	0.4995515049 0.5022668839 0.4506061971
	0.5012195706 0.5039017200 0.4522179067
	0.5028777719 0.5055288076 0.4538218975
	0.5045251250 0.5071460009 0.4554184973
	0.5061631799 0.5087574124 0.4570069015
	0.5077912807 0.5103607774 0.4585888088
	0.5094099045 0.5119572282 0.4601627886
	0.5110192895 0.5135468245 0.4617280960
	0.5126187801 0.5151286721 0.4632849991
	0.5142037272 0.5166985989 0.4648320079
	0.5157784224 0.5182607174 0.4663707018
	0.5173432231 0.5198156238 0.4679018855
	0.5188995004 0.5213642120 0.4694260061
	0.5204483271 0.5229077935 0.4709433019
	0.5219827294 0.5244423747 0.4724520147
	0.5235059857 0.5259712934 0.4739539921
	0.5250201821 0.5274928212 0.4754489958
	0.5265259743 0.5290061235 0.4769366086
	0.5280231833 0.5305104256 0.4784151018
	0.5295122862 0.5320072174 0.4798853099
	0.5309923887 0.5334973931 0.4813486040
	0.5324633718 0.5349810123 0.4828054905
	0.5339248180 0.5364567041 0.4842553139
	0.5353744030 0.5379219055 0.4856970906
	0.5368158221 0.5393791795 0.4871335924
	0.5382496715 0.5408291221 0.4885646999
	0.5396752954 0.5422707796 0.4899865091
	0.5410915017 0.5437059999 0.4914005101
	0.5425012708 0.5451353788 0.4928086102
	0.5439049006 0.5465584993 0.4942106903
	0.5452982187 0.5479696989 0.4956040084
	0.5466837883 0.5493730903 0.4969924986
	0.5480626225 0.5507693291 0.4983761907
	0.5494338274 0.5521574020 0.4997530878
	0.5507962704 0.5535387993 0.5011236072
	0.5521531105 0.5549157858 0.5024887919
	0.5535033941 0.5562884808 0.5038468242
	0.5548453927 0.5576546192 0.5051984787
	0.5561814904 0.5590159297 0.5065459013
	0.5575097203 0.5603706837 0.5078874826
	0.5588302016 0.5617178082 0.5092235804
	0.5601449013 0.5630592704 0.5105562210
	0.5614513755 0.5643923283 0.5118840933
	0.5627481937 0.5657188892 0.5132076144
	0.5640394092 0.5670406818 0.5145276785
	0.5653225780 0.5683544874 0.5158423781
	0.5665981770 0.5696623921 0.5171517730
	0.5678697228 0.5709664226 0.5184581280
	0.5691354275 0.5722628236 0.5197597146
	0.5703939795 0.5735521913 0.5210576057
	0.5716482997 0.5748370290 0.5223528743
	0.5728936195 0.5761141777 0.5236395001
	0.5741339922 0.5773866773 0.5249217153
	0.5753698945 0.5786542892 0.5261995196
	0.5765981078 0.5799149871 0.5274701118
	0.5778229833 0.5811718106 0.5287377834
	0.5790420771 0.5824205279 0.5300002098
	0.5802537799 0.5836634040 0.5312584043
	0.5814616084 0.5849028826 0.5325140953
	0.5826593041 0.5861350894 0.5337622166
	0.5838543773 0.5873640776 0.5350074172
	0.5850455165 0.5885868073 0.5362474918
	0.5862290263 0.5898029804 0.5374835134
	0.5874090195 0.5910161138 0.5387175083
	0.5885779858 0.5922204852 0.5399456024
	0.5897439718 0.5934225917 0.5411707163
	0.5909047127 0.5946190953 0.5423896909
	0.5920587778 0.5958110094 0.5436031222
	0.5932093859 0.5969995856 0.5448129773
	0.5943543911 0.5981795192 0.5460162163
	0.5954970121 0.5993567109 0.5472174883
	0.5966315269 0.6005250812 0.5484123826
	0.5977625847 0.6016913056 0.5496050715
	0.5988891721 0.6028537154 0.5507941842
	0.6000123024 0.6040124297 0.5519784093
	0.6011335254 0.6051688194 0.5531598926
	0.6022430062 0.6063209176 0.5543354154
	0.6033499241 0.6074718833 0.5555096269
	0.6044468284 0.6086149812 0.5566766262
	0.6055412292 0.6097556949 0.5578411222
	0.6066293716 0.6108884811 0.5589979887
	0.6077128053 0.6120188832 0.5601516962
	0.6087905169 0.6131458282 0.5613011718
	0.6098622084 0.6142669916 0.5624457002
	0.6109300256 0.6153838038 0.5635867715
	0.6119914055 0.6164928079 0.5647237897
	0.6130506992 0.6175984740 0.5658593178
	0.6141037941 0.6186978221 0.5669875741
	0.6151558757 0.6197956800 0.5681148171
	0.6162015200 0.6208844185 0.5692356229
	0.6172462106 0.6219723821 0.5703557730
	0.6182832122 0.6230551004 0.5714685917
	0.6193187833 0.6241365075 0.5725799799
	0.6203479767 0.6252096891 0.5736833215
	0.6213756204 0.6262813807 0.5747848749
	0.6223981977 0.6273471713 0.5758804083
	0.6234180927 0.6284117103 0.5769739151
	0.6244314909 0.6294723749 0.5780618191
	0.6254416108 0.6305295229 0.5791479945
	0.6264446974 0.6315774918 0.5802301764
	0.6274456978 0.6326224804 0.5813099742
	0.6284427047 0.6336600184 0.5823848248
	0.6294364929 0.6346951723 0.5834575295
	0.6304243207 0.6357244849 0.5845260024
	0.6314088106 0.6367521286 0.5855916739
	0.6323868036 0.6377754211 0.5866507888
	0.6333630085 0.6387977004 0.5877078176
	0.6343346238 0.6398169994 0.5887587070
	0.6353039742 0.6408346295 0.5898079872
	0.6362662911 0.6418454051 0.5908517241
	0.6372275949 0.6428552270 0.5918945074
	0.6381838918 0.6438586712 0.5929322243
	0.6391395926 0.6448618770 0.5939694047
	0.6400895119 0.6458585262 0.5950021148
	0.6410393715 0.6468551755 0.5960347056
	0.6419798732 0.6478437781 0.5970602036
	0.6429203153 0.6488320827 0.5980855227
	0.6438559890 0.6498137116 0.5991042852
	0.6447910070 0.6507939100 0.6001219749
	0.6457198262 0.6517695189 0.6011344194
	0.6466463208 0.6527429819 0.6021447182
	0.6475692987 0.6537116170 0.6031510234
	0.6484898925 0.6546760798 0.6041542292
	0.6494089961 0.6556367874 0.6051554084
	0.6503260732 0.6565908790 0.6061536074
	0.6512408853 0.6575438976 0.6071500778
	0.6521478295 0.6584920287 0.6081401706
	0.6530545950 0.6594399810 0.6091303229
	0.6539540291 0.6603807807 0.6101105809
	0.6548532844 0.6613214016 0.6110907793
	0.6557484865 0.6622567177 0.6120656133
	0.6566426754 0.6631903052 0.6130387783
	0.6575334072 0.6641204953 0.6140081286
	0.6584212780 0.6650474072 0.6149740219
	0.6593077183 0.6659724116 0.6159386039
	0.6601902246 0.6668912768 0.6168997884
	0.6610727906 0.6678102016 0.6178609729
	0.6619489789 0.6687254906 0.6188141704
	0.6628252268 0.6696406007 0.6197673082
	0.6636962295 0.6705511212 0.6207141280
	0.6645649076 0.6714593172 0.6216580272
	0.6654312015 0.6723641157 0.6225993037
	0.6662933826 0.6732622981 0.6235358715
	0.6671553850 0.6741604805 0.6244724989
	0.6680101156 0.6750528216 0.6254026294
	0.6688649058 0.6759452224 0.6263327003
	0.6697137952 0.6768317819 0.6272596717
	0.6705600023 0.6777151823 0.6281852722
	0.6714038253 0.6785969138 0.6291080713
	0.6722424030 0.6794738173 0.6300241947
	0.6730809212 0.6803507209 0.6309403181
	0.6739163995 0.6812239885 0.6318492293
	0.6747515202 0.6820967197 0.6327571273
	0.6755837798 0.6829648018 0.6336619854
	0.6764129996 0.6838271022 0.6345633268
	0.6772418022 0.6846892834 0.6354644895
	0.6780627966 0.6855434775 0.6363605261
	0.6788836718 0.6863977909 0.6372565031
	0.6797022223 0.6872488260 0.6381502748
	0.6805189848 0.6880972981 0.6390423775
	0.6813352108 0.6889454126 0.6399337053
	0.6821470261 0.6897872090 0.6408177018
	0.6829589009 0.6906291246 0.6417016983
	0.6837666035 0.6914675236 0.6425812244
	0.6845718026 0.6923034191 0.6434577703
	0.6853765249 0.6931388974 0.6443338990
	0.6861765981 0.6939678788 0.6452031136
	0.6869766116 0.6947969794 0.6460722089
	0.6877734065 0.6956220865 0.6469382048
	0.6885675192 0.6964433789 0.6478012800
	0.6893616915 0.6972646713 0.6486644149
	0.6901482940 0.6980792880 0.6495230198
	0.6909348965 0.6988936067 0.6503813863
	0.6917189956 0.6997050047 0.6512373090
	0.6924995184 0.7005112767 0.6520892978
	0.6932801008 0.7013177276 0.6529412866
	0.6940550804 0.7021173239 0.6537883878
	0.6948289275 0.7029148936 0.6546339989
	0.6956019998 0.7037113905 0.6554787755
	0.6963722706 0.7045007944 0.6563187242
	0.6971424818 0.7052903175 0.6571586132
	0.6979110241 0.7060778737 0.6579942703
	0.6986778975 0.7068635225 0.6588261724
	0.6994447112 0.7076489925 0.6596580148
	0.7002053261 0.7084293962 0.6604819894
	0.7009649873 0.7092086077 0.6613044739
	0.7017238736 0.7099866867 0.6621260047
	0.7024794817 0.7107571959 0.6629421115
	0.7032350898 0.7115277052 0.6637582183
	0.7039889097 0.7122963071 0.6645715833
	0.7047405839 0.7130622268 0.6653813124
	0.7054923177 0.7138280869 0.6661911011
	0.7062383890 0.7145891786 0.6669985056
	0.7069823742 0.7153481245 0.6678047180
	0.7077264190 0.7161070108 0.6686109900
	0.7084659934 0.7168573141 0.6694114208
	0.7092055082 0.7176067829 0.6702113748
	0.7099441886 0.7183555961 0.6710103154
	0.7106792927 0.7190998197 0.6718034148
	0.7114142776 0.7198439837 0.6725963950
	0.7121458054 0.7205855846 0.6733878255
	0.7128710747 0.7213221788 0.6741760969
	0.7135964036 0.7220587134 0.6749644876
	0.7143177986 0.7227926850 0.6757488847
	0.7150359154 0.7235242128 0.6765298843
	0.7157539725 0.7242556214 0.6773108244
	0.7164688706 0.7249854207 0.6780883074
	0.7171823978 0.7257142067 0.6788641214
	0.7178958058 0.7264429927 0.6796398163
	0.7186031938 0.7271656990 0.6804109812
	0.7193090916 0.7278866172 0.6811808944
	0.7200149894 0.7286074758 0.6819508076
	0.7207157016 0.7293236852 0.6827170253
	0.7214158773 0.7300391793 0.6834827065
	0.7221161127 0.7307546735 0.6842483878
	0.7228116989 0.7314674258 0.6850115061
	0.7235072255 0.7321798801 0.6857745051
	0.7242025733 0.7328923941 0.6865373254
	0.7248927951 0.7335966825 0.6872922182
	0.7255830169 0.7343010902 0.6880471110
	0.7262728810 0.7350053191 0.6888017058
	0.7269589901 0.7357040048 0.6895499825
	0.7276450992 0.7364026904 0.6902983785
	0.7283307910 0.7371011972 0.6910464764
	0.7290124297 0.7377966046 0.6917898059
	0.7296938896 0.7384920120 0.6925331950
	0.7303751707 0.7391871810 0.6932764053
	0.7310516238 0.7398741841 0.6940135956
	0.7317278981 0.7405611873 0.6947507858
	0.7324042916 0.7412481904 0.6954879761
	0.7330766916 0.7419282198 0.6962195039
	0.7337490916 0.7426078916 0.6969509721
	0.7344214916 0.7432876229 0.6976823807
	0.7350897193 0.7439622879 0.6984075904
	0.7357577085 0.7446364164 0.6991322041
	0.7364255786 0.7453106046 0.6998566985
	0.7370892763 0.7459799051 0.7005770206
	0.7377521992 0.7466480136 0.7012962103
	0.7384151220 0.7473161221 0.7020155191
	0.7390751839 0.7479804158 0.7027320862
	0.7397342920 0.7486426830 0.7034475207
	0.7403932810 0.7493051291 0.7041630149
	0.7410498261 0.7499645948 0.7048757076
	0.7417044044 0.7506214976 0.7055861950
	0.7423589826 0.7512784004 0.7062966228
	0.7430117130 0.7519339919 0.7070053816
	0.7436612844 0.7525870800 0.7077112794
	0.7443109155 0.7532402277 0.7084171772
	0.7449595928 0.7538927794 0.7091221809
	0.7456040978 0.7545416951 0.7098222971
	0.7462486029 0.7551906109 0.7105224729
	0.7468931079 0.7558395267 0.7112227082
	0.7475314736 0.7564836144 0.7119165063
	0.7481697202 0.7571272850 0.7126098871
	0.7488077879 0.7577710152 0.7133032084
	0.7494426966 0.7584123015 0.7139921784
	0.7500761151 0.7590525150 0.7146791220
	0.7507095933 0.7596926093 0.7153660059
	0.7513409257 0.7603306770 0.7160515785
	0.7519693971 0.7609655261 0.7167350054
	0.7525979280 0.7616001964 0.7174183130
	0.7532256842 0.7622345090 0.7181012034
	0.7538480163 0.7628622055 0.7187789083
	0.7544702888 0.7634899020 0.7194564939
	0.7550926208 0.7641175985 0.7201341987
	0.7557113767 0.7647429705 0.7208058834
	0.7563291788 0.7653676867 0.7214756012
	0.7569469213 0.7659922838 0.7221453786
	0.7575628161 0.7666150928 0.7228131890
	0.7581757903 0.7672348022 0.7234779000
	0.7587887049 0.7678545117 0.7241426110
	0.7594016790 0.7684742212 0.7248072028
	0.7600086927 0.7690863013 0.7254648209
	0.7606157064 0.7696982026 0.7261223197
	0.7612227201 0.7703102231 0.7267798185
	0.7618271708 0.7709196210 0.7274342179
	0.7624298930 0.7715268731 0.7280861735
	0.7630326152 0.7721343040 0.7287383080
	0.7636346817 0.7727413177 0.7293899059
	0.7642328143 0.7733443975 0.7300382853
	0.7648310065 0.7739474177 0.7306867242
	0.7654290795 0.7745504975 0.7313351035
	0.7660248876 0.7751491070 0.7319790125
	0.7666196227 0.7757449746 0.7326202989
	0.7672141790 0.7763409019 0.7332617044
	0.7678084970 0.7769364119 0.7339023948
	0.7684006095 0.7775282860 0.7345390916
	0.7689927816 0.7781202197 0.7351757288
	0.7695848942 0.7787120938 0.7358123064
	0.7701737285 0.7793018818 0.7364459038
	0.7707604170 0.7798901200 0.7370774150
	0.7713471055 0.7804782987 0.7377089858
	0.7719334960 0.7810664773 0.7383404970
	0.7725152969 0.7816480994 0.7389686704
	0.7730969787 0.7822297812 0.7395969033
	0.7736787200 0.7828114033 0.7402251959
	0.7742595077 0.7833915949 0.7408527136
	0.7748392820 0.7839698792 0.7414792776
	0.7754191160 0.7845481038 0.7421059012
	0.7759987712 0.7851263285 0.7427325845
	0.7765746117 0.7857019901 0.7433542013
	0.7771494985 0.7862771749 0.7439746261
	0.7777243853 0.7868523002 0.7445951104
	0.7782984972 0.7874264121 0.7452148199
	0.7788689733 0.7879943252 0.7458307743
	0.7794395089 0.7885621190 0.7464467883
	0.7800099254 0.7891299725 0.7470628023
	0.7805796862 0.7896950841 0.7476773858
	0.7811487913 0.7902569175 0.7482905984
	0.7817177773 0.7908186913 0.7489038110
	0.7822868824 0.7913805246 0.7495170236
	0.7828525901 0.7919393182 0.7501246929
	0.7834174037 0.7924969792 0.7507306933
	0.7839820981 0.7930546999 0.7513365746
	0.7845466733 0.7936124206 0.7519425154
	0.7851064205 0.7941638231 0.7525429130
	0.7856659889 0.7947151065 0.7531433105
	0.7862256169 0.7952665091 0.7537437081
	0.7867845893 0.7958167791 0.7543430924
	0.7873414755 0.7963629961 0.7549396157
	0.7878984809 0.7969092727 0.7555360198
	0.7884554267 0.7974554896 0.7561324835
	0.7890108228 0.7980003953 0.7567269802
	0.7895640731 0.7985432744 0.7573187947
	0.7901175022 0.7990862727 0.7579106092
	0.7906708121 0.7996292114 0.7585024834
	0.7912214994 0.8001691103 0.7590919137
	0.7917703986 0.8007066250 0.7596797943
	0.7923192978 0.8012441993 0.7602676153
	0.7928681970 0.8017817140 0.7608553767
	0.7934157252 0.8023154140 0.7614399195
	0.7939624786 0.8028475046 0.7620229721
	0.7945094109 0.8033794761 0.7626060843
	0.7950562239 0.8039115071 0.7631891966
	0.7956007123 0.8044400811 0.7637678981
	0.7961447239 0.8049678206 0.7643455863
	0.7966886163 0.8054953814 0.7649232745
	0.7972326279 0.8060231209 0.7655010223
	0.7977703810 0.8065471053 0.7660744786
	0.7983074784 0.8070703745 0.7666473985
	0.7988445759 0.8075938225 0.7672201991
	0.7993816733 0.8081170917 0.7677931190
	0.7999145985 0.8086366057 0.7683627009
	0.8004472256 0.8091554046 0.7689319849
	0.8009796739 0.8096743226 0.7695012093
	0.8015123010 0.8101931810 0.7700704932
	0.8020427823 0.8107082248 0.7706354260
	0.8025730848 0.8112226129 0.7711998224
	0.8031035066 0.8117371202 0.7717642188
	0.8036338091 0.8122515082 0.7723286152
	0.8041588068 0.8127616048 0.7728883028
	0.8046830297 0.8132709265 0.7734473944
	0.8052071929 0.8137801886 0.7740064263
	0.8057314754 0.8142895103 0.7745653987
	0.8062517047 0.8147963285 0.7751224041
	0.8067709208 0.8153023124 0.7756788135
	0.8072901964 0.8158082962 0.7762352824
	0.8078094125 0.8163142800 0.7767916918
	0.8083264232 0.8168172836 0.7773452997
	0.8088424802 0.8173186779 0.7778974771
	0.8093585968 0.8178201914 0.7784497142
	0.8098745942 0.8183215857 0.7790020108
	0.8103876710 0.8188199997 0.7795510292
	0.8108984828 0.8193156123 0.7800974250
	0.8114091754 0.8198112845 0.7806438208
	0.8119199872 0.8203068972 0.7811902165
	0.8124291897 0.8208017945 0.7817354202
	0.8129357100 0.8212953806 0.7822787166
	0.8134422898 0.8217890263 0.7828220129
	0.8139489293 0.8222826719 0.7833654284
	0.8144549727 0.8227757812 0.7839078903
	0.8149591088 0.8232660890 0.7844464779
	0.8154631853 0.8237565160 0.7849851251
	0.8159673810 0.8242468238 0.7855237722
	0.8164715171 0.8247371912 0.7860624194
	0.8169714212 0.8252223730 0.7865952253
	0.8174710274 0.8257070780 0.7871276140
	0.8179705739 0.8261917830 0.7876598835
	0.8184702992 0.8266764879 0.7881922722
	0.8189675808 0.8271585107 0.7887222767
	0.8194637895 0.8276389241 0.7892510891
	0.8199599981 0.8281193972 0.7897799015
	0.8204562068 0.8285998106 0.7903087139
	0.8209517002 0.8290792108 0.7908356786
	0.8214461803 0.8295565248 0.7913593054
	0.8219406009 0.8300337791 0.7918829918
	0.8224350214 0.8305110931 0.7924066186
	0.8229293823 0.8309884071 0.7929303050
	0.8234202266 0.8314602971 0.7934505939
	0.8239108920 0.8319321275 0.7939708829
	0.8244016767 0.8324038982 0.7944911718
	0.8248924017 0.8328756094 0.7950115204
	0.8253806829 0.8333445787 0.7955307961
	0.8258677125 0.8338115215 0.7960494757
	0.8263546228 0.8342785239 0.7965682149
	0.8268414736 0.8347455263 0.7970868945
	0.8273276091 0.8352121115 0.7976047993
	0.8278108239 0.8356773257 0.7981191874
	0.8282939792 0.8361424804 0.7986335754
	0.8287771940 0.8366076946 0.7991480827
	0.8292604089 0.8370729089 0.7996624708
	0.8297402859 0.8375352025 0.8001754284
	0.8302192092 0.8379961848 0.8006876707
	0.8306980133 0.8384572864 0.8012000918
	0.8311768770 0.8389183879 0.8017123938
	0.8316546082 0.8393784761 0.8022242785
	0.8321290016 0.8398349881 0.8027346134
	0.8326033950 0.8402916193 0.8032448888
	0.8330777884 0.8407480717 0.8037552834
	0.8335521817 0.8412047029 0.8042656183
	0.8340237737 0.8416597843 0.8047726750
	0.8344941735 0.8421143293 0.8052784204
	0.8349646926 0.8425686955 0.8057842255
	0.8354352117 0.8430231810 0.8062899113
	0.8359050751 0.8434774280 0.8067952991
	0.8363721967 0.8439291716 0.8072986007
	0.8368391991 0.8443809748 0.8078019023
	0.8373062015 0.8448328972 0.8083050847
	0.8377732038 0.8452847004 0.8088083863
	0.8382382989 0.8457334042 0.8093103766
	0.8387017846 0.8461793065 0.8098112941
	0.8391653895 0.8466250896 0.8103122711
	0.8396288753 0.8470708728 0.8108131886
	0.8400924206 0.8475167751 0.8113141060
	0.8405531049 0.8479586244 0.8118106723
	0.8410136104 0.8483998775 0.8123067021
	0.8414739966 0.8488411903 0.8128026724
	0.8419345021 0.8492823839 0.8132987022
	0.8423944116 0.8497232199 0.8137940764
	0.8428521752 0.8501616716 0.8142873049
	0.8433101177 0.8506001830 0.8147805929
	0.8437680006 0.8510386944 0.8152738214
	0.8442258835 0.8514773250 0.8157669902
	0.8446823955 0.8519136906 0.8162589073
	0.8451377153 0.8523477912 0.8167495131
	0.8455929160 0.8527818918 0.8172399998
	0.8460481763 0.8532159925 0.8177304864
	0.8465033770 0.8536500931 0.8182210922
	0.8469561934 0.8540809155 0.8187078834
	0.8474081755 0.8545101881 0.8191933036
	0.8478600979 0.8549395800 0.8196786046
	0.8483120203 0.8553689718 0.8201640248
	0.8487640023 0.8557983041 0.8206493258
	0.8492118716 0.8562254906 0.8211318851
	0.8496595025 0.8566523790 0.8216142058
	0.8501071930 0.8570793867 0.8220965266
	0.8505548239 0.8575062752 0.8225787878
	0.8510020971 0.8579329848 0.8230608106
	0.8514466286 0.8583570123 0.8235400915
	0.8518909812 0.8587809801 0.8240194917
	0.8523355126 0.8592050076 0.8244987726
	0.8527799249 0.8596289754 0.8249781132
	0.8532239199 0.8600522280 0.8254566789
	0.8536661863 0.8604717851 0.8259320855
	0.8541085124 0.8608914018 0.8264076114
	0.8545507789 0.8613110185 0.8268830180
	0.8549929857 0.8617305756 0.8273584843
