release/datafiles/colormanagement/luts/camera_response/agfa_agfachrome_rsx2_050.spi1d
Version 1
From 0.0 1.0
Length 1024
Components 3
{
	0.0000000000 0.0000000000 0.0000000000
	0.0010793300 0.0004914269 0.0009736730
	0.0023187911 0.0010802930 0.0021354880
	0.0036931380 0.0018072630 0.0034938811
	0.0052456409 0.0026662690 0.0050411709
	0.0070081931 0.0036067569 0.0068641612
	0.0090551702 0.0045785471 0.0090099405
	0.0114011699 0.0055691102 0.0114547899
	0.0139678400 0.0065905452 0.0141683398
	0.0166869499 0.0076627559 0.0171185602
	0.0195989702 0.0088004395 0.0202584993
	0.0228006691 0.0100080501 0.0235486198
	0.0263756197 0.0112880496 0.0269760005
	0.0303584095 0.0126401298 0.0305433907
	0.0347159505 0.0140636303 0.0342755318
	0.0393988304 0.0155540602 0.0381953716
	0.0443377309 0.0171071608 0.0423245206
	0.0494562984 0.0187185593 0.0466708317
	0.0546695217 0.0203871392 0.0512099490
	0.0599117801 0.0221128706 0.0559065714
	0.0651446804 0.0238924101 0.0607012585
	0.0703425035 0.0257253498 0.0655229613
	0.0754935667 0.0276135001 0.0703299269
	0.0806027427 0.0295511000 0.0750854388
	0.0856716335 0.0315340608 0.0797831416
	0.0907013789 0.0335622691 0.0844218433
	0.0956865475 0.0356292501 0.0890035927
	0.1006257012 0.0377341881 0.0935301632
	0.1055174991 0.0398772992 0.0980233997
	0.1103760004 0.0420543700 0.1024931967
	0.1152203977 0.0442650095 0.1069511026
	0.1200542971 0.0465072691 0.1114012972
	0.1248871982 0.0487757288 0.1158443019
	0.1297339052 0.0510716997 0.1202880964
	0.1346120983 0.0533953197 0.1247389987
	0.1395314038 0.0557426214 0.1292016953
	0.1444949955 0.0581145883 0.1336800009
	0.1495019048 0.0605066083 0.1381773949
	0.1545559019 0.0629175901 0.1426994056
	0.1596433967 0.0653483421 0.1472471952
	0.1647536010 0.0677959695 0.1518259943
	0.1698786020 0.0702603534 0.1564404070
	0.1750122011 0.0727384463 0.1610952020
	0.1801480949 0.0752333701 0.1657952070
	0.1852789968 0.0777411908 0.1705430001
	0.1903969944 0.0802624598 0.1753392965
	0.1954903007 0.0827964321 0.1801753938
	0.2005587071 0.0853414088 0.1850488037
	0.2055945992 0.0878966674 0.1899594069
	0.2105983049 0.0904616788 0.1949048936
	0.2155726999 0.0930357873 0.1998749971
	0.2205152959 0.0956183821 0.2048487961
	0.2254346013 0.0982099175 0.2098221034
	0.2303334028 0.1008104980 0.2147811055
	0.2352052927 0.1034198999 0.2197100967
	0.2400625050 0.1060379967 0.2246035039
	0.2449066043 0.1086636037 0.2294571996
	0.2497355938 0.1112938970 0.2342610061
	0.2545413971 0.1139284000 0.2390076965
	0.2593365014 0.1165691987 0.2436912954
	0.2641316950 0.1192142963 0.2483087927
	0.2689233124 0.1218615994 0.2528623939
	0.2737050056 0.1245130002 0.2573607862
	0.2784807086 0.1271678954 0.2618094981
	0.2832559049 0.1298251003 0.2662059069
	0.2880277932 0.1324838996 0.2705568075
	0.2927958071 0.1351446956 0.2748655975
	0.2975589931 0.1378072053 0.2791439891
	0.3023168147 0.1404704005 0.2833940089
	0.3070589006 0.1431359947 0.2876232862
	0.3117862940 0.1458034068 0.2918379009
	0.3165079057 0.1484730989 0.2960408032
	0.3212226927 0.1511427015 0.3002305925
	0.3259240985 0.1538105011 0.3044033051
	0.3306060135 0.1564781964 0.3085659146
	0.3352772892 0.1591459066 0.3127256930
	0.3399353027 0.1618131995 0.3168801963
	0.3445748985 0.1644778997 0.3210279047
	0.3491897881 0.1671431065 0.3251653910
	0.3537842929 0.1698081940 0.3292970955
	0.3583635986 0.1724765003 0.3334251940
	0.3629280031 0.1751464009 0.3375486135
	0.3674629927 0.1778157055 0.3416658044
	0.3719677031 0.1804865003 0.3457753956
	0.3764384985 0.1831578016 0.3498772979
	0.3808833957 0.1858278960 0.3539676964
	0.3853051066 0.1885012984 0.3580411971
	0.3896934986 0.1911745965 0.3620963991
	0.3940488100 0.1938498020 0.3661319017
	0.3983697891 0.1965274960 0.3701558113
	0.4026510119 0.1992076039 0.3741641045
	0.4068988860 0.2018887997 0.3781496882
	0.4111185968 0.2045747042 0.3821138144
	0.4153113961 0.2072620988 0.3860580921
	0.4194692075 0.2099498957 0.3899829984
	0.4235900044 0.2126414031 0.3938888013
	0.4276776910 0.2153348029 0.3977788091
	0.4317341149 0.2180286050 0.4016534090
	0.4357563853 0.2207237929 0.4055137932
	0.4397394061 0.2234221995 0.4093612134
	0.4436829090 0.2261236012 0.4131959975
	0.4475947022 0.2288268059 0.4170176983
	0.4514735937 0.2315322012 0.4208177924
	0.4553222954 0.2342423052 0.4245958030
	0.4591388106 0.2369553000 0.4283536971
	0.4629189968 0.2396683991 0.4320934117
	0.4666629136 0.2423831969 0.4358170927
	0.4703747034 0.2451013029 0.4395225048
	0.4740515947 0.2478200942 0.4432024956
	0.4776928127 0.2505406141 0.4468582869
	0.4813019931 0.2532635927 0.4504924119
	0.4848793149 0.2559860945 0.4541029930
	0.4884204865 0.2587074935 0.4576902092
	0.4919295907 0.2614302039 0.4612514973
	0.4954057038 0.2641544044 0.4647876918
	0.4988467097 0.2668786943 0.4682984054
	0.5022568703 0.2696047127 0.4717861116
	0.5056318045 0.2723301053 0.4752514064
	0.5089687109 0.2750515938 0.4786919951
	0.5122699738 0.2777692974 0.4821071923
	0.5155354738 0.2804855108 0.4855000973
	0.5187671781 0.2832008898 0.4888701141
	0.5219681263 0.2859140933 0.4922114909
	0.5251352191 0.2886242867 0.4955233037
	0.5282660127 0.2913315892 0.4988074899
	0.5313646197 0.2940349877 0.5020601749
	0.5344318151 0.2967323065 0.5052834749
	0.5374667048 0.2994225919 0.5084816217
	0.5404701233 0.3021079004 0.5116459131
	0.5434368849 0.3047888875 0.5147755146
	0.5463718176 0.3074640036 0.5178748965
	0.5492841005 0.3101322055 0.5209411979
	0.5521711707 0.3127948046 0.5239753127
	0.5550354123 0.3154520094 0.5269787908
	0.5578734875 0.3181014955 0.5299521089
	0.5606822968 0.3207401037 0.5328952074
	0.5634636283 0.3233641088 0.5358104110
	0.5662226081 0.3259783983 0.5386914015
	0.5689582229 0.3285818994 0.5415412784
	0.5716739893 0.3311730921 0.5443618894
	0.5743725896 0.3337512016 0.5471563935
	0.5770525932 0.3363159001 0.5499269962
	0.5797128081 0.3388671875 0.5526747704
	0.5823537707 0.3414067030 0.5553982854
	0.5849738717 0.3439315856 0.5580946207
	0.5875731707 0.3464401960 0.5607615709
	0.5901582241 0.3489316106 0.5634018183
	0.5927311778 0.3514032960 0.5660176277
	0.5952929258 0.3538616896 0.5686088800
	0.5978369713 0.3563053906 0.5711727738
	0.6003630161 0.3587335050 0.5737162828
	0.6028745770 0.3611412942 0.5762403011
	0.6053730249 0.3635332882 0.5787448287
	0.6078591943 0.3659127057 0.5812224150
	0.6103302240 0.3682799935 0.5836719275
	0.6127892733 0.3706313074 0.5861017108
	0.6152378917 0.3729673922 0.5885127783
	0.6176773906 0.3752928078 0.5909010768
	0.6201043725 0.3776082993 0.5932654738
	0.6225174069 0.3799093068 0.5956128240
	0.6249200106 0.3821944892 0.5979433060
	0.6273151040 0.3844664991 0.6002511978
	0.6296957135 0.3867239058 0.6025369167
	0.6320651174 0.3889622986 0.6048055887
	0.6344231963 0.3911905885 0.6070576906
	0.6367667913 0.3934093118 0.6092873216
	0.6390994787 0.3956130147 0.6115016937
	0.6414197087 0.3978062868 0.6137034297
	0.6437255740 0.3999901116 0.6158903241
	0.6460139155 0.4021590948 0.6180559993
	0.6482884288 0.4043118060 0.6202107072
	0.6505498290 0.4064539969 0.6223551035
	0.6527922750 0.4085829854 0.6244797111
	0.6550189853 0.4106990099 0.6265919805
	0.6572331190 0.4128079116 0.6286922097
	0.6594275832 0.4149076939 0.6307719946
	0.6616020799 0.4169962108 0.6328415275
	0.6637635827 0.4190776944 0.6349012256
	0.6659076214 0.4211486876 0.6369373202
	0.6680328250 0.4232074916 0.6389623880
	0.6701455712 0.4252586961 0.6409782171
	0.6722385287 0.4272964001 0.6429752111
	0.6743144989 0.4293248057 0.6449599862
	0.6763777733 0.4313467145 0.6469345093
	0.6784113050 0.4333539903 0.6488881707
	0.6804267764 0.4353561103 0.6508327723
	0.6824293137 0.4373523891 0.6527665854
	0.6844047904 0.4393377006 0.6546779871
	0.6863657236 0.4413183928 0.6565799713
	0.6883090734 0.4432905018 0.6584674120
	0.6902278066 0.4452567101 0.6603385806
	0.6921337247 0.4472194016 0.6622003913
	0.6940143704 0.4491713941 0.6640378833
	0.6958734989 0.4511190057 0.6658635736
	0.6977202296 0.4530585110 0.6676772237
	0.6995369792 0.4549886882 0.6694694161
	0.7013437748 0.4569143951 0.6712527871
	0.7031323910 0.4588277936 0.6730164886
	0.7048978806 0.4607372880 0.6747667193
	0.7066525817 0.4626379907 0.6765061021
	0.7083770037 0.4645319879 0.6782280803
	0.7100898027 0.4664215147 0.6799430251
	0.7117800713 0.4683004022 0.6816384196
	0.7134491205 0.4701760113 0.6833207011
	0.7151061296 0.4720404148 0.6849896908
	0.7167317271 0.4739001989 0.6866384149
	0.7183483839 0.4757528007 0.6882799864
	0.7199388742 0.4775973856 0.6898952723
	0.7215155959 0.4794372022 0.6915025711
	0.7230750918 0.4812653959 0.6930922270
	0.7246130705 0.4830907881 0.6946684122
	0.7261415124 0.4849025011 0.6962333918
	0.7276425958 0.4867109954 0.6977772713
	0.7291371226 0.4885095954 0.6993148923
	0.7306033969 0.4903028011 0.7008234859
	0.7320588231 0.4920882881 0.7023267150
	0.7334914207 0.4938659966 0.7038077712
	0.7349091768 0.4956378937 0.7052788138
	0.7363126278 0.4973995984 0.7067326903
	0.7376976013 0.4991573095 0.7081738710
	0.7390735745 0.5009049773 0.7096043229
	0.7404264212 0.5026509166 0.7110185027
	0.7417743206 0.5043882728 0.7124254107
	0.7430984974 0.5061246753 0.7138100863
	0.7444195151 0.5078502297 0.7151901722
	0.7457147241 0.5095742941 0.7165504098
	0.7470049858 0.5112900138 0.7179082036
	0.7482746840 0.5130041242 0.7192432284
	0.7495390773 0.5147119164 0.7205743194
	0.7507901192 0.5164154172 0.7218819857
	0.7520323992 0.5181065202 0.7231845856
	0.7532587051 0.5197932720 0.7244688272
	0.7544769049 0.5214695930 0.7257465124
	0.7556836009 0.5231422782 0.7270067930
	0.7568811178 0.5248072147 0.7282580733
	0.7580674291 0.5264676809 0.7294902802
	0.7592449188 0.5281187296 0.7307134867
	0.7604126930 0.5297662020 0.7319198847
	0.7615684271 0.5314055085 0.7331190705
	0.7627115250 0.5330424905 0.7343053818
	0.7638474703 0.5346732140 0.7354832292
	0.7649760246 0.5363014936 0.7366452217
	0.7660958171 0.5379210711 0.7378004193
	0.7672052979 0.5395383835 0.7389414907
	0.7683075070 0.5411432981 0.7400768995
	0.7693994045 0.5427473187 0.7411974072
	0.7704840899 0.5443403125 0.7423136234
	0.7715560198 0.5459334254 0.7434149981
	0.7726234198 0.5475159883 0.7445133924
	0.7736793756 0.5490983725 0.7455939054
	0.7747321129 0.5506709218 0.7466735840
	0.7757707238 0.5522418022 0.7477390766
	0.7768080235 0.5538048148 0.7488046288
	0.7778319120 0.5553649068 0.7498521805
	0.7788556814 0.5569189787 0.7508987784
	0.7798684835 0.5584686995 0.7519304156
	0.7808806896 0.5600128770 0.7529587746
	0.7818831801 0.5615490079 0.7539767027
	0.7828834057 0.5630828738 0.7549896240
	0.7838739753 0.5646088123 0.7559961081
	0.7848594189 0.5661345124 0.7569965720
	0.7858390212 0.5676507950 0.7579910159
	0.7868121266 0.5691671968 0.7589733005
	0.7877818942 0.5706741810 0.7599534988
	0.7887430787 0.5721786022 0.7609199286
	0.7897034883 0.5736780763 0.7618862987
	0.7906509042 0.5751733780 0.7628408074
	0.7915983796 0.5766646862 0.7637941837
	0.7925338149 0.5781458020 0.7647387981
	0.7934665084 0.5796269774 0.7656794190
	0.7943943739 0.5810970068 0.7666130066
	0.7953184843 0.5825669765 0.7675375938
	0.7962388992 0.5840300918 0.7684599161
	0.7971503735 0.5854902267 0.7693706155
	0.7980619073 0.5869455934 0.7702813148
	0.7989597917 0.5883936286 0.7711808085
	0.7998577952 0.5898411870 0.7720786929
	0.8007482290 0.5912801027 0.7729684114
	0.8016350865 0.5927190185 0.7738516927
	0.8025193214 0.5941507220 0.7747313976
	0.8033987880 0.5955792069 0.7755991817
	0.8042780757 0.5970045924 0.7764670849
	0.8051458001 0.5984227061 0.7773265839
	0.8060135841 0.5998408794 0.7781848907
	0.8068729043 0.6012483835 0.7790384293
	0.8077275753 0.6026548743 0.7798873782
	0.8085805774 0.6040555239 0.7807345986
	0.8094288707 0.6054502726 0.7815697193
	0.8102772236 0.6068443060 0.7824047208
	0.8111171126 0.6082274914 0.7832310796
	0.8119553924 0.6096106768 0.7840542197
	0.8127890825 0.6109865904 0.7848746181
	0.8136162758 0.6123577952 0.7856888771
	0.8144435287 0.6137276292 0.7865030766
	0.8152586222 0.6150876284 0.7873069048
	0.8160732985 0.6164476275 0.7881088853
	0.8168833852 0.6178010106 0.7889056802
	0.8176890016 0.6191505790 0.7896941900
	0.8184943795 0.6204990745 0.7904825807
	0.8192909956 0.6218383908 0.7912638187
	0.8200876117 0.6231778264 0.7920442224
	0.8208791018 0.6245108843 0.7928205132
	0.8216655254 0.6258392930 0.7935903072
	0.8224520087 0.6271675229 0.7943601012
	0.8232241869 0.6284862757 0.7951198816
	0.8239961267 0.6298050880 0.7958778739
	0.8247646093 0.6311200261 0.7966322899
	0.8255286217 0.6324295998 0.7973783016
	0.8262926936 0.6337392926 0.7981241941
	0.8270503879 0.6350398064 0.7988656759
	0.8278068900 0.6363382936 0.7996054888
	0.8285604119 0.6376342773 0.8003445864
	0.8293051124 0.6389204264 0.8010787964
	0.8300496936 0.6402065158 0.8018130064
	0.8307862282 0.6414867043 0.8025422096
	0.8315181732 0.6427623034 0.8032668829
	0.8322501779 0.6440379024 0.8039916158
	0.8329762220 0.6453067064 0.8047072291
	0.8337022066 0.6465746760 0.8054215908
	0.8344250917 0.6478404999 0.8061349988
	0.8351423144 0.6490973830 0.8068444729
	0.8358594775 0.6503543854 0.8075541258
	0.8365702033 0.6516067982 0.8082594872
	0.8372778296 0.6528545022 0.8089613914
	0.8379853964 0.6541022062 0.8096632957
	0.8386828899 0.6553429961 0.8103563190
	0.8393800855 0.6565815210 0.8110477924
	0.8400756717 0.6578201056 0.8117380738
	0.8407658935 0.6590459943 0.8124209046
	0.8414561749 0.6602718234 0.8131036758
	0.8421434164 0.6614953279 0.8137840033
	0.8428274989 0.6627100110 0.8144602180
	0.8435115814 0.6639245749 0.8151363730
	0.8441904783 0.6651350260 0.8158075213
	0.8448675871 0.6663392186 0.8164752126
	0.8455445766 0.6675434113 0.8171430230
	0.8462108970 0.6687409282 0.8178033233
	0.8468765020 0.6699336171 0.8184620142
	0.8475412130 0.6711263061 0.8191205859
	0.8481993079 0.6723105907 0.8197690845
	0.8488574028 0.6734917164 0.8204175830
	0.8495146036 0.6746727824 0.8210650086
	0.8501691818 0.6758468151 0.8217062950
	0.8508237004 0.6770195961 0.8223475218
	0.8514751196 0.6781923771 0.8229870796
	0.8521217108 0.6793540716 0.8236224055
	0.8527683020 0.6805154085 0.8242577910
	0.8534088731 0.6816763878 0.8248903751
	0.8540437818 0.6828271747 0.8255187869
	0.8546788096 0.6839780807 0.8261471987
	0.8553087115 0.6851279736 0.8267704844
	0.8559352756 0.6862679720 0.8273885846
	0.8565620184 0.6874079108 0.8280068040
	0.8571853042 0.6885467172 0.8286191225
	0.8578070998 0.6896767020 0.8292267919
	0.8584287763 0.6908066869 0.8298345208
	0.8590450287 0.6919351220 0.8304392099
	0.8596587777 0.6930524111 0.8310418725
	0.8602727056 0.6941698194 0.8316444755
	0.8608806729 0.6952862144 0.8322427273
	0.8614864945 0.6963943839 0.8328379989
	0.8620923162 0.6975026727 0.8334332705
	0.8626918793 0.6986103058 0.8340228796
	0.8632891774 0.6997066736 0.8346086740
	0.8638864756 0.7008031011 0.8351945281
	0.8644778132 0.7018995285 0.8357760906
	0.8650662899 0.7029855251 0.8363544941
	0.8656548858 0.7040715218 0.8369328976
	0.8662387133 0.7051573992 0.8375086188
	0.8668196201 0.7062337995 0.8380817771
	0.8674005866 0.7073091269 0.8386549950
	0.8679792285 0.7083843946 0.8392254114
	0.8685559034 0.7094525099 0.8397920728
	0.8691325784 0.7105184197 0.8403587937
	0.8697057962 0.7115843296 0.8409234285
	0.8702744246 0.7126430273 0.8414832950
	0.8708429933 0.7136971951 0.8420432806
	0.8714082241 0.7147514820 0.8426018953
	0.8719649911 0.7158018947 0.8431546092
	0.8725218773 0.7168475986 0.8437072039
	0.8730772734 0.7178933024 0.8442596197
	0.8736236095 0.7189357281 0.8448042274
	0.8741698265 0.7199681997 0.8453487754
	0.8747161031 0.7210006714 0.8458935022
	0.8752585053 0.7220329046 0.8464329243
	0.8758007288 0.7230560184 0.8469712138
	0.8763428926 0.7240790725 0.8475095034
	0.8768798113 0.7251021862 0.8480458260
	0.8774148822 0.7261161804 0.8485807776
	0.8779498935 0.7271276116 0.8491157293
	0.8784800172 0.7281389832 0.8496479988
	0.8790047765 0.7291454077 0.8501759768
	0.8795297146 0.7301467061 0.8507040143
	0.8800523281 0.7311478853 0.8512308002
	0.8805670738 0.7321473956 0.8517482877
	0.8810818791 0.7331386805 0.8522657752
	0.8815966845 0.7341300249 0.8527832031
	0.8821054101 0.7351213098 0.8532953858
	0.8826135993 0.7361055017 0.8538061976
	0.8831217885 0.7370883822 0.8543171287
	0.8836262226 0.7380713820 0.8548266292
	0.8841279745 0.7390490174 0.8553346992
	0.8846297860 0.7400209904 0.8558428288
	0.8851295710 0.7409930229 0.8563500047
	0.8856232762 0.7419641018 0.8568516970
	0.8861169815 0.7429267764 0.8573533893
	0.8866106868 0.7438895106 0.8578552008
	0.8870999217 0.7448523045 0.8583500981
	0.8875883818 0.7458072901 0.8588429093
	0.8880769014 0.7467586994 0.8593356013
	0.8885614872 0.7477099895 0.8598263264
	0.8890416026 0.7486596704 0.8603129983
	0.8895217776 0.7496036887 0.8607997894
	0.8900015950 0.7505478263 0.8612865806
	0.8904702067 0.7514917850 0.8617706895
	0.8909388185 0.7524288297 0.8622545004
	0.8914073706 0.7533634901 0.8627383709
	0.8918703794 0.7542982101 0.8632197976
	0.8923289776 0.7552309036 0.8636981845
	0.8927875757 0.7561575770 0.8641765714
	0.8932459950 0.7570843101 0.8646550179
	0.8937010765 0.7580109239 0.8651264906
	0.8941562176 0.7589309812 0.8655977249
	0.8946112990 0.7598484159 0.8660690188
	0.8950629830 0.7607657909 0.8665379882
	0.8955119848 0.7616819739 0.8670043945
	0.8959609866 0.7625917792 0.8674706817
	0.8964099884 0.7635017037 0.8679370880
	0.8968498707 0.7644115090 0.8683987260
	0.8972896934 0.7653169036 0.8688598871
	0.8977295756 0.7662187219 0.8693211079
	0.8981648088 0.7671204805 0.8697806001
	0.8985937238 0.7680222988 0.8702368736
	0.8990225792 0.7689167857 0.8706930876
	0.8994513750 0.7698106766 0.8711493015
	0.8998739719 0.7707046270 0.8716015220
	0.9002950788 0.7715961933 0.8720520139
	0.9007161260 0.7724819183 0.8725025058
	0.9011359811 0.7733675241 0.8729526997
	0.9015498161 0.7742530704 0.8733996153
	0.9019635916 0.7751324177 0.8738464713
	0.9023774266 0.7760072947 0.8742935061
	0.9027864933 0.7768821716 0.8747376800
	0.9031909108 0.7777572274 0.8751780987
	0.9035953283 0.7786241174 0.8756185174
	0.9039996862 0.7794898748 0.8760588169
	0.9043973088 0.7803558111 0.8764961958
	0.9047932029 0.7812201977 0.8769323230
	0.9051890969 0.7820760012 0.8773683906
	0.9055845737 0.7829318047 0.8778045177
	0.9059756994 0.7837876081 0.8782365918
	0.9063668251 0.7846404910 0.8786684871
	0.9067577720 0.7854884267 0.8791003823
	0.9071465731 0.7863361835 0.8795318007
	0.9075301886 0.7871841192 0.8799616098
	0.9079139233 0.7880274057 0.8803914189
	0.9082974792 0.7888671756 0.8808211088
	0.9086759090 0.7897068858 0.8812487721
	0.9090495110 0.7905467153 0.8816735744
	0.9094231129 0.7913808823 0.8820983171
	0.9097967148 0.7922129035 0.8825231194
	0.9101623893 0.7930449247 0.8829430938
	0.9105246067 0.7938770056 0.8833600283
	0.9108868241 0.7947024107 0.8837769032
	0.9112489223 0.7955265045 0.8841937780
	0.9116070271 0.7963507175 0.8846076131
	0.9119641185 0.7971748710 0.8850203753
	0.9123213291 0.7979897261 0.8854331970
	0.9126784801 0.7988039255 0.8858460188
	0.9130293131 0.7996181846 0.8862584829
	0.9133797288 0.8004323244 0.8866708279
	0.9137300849 0.8012365103 0.8870831728
	0.9140803218 0.8020406961 0.8874955773
	0.9144240022 0.8028448224 0.8879050016
	0.9147678018 0.8036485910 0.8883141279
	0.9151114821 0.8044434786 0.8887231946
	0.9154546857 0.8052384853 0.8891323209
	0.9157909155 0.8060333729 0.8895354867
	0.9161270857 0.8068280220 0.8899384737
	0.9164631963 0.8076159954 0.8903415799
	0.9167991281 0.8084039092 0.8907446265
	0.9171310067 0.8091918826 0.8911405206
	0.9174628854 0.8099797964 0.8915362954
	0.9177948236 0.8107593060 0.8919320703
	0.9181262851 0.8115388155 0.8923279047
	0.9184517860 0.8123183250 0.8927236199
	0.9187772870 0.8130977750 0.8931193948
	0.9191027880 0.8138713241 0.8935151100
	0.9194281101 0.8146445751 0.8939108253
	0.9197450280 0.8154178262 0.8943054080
	0.9200618863 0.8161910176 0.8946998715
	0.9203788042 0.8169561028 0.8950942755
	0.9206957221 0.8177195787 0.8954887986
	0.9210032225 0.8184831738 0.8958798051
	0.9213100076 0.8192468286 0.8962702751
	0.9216167927 0.8200044036 0.8966606855
	0.9219235778 0.8207594752 0.8970510960
	0.9222257137 0.8215147257 0.8974366188
	0.9225267172 0.8222697973 0.8978202939
	0.9228277206 0.8230199218 0.8982040286
	0.9231287837 0.8237658143 0.8985875845
	0.9234266877 0.8245115876 0.8989667892
	0.9237229824 0.8252574205 0.8993425965
	0.9240192771 0.8260008097 0.8997182846
	0.9243155718 0.8267393112 0.9000940919
	0.9246088266 0.8274778128 0.9004687071
	0.9248985052 0.8282163143 0.9008412957
	0.9251881242 0.8289538026 0.9012138844
	0.9254776835 0.8296815753 0.9015864730
	0.9257658720 0.8304092884 0.9019587040
	0.9260491729 0.8311371207 0.9023287296
	0.9263325930 0.8318648934 0.9026985765
	0.9266158938 0.8325855732 0.9030684829
	0.9268993139 0.8333047032 0.9034383893
	0.9271755219 0.8340237737 0.9038041234
	0.9274516106 0.8347429037 0.9041693807
	0.9277275801 0.8354570270 0.9045346975
	0.9280037284 0.8361662030 0.9048998952
	0.9282758236 0.8368754983 0.9052616954
	0.9285460711 0.8375847936 0.9056211710
	0.9288163185 0.8382927775 0.9059805870
	0.9290866256 0.8389946818 0.9063401222
	0.9293550253 0.8396965861 0.9066985846
	0.9296200871 0.8403984904 0.9070546031
	0.9298850894 0.8411002755 0.9074106216
	0.9301502109 0.8417940140 0.9077665210
	0.9304152131 0.8424854279 0.9081224799
	0.9306733012 0.8431769013 0.9084752798
	0.9309315085 0.8438683152 0.9088277817
	0.9311895967 0.8445565104 0.9091802239
	0.9314476848 0.8452389836 0.9095327258
	0.9317021966 0.8459215164 0.9098836184
	0.9319543242 0.8466041088 0.9102330208
	0.9322063923 0.8472865820 0.9105823040
	0.9324585199 0.8479604125 0.9109317064
	0.9327095151 0.8486334085 0.9112808108
	0.9329549074 0.8493062854 0.9116259813
	0.9332001805 0.8499792814 0.9119712710
	0.9334455132 0.8506484032 0.9123165011
	0.9336907864 0.8513122201 0.9126616716
	0.9339326024 0.8519759774 0.9130048156
	0.9341726899 0.8526396751 0.9133464098
	0.9344127178 0.8533034921 0.9136881232
	0.9346528053 0.8539575934 0.9140297771
	0.9348924756 0.8546106219 0.9143710732
	0.9351304173 0.8552635908 0.9147090912
	0.9353682995 0.8559166193 0.9150471091
	0.9356061816 0.8565670252 0.9153851271
	0.9358440042 0.8572118878 0.9157230854
	0.9360798001 0.8578568101 0.9160578847
	0.9363142848 0.8585017920 0.9163900018
	0.9365487099 0.8591467142 0.9167221189
	0.9367831945 0.8597838283 0.9170541763
	0.9370173812 0.8604179025 0.9173862934
	0.9372467995 0.8610520959 0.9177129269
	0.9374760985 0.8616862893 0.9180392027
	0.9377055168 0.8623197079 0.9183654785
	0.9379348159 0.8629447818 0.9186918139
	0.9381616116 0.8635699153 0.9190167785
	0.9383847117 0.8641949892 0.9193391204
	0.9386078119 0.8648201227 0.9196614027
	0.9388309717 0.8654413819 0.9199838042
	0.9390540719 0.8660572171 0.9203060865
	0.9392737150 0.8666728735 0.9206275940
	0.9394921064 0.8672885895 0.9209488034
	0.9397104979 0.8679043055 0.9212698936
	0.9399290085 0.8685140014 0.9215909839
	0.9401472211 0.8691210151 0.9219120741
	0.9403619170 0.8697279096 0.9222300053
	0.9405764937 0.8703348041 0.9225476980
	0.9407910705 0.8709418178 0.9228653908
	0.9410057068 0.8715392947 0.9231832027
	0.9412195086 0.8721361756 0.9234995842
	0.9414315224 0.8727331161 0.9238117933
	0.9416434169 0.8733298779 0.9241240025
	0.9418553114 0.8739258051 0.9244362116
	0.9420672059 0.8745154738 0.9247483015
	0.9422771931 0.8751052022 0.9250574112
	0.9424853921 0.8756948113 0.9253627062
	0.9426935911 0.8762844801 0.9256678820
	0.9429017901 0.8768712878 0.9259731174
	0.9431099892 0.8774514198 0.9262782931
	0.9433146119 0.8780314922 0.9265810847
	0.9435176253 0.8786115050 0.9268823862
	0.9437206984 0.8791915774 0.9271836877
	0.9439237118 0.8797677755 0.9274849892
	0.9441267252 0.8803384900 0.9277862906
	0.9443246126 0.8809092045 0.9280866981
	0.9445216060 0.8814799190 0.9283868074
	0.9447184801 0.8820505738 0.9286869168
	0.9449154735 0.8826171756 0.9289870262
	0.9451124072 0.8831797242 0.9292870760
	0.9453071952 0.8837422132 0.9295849204
	0.9455018044 0.8843047023 0.9298822880
	0.9456964731 0.8848671913 0.9301797152
	0.9458910823 0.8854259849 0.9304770827
	0.9460856915 0.8859816194 0.9307745099
	0.9462794065 0.8865371943 0.9310675263
