release/datafiles/colormanagement/luts/camera_response/agfa_agfacolor_futura_ii_400.spi1d
Version 1
From 0.0 1.0
Length 1024
Components 3
{
	0.0000000000 0.0000000000 0.0000000000
	0.0171004608 0.0156014897 0.0110214697
	0.0296423100 0.0275058597 0.0204370096
	0.0400087796 0.0378916785 0.0286195297
	0.0492478795 0.0473487712 0.0360689983
	0.0577691793 0.0561984889 0.0429962091
	0.0658048466 0.0644933432 0.0495528691
	0.0734695420 0.0724152401 0.0558067188
	0.0808440894 0.0800366476 0.0618191212
	0.0879925117 0.0873461664 0.0676262975
	0.0949557200 0.0944325328 0.0732697919
	0.1018247008 0.1012879983 0.0787453130
	0.1086272970 0.1079066992 0.0840507299
	0.1152980998 0.1143304035 0.0892019123
	0.1217757985 0.1205366999 0.0942221731
	0.1280754060 0.1265349984 0.0991079137
	0.1341703981 0.1323578954 0.1038789004
	0.1400842071 0.1380200982 0.1085413024
	0.1458258033 0.1435257047 0.1130928993
	0.1513952017 0.1488672942 0.1175398976
	0.1568222046 0.1540704072 0.1219094992
	0.1621166021 0.1591500938 0.1262044013
	0.1672838926 0.1641122997 0.1304340065
	0.1723344028 0.1689572036 0.1346047074
	0.1772560030 0.1737031043 0.1387116015
	0.1820691973 0.1783441007 0.1427484006
	0.1867853999 0.1828867942 0.1467114985
	0.1914003938 0.1873379946 0.1506099999
	0.1959276944 0.1916999966 0.1544381976
	0.2003667951 0.1959740072 0.1582106054
	0.2047297060 0.2001685053 0.1619343013
	0.2090197951 0.2042849064 0.1656126976
	0.2132406980 0.2083213031 0.1692394018
	0.2173902988 0.2122910023 0.1728218049
	0.2214687020 0.2161971927 0.1763650030
	0.2254846990 0.2200367004 0.1798641980
	0.2294346988 0.2238188982 0.1833273023
	0.2333287001 0.2275474966 0.1867597997
	0.2371630073 0.2312255949 0.1901571006
	0.2409424931 0.2348573953 0.1935154945
	0.2446697950 0.2384261042 0.1968335062
	0.2483461946 0.2419455051 0.2001166940
	0.2519711852 0.2454174012 0.2033713013
	0.2555448115 0.2488500029 0.2066029012
	0.2590776980 0.2522298098 0.2098037004
	0.2625567913 0.2555679977 0.2129680067
	0.2659949958 0.2588672936 0.2161033005
	0.2693926096 0.2621265948 0.2192150950
	0.2727515101 0.2653498054 0.2222974002
	0.2760717869 0.2685379982 0.2253466994
	0.2793444991 0.2716934979 0.2283667028
	0.2825835049 0.2748126090 0.2313646972
	0.2857859135 0.2778981924 0.2343385071
	0.2889564931 0.2809517980 0.2372840047
	0.2920953929 0.2839730978 0.2402049005
	0.2951973081 0.2869609892 0.2431025058
	0.2982689142 0.2899155021 0.2459677011
	0.3013125062 0.2928346097 0.2488068938
	0.3043302894 0.2957249880 0.2516252100
	0.3073143959 0.2985872030 0.2544235885
	0.3102650940 0.3014270067 0.2572003901
	0.3131817877 0.3042409122 0.2599579096
	0.3160701096 0.3070298135 0.2626875937
	0.3189300001 0.3097898066 0.2653909028
	0.3217678964 0.3125233054 0.2680732906
	0.3245871961 0.3152284920 0.2707414031
	0.3273836076 0.3179099858 0.2733910084
	0.3301528096 0.3205696046 0.2760204077
	0.3328959048 0.3232055902 0.2786307931
	0.3356123865 0.3258267045 0.2812187076
	0.3382978141 0.3284305036 0.2837873995
	0.3409596980 0.3310135007 0.2863405049
	0.3436000943 0.3335742950 0.2888756096
	0.3462189138 0.3361156881 0.2913906872
	0.3488169909 0.3386341035 0.2938865125
	0.3513996005 0.3411293030 0.2963629961
	0.3539629877 0.3436000943 0.2988243103
	0.3565055132 0.3460493982 0.3012714982
	0.3590308130 0.3484821916 0.3036991060
	0.3615351915 0.3508949876 0.3061034977
	0.3640230000 0.3532888889 0.3084929883
	0.3664914966 0.3556644917 0.3108676076
	0.3689433038 0.3580288887 0.3132284880
	0.3713740110 0.3603788912 0.3155708909
	0.3737848103 0.3627198935 0.3179005086
	0.3761711121 0.3650496900 0.3202157021
	0.3785369992 0.3673666120 0.3225137889
	0.3808847964 0.3696695864 0.3247897923
	0.3832105994 0.3719570935 0.3270477951
	0.3855203986 0.3742293119 0.3292933106
	0.3878141046 0.3764826059 0.3315246105
	0.3900910914 0.3787195086 0.3337422907
	0.3923526108 0.3809430897 0.3359439075
	0.3945967853 0.3831507862 0.3381271064
	0.3968229890 0.3853423893 0.3402962089
	0.3990325034 0.3875181973 0.3424524069
	0.4012250900 0.3896811008 0.3445951045
	0.4033975899 0.3918299079 0.3467190862
	0.4055522084 0.3939658999 0.3488298059
	0.4076915085 0.3960888982 0.3509294987
	0.4098165929 0.3981984854 0.3530152142
	0.4119274020 0.4002932906 0.3550836146
	0.4140225053 0.4023733139 0.3571367860
	0.4161036909 0.4044389129 0.3591760099
	0.4181733131 0.4064899981 0.3611989915
	0.4202328026 0.4085263014 0.3632034063
	0.4222835898 0.4105474949 0.3651930988
	0.4243231118 0.4125525951 0.3671697974
	0.4263541996 0.4145421982 0.3691323996
	0.4283750057 0.4165202975 0.3710797131
	0.4303872883 0.4184862077 0.3730098903
	0.4323903918 0.4204401076 0.3749246895
	0.4343844950 0.4223816991 0.3768284917
	0.4363701046 0.4243108928 0.3787207901
	0.4383463860 0.4262312949 0.3806005120
	0.4403150082 0.4281423986 0.3824656010
	0.4422720969 0.4300462902 0.3843190074
	0.4442181885 0.4319409132 0.3861612082
	0.4461520910 0.4338287115 0.3879927993
	0.4480755031 0.4357072115 0.3898114860
	0.4499849975 0.4375792146 0.3916176856
	0.4518805146 0.4394420087 0.3934090137
	0.4537624121 0.4412986040 0.3951860964
	0.4556312859 0.4431461096 0.3969503045
	0.4574877024 0.4449875951 0.3987065852
	0.4593302011 0.4468202889 0.4004544914
	0.4611577094 0.4486469924 0.4021933973
	0.4629718959 0.4504652917 0.4039224088
	0.4647724032 0.4522775114 0.4056409895
	0.4665606022 0.4540818930 0.4073483944
	0.4683364928 0.4558798969 0.4090481102
	0.4700995982 0.4576708078 0.4107409120
	0.4718486965 0.4594548941 0.4124262929
	0.4735842943 0.4612326920 0.4141052067
	0.4753074944 0.4630033076 0.4157783985
	0.4770157039 0.4647684097 0.4174447060
	0.4787110090 0.4665257037 0.4191048145
	0.4803912044 0.4682776928 0.4207561910
	0.4820596874 0.4700196981 0.4224033952
	0.4837144017 0.4717536867 0.4240436852
	0.4853559136 0.4734789133 0.4256787002
	0.4869849980 0.4751960039 0.4273071885
	0.4886021018 0.4769046903 0.4289287925
	0.4902065098 0.4786028862 0.4305444062
	0.4917967021 0.4802902043 0.4321511984
	0.4933750033 0.4819664061 0.4337506890
	0.4949423969 0.4836333096 0.4353412986
	0.4964992106 0.4852910936 0.4369243979
	0.4980452061 0.4869402051 0.4385007024
	0.4995796978 0.4885810018 0.4400705099
	0.5011045933 0.4902119935 0.4416334033
	0.5026171207 0.4918344915 0.4431881905
	0.5041204095 0.4934495986 0.4447365105
	0.5056149960 0.4950574934 0.4462780058
	0.5071011186 0.4966585934 0.4478121996
	0.5085787773 0.4982511103 0.4493379891
	0.5100476146 0.4998351932 0.4508579075
	0.5115081072 0.5014110208 0.4523723125
	0.5129603744 0.5029789209 0.4538812935
	0.5144031048 0.5045387745 0.4553841949
	0.5158382058 0.5060889721 0.4568797052
	0.5172675848 0.5076315999 0.4583696127
	0.5186911821 0.5091663003 0.4598538876
	0.5201076865 0.5106902122 0.4613319039
	0.5215175152 0.5122056007 0.4628019035
	0.5229220986 0.5137131810 0.4642662108
	0.5243213177 0.5152136087 0.4657247961
	0.5257117152 0.5167068243 0.4671759903
	0.5270925760 0.5181897879 0.4686197937
	0.5284671783 0.5196657181 0.4700576961
	0.5298361778 0.5211349726 0.4714899957
	0.5311961174 0.5225929022 0.4729127884
	0.5325514078 0.5240452290 0.4743295908
	0.5339015126 0.5254917741 0.4757412076
	0.5352419019 0.5269278884 0.4771471024
	0.5365741253 0.5283558965 0.4785467982
	0.5379003286 0.5297778845 0.4799422026
	0.5392192006 0.5311921835 0.4813325107
	0.5405315757 0.5325987935 0.4827156961
	0.5418395996 0.5340006948 0.4840947092
	0.5431419015 0.5353968143 0.4854688942
	0.5444355011 0.5367845893 0.4868355095
	0.5457248092 0.5381672978 0.4881992936
	0.5470086932 0.5395433903 0.4895603955
	0.5482844114 0.5409129858 0.4909155071
	0.5495557189 0.5422785878 0.4922682941
	0.5508213043 0.5436385870 0.4936183095
	0.5520780087 0.5449923873 0.4949626923
	0.5533294082 0.5463421941 0.4963046014
	0.5545719862 0.5476844907 0.4976435006
	0.5558081865 0.5490229726 0.4989764988
	0.5570405126 0.5503587723 0.5003060102
	0.5582659245 0.5516861081 0.5016294718
	0.5594872832 0.5530081987 0.5029485226
	0.5607051253 0.5543255210 0.5042636991
	0.5619114041 0.5556346178 0.5055726767
	0.5631139278 0.5569404960 0.5068780780
	0.5643098950 0.5582408905 0.5081769228
	0.5655001998 0.5595366955 0.5094692111
	0.5666872859 0.5608298779 0.5107579827
	0.5678644180 0.5621141195 0.5120382905
	0.5690370202 0.5633950233 0.5133149028
	0.5702024102 0.5646705031 0.5145862103
	0.5713610053 0.5659371018 0.5158511996
	0.5725166798 0.5671998858 0.5171135068
	0.5736652017 0.5684533119 0.5183678865
	0.5748100877 0.5697032809 0.5196194053
	0.5759480000 0.5709466934 0.5208657980
	0.5770794153 0.5721855164 0.5221070051
	0.5782068968 0.5734214783 0.5233457088
	0.5793256760 0.5746489167 0.5245773196
	0.5804418921 0.5758739710 0.5258070230
	0.5815505981 0.5770922899 0.5270308852
	0.5826562047 0.5783078074 0.5282518268
	0.5837575793 0.5795192122 0.5294687152
	0.5848544240 0.5807257891 0.5306801200
	0.5859488249 0.5819299221 0.5318887830
	0.5870361924 0.5831274986 0.5330893993
	0.5881218910 0.5843237042 0.5342882276
	0.5891991258 0.5855125785 0.5354802012
	0.5902739763 0.5866997838 0.5366697907
	0.5913425088 0.5878822207 0.5378534198
	0.5924072266 0.5890613794 0.5390337706
	0.5934671760 0.5902367234 0.5402104855
	0.5945214033 0.5914065838 0.5413823128
	0.5955718160 0.5925731063 0.5425512791
	0.5966168046 0.5937318206 0.5437142253
	0.5976600051 0.5948877931 0.5448753834
	0.5986986160 0.5960369110 0.5460278988
	0.5997365713 0.5971850753 0.5471792221
	0.6007699966 0.5983254910 0.5483239293
	0.6018025875 0.5994653106 0.5494676232
	0.6028274298 0.6005986929 0.5506033897
	0.6038507819 0.6017305255 0.5517382026
	0.6048673987 0.6028541923 0.5528683066
	0.6058822274 0.6039755940 0.5539959073
	0.6068912745 0.6050894260 0.5551165938
	0.6078979969 0.6062008739 0.5562350750
	0.6088986993 0.6073063016 0.5573483109
	0.6098974943 0.6084094048 0.5584586859
	0.6108921766 0.6095077991 0.5595636964
	0.6118845940 0.6106038094 0.5606665015
	0.6128724813 0.6116948724 0.5617650151
	0.6138582826 0.6127820015 0.5628610849
	0.6148399115 0.6138613224 0.5639526248
	0.6158196926 0.6149377227 0.5650421977
	0.6167954803 0.6160081029 0.5661283135
	0.6177694201 0.6170759201 0.5672121048
	0.6187387109 0.6181375980 0.5682907104
	0.6197069287 0.6191977859 0.5693675280
	0.6206719279 0.6202535033 0.5704392195
	0.6216356754 0.6213079095 0.5715097785
	0.6225941181 0.6223561764 0.5725752711
	0.6235517263 0.6234036088 0.5736399889
	0.6245011091 0.6244416237 0.5746986270
	0.6254506111 0.6254796982 0.5757570267
	0.6263933778 0.6265093088 0.5768082142
	0.6273362041 0.6275388002 0.5778594017
	0.6282750964 0.6285620928 0.5789057016
	0.6292135119 0.6295846105 0.5799514055
	0.6301469803 0.6306030154 0.5809925795
	0.6310787201 0.6316199899 0.5820323825
	0.6320052743 0.6326320171 0.5830696821
	0.6329280138 0.6336405277 0.5841053724
	0.6338480115 0.6346455216 0.5851392150
	0.6347640753 0.6356455088 0.5861703753
	0.6356791258 0.6366437078 0.5871999264
	0.6365907192 0.6376357079 0.5882244110
	0.6375023127 0.6386275291 0.5892485976
	0.6384099126 0.6396116018 0.5902659297
	0.6393175721 0.6405956149 0.5912833214
	0.6402198076 0.6415734887 0.5922964215
	0.6411203146 0.6425495744 0.5933085084
	0.6420174241 0.6435208917 0.5943167210
	0.6429113746 0.6444880962 0.5953217745
	0.6438037157 0.6454532146 0.5963243246
	0.6446918845 0.6464130878 0.5973206162
	0.6455799937 0.6473729014 0.5983167887
	0.6464617848 0.6483271718 0.5993061066
	0.6473435760 0.6492815018 0.6002953053
	0.6482205987 0.6502330899 0.6012793183
	0.6490954757 0.6511834860 0.6022611856
	0.6499673724 0.6521314979 0.6032401919
	0.6508346200 0.6530753970 0.6042150855
	0.6517016292 0.6540189981 0.6051893830
	0.6525605917 0.6549540162 0.6061556935
	0.6534196734 0.6558889747 0.6071221232
	0.6542748213 0.6568189859 0.6080846786
	0.6551280022 0.6577466130 0.6090456247
	0.6559792757 0.6586722136 0.6100040078
	0.6568263173 0.6595928073 0.6109567881
	0.6576732993 0.6605134010 0.6119096279
	0.6585139036 0.6614270210 0.6128568053
	0.6593537927 0.6623396873 0.6138035059
	0.6601899862 0.6632481217 0.6147469282
	0.6610223055 0.6641519070 0.6156873107
	0.6618543863 0.6650553942 0.6166272759
	0.6626814008 0.6659533978 0.6175631881
	0.6635084748 0.6668512821 0.6184991002
	0.6643338203 0.6677461267 0.6194313169
	0.6651577950 0.6686387062 0.6203612089
	0.6659812927 0.6695305705 0.6212899089
	0.6668003798 0.6704167128 0.6222109795
	0.6676195860 0.6713029146 0.6231321096
	0.6684346199 0.6721845269 0.6240482926
	0.6692469716 0.6730633974 0.6249616146
	0.6700590253 0.6739416718 0.6258742213
	0.6708669066 0.6748149991 0.6267806888
	0.6716747284 0.6756882071 0.6276870966
	0.6724805236 0.6765586734 0.6285902858
	0.6732844710 0.6774268746 0.6294907928
	0.6740885973 0.6782950759 0.6303914189
	0.6748862267 0.6791549921 0.6312856078
	0.6756836176 0.6800147891 0.6321799159
	0.6764786839 0.6808714271 0.6330708861
	0.6772701740 0.6817231774 0.6339576244
	0.6780617833 0.6825749874 0.6348443031
	0.6788492799 0.6834219098 0.6357238293
	0.6796358228 0.6842675805 0.6366016269
	0.6804214120 0.6851121783 0.6374781132
	0.6812025905 0.6859521270 0.6383491158
	0.6819838285 0.6867920160 0.6392201185
	0.6827620864 0.6876285076 0.6400873065
	0.6835377216 0.6884618998 0.6409513950
	0.6843134165 0.6892954111 0.6418154836
	0.6850838065 0.6901227832 0.6426753998
	0.6858534217 0.6909493208 0.6435347199
	0.6866219044 0.6917747259 0.6443930268
	0.6873850822 0.6925947070 0.6452473998
	0.6881483197 0.6934146285 0.6461017132
	0.6889085770 0.6942318082 0.6469531059
	0.6896653175 0.6950455904 0.6478009820
	0.6904219985 0.6958593726 0.6486489773
	0.6911736131 0.6966683865 0.6494913101
	0.6919230819 0.6974754930 0.6503316164
	0.6926727295 0.6982825994 0.6511718035
	0.6934152246 0.6990849972 0.6520056725
	0.6941574216 0.6998872161 0.6528394222
	0.6948987842 0.7006883025 0.6536720991
	0.6956359148 0.7014837265 0.6545003057
	0.6963729858 0.7022790909 0.6553285122
	0.6971086264 0.7030712962 0.6561551094
	0.6978415251 0.7038580179 0.6569787860
	0.6985744238 0.7046447992 0.6578025818
	0.6993039250 0.7054278255 0.6586238742
	0.7000302076 0.7062076926 0.6594430208
	0.7007566094 0.7069876194 0.6602622271
	0.7014790177 0.7077631950 0.6610757113
	0.7021995783 0.7085369229 0.6618868113
	0.7029200792 0.7093105912 0.6626979113
	0.7036368847 0.7100790143 0.6635041833
	0.7043526769 0.7108461261 0.6643093824
	0.7050685287 0.7116131783 0.6651147008
	0.7057778239 0.7123737931 0.6659145951
	0.7064864039 0.7131338120 0.6667140722
	0.7071951032 0.7138937116 0.6675134897
	0.7078974843 0.7146461010 0.6683061123
	0.7085998058 0.7153983116 0.6690986156
	0.7093018889 0.7161502838 0.6698907018
	0.7100000978 0.7168943882 0.6706752181
	0.7106983066 0.7176384926 0.6714596748
	0.7113963962 0.7183822989 0.6722435951
	0.7120925784 0.7191202044 0.6730211973
	0.7127888799 0.7198581100 0.6737989187
	0.7134850025 0.7205957174 0.6745759845
	0.7141777277 0.7213283181 0.6753479838
	0.7148702741 0.7220609188 0.6761199236
	0.7155628204 0.7227932215 0.6768916249
	0.7162505984 0.7235177755 0.6776590943
	0.7169383764 0.7242423296 0.6784266233
	0.7176260948 0.7249668837 0.6791939735
	0.7183110714 0.7256841063 0.6799570918
	0.7189961076 0.7264013886 0.6807202101
	0.7196810246 0.7271186113 0.6814832091
	0.7203640938 0.7278298140 0.6822391748
	0.7210471034 0.7285404801 0.6829947233
	0.7217299938 0.7292512059 0.6837502122
	0.7224094272 0.7299574018 0.6845011711
	0.7230880857 0.7306627035 0.6852512956
	0.7237666845 0.7313678861 0.6860014200
	0.7244430184 0.7320697904 0.6867479086
	0.7251182199 0.7327703238 0.6874929070
	0.7257934213 0.7334707975 0.6882380247
	0.7264670730 0.7341670990 0.6889796257
	0.7271397114 0.7348600030 0.6897184253
	0.7278121710 0.7355527878 0.6904572845
	0.7284829021 0.7362431884 0.6911934018
	0.7291505933 0.7369294763 0.6919252872
	0.7298182249 0.7376158237 0.6926571131
	0.7304852009 0.7383013964 0.6933879256
	0.7311487794 0.7389839888 0.6941142082
	0.7318122983 0.7396667004 0.6948403716
	0.7324758768 0.7403492928 0.6955665946
	0.7331362963 0.7410271168 0.6962887049
	0.7337965965 0.7417047024 0.6970105767
	0.7344568968 0.7423822284 0.6977325082
	0.7351133823 0.7430555820 0.6984499097
	0.7357681990 0.7437270880 0.6991655231
	0.7364230156 0.7443987131 0.6998810172
	0.7370759249 0.7450683713 0.7005940080
	0.7377259731 0.7457355261 0.7013034821
	0.7383760810 0.7464025021 0.7020128965
	0.7390258908 0.7470691204 0.7027217150
	0.7396721244 0.7477303743 0.7034254074
	0.7403182983 0.7483916879 0.7041289806
	0.7409644723 0.7490528822 0.7048326731
	0.7416077852 0.7497091293 0.7055320740
	0.7422502041 0.7503637075 0.7062302828
	0.7428925037 0.7510182858 0.7069284916
	0.7435333729 0.7516707778 0.7076249719
	0.7441717982 0.7523202896 0.7083188891
	0.7448102236 0.7529696822 0.7090129256
	0.7454485893 0.7536191940 0.7097067833
	0.7460827231 0.7542620897 0.7103967071
	0.7467167974 0.7549051046 0.7110865116
	0.7473508716 0.7555481195 0.7117763758
	0.7479826212 0.7561879754 0.7124634981
	0.7486125231 0.7568256259 0.7131487131
	0.7492423058 0.7574632764 0.7138339281
	0.7498719096 0.7581006289 0.7145183086
	0.7504996061 0.7587358952 0.7151979804
	0.7511271834 0.7593712211 0.7158777118
	0.7517548203 0.7600064874 0.7165573835
	0.7523803115 0.7606381178 0.7172330022
	0.7530044913 0.7612677217 0.7179064155
	0.7536287904 0.7618973851 0.7185798883
	0.7542523742 0.7625262141 0.7192522883
	0.7548720837 0.7631500959 0.7199187875
	0.7554919124 0.7637740970 0.7205854058
	0.7561116219 0.7643979788 0.7212520242
	0.7567297816 0.7650203109 0.7219150066
	0.7573469877 0.7656415105 0.7225760221
	0.7579641938 0.7662625909 0.7232369781
	0.7585812807 0.7668836117 0.7238978148
	0.7591949105 0.7674986720 0.7245547175
	0.7598084807 0.7681139112 0.7252116203
	0.7604219913 0.7687290907 0.7258685231
	0.7610334754 0.7693409920 0.7265231013
	0.7616422772 0.7699488997 0.7271751165
	0.7622511983 0.7705568075 0.7278271914
	0.7628600001 0.7711647153 0.7284792066
	0.7634664774 0.7717682719 0.7291265130
	0.7640724778 0.7723709941 0.7297729254
	0.7646784782 0.7729737163 0.7304192781
	0.7652838826 0.7735757232 0.7310644984
	0.7658861279 0.7741742730 0.7317045927
	0.7664881945 0.7747728825 0.7323446870
	0.7670903802 0.7753714919 0.7329847813
	0.7676901221 0.7759671211 0.7336224914
	0.7682873011 0.7765594721 0.7342575788
	0.7688844204 0.7771518230 0.7348927855
	0.7694815993 0.7777441740 0.7355279922
	0.7700763941 0.7783325911 0.7361595035
	0.7706704736 0.7789196968 0.7367901206
	0.7712646127 0.7795069218 0.7374206781
	0.7718585730 0.7800940275 0.7380509973
	0.7724485993 0.7806769013 0.7386764884
	0.7730386257 0.7812598944 0.7393019795
	0.7736285925 0.7818428874 0.7399274707
	0.7742174268 0.7824249268 0.7405520082
	0.7748020887 0.7830036879 0.7411739230
	0.7753869295 0.7835826278 0.7417957187
	0.7759717107 0.7841613889 0.7424175143
	0.7765550017 0.7847386003 0.7430375218
	0.7771365047 0.7853134871 0.7436553240
	0.7777178884 0.7858883739 0.7442730069
	0.7782993913 0.7864633203 0.7448908091
	0.7788782716 0.7870357037 0.7455062270
	0.7794554830 0.7876065969 0.7461202145
	0.7800326943 0.7881773710 0.7467340827
	0.7806097865 0.7887482047 0.7473481297
	0.7811824083 0.7893161178 0.7479594946
	0.7817530036 0.7898828983 0.7485699058
	0.7823237181 0.7904496789 0.7491803765
	0.7828943729 0.7910165191 0.7497909069
	0.7834607959 0.7915802002 0.7503979802
	0.7840262055 0.7921432257 0.7510045171
	0.7845916152 0.7927060723 0.7516109943
	0.7851570249 0.7932690978 0.7522174716
	0.7857185006 0.7938284874 0.7528216839
	0.7862794995 0.7943874002 0.7534257174
	0.7868404984 0.7949463129 0.7540296912
	0.7874014974 0.7955052853 0.7546337247
	0.7879565954 0.7960606217 0.7552338839
	0.7885110974 0.7966156006 0.7558339238
	0.7890654802 0.7971706986 0.7564339042
	0.7896199822 0.7977256775 0.7570338249
	0.7901695967 0.7982773185 0.7576287985
	0.7907186747 0.7988284826 0.7582232952
	0.7912678123 0.7993797064 0.7588177919
	0.7918167710 0.7999309897 0.7594122887
	0.7923620939 0.8004786968 0.7600033283
	0.7929067016 0.8010259271 0.7605937719
	0.7934514284 0.8015732169 0.7611842752
	0.7939960957 0.8021203876 0.7617747188
	0.7945355177 0.8026636839 0.7623630762
	0.7950735092 0.8032060862 0.7629508972
	0.7956116199 0.8037484288 0.7635387778
	0.7961496711 0.8042907715 0.7641267180
	0.7966831923 0.8048292994 0.7647116780
	0.7972148061 0.8053662181 0.7652955055
	0.7977464199 0.8059030771 0.7658793926
	0.7982779741 0.8064399958 0.7664632797
	0.7988070846 0.8069747090 0.7670440078
	0.7993342876 0.8075076938 0.7676222920
	0.7998613715 0.8080406785 0.7682006955
	0.8003885746 0.8085737228 0.7687789798
	0.8009144068 0.8091049194 0.7693557739
	0.8014380932 0.8096331954 0.7699301243
	0.8019618988 0.8101614714 0.7705044150
	0.8024855852 0.8106899261 0.7710787058
	0.8030084968 0.8112171888 0.7716525197
	0.8035271764 0.8117402792 0.7722241282
	0.8040459752 0.8122633100 0.7727957964
	0.8045647144 0.8127862811 0.7733674049
	0.8050835133 0.8133093119 0.7739390135
	0.8055983782 0.8138288856 0.7745084763
	0.8061131239 0.8143482208 0.7750778198
	0.8066278100 0.8148674965 0.7756472230
	0.8071424961 0.8153867722 0.7762165070
	0.8076552153 0.8159031868 0.7767828703
	0.8081669211 0.8164179921 0.7773479819
	0.8086786270 0.8169327974 0.7779129744
	0.8091902137 0.8174476027 0.7784780264
	0.8097003102 0.8179603219 0.7790415287
	0.8102073073 0.8184689879 0.7796025872
	0.8107144237 0.8189777136 0.7801635861
	0.8112214804 0.8194864988 0.7807245851
	0.8117284775 0.8199952245 0.7812855840
	0.8122318983 0.8205006123 0.7818430066
	0.8127353191 0.8210061193 0.7824004889
	0.8132386804 0.8215116262 0.7829579711
	0.8137421012 0.8220170140 0.7835153937
	0.8142439127 0.8225206733 0.7840704918
	0.8147445917 0.8230230808 0.7846242189
	0.8152452707 0.8235256076 0.7851778269
	0.8157460093 0.8240280747 0.7857314944
	0.8162457943 0.8245295286 0.7862842083
	0.8167423010 0.8250265121 0.7868337035
	0.8172388077 0.8255233765 0.7873830795
	0.8177353144 0.8260204196 0.7879325747
	0.8182318211 0.8265172839 0.7884820104
	0.8187258244 0.8270121813 0.7890285850
	0.8192189932 0.8275064230 0.7895743251
	0.8197121024 0.8280006051 0.7901200056
	0.8202052712 0.8284947872 0.7906656265
	0.8206979036 0.8289883137 0.7912104726
	0.8211886883 0.8294799924 0.7917528152
	0.8216794729 0.8299716711 0.7922950983
	0.8221703172 0.8304634094 0.7928373814
	0.8226609826 0.8309550285 0.7933797240
	0.8231490850 0.8314424157 0.7939193249
	0.8236359954 0.8319281936 0.7944579124
	0.8241229057 0.8324139118 0.7949965000
	0.8246098161 0.8328995705 0.7955352068
	0.8250963092 0.8333846927 0.7960731983
	0.8255802989 0.8338664770 0.7966079116
	0.8260642290 0.8343483210 0.7971426845
	0.8265480995 0.8348299861 0.7976773977
	0.8270320892 0.8353117704 0.7982121110
	0.8275148869 0.8357924819 0.7987449169
	0.8279966712 0.8362724185 0.7992761135
	0.8284785748 0.8367521763 0.7998073101
	0.8289604187 0.8372321129 0.8003385067
	0.8294422030 0.8377118707 0.8008695841
	0.8299208879 0.8381869793 0.8013979197
	0.8303992152 0.8386614919 0.8019258976
	0.8308774829 0.8391360044 0.8024538755
	0.8313558102 0.8396105170 0.8029819131
	0.8318336010 0.8400840759 0.8035091162
	0.8323091865 0.8405542970 0.8040336967
	0.8327847719 0.8410243988 0.8045582771
	0.8332604170 0.8414946198 0.8050829172
	0.8337361217 0.8419647813 0.8056074977
	0.8342108130 0.8424335122 0.8061311245
	0.8346846104 0.8429005742 0.8066536188
	0.8351584077 0.8433678150 0.8071761131
	0.8356322050 0.8438348770 0.8076986074
	0.8361061215 0.8443019986 0.8082212210
	0.8365774751 0.8447657824 0.8087412715
	0.8370481133 0.8452283740 0.8092607260
	0.8375186920 0.8456910253 0.8097800016
	0.8379892111 0.8461534977 0.8102992773
	0.8384597898 0.8466160893 0.8108186722
	0.8389282227 0.8470754027 0.8113338947
	0.8393964171 0.8475344181 0.8118488789
	0.8398646116 0.8479933739 0.8123638034
	0.8403326869 0.8484523892 0.8128787875
	0.8408008218 0.8489112258 0.8133934736
	0.8412675261 0.8493679166 0.8139054179
	0.8417341113 0.8498246074 0.8144173026
	0.8422008157 0.8502812982 0.8149293065
	0.8426674008 0.8507381082 0.8154411912
	0.8431332707 0.8511940241 0.8159524202
	0.8435961008 0.8516469002 0.8164612055
	0.8440588713 0.8520997763 0.8169698715
	0.8445217013 0.8525527120 0.8174785972
	0.8449844718 0.8530055881 0.8179873228
