release/datafiles/colormanagement/luts/camera_response/canon_optura_981111.spi1d
Version 1
From 0.0 1.0
Length 1024
Components 1
{
	0.0000000000
	0.0025450480
	0.0050900960
	0.0076351431
	0.0101884697
	0.0128504699
	0.0155124702
	0.0181744602
	0.0208844505
	0.0236991905
	0.0265139192
	0.0293286499
	0.0322732218
	0.0352584682
	0.0382437110
	0.0412991717
	0.0444549806
	0.0476107895
	0.0508038513
	0.0541130006
	0.0574221388
	0.0607581101
	0.0641886517
	0.0676191822
	0.0710741282
	0.0745844394
	0.0780947506
	0.0816211328
	0.0851665810
	0.0887120292
	0.0922535583
	0.0957928598
	0.0993321612
	0.1028394997
	0.1063392982
	0.1098392010
	0.1132792011
	0.1167163998
	0.1201502010
	0.1235113963
	0.1268725991
	0.1302281022
	0.1335085034
	0.1367888004
	0.1400675029
	0.1432684064
	0.1464692056
	0.1496700943
	0.1528047025
	0.1559316963
	0.1590587050
	0.1621396989
	0.1652007997
	0.1682619005
	0.1712982953
	0.1743023992
	0.1773066074
	0.1803057045
	0.1832617074
	0.1862176061
	0.1891735941
	0.1921004951
	0.1950162053
	0.1979319006
	0.2008378059
	0.2037197053
	0.2066015005
	0.2094834000
	0.2123412043
	0.2151937932
	0.2180463970
	0.2208905071
	0.2237161994
	0.2265419066
	0.2293675989
	0.2321725041
	0.2349714041
	0.2377703935
	0.2405633926
	0.2433333993
	0.2461033016
	0.2488732934
	0.2516236007
	0.2543602884
	0.2570970953
	0.2598339021
	0.2625338137
	0.2652313113
	0.2679288983
	0.2706156075
	0.2732666135
	0.2759177089
	0.2785687149
	0.2811945975
	0.2837912142
	0.2863877118
	0.2889842987
	0.2915427089
	0.2940768003
	0.2966108024
	0.2991448939
	0.3016327024
	0.3040969968
	0.3065612912
	0.3090254962
	0.3114438951
	0.3138321042
	0.3162203133
	0.3186084926
	0.3209632039
	0.3232708871
	0.3255786002
	0.3278863132
	0.3301869929
	0.3324112892
	0.3346355855
	0.3368599117
	0.3390842080
	0.3412589133
	0.3433989882
	0.3455390036
	0.3476791084
	0.3498190939
	0.3518827856
	0.3539395034
	0.3559961915
	0.3580527902
	0.3601051867
	0.3620809913
	0.3640567958
	0.3660326004
	0.3680082858
	0.3699840903
	0.3718833923
	0.3737820983
	0.3756807148
	0.3775793910
	0.3794780076
	0.3813242912
	0.3831506073
	0.3849770129
	0.3868033886
	0.3886297941
	0.3904395103
	0.3921990991
	0.3939588070
	0.3957183957
	0.3974781036
	0.3992376924
	0.4009630084
	0.4026620984
	0.4043611884
	0.4060603082
	0.4077593982
	0.4094584882
	0.4111205935
	0.4127655029
	0.4144104123
	0.4160552919
	0.4177002013
	0.4193451107
	0.4209614098
	0.4225586951
	0.4241560102
	0.4257532954
	0.4273506105
	0.4289478958
	0.4305312037
	0.4320875108
	0.4336437881
	0.4352000058
	0.4367563128
	0.4383125007
	0.4398688078
	0.4413934946
	0.4429152012
	0.4444369972
	0.4459587932
	0.4474805892
	0.4490022957
	0.4505144060
	0.4520080984
	0.4535017014
	0.4549953938
	0.4564889967
	0.4579826891
	0.4594762921
	0.4609557092
	0.4624272883
	0.4638989866
	0.4653705955
	0.4668422043
	0.4683139026
	0.4697855115
	0.4712435007
	0.4726991057
	0.4741545916
	0.4756101966
	0.4770658016
	0.4785214067
	0.4799770117
	0.4814223051
	0.4828675091
	0.4843125939
	0.4857577980
	0.4872029126
	0.4886480868
	0.4900929034
	0.4915328026
	0.4929727912
	0.4944128096
	0.4958527088
	0.4972926974
	0.4987326860
	0.5001726151
	0.5016121864
	0.5030518770
	0.5044915080
	0.5059311986
	0.5073708296
	0.5088104010
	0.5102508068
	0.5116943717
	0.5131379962
	0.5145816207
	0.5160253048
	0.5174689293
	0.5189124942
	0.5203580260
	0.5218092799
	0.5232605934
	0.5247119069
	0.5261632800
	0.5276145935
	0.5290659070
	0.5305209160
	0.5319827199
	0.5334445238
	0.5349063277
	0.5363680720
	0.5378299952
	0.5392917991
	0.5407599807
	0.5422341824
	0.5437083840
	0.5451825857
	0.5466567874
	0.5481309891
	0.5496053100
	0.5510889888
	0.5525763035
	0.5540636182
	0.5555508137
	0.5570381284
	0.5585253239
	0.5600126982
	0.5615121722
	0.5630118251
	0.5645112991
	0.5660107732
	0.5675103068
	0.5690099001
	0.5705127120
	0.5720220804
	0.5735315084
	0.5750408769
	0.5765503049
	0.5780596733
	0.5795689821
	0.5810825229
	0.5825976133
	0.5841127038
	0.5856277943
	0.5871428251
	0.5886579156
	0.5901730061
	0.5916877985
	0.5932027102
	0.5947175026
	0.5962324142
	0.5977472067
	0.5992619991
	0.6007729173
	0.6022800207
	0.6037871242
	0.6052942872
	0.6068013906
	0.6083084941
	0.6098155975
	0.6113082170
	0.6127988100
	0.6142895222
	0.6157801151
	0.6172707081
	0.6187613010
	0.6202476025
	0.6217123270
	0.6231769919
	0.6246417165
	0.6261065006
	0.6275712252
	0.6290358901
	0.6304885149
	0.6319180131
	0.6333473921
	0.6347767711
	0.6362062097
	0.6376355886
	0.6390650272
	0.6404792070
	0.6418644786
	0.6432499290
	0.6446353197
	0.6460205913
	0.6474059820
	0.6487913728
	0.6501702070
	0.6515042186
	0.6528382897
	0.6541723013
	0.6555063725
	0.6568403840
	0.6581745148
	0.6595085263
	0.6608067155
	0.6620839238
	0.6633611917
	0.6646384001
	0.6659157276
	0.6671929955
	0.6684702039
	0.6697474718
	0.6709765196
	0.6721935868
	0.6734107137
	0.6746279001
	0.6758450270
	0.6770620942
	0.6782792807
	0.6794964075
	0.6806775928
	0.6818333864
	0.6829891801
	0.6841449738
	0.6853008270
	0.6864566207
	0.6876124144
	0.6887682080
	0.6899240017
	0.6910231709
	0.6921185255
	0.6932137012
	0.6943089962
	0.6954041719
	0.6964995265
	0.6975947022
	0.6986898780
	0.6997851729
	0.7008336782
	0.7018709183
	0.7029079795
	0.7039451003
	0.7049822807
	0.7060194016
	0.7070565820
	0.7080937028
	0.7091308236
	0.7101591825
	0.7111420035
	0.7121248245
	0.7131077051
	0.7140905261
	0.7150732875
	0.7160561085
	0.7170389891
	0.7180218101
	0.7190045714
	0.7199873924
	0.7209213972
	0.7218546867
	0.7227879763
	0.7237213254
	0.7246546149
	0.7255879045
	0.7265211940
	0.7274544835
	0.7283877730
	0.7293211222
	0.7302423716
	0.7311316729
	0.7320209742
	0.7329102755
	0.7337995768
	0.7346888781
	0.7355781198
	0.7364674211
	0.7373567224
	0.7382460237
	0.7391353250
	0.7400234938
	0.7408747077
	0.7417259812
	0.7425771952
	0.7434284091
	0.7442796826
	0.7451308966
	0.7459822297
	0.7468333840
	0.7476845980
	0.7485358715
	0.7493870854
	0.7502294183
	0.7510489225
	0.7518684268
	0.7526878715
	0.7535073757
	0.7543268800
	0.7551463842
	0.7559658885
	0.7567853928
	0.7576048970
	0.7584244013
	0.7592439055
	0.7600615025
	0.7608557940
	0.7616500854
	0.7624443769
	0.7632387877
	0.7640330791
	0.7648273706
	0.7656217217
	0.7664160132
	0.7672104239
	0.7680047154
	0.7687990069
	0.7695932984
	0.7703787088
	0.7711545825
	0.7719305158
	0.7727065086
	0.7734823823
	0.7742583156
	0.7750343084
	0.7758101821
	0.7765861154
	0.7773621082
	0.7781379819
	0.7789139152
	0.7796899080
	0.7804589868
	0.7812235951
	0.7819883227
	0.7827528715
	0.7835174799
	0.7842820883
	0.7850466967
	0.7858114243
	0.7865759730
	0.7873405814
	0.7881051898
	0.7888697982
	0.7896345258
	0.7903971076
	0.7911577821
	0.7919185162
	0.7926793098
	0.7934399843
	0.7942007184
	0.7949615121
	0.7957221866
	0.7964829803
	0.7972437143
	0.7980043888
	0.7987651825
	0.7995259166
	0.8002882004
	0.8010529876
	0.8018177152
	0.8025825024
	0.8033472896
	0.8041120768
	0.8048768044
	0.8056415915
	0.8064063787
	0.8071712255
	0.8079360127
	0.8087006807
	0.8094655275
	0.8102341294
	0.8110113740
	0.8117886782
	0.8125661016
	0.8133434057
	0.8141207099
	0.8148980737
	0.8156753778
	0.8164526820
	0.8172299862
	0.8180074096
	0.8187847137
	0.8195620179
	0.8203489184
	0.8211479187
	0.8219469786
	0.8227460980
	0.8235452175
	0.8243442774
	0.8251432776
	0.8259423971
	0.8267415166
	0.8275405765
	0.8283395767
	0.8291386962
	0.8299378157
	0.8307659030
	0.8315964937
	0.8324270844
	0.8332576752
	0.8340882063
	0.8349187970
	0.8357493877
	0.8365799785
	0.8374106288
	0.8382411003
	0.8390716910
	0.8399022818
	0.8407692909
	0.8416411877
	0.8425130248
	0.8433849216
	0.8442568183
	0.8451285958
	0.8460004926
	0.8468723893
	0.8477442265
	0.8486161232
	0.8494880199
	0.8503803015
	0.8513019085
	0.8522233963
	0.8531450033
	0.8540664911
	0.8549880981
	0.8559095860
	0.8568311930
	0.8577526808
	0.8586742282
	0.8595957756
	0.8605474234
	0.8615226150
	0.8624976873
	0.8634728789
	0.8644480705
	0.8654232025
	0.8663983941
	0.8673735261
	0.8683487177
	0.8693237901
	0.8703135848
	0.8713365197
	0.8723592758
	0.8733820915
	0.8744049072
	0.8754277825
	0.8764505982
	0.8774734139
	0.8784962893
	0.8795191050
	0.8805549145
	0.8816024065
	0.8826497793
	0.8836972117
	0.8847445846
	0.8857920170
	0.8868393898
	0.8878868222
	0.8889341950
	0.8899816275
	0.8910092115
	0.8920364976
	0.8930637240
	0.8940910101
	0.8951181769
	0.8961455226
	0.8971728086
	0.8981999755
	0.8992273211
	0.9002348185
	0.9011824131
	0.9021301270
	0.9030777216
	0.9040253758
	0.9049729705
	0.9059206247
	0.9068682790
	0.9078158736
	0.9087635279
	0.9097111821
	0.9105666876
	0.9113819003
	0.9121969938
	0.9130122066
	0.9138273001
	0.9146425128
	0.9154576063
	0.9162728190
	0.9170879126
	0.9179031253
	0.9187182188
	0.9195333719
	0.9202811718
	0.9209386706
	0.9215962887
	0.9222537875
	0.9229114056
	0.9235690236
	0.9242265224
	0.9248840809
	0.9255415797
	0.9261991978
	0.9268566966
	0.9275143147
	0.9281718135
	0.9288293719
	0.9294869900
	0.9301112294
	0.9306169152
	0.9311227202
	0.9316285253
	0.9321342111
	0.9326400161
	0.9331458211
	0.9336515069
	0.9341573119
	0.9346631169
	0.9351688027
	0.9356746078
	0.9361804128
	0.9366860986
	0.9371919036
	0.9376977086
	0.9382033944
	0.9387091994
	0.9392150044
	0.9397206903
	0.9401693940
	0.9405475855
	0.9409257770
	0.9413040876
	0.9416822791
	0.9420604706
	0.9424387813
	0.9428169727
	0.9431952238
	0.9435734153
	0.9439517260
	0.9443299174
	0.9447081089
	0.9450864196
	0.9454646111
	0.9458428025
	0.9462211132
	0.9465993047
	0.9469774961
	0.9473558068
	0.9477339983
	0.9481121898
	0.9484903812
	0.9488686919
	0.9492468834
	0.9496250749
	0.9500024915
	0.9502819777
	0.9505615234
	0.9508408904
	0.9511203766
	0.9513999224
	0.9516794086
	0.9519588947
	0.9522383809
	0.9525179267
	0.9527974129
	0.9530767798
	0.9533563256
	0.9536358118
	0.9539152980
	0.9541947842
	0.9544742703
	0.9547538161
	0.9550331831
	0.9553127289
	0.9555922151
	0.9558717012
	0.9561511874
	0.9564306736
	0.9567102194
	0.9569895864
	0.9572690725
	0.9575486183
	0.9578281045
	0.9581075907
	0.9583870769
	0.9586666226
	0.9589459896
	0.9592254758
	0.9595050216
	0.9597845078
	0.9600471854
	0.9602534771
	0.9604598880
	0.9606661797
	0.9608724713
	0.9610788226
	0.9612851143
	0.9614914060
	0.9616976976
	0.9619039893
	0.9621102810
	0.9623166919
	0.9625229836
	0.9627292752
	0.9629356265
	0.9631419182
	0.9633482099
	0.9635545015
	0.9637607932
	0.9639670849
	0.9641734958
	0.9643797874
	0.9645860791
	0.9647923708
	0.9649987221
	0.9652050138
	0.9654113054
	0.9656175971
	0.9658238888
	0.9660302997
	0.9662365913
	0.9664428830
	0.9666491747
	0.9668555260
	0.9670618176
	0.9672681093
	0.9674744010
	0.9676806927
	0.9678869843
	0.9680933952
	0.9682996869
	0.9685059786
	0.9687122703
	0.9689186215
	0.9691249132
	0.9693312049
	0.9695374966
	0.9697437882
	0.9699501991
	0.9701160789
	0.9702693224
	0.9704223871
	0.9705755115
	0.9707286954
	0.9708818197
	0.9710348845
	0.9711880088
	0.9713411927
	0.9714943171
	0.9716473818
	0.9718006253
	0.9719536901
	0.9721068144
	0.9722599983
	0.9724131227
	0.9725661874
	0.9727193713
	0.9728724957
	0.9730256200
	0.9731786847
	0.9733319283
	0.9734849930
	0.9736381173
	0.9737913013
	0.9739444256
	0.9740974903
	0.9742506742
	0.9744037986
	0.9745569229
	0.9747101068
	0.9748631716
	0.9750162959
	0.9751694202
	0.9753226042
	0.9754757285
	0.9756287932
	0.9757819772
	0.9759351015
	0.9760882258
	0.9762414098
	0.9763944745
	0.9765475988
	0.9767007232
	0.9768539071
	0.9770069718
	0.9771600962
	0.9773132801
	0.9774664044
	0.9776195288
	0.9777727127
	0.9779257774
	0.9780789018
	0.9782320857
	0.9783852100
	0.9785382748
	0.9786913991
	0.9788445830
	0.9789977074
	0.9791507721
	0.9793040156
	0.9794570804
	0.9796102047
	0.9797633886
	0.9799165130
	0.9800521135
	0.9801667929
	0.9802814722
	0.9803960919
	0.9805107713
	0.9806255102
	0.9807401896
	0.9808548093
	0.9809694886
	0.9810842276
	0.9811989069
	0.9813135266
	0.9814282060
	0.9815428853
	0.9816575050
	0.9817721844
	0.9818869233
	0.9820016026
	0.9821162224
	0.9822309017
	0.9823455811
	0.9824602008
	0.9825748801
	0.9826896191
	0.9828042984
	0.9829189181
	0.9830335975
	0.9831482768
	0.9832628965
	0.9833775759
	0.9834923148
	0.9836069942
	0.9837216139
	0.9838362932
	0.9839509726
	0.9840655923
	0.9841802716
	0.9842950106
	0.9844096899
	0.9845243096
	0.9846389890
	0.9847537279
	0.9848682880
	0.9849830270
	0.9850977063
	0.9852123857
	0.9853270054
	0.9854416847
	0.9855564237
	0.9856711030
	0.9857857227
	0.9859004021
	0.9860150814
	0.9861297011
	0.9862443805
	0.9863591194
	0.9864737988
	0.9865884185
	0.9867030978
	0.9868177772
	0.9869323969
	0.9870470762
	0.9871618152
	0.9872764945
	0.9873911142
	0.9875057936
	0.9876204729
	0.9877350926
	0.9878497720
	0.9879645109
	0.9880791903
	0.9881938100
	0.9883084893
	0.9884232283
	0.9885377884
	0.9886525273
	0.9887672067
	0.9888818860
	0.9889965057
	0.9891111851
	0.9892259240
	0.9893404841
	0.9894552231
	0.9895699024
	0.9896845818
	0.9897992015
	0.9899138808
	0.9900215864
	0.9901083708
	0.9901952147
	0.9902818799
	0.9903687239
	0.9904555082
	0.9905421734
	0.9906290174
	0.9907158017
	0.9908025265
	0.9908893108
	0.9909760952
	0.9910628200
	0.9911496043
	0.9912363887
	0.9913231730
	0.9914098978
	0.9914966822
	0.9915835261
	0.9916701913
	0.9917569757
	0.9918438196
	0.9919304848
	0.9920173287
	0.9921041131
	0.9921907783
	0.9922776222
	0.9923644066
	0.9924510717
	0.9925379157
	0.9926247001
	0.9927114248
	0.9927982092
	0.9928849936
	0.9929717779
	0.9930585027
	0.9931452870
	0.9932320714
	0.9933187962
	0.9934055805
	0.9934924245
	0.9935790896
	0.9936658740
	0.9937527180
	0.9938393831
	0.9939262271
	0.9940130115
	0.9940996766
	0.9941865206
	0.9942733049
	0.9943600297
	0.9944468141
	0.9945335984
	0.9946203828
	0.9947071075
	0.9947938919
	0.9948806763
	0.9949674010
	0.9950541854
	0.9951410294
	0.9952276945
	0.9953144789
	0.9954013228
	0.9954879880
	0.9955747724
	0.9956616163
	0.9957482815
	0.9958351254
	0.9959219098
	0.9960085750
	0.9960954189
	0.9961822033
	0.9962689877
	0.9963557124
	0.9964424968
	0.9965292811
	0.9966160059
	0.9967027903
	0.9967895746
	0.9968762994
	0.9969630837
	0.9970499277
	0.9971365929
	0.9972233772
	0.9973102212
	0.9973968863
	0.9974836707
	0.9975705147
	0.9976572990
	0.9977440238
	0.9978308082
	0.9979175925
	0.9980043173
	0.9980911016
	0.9981778860
	0.9982646108
	0.9983513951
	0.9984381795
	0.9985249043
	0.9986116886
	0.9986984730
	0.9987851977
	0.9988719821
	0.9989588261
	0.9990454912
	0.9991322756
	0.9992191195
	0.9993059039
	0.9993926287
	0.9994794130
	0.9995661974
	0.9996529222
	0.9997397065
	0.9998264909
	0.9999132156
	1.0000000000
}
