release/datafiles/colormanagement/luts/camera_response/kodak_ektachrome_64.spi1d
Version 1
From 0.0 1.0
Length 1024
Components 3
{
	0.0000000000 0.0000000000 0.0000000000
	0.0003177276 0.0001941380 0.0001446141
	0.0006504654 0.0003951061 0.0002949580
	0.0010024470 0.0006061521 0.0004526987
	0.0013694729 0.0008284810 0.0006180415
	0.0017452050 0.0010607000 0.0007899137
	0.0021349210 0.0013002760 0.0009697909
	0.0025417069 0.0015479270 0.0011566620
	0.0029633259 0.0018080650 0.0013511210
	0.0033958510 0.0020795320 0.0015535100
	0.0038457969 0.0023645640 0.0017640300
	0.0043162489 0.0026637421 0.0019820260
	0.0048077060 0.0029760071 0.0022097649
	0.0053204661 0.0033004310 0.0024460619
	0.0058609000 0.0036376549 0.0026919940
	0.0064359619 0.0039854120 0.0029474010
	0.0070374971 0.0043447139 0.0032128871
	0.0076601300 0.0047178762 0.0034874950
	0.0083078844 0.0051065790 0.0037723500
	0.0089809727 0.0055108499 0.0040672510
	0.0096816579 0.0059318668 0.0043718130
	0.0104107000 0.0063705379 0.0046862401
	0.0111686802 0.0068254122 0.0050117052
	0.0119535998 0.0072979759 0.0053493860
	0.0127734104 0.0077873981 0.0056989561
	0.0136253396 0.0082948767 0.0060607451
	0.0145092504 0.0088192495 0.0064340578
	0.0154185202 0.0093626482 0.0068193851
	0.0163518004 0.0099276053 0.0072161448
	0.0173176397 0.0105159301 0.0076254872
	0.0183163304 0.0111296400 0.0080476142
	0.0193513595 0.0117682600 0.0084802704
	0.0204212200 0.0124294702 0.0089247832
	0.0215315297 0.0131156798 0.0093830954
	0.0226835497 0.0138275698 0.0098542161
	0.0238747206 0.0145641901 0.0103377597
	0.0251002200 0.0153265698 0.0108324597
	0.0263673309 0.0161136203 0.0113382703
	0.0276758503 0.0169268306 0.0118559897
	0.0290231593 0.0177657008 0.0123869004
	0.0304085892 0.0186326504 0.0129301697
	0.0318260118 0.0195293408 0.0134853199
	0.0332819484 0.0204478092 0.0140506905
	0.0347733498 0.0213932004 0.0146252401
	0.0363029502 0.0223640501 0.0152128004
	0.0378724001 0.0233600903 0.0158141498
	0.0394730903 0.0243795607 0.0164301693
	0.0411083102 0.0254261997 0.0170600507
	0.0427853093 0.0264967792 0.0177041702
	0.0444947183 0.0275935791 0.0183603093
	0.0462447405 0.0287111904 0.0190260392
	0.0480214991 0.0298579894 0.0197018404
	0.0498294383 0.0310345795 0.0203909706
	0.0516717583 0.0322387293 0.0210961197
	0.0535553694 0.0334732905 0.0218155701
	0.0554724000 0.0347375497 0.0225481000
	0.0574280284 0.0360305011 0.0232938007
	0.0594230108 0.0373505987 0.0240523200
	0.0614495687 0.0386989899 0.0248243101
	0.0635085627 0.0400783718 0.0256102104
	0.0656058565 0.0414873511 0.0264102798
	0.0677408203 0.0429296084 0.0272227693
	0.0699115321 0.0444077104 0.0280466098
	0.0721197501 0.0459156111 0.0288844202
	0.0743607506 0.0474466383 0.0297372099
	0.0766320974 0.0490012988 0.0306023601
	0.0789411888 0.0505829789 0.0314776190
	0.0812913403 0.0521959811 0.0323632210
	0.0836748034 0.0538401082 0.0332610384
	0.0860934034 0.0555139296 0.0341722593
	0.0885434672 0.0572180599 0.0350961611
	0.0910215825 0.0589511804 0.0360324383
	0.0935282633 0.0607071407 0.0369832404
	0.0960653424 0.0624810904 0.0379483290
	0.0986272693 0.0642725229 0.0389264598
	0.1012184024 0.0660862923 0.0399172194
	0.1038417965 0.0679221675 0.0409205295
	0.1064930037 0.0697782189 0.0419377983
	0.1091663986 0.0716602802 0.0429698490
	0.1118554026 0.0735708624 0.0440155715
	0.1145604029 0.0755072236 0.0450732484
	0.1172852963 0.0774691924 0.0461424887
	0.1200316027 0.0794569179 0.0472251885
	0.1228056028 0.0814680681 0.0483251885
	0.1256061941 0.0835034922 0.0494407713
	0.1284314990 0.0855652988 0.0505689494
	0.1312845945 0.0876543671 0.0517092496
	0.1341657043 0.0897689089 0.0528627299
	0.1370669007 0.0919097364 0.0540304407
	0.1399842948 0.0940792933 0.0552122705
	0.1429264992 0.0962784812 0.0564116687
	0.1458958983 0.0985052586 0.0576241314
	0.1488838047 0.1007623002 0.0588485189
	0.1518885940 0.1030460969 0.0600855909
	0.1549195051 0.1053560004 0.0613366812
	0.1579769999 0.1076906994 0.0626053810
	0.1610527933 0.1100478992 0.0638882369
	0.1641492993 0.1124247015 0.0651839301
	0.1672637016 0.1148206964 0.0664921403
	0.1703891009 0.1172372997 0.0678140298
	0.1735228002 0.1196703017 0.0691531822
	0.1766714007 0.1221214011 0.0705029890
	0.1798343062 0.1245933995 0.0718628988
	0.1830091029 0.1270965040 0.0732344314
	0.1861923933 0.1296184957 0.0746224895
	0.1893824935 0.1321596056 0.0760240182
	0.1925912052 0.1347205937 0.0774392113
	0.1958242953 0.1373080015 0.0788744465
	0.1990808994 0.1399126947 0.0803256184
	0.2023572028 0.1425279975 0.0817875490
	0.2056479007 0.1451531053 0.0832600370
	0.2089466006 0.1477964967 0.0847453102
	0.2122559994 0.1504597068 0.0862387866
	0.2155746967 0.1531386971 0.0877406523
	0.2189022005 0.1558340043 0.0892590731
	0.2222436965 0.1585476995 0.0907859504
	0.2255931050 0.1612742990 0.0923209935
	0.2289551944 0.1640138030 0.0938680470
	0.2323365957 0.1667792052 0.0954221934
	0.2357338965 0.1695535034 0.0969835818
	0.2391352057 0.1723369062 0.0985596627
	0.2425421029 0.1751406044 0.1001449004
	0.2459709942 0.1779552996 0.1017419994
	0.2494048029 0.1807786971 0.1033572033
	0.2528398931 0.1836172044 0.1049804986
	0.2562730014 0.1864625067 0.1066166982
	0.2597048879 0.1893129051 0.1082694978
	0.2631390095 0.1921741962 0.1099312007
	0.2665784955 0.1950452030 0.1116095036
	0.2700111866 0.1979237944 0.1132924035
	0.2734400928 0.2008170038 0.1149808988
	0.2768634856 0.2037173063 0.1166793033
	0.2802909017 0.2066275030 0.1183826998
	0.2837207019 0.2095531970 0.1201020032
	0.2871545851 0.2124857008 0.1218283027
	0.2905927896 0.2154320031 0.1235624999
	0.2940321863 0.2183827013 0.1253096014
	0.2974657118 0.2213367969 0.1270615011
	0.3008908927 0.2242961973 0.1288305074
	0.3043087125 0.2272599936 0.1306017935
	0.3077211082 0.2302363962 0.1323782951
	0.3111295104 0.2332222015 0.1341592073
	0.3145295084 0.2362163067 0.1359436959
	0.3179244995 0.2392161936 0.1377421021
	0.3213168085 0.2422180027 0.1395442933
	0.3247092962 0.2452265024 0.1413614005
	0.3281050920 0.2482353002 0.1431804001
	0.3315083981 0.2512444854 0.1450074017
	0.3348960876 0.2542502880 0.1468372047
	0.3382737041 0.2572538853 0.1486722976
	0.3416486979 0.2602624893 0.1505120993
	0.3450245857 0.2632722855 0.1523568034
	0.3484072983 0.2662931085 0.1542067975
	0.3517858982 0.2693150043 0.1560602039
	0.3551585078 0.2723414004 0.1579221934
	0.3585281074 0.2753702104 0.1597875059
	0.3618960977 0.2784039080 0.1616556942
	0.3652538955 0.2814370096 0.1635244936
	0.3686091900 0.2844694853 0.1653988063
	0.3719412088 0.2874999940 0.1672738940
	0.3752706051 0.2905291021 0.1691565067
	0.3785892129 0.2935574949 0.1710398048
	0.3819032013 0.2965855002 0.1729318947
	0.3852080107 0.2996020913 0.1748245955
	0.3885084093 0.3026154935 0.1767162979
	0.3918038011 0.3056125045 0.1786078960
	0.3950856030 0.3086062074 0.1804991066
	0.3983576894 0.3115797043 0.1823901981
	0.4016107023 0.3145501018 0.1842828989
	0.4048540890 0.3175120950 0.1861757934
	0.4080660939 0.3204728961 0.1880692989
	0.4112665951 0.3234159946 0.1899631023
	0.4144412875 0.3263562918 0.1918607950
	0.4176087081 0.3292810023 0.1937602013
	0.4207499921 0.3322027028 0.1956637949
	0.4238848984 0.3351123035 0.1975702047
	0.4270057082 0.3380188048 0.1994725019
	0.4301230907 0.3409165144 0.2013705969
	0.4332121015 0.3438107073 0.2032697052
	0.4362936020 0.3467020988 0.2051707059
	0.4393599927 0.3495917916 0.2070730031
	0.4424214065 0.3524695039 0.2089823037
	0.4454444051 0.3553349078 0.2108915001
	0.4484499991 0.3581919074 0.2128047943
	0.4514287114 0.3610335886 0.2147184014
	0.4543898106 0.3638724089 0.2166287005
	0.4573354125 0.3666979969 0.2185377926
	0.4602653980 0.3695237041 0.2204501927
	0.4631789029 0.3723416924 0.2223664969
	0.4660640955 0.3751595914 0.2242840976
	0.4689424038 0.3779619932 0.2262071967
	0.4717960060 0.3807600141 0.2281304002
	0.4746480882 0.3835526109 0.2300624996
	0.4774642885 0.3863407075 0.2319957018
	0.4802804887 0.3891260922 0.2339314967
	0.4830631018 0.3919047117 0.2358691990
	0.4858393073 0.3946832120 0.2378090024
	0.4886021912 0.3974429071 0.2397564054
	0.4913567901 0.4002025127 0.2417037040
	0.4941014051 0.4029656053 0.2436508983
	0.4968290031 0.4057300985 0.2455980927
	0.4995543063 0.4084877074 0.2475478053
	0.5022572875 0.4112327099 0.2495003939
	0.5049604177 0.4139777124 0.2514531016
	0.5076419115 0.4167033136 0.2534070015
	0.5103181005 0.4194287956 0.2553609014
	0.5129829049 0.4221394062 0.2573103011
	0.5156350732 0.4248403907 0.2592563927
	0.5182831287 0.4275377989 0.2612015903
	0.5209032893 0.4302201867 0.2631373107
	0.5235236287 0.4329026937 0.2650730908
	0.5261074901 0.4355578125 0.2670041025
	0.5286799073 0.4382039905 0.2689318061
	0.5312321782 0.4408400953 0.2708589137
	0.5337486863 0.4434512854 0.2727747858
	0.5362653136 0.4460625947 0.2746906877
	0.5387454033 0.4486452043 0.2766082883
	0.5412231088 0.4512208104 0.2785277963
	0.5436828136 0.4537886977 0.2804473042
	0.5461235046 0.4563367963 0.2823554873
	0.5485640168 0.4588850141 0.2842623889
	0.5509892702 0.4614095986 0.2861675918
	0.5534147024 0.4639258087 0.2880688012
	0.5558288097 0.4664359093 0.2899698913
	0.5582318902 0.4689145088 0.2918665111
	0.5606350899 0.4713929892 0.2937605083
	0.5629963875 0.4738500118 0.2956545055
	0.5653566718 0.4762899876 0.2975474000
	0.5677015781 0.4787299931 0.2994402945
	0.5700250864 0.4811362922 0.3013291955
	0.5723484755 0.4835399985 0.3032068908
	0.5746430159 0.4859381914 0.3050845861
	0.5769314766 0.4883219898 0.3069567978
	0.5792130232 0.4907056987 0.3088240921
	0.5814688802 0.4930708110 0.3106913865
	0.5837246776 0.4954228103 0.3125565946
	0.5859628916 0.4977746904 0.3144212067
	0.5881881118 0.5000953078 0.3162856996
	0.5904132128 0.5024111271 0.3181492090
	0.5926191807 0.5047224760 0.3200125992
	0.5948230028 0.5070027113 0.3218753934
	0.5970178246 0.5092828870 0.3237349093
	0.5991765857 0.5115441084 0.3255943954
	0.6013354063 0.5137696862 0.3274545968
	0.6034780741 0.5159952044 0.3293164074
	0.6056026816 0.5182105899 0.3311783075
	0.6077274084 0.5204172730 0.3330385983
	0.6098302007 0.5226240754 0.3348967135
	0.6119242907 0.5248165131 0.3367548883
	0.6140184999 0.5270028710 0.3386108875
	0.6160811782 0.5291892886 0.3404648006
	0.6181414723 0.5313519239 0.3423185945
	0.6201986074 0.5335099101 0.3441708982
	0.6222298145 0.5356678963 0.3460218906
	0.6242610812 0.5378025174 0.3478729129
	0.6262831092 0.5399355888 0.3497231901
	0.6282786727 0.5420684218 0.3515729904
	0.6302741766 0.5441771150 0.3534227014
	0.6322615147 0.5462856889 0.3552713096
	0.6342349052 0.5483934283 0.3571187854
	0.6362084150 0.5504837036 0.3589664102
	0.6381633878 0.5525740981 0.3608083129
	0.6400970817 0.5546634793 0.3626450896
	0.6420307159 0.5567383170 0.3644818962
	0.6439446807 0.5588130951 0.3663117886
	0.6458404064 0.5608872771 0.3681330979
	0.6477361917 0.5629431009 0.3699544966
	0.6496070027 0.5649988055 0.3717769086
	0.6514570713 0.5670546293 0.3736014068
	0.6533071995 0.5690968037 0.3754259944
	0.6551311016 0.5711386800 0.3772482872
	0.6569324732 0.5731804967 0.3790614903
	0.6587339044 0.5751888156 0.3808746040
	0.6605200768 0.5771927238 0.3826875985
	0.6622908711 0.5791965723 0.3844920993
	0.6640617251 0.5811750889 0.3862965107
	0.6658166051 0.5831453800 0.3881008923
	0.6675499082 0.5851157904 0.3898971975
	0.6692832112 0.5870721936 0.3916915953
	0.6710019112 0.5890191197 0.3934859037
	0.6726891994 0.5909659863 0.3952794969
	0.6743766069 0.5928977728 0.3970726132
	0.6760562062 0.5948076248 0.3988656104
	0.6776999831 0.5967172980 0.4006549120
	0.6793438196 0.5986235142 0.4024339914
	0.6809874177 0.6005135775 0.4042131007
	0.6826078892 0.6024037004 0.4059922099
	0.6842284203 0.6042937040 0.4077546000
	0.6858488917 0.6061664820 0.4095160961
	0.6874536872 0.6080377102 0.4112777114
	0.6890544891 0.6099088788 0.4130330980
	0.6906551719 0.6117550135 0.4147844911
	0.6922481060 0.6135854721 0.4165357947
	0.6938346028 0.6154159904 0.4182860851
	0.6954210997 0.6172372103 0.4200322032
	0.6969972849 0.6190348268 0.4217784107
	0.6985461712 0.6208323240 0.4235245883
	0.7000951767 0.6226298809 0.4252654016
	0.7016441226 0.6243864298 0.4270048141
	0.7031658292 0.6261391044 0.4287441969
	0.7046864033 0.6278917193 0.4304836094
	0.7062069774 0.6296277046 0.4322234094
	0.7077113986 0.6313474774 0.4339630902
	0.7092053294 0.6330673099 0.4357028008
	0.7106992006 0.6347842813 0.4374335110
	0.7121831179 0.6364610791 0.4391623139
	0.7136318088 0.6381378770 0.4408909976
	0.7150804996 0.6398146749 0.4426156878
	0.7165293097 0.6414784789 0.4443300068
	0.7179604173 0.6431329846 0.4460442066
	0.7193871140 0.6447873712 0.4477584064
	0.7208138108 0.6464402080 0.4494678080
	0.7222303152 0.6480689049 0.4511752129
	0.7236266732 0.6496976018 0.4528824985
	0.7250230908 0.6513261795 0.4545893967
	0.7264196277 0.6529368162 0.4562911987
	0.7277973294 0.6545298100 0.4579930007
	0.7291715741 0.6561228037 0.4596947134
	0.7305458188 0.6577157974 0.4613985121
	0.7319157720 0.6592859030 0.4631048143
	0.7332760096 0.6608538032 0.4648110867
	0.7346363068 0.6624217033 0.4665173888
	0.7359964848 0.6639863253 0.4682199955
	0.7373399734 0.6655421257 0.4699214101
	0.7386773825 0.6670979857 0.4716227055
	0.7400146723 0.6686539054 0.4733240902
	0.7413491011 0.6702005863 0.4750083089
	0.7426620722 0.6717411876 0.4766924977
	0.7439751029 0.6732819080 0.4783768058
	0.7452880740 0.6748226285 0.4800589979
	0.7465865016 0.6763488054 0.4817341864
	0.7478682995 0.6778733134 0.4834094048
	0.7491500974 0.6793978214 0.4850845933
	0.7504318953 0.6809164882 0.4867551029
	0.7516843081 0.6823992729 0.4884186983
	0.7529281974 0.6838821173 0.4900822937
	0.7541720867 0.6853649020 0.4917457998
	0.7554147243 0.6868361831 0.4934011996
	0.7566283941 0.6882851720 0.4950498044
	0.7578421831 0.6897342205 0.4966984093
	0.7590559721 0.6911832094 0.4983471036
	0.7602614760 0.6926218867 0.4999813139
	0.7614449263 0.6940507293 0.5016077161
	0.7626283765 0.6954795122 0.5032340884
	0.7638118267 0.6969082952 0.5048604012
	0.7649738789 0.6983196139 0.5064805746
	0.7661107183 0.6997205019 0.5080981851
	0.7672476172 0.7011213899 0.5097157955
	0.7683845162 0.7025222778 0.5113334060
	0.7695062757 0.7039136291 0.5129374266
	0.7706182003 0.7053009868 0.5145360827
	0.7717301250 0.7066884041 0.5161347985
	0.7728418708 0.7080758810 0.5177333951
	0.7739313245 0.7094560266 0.5193111897
	0.7750114799 0.7108336091 0.5208796263
	0.7760915756 0.7122113109 0.5224481225
	0.7771716714 0.7135888934 0.5240164995
	0.7782340050 0.7149400711 0.5255811214
	0.7792907953 0.7162821293 0.5271432996
	0.7803477049 0.7176241279 0.5287054777
	0.7814046144 0.7189661264 0.5302677155
	0.7824332118 0.7202813029 0.5318275094
	0.7834541202 0.7215846181 0.5333846807
	0.7844750285 0.7228879929 0.5349419713
	0.7854959965 0.7241913080 0.5364993215
	0.7865008712 0.7254747152 0.5380507708
	0.7875007987 0.7267451286 0.5395910144
	0.7885007858 0.7280154228 0.5411313176
	0.7895007730 0.7292857170 0.5426715016
	0.7904886007 0.7305502295 0.5442109704
	0.7914711237 0.7318078876 0.5457459092
	0.7924535871 0.7330656052 0.5472807288
	0.7934361100 0.7343233228 0.5488154888
	0.7943943143 0.7355695963 0.5503503084
	0.7953352928 0.7367874980 0.5518705845
	0.7962762713 0.7380053997 0.5533890128
	0.7972173095 0.7392233014 0.5549073815
	0.7981507182 0.7404392958 0.5564258099
	0.7990738750 0.7416235209 0.5579320788
	0.7999970913 0.7428076863 0.5594297051
	0.8009203076 0.7439919710 0.5609273911
	0.8018379807 0.7451761961 0.5624250174
	0.8027368188 0.7463406920 0.5639188886
	0.8036355972 0.7474998236 0.5654007196
	0.8045343757 0.7486588955 0.5668826103
	0.8054332137 0.7498180866 0.5683643818
	0.8063105941 0.7509673834 0.5698462725
	0.8071876168 0.7521057129 0.5713130832
	0.8080645800 0.7532439232 0.5727772713
	0.8089416027 0.7543821931 0.5742415190
	0.8098158240 0.7555181980 0.5757057071
	0.8106887937 0.7566338778 0.5771644711
	0.8115618229 0.7577496767 0.5786156058
	0.8124346733 0.7588654757 0.5800666213
	0.8132982850 0.7599812150 0.5815176964
	0.8141440153 0.7610852718 0.5829687715
	0.8149898052 0.7621840835 0.5843982100
	0.8158354759 0.7632827759 0.5858259201
	0.8166813254 0.7643815875 0.5872535706
	0.8174951077 0.7654762268 0.5886812210
	0.8183075190 0.7665566802 0.5901004076
	0.8191198707 0.7676370740 0.5915061831
	0.8199322820 0.7687175870 0.5929120183
	0.8207353950 0.7697979808 0.5943177938
	0.8215301037 0.7708619833 0.5957236290
	0.8223248124 0.7719196081 0.5971149802
	0.8231195211 0.7729771137 0.5985029936
	0.8239132166 0.7740346193 0.5998910069
	0.8246840835 0.7750877142 0.6012789011
	0.8254551291 0.7761170268 0.6026648283
	0.8262259960 0.7771462798 0.6040399075
	0.8269969821 0.7781755924 0.6054151058
	0.8277590871 0.7792049050 0.6067903042
	0.8285127878 0.7802203894 0.6081655025
	0.8292664289 0.7812247872 0.6095303893
	0.8300201297 0.7822293043 0.6108843088
	0.8307737112 0.7832337022 0.6122382283
	0.8315144181 0.7842381001 0.6135920882
	0.8322539926 0.7852112055 0.6149461269
	0.8329936862 0.7861806750 0.6162794232
	0.8337333202 0.7871502042 0.6176058054
	0.8344634175 0.7881196737 0.6189321876
	0.8351711035 0.7890831828 0.6202585101
	0.8358789086 0.7900207043 0.6215848923
	0.8365865946 0.7909581065 0.6228948832
	0.8372943997 0.7918956280 0.6242042184
	0.8379939198 0.7928329706 0.6255134940
	0.8386886120 0.7937645912 0.6268228292
	0.8393831849 0.7946882248 0.6281303167
	0.8400778174 0.7956116796 0.6294245124
	0.8407723904 0.7965353131 0.6307187080
	0.8414523005 0.7974588871 0.6320130229
	0.8421304226 0.7983703017 0.6333072186
	0.8428084850 0.7992740870 0.6345958710
	0.8434864879 0.8001778126 0.6358658075
	0.8441630006 0.8010815978 0.6371356845
	0.8448262811 0.8019853830 0.6384056211
	0.8454895020 0.8028789163 0.6396754980
	0.8461527824 0.8037689924 0.6409432292
	0.8468161225 0.8046591878 0.6422051191
	0.8474723101 0.8055493236 0.6434670091
	0.8481097817 0.8064395189 0.6447290182
	0.8487473130 0.8073065877 0.6459909081
	0.8493847847 0.8081693053 0.6472480297
	0.8500223160 0.8090320826 0.6484932899
	0.8506528139 0.8098948002 0.6497384906
	0.8512719870 0.8107575178 0.6509838104
	0.8518912196 0.8115878105 0.6522290111
	0.8525105119 0.8124132156 0.6534695029
	0.8531296849 0.8132386804 0.6546944976
	0.8537434936 0.8140640855 0.6559193730
	0.8543506861 0.8148896098 0.6571443081
	0.8549579978 0.8157023191 0.6583693027
	0.8555651903 0.8165128231 0.6595931053
	0.8561723828 0.8173233271 0.6608086228
	0.8567661047 0.8181337714 0.6620242000
	0.8573439121 0.8189442754 0.6632397771
	0.8579216003 0.8197408915 0.6644554138
	0.8584992886 0.8205333948 0.6656709909
	0.8590769768 0.8213258982 0.6668658853
	0.8596463799 0.8221184015 0.6680600047
	0.8602035046 0.8229109049 0.6692541838
	0.8607606888 0.8236929774 0.6704483032
	0.8613178134 0.8244690895 0.6716424227
	0.8618749976 0.8252452016 0.6728152037
	0.8624271750 0.8260213137 0.6739807129
	0.8629680276 0.8267974854 0.6751462221
	0.8635088801 0.8275653720 0.6763116717
	0.8640497923 0.8283231854 0.6774771810
	0.8645905852 0.8290811181 0.6786333919
	0.8651301265 0.8298389912 0.6797791719
	0.8656617999 0.8305969238 0.6809248924
	0.8661935925 0.8313513994 0.6820706725
	0.8667253256 0.8320925832 0.6832165122
	0.8672569990 0.8328338265 0.6843608022
	0.8677886724 0.8335750103 0.6854962111
	0.8683093786 0.8343161941 0.6866315007
	0.8688293099 0.8350573778 0.6877667904
	0.8693491817 0.8357766271 0.6889020801
	0.8698691130 0.8364936113 0.6900374889
	0.8703891039 0.8372104764 0.6911699772
	0.8708937764 0.8379275203 0.6923016906
	0.8713908792 0.8386443853 0.6934332848
	0.8718879819 0.8393507004 0.6945648789
	0.8723850846 0.8400480151 0.6956964731
	0.8728821874 0.8407453895 0.6968225241
	0.8733705282 0.8414428234 0.6979349852
	0.8738415837 0.8421400785 0.6990476251
	0.8743125796 0.8428345919 0.7001600862
	0.8747836947 0.8435099125 0.7012727261
	0.8752548099 0.8441851735 0.7023853064
	0.8757258058 0.8448604941 0.7034785748
	0.8761900067 0.8455356956 0.7045670152
	0.8766540289 0.8462110162 0.7056552768
	0.8771178722 0.8468806148 0.7067435980
	0.8775817752 0.8475472927 0.7078319192
	0.8780456781 0.8482139111 0.7089164257
	0.8785020113 0.8488805294 0.7099874020
	0.8789511919 0.8495470881 0.7110584974
	0.8794003725 0.8502116799 0.7121295929
	0.8798494935 0.8508617282 0.7132006288
	0.8802986741 0.8515115976 0.7142717242
	0.8807477951 0.8521615267 0.7153381109
	0.8811936975 0.8528113961 0.7164012194
	0.8816397190 0.8534613252 0.7174643278
	0.8820856214 0.8541015983 0.7185273767
	0.8825315237 0.8547332287 0.7195906043
	0.8829774261 0.8553647995 0.7206537127
	0.8834267855 0.8559963703 0.7216954231
	0.8838804960 0.8566280007 0.7227349877
	0.8843340874 0.8572596908 0.7237744927
	0.8847877979 0.8578745127 0.7248139977
	0.8852415085 0.8584867120 0.7258535028
	0.8856950998 0.8590989709 0.7268896103
	0.8861432076 0.8597112894 0.7279071808
	0.8865901828 0.8603236079 0.7289246917
	0.8870372176 0.8609315753 0.7299422026
	0.8874841928 0.8615155816 0.7309597731
	0.8879311085 0.8620995879 0.7319772840
	0.8883765936 0.8626837134 0.7329847217
	0.8888130188 0.8632677197 0.7339726090
	0.8892495036 0.8638517857 0.7349603772
	0.8896859288 0.8644294739 0.7359483242
	0.8901224136 0.8649967909 0.7369360924
	0.8905587792 0.8655641079 0.7379239798
	0.8909912109 0.8661314249 0.7389044762
	0.8914173841 0.8666986227 0.7398765087
	0.8918436170 0.8672658801 0.7408484817
	0.8922697902 0.8678284287 0.7418205738
	0.8926960230 0.8683868051 0.7427926064
	0.8931223154 0.8689451218 0.7437645793
	0.8935400248 0.8695034981 0.7447342873
	0.8939518929 0.8700618148 0.7457019091
	0.8943638206 0.8706201911 0.7466694713
	0.8947756886 0.8711758852 0.7476369739
	0.8951874971 0.8717300892 0.7486045957
	0.8955994248 0.8722842932 0.7495722175
	0.8960080743 0.8728384972 0.7505385876
	0.8964155912 0.8733927011 0.7515040040
	0.8968231082 0.8739469051 0.7524694800
	0.8972306252 0.8744983077 0.7534348965
	0.8976380229 0.8750482798 0.7544003129
	0.8980454803 0.8755983114 0.7553657293
	0.8984466195 0.8761482835 0.7563228011
	0.8988459110 0.8766983151 0.7572699785
	0.8992452025 0.8772484064 0.7582172155
	0.8996444941 0.8777912259 0.7591643929
	0.9000439048 0.8783296943 0.7601115108
	0.9004431963 0.8788682222 0.7610586882
	0.9008390903 0.8794066906 0.7620021105
	0.9012339711 0.8799452186 0.7629373074
	0.9016289711 0.8804838061 0.7638723850
	0.9020239711 0.8810167909 0.7648075819
	0.9024189711 0.8815448284 0.7657427788
	0.9028139114 0.8820728064 0.7666779757
	0.9032065868 0.8826007843 0.7676120996
	0.9035984278 0.8831288218 0.7685371041
	0.9039902091 0.8836567998 0.7694622278
	0.9043819904 0.8841773272 0.7703871727
	0.9047737718 0.8846845031 0.7713122964
	0.9051656127 0.8851916790 0.7722373009
	0.9055474997 0.8856989145 0.7731624246
	0.9059227109 0.8862062097 0.7740741968
	0.9062979221 0.8867133856 0.7749837041
	0.9066730738 0.8872200251 0.7758932710
	0.9070482850 0.8877230883 0.7768027782
	0.9074234962 0.8882262111 0.7777122855
	0.9077919126 0.8887292147 0.7786217928
	0.9081501961 0.8892322779 0.7795184851
	0.9085084796 0.8897352815 0.7804030776
	0.9088668227 0.8902384043 0.7812876105
	0.9092251062 0.8907387853 0.7821720839
	0.9095833898 0.8912386894 0.7830566168
	0.9099410176 0.8917385936 0.7839412093
	0.9102939963 0.8922384977 0.7848230004
	0.9106469750 0.8927385211 0.7856823802
	0.9110000134 0.8932384253 0.7865417004
	0.9113529921 0.8937345147 0.7874010801
	0.9117060900 0.8942261934 0.7882605195
	0.9120591283 0.8947178721 0.7891197801
	0.9124001861 0.8952096105 0.7899792194
	0.9127386212 0.8957012892 0.7908260822
	0.9130769968 0.8961930871 0.7916657925
	0.9134153724 0.8966842890 0.7925053835
	0.9137538075 0.8971561790 0.7933450937
	0.9140921831 0.8976281881 0.7941846848
	0.9144207835 0.8981001973 0.7950243950
	0.9147356153 0.8985722065 0.7958624959
	0.9150503874 0.8990442157 0.7966837883
	0.9153652191 0.8995161057 0.7975050807
	0.9156799912 0.8999810219 0.7983263731
	0.9159948230 0.9004393816 0.7991477847
	0.9163095951 0.9008978009 0.7999690771
	0.9166138768 0.9013561010 0.8007904291
	0.9169176221 0.9018145204 0.8015990257
	0.9172213078 0.9022728205 0.8023931980
	0.9175249934 0.9027311802 0.8031873107
	0.9178286791 0.9031661749 0.8039814830
